(1001)
(T1  D=1.5 CR=0. - ZMIN=-5.95 - flat end mill)
G90
G0 G53 Z0.

(2D Adaptive (shape))
T1 M6 (flat end mill D=1.5 1.5 mm Fishtail Upcut Endmill - Acrylic Max Pass Depth 0.8 mm)
S18000 M3
G64
G54
G43 H1
G0 X-9.665 Y10.343
Z15.
Z5.
Z2.501
G3 X-10.343 Y9.597 Z2.462 I0.034 J-0.712 F800
X-9.597 Y8.92 Z2.423 I0.712 J0.034
X-8.919 Y9.666 Z2.384 I-0.034 J0.712
X-9.665 Y10.343 Z2.345 I-0.712 J-0.034
X-10.343 Y9.597 Z2.306 I0.034 J-0.712
X-9.597 Y8.92 Z2.267 I0.712 J0.034
X-8.919 Y9.666 Z2.227 I-0.034 J0.712
X-9.665 Y10.343 Z2.188 I-0.712 J-0.034
X-10.343 Y9.597 Z2.149 I0.034 J-0.712
X-9.597 Y8.92 Z2.11 I0.712 J0.034
X-8.919 Y9.666 Z2.071 I-0.034 J0.712
X-9.665 Y10.343 Z2.032 I-0.712 J-0.034
X-10.343 Y9.597 Z1.993 I0.034 J-0.712
X-9.597 Y8.92 Z1.954 I0.712 J0.034
X-8.919 Y9.666 Z1.915 I-0.034 J0.712
X-9.665 Y10.343 Z1.876 I-0.712 J-0.034
X-10.343 Y9.597 Z1.837 I0.034 J-0.712
X-9.597 Y8.92 Z1.798 I0.712 J0.034
X-8.919 Y9.666 Z1.758 I-0.034 J0.712
X-9.665 Y10.343 Z1.719 I-0.712 J-0.034
X-10.343 Y9.597 Z1.68 I0.034 J-0.712
X-9.597 Y8.92 Z1.641 I0.712 J0.034
X-8.919 Y9.666 Z1.602 I-0.034 J0.712
X-9.665 Y10.343 Z1.563 I-0.712 J-0.034
X-10.343 Y9.597 Z1.524 I0.034 J-0.712
X-9.597 Y8.92 Z1.485 I0.712 J0.034
X-8.919 Y9.666 Z1.446 I-0.034 J0.712
X-9.665 Y10.343 Z1.407 I-0.712 J-0.034
X-10.343 Y9.597 Z1.368 I0.034 J-0.712
X-9.597 Y8.92 Z1.329 I0.712 J0.034
X-8.919 Y9.666 Z1.289 I-0.034 J0.712
X-9.665 Y10.343 Z1.25 I-0.712 J-0.034
X-10.343 Y9.597 Z1.211 I0.034 J-0.712
X-9.597 Y8.92 Z1.172 I0.712 J0.034
X-8.919 Y9.666 Z1.133 I-0.034 J0.712
X-9.665 Y10.343 Z1.094 I-0.712 J-0.034
X-10.343 Y9.597 Z1.055 I0.034 J-0.712
X-9.597 Y8.92 Z1.016 I0.712 J0.034
X-8.919 Y9.666 Z0.977 I-0.034 J0.712
X-9.665 Y10.343 Z0.938 I-0.712 J-0.034
X-10.343 Y9.597 Z0.899 I0.034 J-0.712
X-9.597 Y8.92 Z0.86 I0.712 J0.034
X-8.919 Y9.666 Z0.82 I-0.034 J0.712
X-9.665 Y10.343 Z0.781 I-0.712 J-0.034
X-10.343 Y9.597 Z0.742 I0.034 J-0.712
X-9.597 Y8.92 Z0.703 I0.712 J0.034
X-8.919 Y9.666 Z0.664 I-0.034 J0.712
X-9.665 Y10.343 Z0.625 I-0.712 J-0.034
X-10.343 Y9.597 Z0.586 I0.034 J-0.712
X-9.597 Y8.92 Z0.547 I0.712 J0.034
X-8.919 Y9.666 Z0.508 I-0.034 J0.712
X-9.665 Y10.343 Z0.469 I-0.712 J-0.034
X-10.343 Y9.597 Z0.43 I0.034 J-0.712
X-9.597 Y8.92 Z0.391 I0.712 J0.034
X-8.919 Y9.666 Z0.351 I-0.034 J0.712
X-9.665 Y10.343 Z0.312 I-0.712 J-0.034
X-10.343 Y9.597 Z0.273 I0.034 J-0.712
X-9.597 Y8.92 Z0.234 I0.712 J0.034
X-8.919 Y9.666 Z0.195 I-0.034 J0.712
X-9.665 Y10.343 Z0.156 I-0.712 J-0.034
X-10.343 Y9.597 Z0.117 I0.034 J-0.712
X-9.597 Y8.92 Z0.078 I0.712 J0.034
X-8.919 Y9.666 Z0.039 I-0.034 J0.712
X-9.665 Y10.343 Z0. I-0.712 J-0.034
X-10.343 Y9.597 Z-0.039 I0.034 J-0.712
X-9.597 Y8.92 Z-0.078 I0.712 J0.034
X-8.919 Y9.666 Z-0.118 I-0.034 J0.712
X-9.665 Y10.343 Z-0.157 I-0.712 J-0.034
X-10.343 Y9.597 Z-0.196 I0.034 J-0.712
X-9.597 Y8.92 Z-0.235 I0.712 J0.034
X-8.919 Y9.666 Z-0.274 I-0.034 J0.712
X-9.665 Y10.343 Z-0.313 I-0.712 J-0.034
X-10.343 Y9.597 Z-0.352 I0.034 J-0.712
X-9.597 Y8.92 Z-0.391 I0.712 J0.034
X-8.919 Y9.666 Z-0.43 I-0.034 J0.712
X-9.665 Y10.343 Z-0.469 I-0.712 J-0.034
X-10.343 Y9.597 Z-0.508 I0.034 J-0.712
X-9.597 Y8.92 Z-0.547 I0.712 J0.034
X-8.919 Y9.666 Z-0.587 I-0.034 J0.712
X-9.665 Y10.343 Z-0.626 I-0.712 J-0.034
X-10.343 Y9.597 Z-0.665 I0.034 J-0.712
X-9.597 Y8.92 Z-0.704 I0.712 J0.034
X-8.919 Y9.666 Z-0.743 I-0.034 J0.712
X-9.665 Y10.343 Z-0.782 I-0.712 J-0.034
X-10.343 Y9.597 Z-0.821 I0.034 J-0.712
X-9.597 Y8.92 Z-0.86 I0.712 J0.034
X-8.919 Y9.666 Z-0.899 I-0.034 J0.712
X-9.665 Y10.343 Z-0.938 I-0.712 J-0.034
X-10.343 Y9.597 Z-0.977 I0.034 J-0.712
X-9.597 Y8.92 Z-1.016 I0.712 J0.034
X-8.919 Y9.666 Z-1.056 I-0.034 J0.712
X-9.665 Y10.343 Z-1.095 I-0.712 J-0.034
X-10.343 Y9.597 Z-1.134 I0.034 J-0.712
X-9.597 Y8.92 Z-1.173 I0.712 J0.034
X-8.919 Y9.666 Z-1.212 I-0.034 J0.712
X-9.665 Y10.343 Z-1.251 I-0.712 J-0.034
X-10.343 Y9.597 Z-1.29 I0.034 J-0.712
X-9.597 Y8.92 Z-1.329 I0.712 J0.034
X-8.919 Y9.666 Z-1.368 I-0.034 J0.712
X-9.665 Y10.343 Z-1.407 I-0.712 J-0.034
X-10.343 Y9.597 Z-1.446 I0.034 J-0.712
X-9.597 Y8.92 Z-1.485 I0.712 J0.034
X-8.919 Y9.666 Z-1.525 I-0.034 J0.712
X-9.665 Y10.343 Z-1.564 I-0.712 J-0.034
X-10.343 Y9.597 Z-1.603 I0.034 J-0.712
X-9.597 Y8.92 Z-1.642 I0.712 J0.034
X-8.919 Y9.666 Z-1.681 I-0.034 J0.712
X-9.665 Y10.343 Z-1.72 I-0.712 J-0.034
X-10.343 Y9.597 Z-1.759 I0.034 J-0.712
X-9.597 Y8.92 Z-1.798 I0.712 J0.034
X-8.919 Y9.666 Z-1.837 I-0.034 J0.712
X-9.665 Y10.343 Z-1.876 I-0.712 J-0.034
X-10.343 Y9.597 Z-1.915 I0.034 J-0.712
X-9.597 Y8.92 Z-1.954 I0.712 J0.034
X-8.919 Y9.666 Z-1.994 I-0.034 J0.712
X-9.665 Y10.343 Z-2.033 I-0.712 J-0.034
X-10.343 Y9.597 Z-2.072 I0.034 J-0.712
X-9.597 Y8.92 Z-2.111 I0.712 J0.034
X-8.919 Y9.666 Z-2.15 I-0.034 J0.712
X-9.665 Y10.343 Z-2.189 I-0.712 J-0.034
X-10.343 Y9.597 Z-2.228 I0.034 J-0.712
X-9.597 Y8.92 Z-2.267 I0.712 J0.034
X-8.919 Y9.666 Z-2.306 I-0.034 J0.712
X-9.665 Y10.343 Z-2.345 I-0.712 J-0.034
X-10.343 Y9.597 Z-2.384 I0.034 J-0.712
X-9.597 Y8.92 Z-2.423 I0.712 J0.034
X-8.919 Y9.666 Z-2.463 I-0.034 J0.712
X-9.665 Y10.343 Z-2.502 I-0.712 J-0.034
X-10.343 Y9.597 Z-2.541 I0.034 J-0.712
X-9.597 Y8.92 Z-2.58 I0.712 J0.034
X-8.919 Y9.666 Z-2.619 I-0.034 J0.712
X-9.665 Y10.343 Z-2.658 I-0.712 J-0.034
X-10.343 Y9.597 Z-2.697 I0.034 J-0.712
X-9.597 Y8.92 Z-2.736 I0.712 J0.034
X-8.919 Y9.666 Z-2.775 I-0.034 J0.712
X-9.665 Y10.343 Z-2.814 I-0.712 J-0.034
X-10.343 Y9.597 Z-2.853 I0.034 J-0.712
X-9.597 Y8.92 Z-2.892 I0.712 J0.034
X-8.919 Y9.666 Z-2.932 I-0.034 J0.712
X-9.665 Y10.343 Z-2.971 I-0.712 J-0.034
X-10.343 Y9.597 Z-3.01 I0.034 J-0.712
X-9.597 Y8.92 Z-3.049 I0.712 J0.034
X-8.919 Y9.666 Z-3.088 I-0.034 J0.712
X-9.665 Y10.343 Z-3.127 I-0.712 J-0.034
X-10.343 Y9.597 Z-3.166 I0.034 J-0.712
X-9.597 Y8.92 Z-3.205 I0.712 J0.034
X-8.919 Y9.666 Z-3.244 I-0.034 J0.712
X-9.665 Y10.343 Z-3.283 I-0.712 J-0.034
X-10.343 Y9.597 Z-3.322 I0.034 J-0.712
X-9.597 Y8.92 Z-3.361 I0.712 J0.034
X-8.919 Y9.666 Z-3.401 I-0.034 J0.712
X-9.665 Y10.343 Z-3.44 I-0.712 J-0.034
X-10.343 Y9.597 Z-3.479 I0.034 J-0.712
X-9.597 Y8.92 Z-3.518 I0.712 J0.034
X-8.919 Y9.666 Z-3.557 I-0.034 J0.712
X-9.665 Y10.343 Z-3.596 I-0.712 J-0.034
X-10.343 Y9.597 Z-3.635 I0.034 J-0.712
X-9.597 Y8.92 Z-3.674 I0.712 J0.034
X-8.919 Y9.666 Z-3.713 I-0.034 J0.712
X-9.665 Y10.343 Z-3.752 I-0.712 J-0.034
X-10.343 Y9.597 Z-3.791 I0.034 J-0.712
X-9.597 Y8.92 Z-3.83 I0.712 J0.034
X-8.919 Y9.666 Z-3.87 I-0.034 J0.712
X-9.665 Y10.343 Z-3.909 I-0.712 J-0.034
X-10.343 Y9.597 Z-3.948 I0.034 J-0.712
X-9.597 Y8.92 Z-3.987 I0.712 J0.034
X-8.919 Y9.666 Z-4.026 I-0.034 J0.712
X-9.665 Y10.343 Z-4.065 I-0.712 J-0.034
X-10.343 Y9.597 Z-4.104 I0.034 J-0.712
X-9.597 Y8.92 Z-4.143 I0.712 J0.034
X-8.919 Y9.666 Z-4.182 I-0.034 J0.712
X-9.665 Y10.343 Z-4.221 I-0.712 J-0.034
X-10.343 Y9.597 Z-4.26 I0.034 J-0.712
X-9.597 Y8.92 Z-4.299 I0.712 J0.034
X-8.919 Y9.666 Z-4.339 I-0.034 J0.712
X-9.665 Y10.343 Z-4.378 I-0.712 J-0.034
X-10.343 Y9.597 Z-4.417 I0.034 J-0.712
X-9.597 Y8.92 Z-4.456 I0.712 J0.034
X-8.919 Y9.666 Z-4.495 I-0.034 J0.712
X-9.665 Y10.343 Z-4.534 I-0.712 J-0.034
X-10.343 Y9.597 Z-4.573 I0.034 J-0.712
X-9.597 Y8.92 Z-4.612 I0.712 J0.034
X-8.919 Y9.632 Z-4.65 I-0.034 J0.712
X-9.631 Y10.344 I-0.713 J0.
X-10.344 Y9.632 I0. J-0.713
X-9.631 Y8.919 I0.713 J0.
X-8.919 Y9.632 I0. J0.713
G1 Y9.695
X-8.907 Y9.756
X-8.885 Y9.815
X-8.869 Y9.842
X-8.858 Y9.863
X-8.849 Y9.887
X-8.84 Y9.915
X-8.834 Y9.946
X-8.829 Y9.979
X-8.827 Y10.016
X-8.828 Y10.056
X-8.832 Y10.098
X-8.84 Y10.142
X-8.853 Y10.189
X-8.87 Y10.236
X-8.892 Y10.285
X-8.919 Y10.334
X-8.951 Y10.383
X-8.989 Y10.431
X-9.032 Y10.477
X-9.078 Y10.519
X-9.127 Y10.558
X-9.179 Y10.594
X-9.234 Y10.625
X-9.29 Y10.652
X-9.349 Y10.676
X-9.409 Y10.695
X-9.47 Y10.711
X-9.531 Y10.723
X-9.594 Y10.73
X-9.657 Y10.734
X-9.72
X-9.782 Y10.729
X-9.845 Y10.721
X-9.906 Y10.71
X-9.967 Y10.694
X-10.027 Y10.675
X-10.086 Y10.653
X-10.144 Y10.627
X-10.199 Y10.598
X-10.253 Y10.565
X-10.305 Y10.53
X-10.355 Y10.491
X-10.402 Y10.45
X-10.448 Y10.406
X-10.49 Y10.36
X-10.53 Y10.311
X-10.567 Y10.26
X-10.601 Y10.208
X-10.632 Y10.153
X-10.66 Y10.096
X-10.684 Y10.039
X-10.706 Y9.979
X-10.724 Y9.919
X-10.738 Y9.858
X-10.749 Y9.796
X-10.757 Y9.734
X-10.761 Y9.671
X-10.762 Y9.608
X-10.759 Y9.545
X-10.752 Y9.483
X-10.743 Y9.42
X-10.729 Y9.359
X-10.712 Y9.298
X-10.692 Y9.239
X-10.669 Y9.18
X-10.642 Y9.123
X-10.613 Y9.068
X-10.58 Y9.014
X-10.544 Y8.962
X-10.506 Y8.913
X-10.464 Y8.865
X-10.421 Y8.82
X-10.374 Y8.777
X-10.326 Y8.737
X-10.275 Y8.7
X-10.222 Y8.666
X-10.168 Y8.635
X-10.112 Y8.606
X-10.054 Y8.581
X-9.995 Y8.559
X-9.935 Y8.541
X-9.874 Y8.526
X-9.812 Y8.514
X-9.75 Y8.505
X-9.687 Y8.501
X-9.624 Y8.499
X-9.561 Y8.501
X-9.499 Y8.507
X-9.436 Y8.516
X-9.375 Y8.528
X-9.314 Y8.544
X-9.254 Y8.564
X-9.195 Y8.586
X-9.138 Y8.612
X-9.082 Y8.641
X-9.028 Y8.673
X-8.976 Y8.708
X-8.925 Y8.746
X-8.877 Y8.786
X-8.832 Y8.829
X-8.788 Y8.875
X-8.748 Y8.923
X-8.71 Y8.973
X-8.674 Y9.025
X-8.642 Y9.079
X-8.61 Y9.133
X-8.579 Y9.188
X-8.55 Y9.244
X-8.522 Y9.3
X-8.496 Y9.358
X-8.472 Y9.416
X-8.451 Y9.475
X-8.431 Y9.535
X-8.414 Y9.595
X-8.4 Y9.657
X-8.389 Y9.718
X-8.38 Y9.781
X-8.375 Y9.843
X-8.373 Y9.906
X-8.374 Y9.969
X-8.378 Y10.032
X-8.385 Y10.094
X-8.396 Y10.156
X-8.409 Y10.218
X-8.426 Y10.278
X-8.446 Y10.338
X-8.469 Y10.397
X-8.495 Y10.454
X-8.524 Y10.51
X-8.556 Y10.564
X-8.591 Y10.617
X-8.628 Y10.667
X-8.667 Y10.716
X-8.709 Y10.763
X-8.754 Y10.808
X-8.8 Y10.85
X-8.849 Y10.89
X-8.899 Y10.928
X-8.951 Y10.963
X-9.005 Y10.996
X-9.06 Y11.026
X-9.116 Y11.054
X-9.174 Y11.079
X-9.233 Y11.101
X-9.293 Y11.121
X-9.353 Y11.138
X-9.414 Y11.152
X-9.476 Y11.163
X-9.539 Y11.172
X-9.601 Y11.178
X-9.664 Y11.181
X-9.727
X-9.79 Y11.179
X-9.853 Y11.174
X-9.915 Y11.166
X-9.977 Y11.155
X-10.039 Y11.142
X-10.099 Y11.127
X-10.16 Y11.109
X-10.219 Y11.088
X-10.278 Y11.065
X-10.335 Y11.039
X-10.391 Y11.011
X-10.447 Y10.981
X-10.5 Y10.948
X-10.553 Y10.914
X-10.604 Y10.877
X-10.653 Y10.838
X-10.701 Y10.797
X-10.747 Y10.754
X-10.792 Y10.71
X-10.834 Y10.663
X-10.875 Y10.615
X-10.913 Y10.566
X-10.95 Y10.515
X-10.984 Y10.462
X-11.017 Y10.408
X-11.047 Y10.353
X-11.075 Y10.296
X-11.1 Y10.239
X-11.124 Y10.181
X-11.144 Y10.121
X-11.163 Y10.061
X-11.179 Y10.
X-11.193 Y9.939
X-11.204 Y9.877
X-11.213 Y9.815
X-11.219 Y9.752
X-11.223 Y9.689
X-11.224 Y9.626
X-11.223 Y9.564
X-11.219 Y9.501
X-11.213 Y9.438
X-11.204 Y9.376
X-11.193 Y9.314
X-11.18 Y9.253
X-11.164 Y9.192
X-11.145 Y9.132
X-11.124 Y9.072
X-11.101 Y9.014
X-11.076 Y8.956
X-11.048 Y8.9
X-11.018 Y8.844
X-10.986 Y8.79
X-10.952 Y8.737
X-10.916 Y8.686
X-10.878 Y8.636
X-10.837 Y8.588
X-10.795 Y8.541
X-10.752 Y8.496
X-10.706 Y8.452
X-10.659 Y8.411
X-10.61 Y8.371
X-10.559 Y8.334
X-10.508 Y8.298
X-10.454 Y8.265
X-10.4 Y8.233
X-10.344 Y8.204
X-10.287 Y8.177
X-10.23 Y8.152
X-10.171 Y8.13
X-10.111 Y8.11
X-10.051 Y8.092
X-9.99 Y8.076
X-9.928 Y8.063
X-9.866 Y8.053
X-9.804 Y8.045
X-9.741 Y8.039
X-9.678 Y8.036
X-9.616
X-9.553 Y8.037
X-9.49 Y8.042
X-9.427 Y8.049
X-9.365 Y8.058
X-9.303 Y8.069
X-9.242 Y8.084
X-9.181 Y8.1
X-9.121 Y8.119
X-9.062 Y8.14
X-9.004 Y8.164
X-8.946 Y8.19
X-8.89 Y8.218
X-8.835 Y8.248
X-8.781 Y8.28
X-8.729 Y8.315
X-8.677 Y8.352
X-8.628 Y8.39
X-8.579 Y8.43
X-8.533 Y8.472
X-8.487 Y8.516
X-8.443 Y8.561
X-8.401 Y8.607
X-8.359 Y8.655
X-8.32 Y8.703
X-8.281 Y8.753
X-8.245 Y8.805
X-8.21 Y8.857
X-8.176 Y8.91
X-8.144 Y8.964
X-8.114 Y9.019
X-8.085 Y9.075
X-8.059 Y9.132
X-8.034 Y9.19
X-8.011 Y9.249
X-7.99 Y9.308
X-7.971 Y9.368
X-7.954 Y9.428
X-7.938 Y9.489
X-7.925 Y9.551
X-7.914 Y9.613
X-7.906 Y9.675
X-7.899 Y9.738
X-7.895 Y9.8
X-7.893 Y9.863
Y9.926
X-7.895 Y9.989
X-7.899 Y10.052
X-7.906 Y10.114
X-7.915 Y10.177
X-7.926 Y10.238
X-7.94 Y10.3
X-7.956 Y10.361
X-7.973 Y10.421
X-7.994 Y10.481
X-8.016 Y10.54
X-8.04 Y10.598
X-8.067 Y10.655
X-8.095 Y10.711
X-8.125 Y10.766
X-8.158 Y10.82
X-8.192 Y10.872
X-8.229 Y10.924
X-8.267 Y10.974
X-8.306 Y11.022
X-8.348 Y11.07
X-8.391 Y11.115
X-8.426 Y11.149
X-8.467 Y11.184
X-8.514 Y11.213
X-8.564 Y11.233
X-8.617 Y11.246
X-8.671 Y11.25
X-10.418
X-10.481 Y11.247
X-10.543 Y11.242
X-10.605 Y11.231
X-10.666 Y11.217
X-10.726 Y11.198
X-10.785 Y11.175
X-10.843 Y11.15
X-10.898 Y11.121
X-10.953 Y11.089
X-11.005 Y11.054
X-11.056 Y11.017
X-11.105 Y10.978
X-11.13 Y10.956
X-11.172 Y10.913
X-11.205 Y10.864
X-11.23 Y10.81
X-11.245 Y10.752
X-11.25 Y10.693
G3 X-11.095 Y10.548 I0.15 J0.005
X-11.023 Y10.569 I-0.005 J0.15
G1 X-10.69 Y10.767
X-10.346 Y10.971
G3 X-10.294 Y11.177 I-0.077 J0.129
X-10.418 Y11.25 I-0.129 J-0.077
G1 X-11.027
X-11.038
X-11.043
X-11.066 Y11.249
X-11.125 Y11.232
X-11.176 Y11.2
X-11.216 Y11.154
X-11.241 Y11.099
X-11.25 Y11.039
G3 X-11.043 Y10.846 I0.2 J0.007
X-10.996 Y10.853 I-0.007 J0.2
X-10.855 Y11.102 I-0.054 J0.195
X-11.043 Y11.25 I-0.195 J-0.054
G1 X-11.092
X-11.115 Y11.249
X-11.137 Y11.245
X-11.157 Y11.237
X-11.177 Y11.227
X-11.182 Y11.224
X-11.192 Y11.216
X-11.203 Y11.206
X-11.214 Y11.194
X-11.224 Y11.182
X-11.227 Y11.177
X-11.237 Y11.157
X-11.245 Y11.137
X-11.249 Y11.115
X-11.25 Y11.092
Y8.799
X-11.247 Y8.736
X-11.239 Y8.674
X-11.226 Y8.612
X-11.209 Y8.552
X-11.189 Y8.492
X-11.164 Y8.434
X-11.136 Y8.378
X-11.106 Y8.323
X-11.072 Y8.27
X-11.036 Y8.218
X-10.997 Y8.169
X-10.957 Y8.121
X-10.914 Y8.075
X-10.869 Y8.031
X-10.823 Y7.988
X-10.774 Y7.948
X-10.725 Y7.909
X-10.673 Y7.873
X-10.621 Y7.838
X-10.567 Y7.805
X-10.512 Y7.774
X-10.457 Y7.746
X-10.4 Y7.719
X-10.342 Y7.694
X-10.283 Y7.671
X-10.224 Y7.65
X-10.164 Y7.631
X-10.103 Y7.614
X-10.042 Y7.6
X-9.981 Y7.587
X-9.919 Y7.576
X-9.856 Y7.567
X-9.794 Y7.56
X-9.731 Y7.555
X-9.668 Y7.552
X-9.605 Y7.551
X-9.543 Y7.552
X-9.48 Y7.555
X-9.417 Y7.56
X-9.355 Y7.567
X-9.292 Y7.576
X-9.23 Y7.586
X-9.169 Y7.599
X-9.151 Y7.603
X-9.095 Y7.622
X-9.043 Y7.649
X-8.996 Y7.685
X-8.956 Y7.728
X-8.924 Y7.777
X-8.9 Y7.831
X-8.892 Y7.855
X-8.874 Y7.9
X-8.855 Y7.945
X-8.844 Y7.971
X-8.836 Y7.99
X-8.813 Y8.035
X-8.799 Y8.062
X-8.79 Y8.08
X-8.765 Y8.125
X-8.754 Y8.143
X-8.738 Y8.17
X-8.709 Y8.215
X-8.679 Y8.26
X-8.664 Y8.28
X-8.645 Y8.305
X-8.619 Y8.339
X-8.611 Y8.35
X-8.574 Y8.393
X-8.573 Y8.395
X-8.532 Y8.439
X-8.529 Y8.443
X-8.49 Y8.484
X-8.484 Y8.49
X-8.443 Y8.529
X-8.439 Y8.532
X-8.395 Y8.573
X-8.393 Y8.574
X-8.35 Y8.611
X-8.339 Y8.619
X-8.305 Y8.645
X-8.28 Y8.664
X-8.26 Y8.679
X-8.215 Y8.709
X-8.17 Y8.738
X-8.143 Y8.754
X-8.125 Y8.765
X-8.08 Y8.79
X-8.062 Y8.799
X-8.035 Y8.813
X-7.99 Y8.836
X-7.975 Y8.843
X-7.927 Y8.873
X-7.876 Y8.91
X-7.828 Y8.951
X-7.783 Y8.995
X-7.741 Y9.042
X-7.702 Y9.091
X-7.666 Y9.143
X-7.633 Y9.196
X-7.603 Y9.251
X-7.575 Y9.308
X-7.55 Y9.365
X-7.527 Y9.424
X-7.507 Y9.483
X-7.489 Y9.544
X-7.473 Y9.605
X-7.46 Y9.666
X-7.45 Y9.728
X-7.441 Y9.791
X-7.435 Y9.853
X-7.431 Y9.916
X-7.429 Y9.979
Y10.042
X-7.431 Y10.104
X-7.436 Y10.167
X-7.442 Y10.23
X-7.45 Y10.292
X-7.46 Y10.354
X-7.473 Y10.416
X-7.487 Y10.477
X-7.503 Y10.538
X-7.52 Y10.598
X-7.54 Y10.658
X-7.561 Y10.717
X-7.584 Y10.776
X-7.609 Y10.834
X-7.636 Y10.891
X-7.664 Y10.947
X-7.694 Y11.002
X-7.725 Y11.057
X-7.743 Y11.085
X-7.778 Y11.132
X-7.821 Y11.173
X-7.87 Y11.206
X-7.924 Y11.23
X-7.981 Y11.245
X-8.04 Y11.25
X-8.619
X-8.663 Y11.242
X-8.703 Y11.221
X-8.735 Y11.189
X-8.756 Y11.15
X-8.764 Y11.106
X-8.759 Y11.061
X-8.626 Y10.563
X-8.328 Y9.45
X-8.191 Y8.936
X-8.174 Y8.897
X-8.148 Y8.865
X-8.113 Y8.841
X-8.073 Y8.827
X-8.031 Y8.826
X-7.99 Y8.836
X-7.971 Y8.844
X-7.945 Y8.855
X-7.9 Y8.874
X-7.855 Y8.892
X-7.81 Y8.907
X-7.765 Y8.922
X-7.725 Y8.934
X-7.72 Y8.935
X-7.675 Y8.947
X-7.63 Y8.957
X-7.601 Y8.965
X-7.561 Y8.98
X-7.518 Y8.999
X-7.471 Y9.025
X-7.423 Y9.057
X-7.374 Y9.096
X-7.327 Y9.139
X-7.284 Y9.185
X-7.244 Y9.233
X-7.208 Y9.284
X-7.174 Y9.337
X-7.143 Y9.392
X-7.114 Y9.448
X-7.089 Y9.506
X-7.066 Y9.564
X-7.046 Y9.624
X-7.028 Y9.684
X-7.013 Y9.745
X-6.999 Y9.807
X-6.989 Y9.869
X-6.98 Y9.931
X-6.974 Y9.994
X-6.969 Y10.056
X-6.967 Y10.119
Y10.182
X-6.969 Y10.245
X-6.972 Y10.308
X-6.978 Y10.37
X-6.985 Y10.433
X-6.994 Y10.495
X-7.005 Y10.557
X-7.018 Y10.619
X-7.032 Y10.68
X-7.048 Y10.741
X-7.066 Y10.801
X-7.085 Y10.861
X-7.107 Y10.92
X-7.13 Y10.978
X-7.156 Y11.036
X-7.167 Y11.058
X-7.196 Y11.105
X-7.232 Y11.147
X-7.274 Y11.183
X-7.321 Y11.212
X-7.371 Y11.233
X-7.425 Y11.246
X-7.48 Y11.25
X-7.99
X-8.032 Y11.243
X-8.069 Y11.224
X-8.101 Y11.195
X-8.123 Y11.159
X-8.134 Y11.118
X-8.133 Y11.076
X-8.047 Y10.552
X-7.894 Y9.62
X-7.805 Y9.08
X-7.79 Y9.035
X-7.762 Y8.997
X-7.723 Y8.97
X-7.678 Y8.956
X-7.63 Y8.957
X-7.585 Y8.967
X-7.54 Y8.976
X-7.516 Y8.979
X-7.495 Y8.982
X-7.45 Y8.988
X-7.405 Y8.993
X-7.36 Y8.996
X-7.315 Y8.998
X-7.266 Y9.002
X-7.228 Y9.008
X-7.188 Y9.019
X-7.144 Y9.034
X-7.097 Y9.054
X-7.047 Y9.08
X-6.995 Y9.114
X-6.945 Y9.152
X-6.897 Y9.193
X-6.853 Y9.238
X-6.812 Y9.286
X-6.774 Y9.335
X-6.738 Y9.387
X-6.705 Y9.441
X-6.675 Y9.496
X-6.647 Y9.553
X-6.622 Y9.61
X-6.6 Y9.669
X-6.579 Y9.729
X-6.562 Y9.789
X-6.546 Y9.85
X-6.532 Y9.911
X-6.521 Y9.973
X-6.512 Y10.035
X-6.505 Y10.098
X-6.5 Y10.161
X-6.496 Y10.223
X-6.495 Y10.286
Y10.349
X-6.497 Y10.412
X-6.501 Y10.475
X-6.507 Y10.537
X-6.515 Y10.6
X-6.524 Y10.662
X-6.535 Y10.724
X-6.548 Y10.785
X-6.564 Y10.846
X-6.581 Y10.907
X-6.602 Y10.966
X-6.625 Y11.025
X-6.633 Y11.044
X-6.661 Y11.094
X-6.697 Y11.139
X-6.739 Y11.178
X-6.787 Y11.209
X-6.84 Y11.231
X-6.895 Y11.245
X-6.952 Y11.25
X-7.45
X-7.497 Y11.241
X-7.539 Y11.217
X-7.571 Y11.182
X-7.59 Y11.138
X-7.595 Y11.09
X-7.559 Y10.546
X-7.502 Y9.696
X-7.465 Y9.138
X-7.456 Y9.094
X-7.433 Y9.055
X-7.401 Y9.024
X-7.36 Y9.005
X-7.315 Y8.998
X-7.271 Y8.999
X-7.226 Y9.
X-6.911
X-6.878 Y9.002
X-6.837 Y9.007
X-6.793 Y9.016
X-6.745 Y9.031
X-6.694 Y9.051
X-6.64 Y9.077
X-6.586 Y9.109
X-6.534 Y9.145
X-6.485 Y9.184
X-6.439 Y9.227
X-6.395 Y9.272
X-6.355 Y9.32
X-6.316 Y9.37
X-6.28 Y9.422
X-6.247 Y9.475
X-6.216 Y9.53
X-6.188 Y9.586
X-6.162 Y9.643
X-6.138 Y9.702
X-6.117 Y9.761
X-6.097 Y9.821
X-6.08 Y9.881
X-6.065 Y9.942
X-6.051 Y10.003
X-6.04 Y10.065
X-6.031 Y10.128
X-6.023 Y10.19
X-6.017 Y10.253
X-6.014 Y10.315
X-6.012 Y10.378
X-6.011 Y10.441
X-6.013 Y10.504
X-6.017 Y10.567
X-6.022 Y10.63
X-6.03 Y10.692
X-6.04 Y10.754
X-6.052 Y10.816
X-6.066 Y10.877
X-6.084 Y10.937
X-6.104 Y10.997
X-6.117 Y11.03
X-6.144 Y11.083
X-6.179 Y11.131
X-6.222 Y11.172
X-6.271 Y11.205
X-6.325 Y11.23
X-6.383 Y11.245
X-6.442 Y11.25
X-6.911
X-6.956 Y11.241
X-6.996 Y11.22
X-7.028 Y11.187
X-7.049 Y11.145
X-7.056 Y11.1
Y10.545
Y9.705
Y9.15
X-7.049 Y9.105
X-7.028 Y9.063
X-6.996 Y9.03
X-6.956 Y9.009
X-6.911 Y9.
X-6.481
X-6.444 Y9.002
X-6.401 Y9.008
X-6.354 Y9.018
X-6.304 Y9.033
X-6.25 Y9.054
X-6.193 Y9.081
X-6.139 Y9.113
X-6.087 Y9.149
X-6.038 Y9.188
X-5.991 Y9.23
X-5.947 Y9.274
X-5.905 Y9.321
X-5.865 Y9.371
X-5.828 Y9.421
X-5.794 Y9.474
X-5.761 Y9.528
X-5.731 Y9.583
X-5.703 Y9.639
X-5.678 Y9.697
X-5.654 Y9.755
X-5.633 Y9.814
X-5.613 Y9.874
X-5.596 Y9.934
X-5.58 Y9.995
X-5.566 Y10.057
X-5.555 Y10.119
X-5.545 Y10.181
X-5.537 Y10.243
X-5.53 Y10.306
X-5.526 Y10.368
X-5.524 Y10.431
Y10.494
X-5.525 Y10.557
X-5.529 Y10.62
X-5.534 Y10.683
X-5.542 Y10.745
X-5.553 Y10.807
X-5.566 Y10.868
X-5.582 Y10.929
X-5.601 Y10.989
X-5.614 Y11.024
X-5.64 Y11.078
X-5.676 Y11.127
X-5.719 Y11.17
X-5.768 Y11.204
X-5.823 Y11.229
X-5.882 Y11.245
X-5.942 Y11.25
X-6.416
X-6.46 Y11.242
X-6.5 Y11.221
X-6.532 Y11.189
X-6.553 Y11.149
X-6.561 Y11.105
X-6.58 Y10.545
X-6.608 Y9.705
X-6.626 Y9.155
X-6.62 Y9.108
X-6.6 Y9.066
X-6.568 Y9.032
X-6.527 Y9.009
X-6.481 Y9.
X-6.032
X-5.993 Y9.002
X-5.948 Y9.008
X-5.899 Y9.018
X-5.846 Y9.034
X-5.79 Y9.056
X-5.733 Y9.083
X-5.679 Y9.115
X-5.627 Y9.151
X-5.577 Y9.189
X-5.53 Y9.231
X-5.485 Y9.275
X-5.443 Y9.321
X-5.403 Y9.37
X-5.365 Y9.42
X-5.329 Y9.472
X-5.296 Y9.525
X-5.265 Y9.579
X-5.235 Y9.635
X-5.208 Y9.692
X-5.183 Y9.75
X-5.16 Y9.808
X-5.139 Y9.868
X-5.12 Y9.928
X-5.103 Y9.988
X-5.088 Y10.049
X-5.075 Y10.111
X-5.063 Y10.172
X-5.054 Y10.235
X-5.046 Y10.297
X-5.041 Y10.36
X-5.037 Y10.422
X-5.035 Y10.485
Y10.548
X-5.038 Y10.611
X-5.042 Y10.674
X-5.049 Y10.736
X-5.058 Y10.799
X-5.071 Y10.86
X-5.086 Y10.921
X-5.104 Y10.981
X-5.118 Y11.019
X-5.143 Y11.074
X-5.178 Y11.125
X-5.222 Y11.168
X-5.272 Y11.203
X-5.327 Y11.229
X-5.386 Y11.245
X-5.447 Y11.25
X-5.877
X-5.92 Y11.242
X-5.958 Y11.222
X-5.99 Y11.192
X-6.011 Y11.154
X-6.021 Y11.112
X-6.066 Y10.547
X-6.133 Y9.703
X-6.176 Y9.162
X-6.177 Y9.15
X-6.17 Y9.105
X-6.149 Y9.063
X-6.117 Y9.03
X-6.077 Y9.009
X-6.032 Y9.
X-5.562
X-5.529 Y9.002
X-5.483 Y9.008
X-5.433 Y9.018
X-5.379 Y9.035
X-5.321 Y9.057
X-5.264 Y9.085
X-5.21 Y9.116
X-5.157 Y9.151
X-5.108 Y9.19
X-5.06 Y9.231
X-5.015 Y9.275
X-4.972 Y9.32
X-4.931 Y9.368
X-4.893 Y9.418
X-4.856 Y9.47
X-4.822 Y9.522
X-4.79 Y9.576
X-4.76 Y9.632
X-4.732 Y9.688
X-4.706 Y9.746
X-4.683 Y9.804
X-4.661 Y9.863
X-4.641 Y9.922
X-4.623 Y9.983
X-4.606 Y10.043
X-4.592 Y10.105
X-4.58 Y10.166
X-4.569 Y10.228
X-4.561 Y10.291
X-4.554 Y10.353
X-4.55 Y10.416
X-4.547 Y10.479
Y10.542
X-4.548 Y10.605
X-4.552 Y10.667
X-4.558 Y10.73
X-4.567 Y10.792
X-4.578 Y10.854
X-4.593 Y10.915
X-4.611 Y10.976
X-4.625 Y11.016
X-4.65 Y11.072
X-4.685 Y11.123
X-4.728 Y11.167
X-4.779 Y11.202
X-4.834 Y11.229
X-4.894 Y11.245
X-4.955 Y11.25
X-5.382
X-5.425 Y11.242
X-5.463 Y11.223
X-5.495 Y11.193
X-5.516 Y11.156
X-5.526 Y11.114
X-5.579 Y10.547
X-5.656 Y9.703
X-5.706 Y9.164
X-5.703 Y9.115
X-5.684 Y9.07
X-5.652 Y9.034
X-5.61 Y9.01
X-5.562 Y9.
X-5.112
X-5.055 Y9.003
X-5.008 Y9.009
X-4.957 Y9.02
X-4.902 Y9.036
X-4.844 Y9.059
X-4.787 Y9.087
X-4.733 Y9.118
X-4.68 Y9.153
X-4.63 Y9.191
X-4.583 Y9.232
X-4.537 Y9.276
X-4.494 Y9.321
X-4.453 Y9.369
X-4.414 Y9.418
X-4.377 Y9.469
X-4.343 Y9.522
X-4.31 Y9.576
X-4.28 Y9.631
X-4.251 Y9.687
X-4.225 Y9.744
X-4.201 Y9.802
X-4.178 Y9.861
X-4.158 Y9.92
X-4.139 Y9.98
X-4.122 Y10.041
X-4.108 Y10.102
X-4.095 Y10.164
X-4.084 Y10.226
X-4.075 Y10.288
X-4.068 Y10.35
X-4.063 Y10.413
X-4.06 Y10.476
X-4.059 Y10.539
X-4.06 Y10.602
X-4.063 Y10.665
X-4.069 Y10.727
X-4.077 Y10.79
X-4.088 Y10.851
X-4.103 Y10.913
X-4.12 Y10.973
X-4.141 Y11.033
X-4.168 Y11.086
X-4.203 Y11.133
X-4.246 Y11.173
X-4.295 Y11.206
X-4.349 Y11.23
X-4.406 Y11.245
X-4.464 Y11.25
X-4.933
X-4.975 Y11.242
X-5.014 Y11.223
X-5.045 Y11.193
X-5.067 Y11.156
X-5.077 Y11.114
X-5.129 Y10.547
X-5.207 Y9.703
X-5.257 Y9.164
X-5.253 Y9.115
X-5.234 Y9.07
X-5.202 Y9.034
X-5.16 Y9.01
X-5.112 Y9.
X-4.618
X-4.577 Y9.002
X-4.53 Y9.008
X-4.478 Y9.019
X-4.423 Y9.036
X-4.364 Y9.059
X-4.307 Y9.086
X-4.253 Y9.118
X-4.2 Y9.152
X-4.15 Y9.19
X-4.102 Y9.231
X-4.057 Y9.274
X-4.013 Y9.32
X-3.972 Y9.367
X-3.933 Y9.416
X-3.896 Y9.467
X-3.861 Y9.52
X-3.828 Y9.573
X-3.797 Y9.628
X-3.769 Y9.684
X-3.742 Y9.741
X-3.717 Y9.799
X-3.694 Y9.858
X-3.673 Y9.917
X-3.655 Y9.977
X-3.637 Y10.037
X-3.622 Y10.098
X-3.609 Y10.16
X-3.598 Y10.222
X-3.588 Y10.284
X-3.581 Y10.347
X-3.575 Y10.409
X-3.572 Y10.472
X-3.571 Y10.535
Y10.598
X-3.574 Y10.661
X-3.58 Y10.723
X-3.588 Y10.786
X-3.599 Y10.848
X-3.613 Y10.909
X-3.63 Y10.97
X-3.65 Y11.029
X-3.651 Y11.031
X-3.678 Y11.084
X-3.713 Y11.132
X-3.756 Y11.173
X-3.805 Y11.206
X-3.859 Y11.23
X-3.916 Y11.245
X-3.975 Y11.25
X-4.438
X-4.48 Y11.242
X-4.519 Y11.223
X-4.55 Y11.193
X-4.572 Y11.156
X-4.582 Y11.114
X-4.634 Y10.547
X-4.712 Y9.703
X-4.762 Y9.164
X-4.759 Y9.115
X-4.74 Y9.07
X-4.708 Y9.034
X-4.666 Y9.01
X-4.618 Y9.
X-4.123
X-4.095 Y9.001
X-4.048 Y9.008
X-3.996 Y9.019
X-3.939 Y9.036
X-3.881 Y9.058
X-3.824 Y9.086
X-3.77 Y9.117
X-3.717 Y9.152
X-3.667 Y9.19
X-3.619 Y9.23
X-3.573 Y9.273
X-3.53 Y9.319
X-3.488 Y9.366
X-3.449 Y9.415
X-3.412 Y9.466
X-3.377 Y9.518
X-3.344 Y9.572
X-3.313 Y9.627
X-3.284 Y9.682
X-3.257 Y9.739
X-3.232 Y9.797
X-3.209 Y9.856
X-3.188 Y9.915
X-3.169 Y9.975
X-3.151 Y10.035
X-3.136 Y10.096
X-3.123 Y10.158
X-3.111 Y10.219
X-3.101 Y10.282
X-3.094 Y10.344
X-3.088 Y10.407
X-3.085 Y10.47
X-3.083 Y10.532
Y10.595
X-3.086 Y10.658
X-3.091 Y10.721
X-3.099 Y10.783
X-3.11 Y10.845
X-3.124 Y10.907
X-3.14 Y10.967
X-3.161 Y11.027
X-3.162 Y11.03
X-3.189 Y11.083
X-3.224 Y11.131
X-3.267 Y11.172
X-3.316 Y11.206
X-3.37 Y11.23
X-3.428 Y11.245
X-3.487 Y11.25
X-3.943
X-3.986 Y11.242
X-4.024 Y11.223
X-4.056 Y11.193
X-4.077 Y11.156
X-4.088 Y11.114
X-4.14 Y10.547
X-4.218 Y9.703
X-4.267 Y9.164
X-4.264 Y9.115
X-4.245 Y9.07
X-4.213 Y9.034
X-4.171 Y9.01
X-4.123 Y9.
X-3.674
X-3.611 Y9.003
X-3.564 Y9.009
X-3.512 Y9.02
X-3.456 Y9.037
X-3.397 Y9.059
X-3.34 Y9.086
X-3.286 Y9.117
X-3.233 Y9.152
X-3.183 Y9.19
X-3.135 Y9.23
X-3.089 Y9.273
X-3.045 Y9.318
X-3.003 Y9.366
X-2.964 Y9.415
X-2.927 Y9.465
X-2.892 Y9.517
X-2.858 Y9.571
X-2.827 Y9.626
X-2.798 Y9.681
X-2.771 Y9.738
X-2.746 Y9.796
X-2.723 Y9.854
X-2.702 Y9.914
X-2.682 Y9.973
X-2.665 Y10.034
X-2.649 Y10.095
X-2.636 Y10.156
X-2.624 Y10.218
X-2.614 Y10.28
X-2.607 Y10.343
X-2.601 Y10.405
X-2.597 Y10.468
X-2.595 Y10.531
X-2.596 Y10.594
X-2.598 Y10.657
X-2.603 Y10.719
X-2.611 Y10.782
X-2.622 Y10.844
X-2.635 Y10.905
X-2.652 Y10.966
X-2.672 Y11.025
X-2.674 Y11.03
X-2.701 Y11.083
X-2.736 Y11.131
X-2.779 Y11.172
X-2.828 Y11.205
X-2.882 Y11.23
X-2.94 Y11.245
X-2.999 Y11.25
X-3.449
X-3.491 Y11.243
X-3.529 Y11.224
X-3.56 Y11.195
X-3.582 Y11.158
X-3.593 Y11.117
X-3.658 Y10.549
X-3.756 Y9.701
X-3.817 Y9.167
X-3.818 Y9.15
X-3.811 Y9.105
X-3.791 Y9.063
X-3.759 Y9.03
X-3.719 Y9.009
X-3.674 Y9.
X-3.179
X-3.124 Y9.003
X-3.076 Y9.009
X-3.024 Y9.02
X-2.968 Y9.037
X-2.909 Y9.06
X-2.852 Y9.087
X-2.798 Y9.118
X-2.745 Y9.153
X-2.695 Y9.191
X-2.647 Y9.232
X-2.601 Y9.275
X-2.557 Y9.32
X-2.516 Y9.367
X-2.476 Y9.416
X-2.439 Y9.467
X-2.404 Y9.519
X-2.371 Y9.573
X-2.34 Y9.627
X-2.311 Y9.683
X-2.284 Y9.74
X-2.259 Y9.797
X-2.235 Y9.856
X-2.214 Y9.915
X-2.195 Y9.975
X-2.177 Y10.035
X-2.162 Y10.096
X-2.148 Y10.158
X-2.136 Y10.22
X-2.127 Y10.282
X-2.119 Y10.344
X-2.113 Y10.407
X-2.109 Y10.469
X-2.108 Y10.532
Y10.595
X-2.111 Y10.658
X-2.116 Y10.721
X-2.124 Y10.783
X-2.134 Y10.845
X-2.148 Y10.907
X-2.165 Y10.967
X-2.185 Y11.027
X-2.186 Y11.03
X-2.213 Y11.083
X-2.248 Y11.131
X-2.291 Y11.172
X-2.34 Y11.206
X-2.394 Y11.23
X-2.452 Y11.245
X-2.511 Y11.25
X-2.954
X-2.996 Y11.243
X-3.034 Y11.224
X-3.065 Y11.195
X-3.087 Y11.158
X-3.098 Y11.117
X-3.164 Y10.549
X-3.261 Y9.701
X-3.323 Y9.167
X-3.324 Y9.15
X-3.317 Y9.105
X-3.296 Y9.063
X-3.265 Y9.03
X-3.224 Y9.009
X-3.179 Y9.
X-2.774
X-2.729 Y8.999
X-2.705
X-2.66
X-2.614 Y9.004
X-2.563 Y9.012
X-2.508 Y9.027
X-2.449 Y9.047
X-2.392 Y9.073
X-2.336 Y9.102
X-2.283 Y9.135
X-2.231 Y9.172
X-2.182 Y9.211
X-2.135 Y9.253
X-2.091 Y9.297
X-2.048 Y9.344
X-2.008 Y9.392
X-1.97 Y9.442
X-1.933 Y9.493
X-1.899 Y9.546
X-1.867 Y9.6
X-1.837 Y9.656
X-1.809 Y9.712
X-1.783 Y9.769
X-1.759 Y9.827
X-1.737 Y9.886
X-1.716 Y9.946
X-1.698 Y10.006
X-1.682 Y10.066
X-1.667 Y10.128
X-1.654 Y10.189
X-1.644 Y10.251
X-1.635 Y10.313
X-1.628 Y10.376
X-1.623 Y10.439
X-1.621 Y10.502
X-1.62 Y10.564
X-1.621 Y10.627
X-1.625 Y10.69
X-1.632 Y10.753
X-1.641 Y10.815
X-1.653 Y10.877
X-1.668 Y10.938
X-1.687 Y10.998
X-1.695 Y11.021
X-1.721 Y11.076
X-1.756 Y11.126
X-1.799 Y11.169
X-1.849 Y11.203
X-1.904 Y11.229
X-1.963 Y11.245
X-2.024 Y11.25
X-2.46
X-2.501 Y11.243
X-2.539 Y11.224
X-2.57 Y11.195
X-2.592 Y11.159
X-2.603 Y11.118
X-2.673 Y10.549
X-2.777 Y9.705
X-2.843 Y9.166
X-2.841 Y9.118
X-2.824 Y9.073
X-2.793 Y9.035
X-2.752 Y9.01
X-2.705 Y8.999
X-2.685 Y8.998
X-2.64 Y8.996
X-2.595 Y8.993
X-2.55 Y8.988
X-2.505 Y8.982
X-2.484 Y8.979
X-2.46 Y8.976
X-2.415 Y8.967
X-2.37 Y8.957
X-2.345 Y8.952
X-2.314 Y8.946
X-2.275 Y8.943
X-2.231
X-2.183 Y8.946
X-2.13 Y8.954
X-2.073 Y8.968
X-2.013 Y8.987
X-1.955 Y9.011
X-1.898 Y9.039
X-1.844 Y9.071
X-1.792 Y9.106
X-1.741 Y9.143
X-1.693 Y9.184
X-1.647 Y9.227
X-1.603 Y9.272
X-1.561 Y9.319
X-1.521 Y9.367
X-1.484 Y9.417
X-1.448 Y9.469
X-1.414 Y9.522
X-1.382 Y9.576
X-1.352 Y9.632
X-1.324 Y9.688
X-1.298 Y9.745
X-1.274 Y9.803
X-1.251 Y9.862
X-1.231 Y9.922
X-1.212 Y9.982
X-1.196 Y10.042
X-1.181 Y10.103
X-1.168 Y10.165
X-1.156 Y10.227
X-1.147 Y10.289
X-1.14 Y10.352
X-1.135 Y10.414
X-1.131 Y10.477
X-1.13 Y10.54
X-1.131 Y10.603
X-1.134 Y10.666
X-1.14 Y10.728
X-1.148 Y10.791
X-1.159 Y10.853
X-1.173 Y10.914
X-1.191 Y10.974
X-1.204 Y11.014
X-1.23 Y11.071
X-1.264 Y11.122
X-1.308 Y11.166
X-1.358 Y11.202
X-1.414 Y11.228
X-1.474 Y11.245
X-1.535 Y11.25
X-1.965
X-2.005 Y11.243
X-2.042 Y11.226
X-2.073 Y11.199
X-2.095 Y11.165
X-2.108 Y11.126
X-2.207 Y10.553
X-2.359 Y9.676
X-2.455 Y9.123
X-2.456 Y9.078
X-2.444 Y9.035
X-2.42 Y8.998
X-2.386 Y8.969
X-2.345 Y8.952
X-2.325 Y8.947
X-2.28 Y8.935
X-2.275 Y8.934
X-2.235 Y8.922
X-2.19 Y8.907
X-2.145 Y8.892
X-2.1 Y8.874
X-2.055 Y8.855
X-2.019 Y8.842
X-1.984 Y8.832
X-1.945 Y8.824
X-1.901 Y8.819
X-1.852 Y8.818
X-1.799 Y8.82
X-1.741 Y8.828
X-1.679 Y8.841
X-1.619 Y8.858
X-1.56 Y8.88
X-1.502 Y8.906
X-1.447 Y8.936
X-1.393 Y8.968
X-1.341 Y9.004
X-1.291 Y9.042
X-1.243 Y9.082
X-1.196 Y9.125
X-1.152 Y9.169
X-1.11 Y9.216
X-1.069 Y9.264
X-1.03 Y9.313
X-0.993 Y9.364
X-0.959 Y9.417
X-0.925 Y9.47
X-0.894 Y9.525
X-0.865 Y9.58
X-0.837 Y9.637
X-0.811 Y9.694
X-0.787 Y9.752
X-0.764 Y9.811
X-0.744 Y9.87
X-0.725 Y9.93
X-0.708 Y9.991
X-0.692 Y10.052
X-0.679 Y10.113
X-0.667 Y10.175
X-0.657 Y10.237
X-0.649 Y10.299
X-0.643 Y10.362
X-0.639 Y10.425
X-0.636 Y10.488
Y10.55
X-0.638 Y10.613
X-0.642 Y10.676
X-0.648 Y10.739
X-0.657 Y10.801
X-0.669 Y10.863
X-0.684 Y10.924
X-0.702 Y10.984
X-0.714 Y11.018
X-0.74 Y11.074
X-0.775 Y11.124
X-0.818 Y11.168
X-0.868 Y11.203
X-0.924 Y11.229
X-0.983 Y11.245
X-1.044 Y11.25
X-1.471
X-1.518 Y11.241
X-1.56 Y11.217
X-1.592 Y11.181
X-1.611 Y11.136
X-1.754 Y10.562
X-1.997 Y9.589
X-2.137 Y9.027
X-2.141 Y8.986
X-2.134 Y8.946
X-2.117 Y8.909
X-2.09 Y8.878
X-2.055 Y8.855
X-2.029 Y8.844
X-2.01 Y8.836
X-1.965 Y8.813
X-1.938 Y8.799
X-1.92 Y8.79
X-1.875 Y8.765
X-1.857 Y8.754
X-1.83 Y8.738
X-1.785 Y8.709
X-1.757 Y8.692
X-1.726 Y8.678
X-1.69 Y8.664
X-1.65 Y8.652
X-1.604 Y8.642
X-1.553 Y8.636
X-1.498 Y8.634
X-1.437 Y8.636
X-1.375 Y8.643
X-1.313 Y8.655
X-1.252 Y8.671
X-1.193 Y8.691
X-1.135 Y8.715
X-1.078 Y8.742
X-1.023 Y8.772
X-0.969 Y8.805
X-0.917 Y8.84
X-0.866 Y8.878
X-0.818 Y8.918
X-0.771 Y8.96
X-0.725 Y9.003
X-0.682 Y9.049
X-0.64 Y9.096
X-0.6 Y9.144
X-0.561 Y9.194
X-0.525 Y9.245
X-0.49 Y9.297
X-0.456 Y9.351
X-0.424 Y9.405
X-0.394 Y9.46
X-0.366 Y9.516
X-0.339 Y9.573
X-0.314 Y9.631
X-0.29 Y9.689
X-0.268 Y9.748
X-0.248 Y9.808
X-0.229 Y9.868
X-0.212 Y9.928
X-0.197 Y9.989
X-0.183 Y10.05
X-0.171 Y10.112
X-0.161 Y10.174
X-0.152 Y10.237
X-0.145 Y10.299
X-0.14 Y10.362
X-0.137 Y10.425
X-0.135 Y10.487
X-0.136 Y10.55
X-0.138 Y10.613
X-0.143 Y10.676
X-0.15 Y10.738
X-0.16 Y10.801
X-0.172 Y10.862
X-0.188 Y10.923
X-0.206 Y10.983
X-0.219 Y11.02
X-0.245 Y11.075
X-0.28 Y11.125
X-0.323 Y11.168
X-0.373 Y11.203
X-0.429 Y11.229
X-0.487 Y11.245
X-0.548 Y11.25
X-1.021
X-1.067 Y11.241
X-1.107 Y11.219
X-1.139 Y11.185
X-1.159 Y11.143
X-1.332 Y10.57
X-1.67 Y9.448
X-1.843 Y8.875
X-1.849 Y8.829
X-1.841 Y8.783
X-1.819 Y8.742
X-1.785 Y8.709
X-1.74 Y8.679
X-1.72 Y8.664
X-1.695 Y8.645
X-1.661 Y8.619
X-1.65 Y8.611
X-1.607 Y8.574
X-1.605 Y8.573
X-1.561 Y8.532
X-1.528 Y8.505
X-1.5 Y8.486
X-1.468 Y8.467
X-1.431 Y8.449
X-1.389 Y8.433
X-1.342 Y8.419
X-1.289 Y8.408
X-1.231 Y8.4
X-1.168 Y8.397
X-1.105 Y8.399
X-1.042 Y8.405
X-0.98 Y8.416
X-0.919 Y8.43
X-0.859 Y8.448
X-0.8 Y8.47
X-0.742 Y8.494
X-0.685 Y8.521
X-0.63 Y8.551
X-0.576 Y8.583
X-0.523 Y8.618
X-0.472 Y8.654
X-0.422 Y8.693
X-0.374 Y8.733
X-0.327 Y8.776
X-0.282 Y8.819
X-0.239 Y8.865
X-0.197 Y8.911
X-0.156 Y8.959
X-0.117 Y9.009
X-0.079 Y9.059
X-0.043 Y9.111
X-0.009 Y9.163
X0.024 Y9.217
X0.056 Y9.271
X0.086 Y9.326
X0.115 Y9.382
X0.142 Y9.439
X0.167 Y9.497
X0.192 Y9.555
X0.214 Y9.613
X0.236 Y9.673
X0.255 Y9.732
X0.274 Y9.792
X0.29 Y9.853
X0.306 Y9.914
X0.319 Y9.975
X0.332 Y10.037
X0.342 Y10.099
X0.351 Y10.161
X0.359 Y10.224
X0.365 Y10.286
X0.369 Y10.349
X0.371 Y10.412
X0.372 Y10.475
X0.371 Y10.538
X0.368 Y10.601
X0.362 Y10.663
X0.355 Y10.726
X0.345 Y10.788
X0.333 Y10.85
X0.318 Y10.911
X0.299 Y10.971
X0.278 Y11.03
X0.276 Y11.036
X0.248 Y11.088
X0.213 Y11.135
X0.17 Y11.175
X0.122 Y11.207
X0.068 Y11.231
X0.011 Y11.245
X-0.047 Y11.25
X-0.526
X-0.57 Y11.242
X-0.609 Y11.222
X-0.64 Y11.192
X-0.661 Y11.153
X-0.878 Y10.584
X-1.378 Y9.265
X-1.596 Y8.693
X-1.605 Y8.65
X-1.602 Y8.607
X-1.587 Y8.567
X-1.561 Y8.532
X-1.557 Y8.529
X-1.516 Y8.49
X-1.51 Y8.484
X-1.471 Y8.443
X-1.468 Y8.439
X-1.427 Y8.395
X-1.426 Y8.393
X-1.389 Y8.35
X-1.381 Y8.339
X-1.355 Y8.305
X-1.344 Y8.292
X-1.322 Y8.27
X-1.295 Y8.246
X-1.263 Y8.222
X-1.226 Y8.2
X-1.184 Y8.178
X-1.136 Y8.158
X-1.082 Y8.141
X-1.022 Y8.126
X-0.96 Y8.117
X-0.897 Y8.112
X-0.835
X-0.772 Y8.115
X-0.709 Y8.122
X-0.647 Y8.133
X-0.586 Y8.148
X-0.526 Y8.165
X-0.466 Y8.185
X-0.408 Y8.208
X-0.35 Y8.234
X-0.294 Y8.262
X-0.239 Y8.292
X-0.185 Y8.324
X-0.132 Y8.359
X-0.08 Y8.395
X-0.03 Y8.433
X0.019 Y8.472
X0.066 Y8.513
X0.113 Y8.556
X0.157 Y8.6
X0.201 Y8.646
X0.243 Y8.692
X0.284 Y8.74
X0.324 Y8.789
X0.362 Y8.839
X0.399 Y8.89
X0.435 Y8.941
X0.469 Y8.994
X0.502 Y9.048
X0.533 Y9.102
X0.564 Y9.157
X0.593 Y9.213
X0.62 Y9.27
X0.647 Y9.327
X0.672 Y9.384
X0.695 Y9.443
X0.718 Y9.502
X0.739 Y9.561
X0.758 Y9.621
X0.777 Y9.681
X0.794 Y9.741
X0.809 Y9.802
X0.824 Y9.864
X0.836 Y9.925
X0.848 Y9.987
X0.858 Y10.049
X0.866 Y10.111
X0.874 Y10.174
X0.879 Y10.236
X0.883 Y10.299
X0.886 Y10.362
Y10.425
X0.885 Y10.488
X0.883 Y10.551
X0.878 Y10.613
X0.872 Y10.676
X0.863 Y10.738
X0.852 Y10.8
X0.838 Y10.862
X0.822 Y10.922
X0.803 Y10.982
X0.781 Y11.041
X0.78
X0.753 Y11.092
X0.717 Y11.137
X0.675 Y11.176
X0.627 Y11.208
X0.574 Y11.231
X0.518 Y11.245
X0.46 Y11.25
X0.013
X-0.028 Y11.243
X-0.065 Y11.225
X-0.096 Y11.198
X-0.118 Y11.163
X-0.378 Y10.6
X-1.104 Y9.025
X-1.368 Y8.453
X-1.379 Y8.416
X-1.381 Y8.377
X-1.373 Y8.339
X-1.355 Y8.305
X-1.336 Y8.28
X-1.321 Y8.26
X-1.291 Y8.215
X-1.262 Y8.17
X-1.246 Y8.143
X-1.235 Y8.125
X-1.21 Y8.08
X-1.192 Y8.05
X-1.174 Y8.023
X-1.152 Y7.996
X-1.124 Y7.968
X-1.092 Y7.94
X-1.054 Y7.912
X-1.011 Y7.885
X-0.962 Y7.86
X-0.906 Y7.836
X-0.846 Y7.817
X-0.785 Y7.802
X-0.723 Y7.791
X-0.661 Y7.785
X-0.598 Y7.782
X-0.535 Y7.783
X-0.472 Y7.788
X-0.41 Y7.795
X-0.348 Y7.806
X-0.286 Y7.82
X-0.226 Y7.836
X-0.166 Y7.855
X-0.106 Y7.877
X-0.048 Y7.9
X0.009 Y7.926
X0.066 Y7.954
X0.121 Y7.984
X0.175 Y8.016
X0.228 Y8.049
X0.281 Y8.084
X0.332 Y8.121
X0.382 Y8.159
X0.43 Y8.199
X0.478 Y8.24
X0.524 Y8.283
X0.57 Y8.326
X0.614 Y8.371
X0.657 Y8.417
X0.699 Y8.464
X0.739 Y8.512
X0.779 Y8.561
X0.817 Y8.611
X0.854 Y8.662
X0.89 Y8.713
X0.925 Y8.766
X0.959 Y8.819
X0.991 Y8.873
X1.022 Y8.927
X1.052 Y8.982
X1.081 Y9.038
X1.109 Y9.095
X1.135 Y9.152
X1.161 Y9.209
X1.185 Y9.267
X1.208 Y9.326
X1.23 Y9.385
X1.231 Y9.388
X1.241 Y9.425
X1.248 Y9.464
X1.25 Y9.503
Y10.777
Y10.802
Y10.813
X1.248 Y10.861
X1.239 Y10.923
X1.227 Y10.985
X1.225 Y10.992
X1.206 Y11.046
X1.178 Y11.096
X1.142 Y11.14
X1.1 Y11.178
X1.052 Y11.209
X0.999 Y11.232
X0.944 Y11.245
X0.887 Y11.25
G3 X0.743 Y11.095 I0.005 J-0.15
X0.772 Y11.011 I0.15 J0.005
G1 X0.979 Y10.73
G3 X1.189 Y10.698 I0.121 J0.089
X1.25 Y10.813 I-0.089 J0.121
G1 Y11.092
X1.249 Y11.115
X1.245 Y11.137
X1.237 Y11.157
X1.227 Y11.177
X1.224 Y11.182
X1.214 Y11.194
X1.203 Y11.206
X1.192 Y11.216
X1.182 Y11.224
X1.177 Y11.227
X1.157 Y11.237
X1.137 Y11.245
X1.115 Y11.249
X1.092 Y11.25
X0.508
X0.469 Y11.244
X0.434 Y11.227
X0.404 Y11.203
X0.381 Y11.171
X0.083 Y10.617
X-0.902 Y8.783
X-1.207 Y8.216
X-1.22 Y8.181
X-1.225 Y8.145
X-1.221 Y8.111
X-1.21 Y8.08
X-1.201 Y8.062
X-1.187 Y8.035
X-1.164 Y7.99
X-1.156 Y7.971
X-1.145 Y7.945
X-1.126 Y7.9
X-1.108 Y7.855
X-1.093 Y7.81
X-1.086 Y7.792
X-1.073 Y7.764
X-1.056 Y7.734
X-1.034 Y7.702
X-1.008 Y7.669
X-0.977 Y7.637
X-0.94 Y7.603
X-0.897 Y7.57
X-0.847 Y7.538
X-0.791 Y7.508
X-0.734 Y7.483
X-0.674 Y7.462
X-0.614 Y7.445
X-0.552 Y7.432
X-0.49 Y7.422
X-0.428 Y7.416
X-0.365 Y7.413
X-0.302 Y7.414
X-0.239 Y7.417
X-0.176 Y7.424
X-0.114 Y7.432
X-0.052 Y7.444
X0.009 Y7.458
X0.07 Y7.474
X0.13 Y7.493
X0.189 Y7.513
X0.248 Y7.536
X0.306 Y7.561
X0.363 Y7.587
X0.419 Y7.615
X0.474 Y7.645
X0.529 Y7.677
X0.582 Y7.71
X0.635 Y7.745
X0.686 Y7.78
X0.737 Y7.818
X0.787 Y7.856
X0.835 Y7.896
X0.883 Y7.937
X0.93 Y7.98
X0.975 Y8.023
X1.02 Y8.067
X1.064 Y8.112
X1.106 Y8.159
X1.148 Y8.206
X1.168 Y8.23
X1.203 Y8.28
X1.229 Y8.335
X1.245 Y8.394
X1.25 Y8.455
Y9.474
G3 X1.095 Y9.618 I-0.15 J-0.005
X1.007 Y9.586 I0.005 J-0.15
G1 X0.65 Y9.304
X-0.563 Y8.346
X-1.041 Y7.968
X-1.071 Y7.936
X-1.091 Y7.897
X-1.098 Y7.854
X-1.093 Y7.81
X-1.078 Y7.765
X-1.066 Y7.725
X-1.065 Y7.72
X-1.053 Y7.675
X-1.043 Y7.63
X-1.033 Y7.585
X-1.024 Y7.54
X-1.02 Y7.518
X-1.012 Y7.488
X-1. Y7.456
X-0.984 Y7.422
X-0.963 Y7.385
X-0.938 Y7.347
X-0.907 Y7.309
X-0.871 Y7.27
X-0.827 Y7.23
X-0.777 Y7.192
X-0.724 Y7.158
X-0.669 Y7.127
X-0.612 Y7.101
X-0.554 Y7.078
X-0.494 Y7.059
X-0.433 Y7.043
X-0.371 Y7.03
X-0.309 Y7.021
X-0.247 Y7.014
X-0.184 Y7.01
X-0.121 Y7.009
X-0.058 Y7.011
X0.005 Y7.015
X0.067 Y7.022
X0.129 Y7.031
X0.191 Y7.042
X0.253 Y7.055
X0.314 Y7.07
X0.374 Y7.088
X0.434 Y7.107
X0.494 Y7.128
X0.552 Y7.15
X0.61 Y7.175
X0.667 Y7.201
X0.724 Y7.228
X0.78 Y7.257
X0.835 Y7.288
X0.889 Y7.32
X0.942 Y7.353
X0.995 Y7.387
X1.047 Y7.423
X1.098 Y7.46
X1.112 Y7.471
X1.152 Y7.507
X1.186 Y7.548
X1.214 Y7.594
X1.234 Y7.644
X1.246 Y7.696
X1.25 Y7.749
Y8.395
X1.241 Y8.442
X1.217 Y8.484
X1.181 Y8.516
X1.137 Y8.535
X1.089 Y8.539
X1.042 Y8.527
X0.586 Y8.335
X-0.387 Y7.925
X-0.934 Y7.695
X-0.971 Y7.672
X-1. Y7.639
X-1.019 Y7.6
X-1.025 Y7.557
Y7.556
X-1.024 Y7.54
X-1.021 Y7.516
X-1.018 Y7.495
X-1.012 Y7.45
X-1.007 Y7.405
X-1.004 Y7.36
X-1.002 Y7.315
X-1.001 Y7.271
X-1. Y7.246
X-0.999 Y7.226
X-0.994 Y7.194
X-0.987 Y7.159
X-0.975 Y7.122
X-0.959 Y7.083
X-0.938 Y7.041
X-0.912 Y6.997
X-0.879 Y6.952
X-0.84 Y6.906
X-0.796 Y6.862
X-0.748 Y6.821
X-0.698 Y6.783
X-0.645 Y6.749
X-0.59 Y6.719
X-0.533 Y6.691
X-0.475 Y6.667
X-0.416 Y6.646
X-0.356 Y6.628
X-0.295 Y6.612
X-0.233 Y6.6
X-0.171 Y6.59
X-0.109 Y6.582
X-0.046 Y6.578
X0.017 Y6.575
X0.08
X0.143 Y6.577
X0.206 Y6.581
X0.268 Y6.588
X0.331 Y6.596
X0.393 Y6.606
X0.454 Y6.619
X0.516 Y6.632
X0.577 Y6.648
X0.637 Y6.666
X0.697 Y6.685
X0.756 Y6.705
X0.815 Y6.727
X0.874 Y6.751
X0.931 Y6.776
X0.988 Y6.803
X1.044 Y6.832
X1.072 Y6.848
X1.123 Y6.882
X1.167 Y6.926
X1.202 Y6.976
X1.228 Y7.032
X1.245 Y7.091
X1.25 Y7.152
Y7.72
X1.242 Y7.764
X1.222 Y7.803
X1.191 Y7.834
X1.152 Y7.856
X1.109 Y7.865
X1.065 Y7.861
X0.56 Y7.738
X-0.313 Y7.527
X-0.886 Y7.388
X-0.922 Y7.374
X-0.954 Y7.351
X-0.978 Y7.32
X-0.994 Y7.284
X-1. Y7.246
Y7.226
Y6.911
X-0.998 Y6.867
X-0.993 Y6.831
X-0.985 Y6.791
X-0.972 Y6.748
X-0.954 Y6.703
X-0.931 Y6.656
X-0.902 Y6.606
X-0.866 Y6.555
X-0.826 Y6.506
X-0.782 Y6.461
X-0.735 Y6.419
X-0.686 Y6.38
X-0.635 Y6.344
X-0.581 Y6.31
X-0.526 Y6.28
X-0.469 Y6.253
X-0.412 Y6.228
X-0.353 Y6.206
X-0.293 Y6.187
X-0.232 Y6.17
X-0.171 Y6.156
X-0.109 Y6.144
X-0.047 Y6.134
X0.015 Y6.126
X0.078 Y6.121
X0.141 Y6.118
X0.204 Y6.116
X0.267 Y6.117
X0.329 Y6.12
X0.392 Y6.124
X0.455 Y6.131
X0.517 Y6.139
X0.579 Y6.149
X0.641 Y6.16
X0.703 Y6.173
X0.764 Y6.188
X0.824 Y6.205
X0.884 Y6.224
X0.944 Y6.245
X1.002 Y6.268
X1.059 Y6.294
X1.06
X1.106 Y6.323
X1.148 Y6.359
X1.184 Y6.4
X1.212 Y6.447
X1.233 Y6.498
X1.246 Y6.551
X1.25 Y6.606
Y7.091
X1.24 Y7.138
X1.216 Y7.18
X1.18 Y7.213
X1.135 Y7.231
X1.086 Y7.235
X0.547 Y7.185
X-0.297 Y7.107
X-0.864 Y7.055
X-0.906 Y7.045
X-0.943 Y7.023
X-0.973 Y6.992
X-0.992 Y6.953
X-1. Y6.911
Y6.506
X-0.998 Y6.468
X-0.993 Y6.429
X-0.984 Y6.386
X-0.97 Y6.34
X-0.951 Y6.29
X-0.925 Y6.238
X-0.893 Y6.184
X-0.857 Y6.132
X-0.817 Y6.084
X-0.774 Y6.038
X-0.729 Y5.995
X-0.68 Y5.954
X-0.63 Y5.917
X-0.577 Y5.882
X-0.523 Y5.85
X-0.468 Y5.82
X-0.411 Y5.793
X-0.353 Y5.768
X-0.294 Y5.746
X-0.235 Y5.726
X-0.174 Y5.708
X-0.114 Y5.693
X-0.052 Y5.679
X0.01 Y5.668
X0.072 Y5.659
X0.135 Y5.651
X0.197 Y5.646
X0.26 Y5.642
X0.323 Y5.641
X0.386
X0.449 Y5.643
X0.511 Y5.646
X0.574 Y5.652
X0.637 Y5.659
X0.699 Y5.669
X0.761 Y5.68
X0.822 Y5.693
X0.883 Y5.709
X0.943 Y5.728
X1.002 Y5.749
X1.035 Y5.763
X1.087 Y5.79
X1.134 Y5.825
X1.174 Y5.868
X1.207 Y5.917
X1.23 Y5.971
X1.245 Y6.027
X1.25 Y6.086
Y6.551
X1.241 Y6.597
X1.219 Y6.638
X1.185 Y6.67
X1.143 Y6.69
X1.097 Y6.696
X0.545 Y6.683
X-0.295 Y6.664
X-0.854 Y6.651
X-0.898 Y6.643
X-0.938 Y6.622
X-0.97 Y6.591
X-0.992 Y6.551
X-1. Y6.506
Y6.102
X-0.997 Y6.044
X-0.992 Y6.002
X-0.982 Y5.957
X-0.967 Y5.908
X-0.947 Y5.856
X-0.92 Y5.8
X-0.888 Y5.746
X-0.852 Y5.694
X-0.813 Y5.645
X-0.77 Y5.599
X-0.725 Y5.555
X-0.678 Y5.513
X-0.628 Y5.475
X-0.577 Y5.438
X-0.524 Y5.405
X-0.47 Y5.373
X-0.414 Y5.344
X-0.357 Y5.317
X-0.299 Y5.293
X-0.24 Y5.27
X-0.181 Y5.25
X-0.12 Y5.232
X-0.06 Y5.216
X0.002 Y5.201
X0.063 Y5.189
X0.125 Y5.179
X0.188 Y5.17
X0.25 Y5.164
X0.313 Y5.159
X0.376 Y5.156
X0.439 Y5.155
X0.502 Y5.156
X0.564 Y5.159
X0.627 Y5.163
X0.69 Y5.17
X0.752 Y5.179
X0.814 Y5.191
X0.875 Y5.205
X0.936 Y5.222
X0.995 Y5.241
X1.028 Y5.254
X1.081 Y5.281
X1.13 Y5.316
X1.171 Y5.359
X1.205 Y5.408
X1.23 Y5.463
X1.245 Y5.52
X1.25 Y5.58
Y6.057
X1.242 Y6.101
X1.22 Y6.141
X1.188 Y6.173
X1.148 Y6.193
X1.104 Y6.201
X0.545 Y6.214
X-0.295 Y6.234
X-0.847 Y6.246
X-0.893 Y6.24
X-0.935 Y6.22
X-0.969 Y6.188
X-0.991 Y6.147
X-1. Y6.102
Y5.652
X-0.998 Y5.603
X-0.992 Y5.559
X-0.982 Y5.511
X-0.966 Y5.46
X-0.945 Y5.405
X-0.917 Y5.348
X-0.886 Y5.294
X-0.85 Y5.242
X-0.811 Y5.193
X-0.769 Y5.146
X-0.725 Y5.101
X-0.678 Y5.059
X-0.629 Y5.019
X-0.579 Y4.982
X-0.526 Y4.947
X-0.473 Y4.914
X-0.418 Y4.884
X-0.362 Y4.855
X-0.305 Y4.829
X-0.247 Y4.805
X-0.188 Y4.783
X-0.128 Y4.762
X-0.068 Y4.744
X-0.007 Y4.728
X0.054 Y4.714
X0.116 Y4.701
X0.178 Y4.691
X0.24 Y4.682
X0.303 Y4.675
X0.365 Y4.67
X0.428 Y4.668
X0.491 Y4.667
X0.554 Y4.668
X0.617 Y4.671
X0.68 Y4.676
X0.742 Y4.683
X0.804 Y4.694
X0.866 Y4.706
X0.927 Y4.722
X0.987 Y4.741
X1.022 Y4.754
X1.077 Y4.78
X1.126 Y4.815
X1.169 Y4.858
X1.204 Y4.908
X1.229 Y4.963
X1.245 Y5.022
X1.25 Y5.082
Y5.517
X1.242 Y5.56
X1.222 Y5.599
X1.192 Y5.631
X1.153 Y5.652
X1.11 Y5.661
X0.546 Y5.7
X-0.296 Y5.759
X-0.84 Y5.796
X-0.887 Y5.792
X-0.931 Y5.773
X-0.967 Y5.741
X-0.991 Y5.699
X-1. Y5.652
Y5.202
X-0.997 Y5.146
X-0.991 Y5.101
X-0.981 Y5.052
X-0.965 Y4.998
X-0.942 Y4.941
X-0.915 Y4.885
X-0.883 Y4.83
X-0.848 Y4.778
X-0.81 Y4.728
X-0.768 Y4.681
X-0.724 Y4.636
X-0.678 Y4.593
X-0.63 Y4.553
X-0.58 Y4.515
X-0.528 Y4.479
X-0.475 Y4.445
X-0.421 Y4.413
X-0.365 Y4.384
X-0.309 Y4.357
X-0.251 Y4.331
X-0.193 Y4.308
X-0.133 Y4.287
X-0.074 Y4.267
X-0.013 Y4.25
X0.048 Y4.234
X0.109 Y4.22
X0.171 Y4.209
X0.233 Y4.199
X0.295 Y4.191
X0.358 Y4.185
X0.421 Y4.181
X0.484 Y4.178
X0.547
X0.609 Y4.18
X0.672 Y4.185
X0.735 Y4.191
X0.797 Y4.2
X0.859 Y4.212
X0.92 Y4.227
X0.98 Y4.245
X1.018 Y4.259
X1.074 Y4.285
X1.124 Y4.32
X1.167 Y4.363
X1.203 Y4.413
X1.229 Y4.468
X1.245 Y4.527
X1.25 Y4.588
Y5.022
X1.242 Y5.065
X1.223 Y5.103
X1.193 Y5.135
X1.156 Y5.157
X1.114 Y5.167
X0.547 Y5.219
X-0.297 Y5.297
X-0.836 Y5.346
X-0.885 Y5.343
X-0.93 Y5.324
X-0.966 Y5.292
X-0.99 Y5.25
X-1. Y5.202
Y4.708
X-0.999 Y4.679
X-0.993 Y4.633
X-0.982 Y4.583
X-0.965 Y4.528
X-0.942 Y4.469
X-0.915 Y4.413
X-0.884 Y4.358
X-0.848 Y4.306
X-0.81 Y4.256
X-0.769 Y4.208
X-0.726 Y4.163
X-0.68 Y4.12
X-0.632 Y4.079
X-0.582 Y4.04
X-0.531 Y4.004
X-0.478 Y3.97
X-0.424 Y3.937
X-0.369 Y3.907
X-0.313 Y3.879
X-0.256 Y3.853
X-0.198 Y3.829
X-0.139 Y3.807
X-0.079 Y3.786
X-0.019 Y3.768
X0.042 Y3.752
X0.103 Y3.737
X0.164 Y3.725
X0.226 Y3.714
X0.289 Y3.705
X0.351 Y3.698
X0.414 Y3.694
X0.477 Y3.691
X0.54 Y3.69
X0.603 Y3.691
X0.665 Y3.695
X0.728 Y3.701
X0.79 Y3.709
X0.852 Y3.721
X0.913 Y3.735
X0.974 Y3.753
X1.033 Y3.773
X1.034 Y3.774
X1.086 Y3.801
X1.133 Y3.836
X1.174 Y3.879
X1.206 Y3.928
X1.23 Y3.981
X1.245 Y4.038
X1.25 Y4.097
Y4.528
X1.242 Y4.57
X1.223 Y4.609
X1.193 Y4.64
X1.156 Y4.662
X1.114 Y4.672
X0.547 Y4.724
X-0.297 Y4.802
X-0.836 Y4.852
X-0.885 Y4.848
X-0.93 Y4.83
X-0.966 Y4.798
X-0.99 Y4.755
X-1. Y4.708
Y4.258
X-0.997 Y4.202
X-0.991 Y4.156
X-0.98 Y4.104
X-0.964 Y4.049
X-0.941 Y3.99
X-0.913 Y3.934
X-0.882 Y3.879
X-0.847 Y3.827
X-0.809 Y3.777
X-0.768 Y3.729
X-0.725 Y3.684
X-0.679 Y3.64
X-0.632 Y3.599
X-0.582 Y3.56
X-0.531 Y3.523
X-0.479 Y3.489
X-0.425 Y3.456
X-0.37 Y3.425
X-0.314 Y3.397
X-0.257 Y3.37
X-0.199 Y3.346
X-0.14 Y3.323
X-0.081 Y3.303
X-0.021 Y3.284
X0.04 Y3.267
X0.101 Y3.252
X0.162 Y3.239
X0.224 Y3.228
X0.287 Y3.219
X0.349 Y3.212
X0.412 Y3.206
X0.475 Y3.203
X0.537 Y3.202
X0.6 Y3.203
X0.663 Y3.206
X0.726 Y3.212
X0.788 Y3.22
X0.85 Y3.231
X0.911 Y3.245
X0.972 Y3.262
X1.031 Y3.283
X1.032
X1.085 Y3.31
X1.132 Y3.345
X1.173 Y3.388
X1.206 Y3.437
X1.23 Y3.491
X1.245 Y3.548
X1.25 Y3.607
Y4.033
X1.243 Y4.075
X1.224 Y4.113
X1.195 Y4.144
X1.158 Y4.166
X1.117 Y4.177
X0.549 Y4.243
X-0.299 Y4.34
X-0.833 Y4.402
X-0.85 Y4.403
X-0.895 Y4.396
X-0.937 Y4.375
X-0.97 Y4.344
X-0.991 Y4.303
X-1. Y4.258
Y3.764
X-0.998 Y3.723
X-0.992 Y3.676
X-0.981 Y3.624
X-0.964 Y3.568
X-0.941 Y3.509
X-0.914 Y3.453
X-0.882 Y3.398
X-0.848 Y3.346
X-0.81 Y3.296
X-0.769 Y3.248
X-0.726 Y3.202
X-0.68 Y3.158
X-0.633 Y3.117
X-0.584 Y3.078
X-0.533 Y3.041
X-0.481 Y3.006
X-0.427 Y2.973
X-0.372 Y2.942
X-0.316 Y2.913
X-0.259 Y2.887
X-0.202 Y2.862
X-0.143 Y2.839
X-0.084 Y2.818
X-0.024 Y2.799
X0.037 Y2.782
X0.098 Y2.766
X0.159 Y2.753
X0.221 Y2.742
X0.283 Y2.732
X0.346 Y2.725
X0.408 Y2.719
X0.471 Y2.716
X0.534 Y2.714
X0.597 Y2.715
X0.66 Y2.718
X0.722 Y2.723
X0.785 Y2.731
X0.847 Y2.742
X0.908 Y2.756
X0.969 Y2.772
X1.028 Y2.793
X1.031 Y2.794
X1.084 Y2.821
X1.132 Y2.856
X1.173 Y2.899
X1.206 Y2.948
X1.23 Y3.002
X1.245 Y3.059
X1.25 Y3.118
Y3.584
X1.242 Y3.626
X1.223 Y3.665
X1.193 Y3.696
X1.156 Y3.718
X1.114 Y3.728
X0.547 Y3.78
X-0.297 Y3.858
X-0.836 Y3.908
X-0.885 Y3.904
X-0.93 Y3.886
X-0.966 Y3.853
X-0.99 Y3.811
X-1. Y3.764
Y3.269
X-0.999 Y3.24
X-0.992 Y3.192
X-0.981 Y3.14
X-0.964 Y3.084
X-0.941 Y3.025
X-0.914 Y2.969
X-0.883 Y2.914
X-0.848 Y2.862
X-0.81 Y2.812
X-0.77 Y2.763
X-0.727 Y2.718
X-0.681 Y2.674
X-0.634 Y2.633
X-0.585 Y2.593
X-0.534 Y2.556
X-0.482 Y2.521
X-0.428 Y2.488
X-0.374 Y2.457
X-0.318 Y2.428
X-0.261 Y2.401
X-0.203 Y2.376
X-0.145 Y2.353
X-0.085 Y2.332
X-0.026 Y2.313
X0.035 Y2.295
X0.096 Y2.28
X0.157 Y2.266
X0.219 Y2.255
X0.281 Y2.245
X0.344 Y2.237
X0.406 Y2.232
X0.469 Y2.228
X0.532 Y2.226
X0.595 Y2.227
X0.658 Y2.23
X0.72 Y2.235
X0.783 Y2.243
X0.845 Y2.253
X0.906 Y2.267
X0.967 Y2.284
X1.026 Y2.304
X1.03 Y2.305
X1.083 Y2.332
X1.131 Y2.367
X1.172 Y2.41
X1.206 Y2.459
X1.23 Y2.513
X1.245 Y2.571
X1.25 Y2.63
Y3.089
X1.242 Y3.132
X1.223 Y3.17
X1.193 Y3.202
X1.156 Y3.223
X1.114 Y3.233
X0.547 Y3.286
X-0.297 Y3.363
X-0.836 Y3.413
X-0.885 Y3.41
X-0.93 Y3.391
X-0.966 Y3.359
X-0.99 Y3.317
X-1. Y3.269
Y2.819
X-0.997 Y2.757
X-0.991 Y2.709
X-0.98 Y2.658
X-0.964 Y2.602
X-0.941 Y2.543
X-0.914 Y2.486
X-0.883 Y2.431
X-0.849 Y2.379
X-0.811 Y2.328
X-0.771 Y2.28
X-0.728 Y2.234
X-0.683 Y2.19
X-0.636 Y2.149
X-0.587 Y2.109
X-0.536 Y2.072
X-0.484 Y2.037
X-0.431 Y2.003
X-0.376 Y1.972
X-0.32 Y1.943
X-0.264 Y1.916
X-0.206 Y1.891
X-0.148 Y1.867
X-0.088 Y1.846
X-0.029 Y1.827
X0.032 Y1.809
X0.093 Y1.794
X0.154 Y1.78
X0.216 Y1.768
X0.278 Y1.758
X0.34 Y1.75
X0.403 Y1.744
X0.466 Y1.741
X0.529 Y1.739
X0.592
X0.654 Y1.742
X0.717 Y1.747
X0.78 Y1.754
X0.842 Y1.765
X0.903 Y1.778
X0.964 Y1.795
X1.023 Y1.815
X1.029 Y1.817
X1.082 Y1.844
X1.13 Y1.879
X1.172 Y1.922
X1.205 Y1.971
X1.23 Y2.025
X1.245 Y2.083
X1.25 Y2.142
Y2.595
X1.243 Y2.636
X1.224 Y2.674
X1.195 Y2.706
X1.158 Y2.728
X1.117 Y2.738
X0.549 Y2.804
X-0.299 Y2.902
X-0.833 Y2.963
X-0.85 Y2.964
X-0.895 Y2.957
X-0.937 Y2.937
X-0.97 Y2.905
X-0.991 Y2.865
X-1. Y2.819
Y2.774
X-1.001 Y2.729
X-1.002 Y2.685
X-1.004 Y2.64
X-1.007 Y2.595
X-1.012 Y2.55
X-1.018 Y2.505
X-1.021 Y2.484
X-1.024 Y2.46
X-1.029 Y2.435
X-1.034 Y2.396
X-1.037 Y2.356
X-1.035 Y2.312
X-1.03 Y2.263
X-1.02 Y2.209
X-1.004 Y2.152
X-0.983 Y2.092
X-0.957 Y2.035
X-0.927 Y1.98
X-0.894 Y1.926
X-0.857 Y1.875
X-0.818 Y1.826
X-0.776 Y1.779
X-0.732 Y1.734
X-0.686 Y1.691
X-0.638 Y1.651
X-0.588 Y1.612
X-0.537 Y1.576
X-0.485 Y1.541
X-0.431 Y1.509
X-0.376 Y1.478
X-0.32 Y1.449
X-0.263 Y1.423
X-0.205 Y1.398
X-0.146 Y1.375
X-0.087 Y1.354
X-0.027 Y1.335
X0.033 Y1.318
X0.094 Y1.303
X0.156 Y1.289
X0.218 Y1.278
X0.28 Y1.268
X0.342 Y1.261
X0.405 Y1.255
X0.468 Y1.251
X0.531 Y1.25
X0.594
X0.656 Y1.253
X0.719 Y1.258
X0.781 Y1.266
X0.843 Y1.276
X0.905 Y1.29
X0.965 Y1.307
X1.025 Y1.327
X1.03 Y1.329
X1.083 Y1.355
X1.131 Y1.391
X1.172 Y1.434
X1.205 Y1.483
X1.23 Y1.537
X1.245 Y1.595
X1.25 Y1.654
Y2.1
X1.243 Y2.141
X1.225 Y2.178
X1.197 Y2.209
X1.163 Y2.231
X1.123 Y2.243
X0.552 Y2.332
X-0.307 Y2.465
X-0.86 Y2.551
X-0.882 Y2.552
X-0.883
X-0.923 Y2.547
X-0.96 Y2.531
X-0.991 Y2.506
X-1.015 Y2.473
X-1.029 Y2.435
X-1.033 Y2.415
X-1.043 Y2.37
X-1.053 Y2.325
X-1.065 Y2.28
X-1.066 Y2.275
X-1.078 Y2.235
X-1.093 Y2.19
X-1.108 Y2.145
X-1.111 Y2.138
X-1.126 Y2.095
X-1.135 Y2.061
X-1.141 Y2.022
X-1.145 Y1.978
X-1.146 Y1.929
X-1.142 Y1.876
X-1.133 Y1.819
X-1.119 Y1.757
X-1.1 Y1.697
X-1.076 Y1.639
X-1.049 Y1.582
X-1.018 Y1.527
X-0.984 Y1.474
X-0.948 Y1.423
X-0.908 Y1.374
X-0.867 Y1.327
X-0.823 Y1.282
X-0.778 Y1.238
X-0.73 Y1.197
X-0.681 Y1.158
X-0.631 Y1.12
X-0.579 Y1.085
X-0.526 Y1.051
X-0.471 Y1.019
X-0.416 Y0.989
X-0.36 Y0.961
X-0.303 Y0.935
X-0.245 Y0.91
X-0.186 Y0.887
X-0.127 Y0.866
X-0.067 Y0.847
X-0.007 Y0.83
X0.054 Y0.814
X0.116 Y0.801
X0.178 Y0.789
X0.24 Y0.778
X0.302 Y0.77
X0.365 Y0.764
X0.427 Y0.759
X0.49 Y0.757
X0.553
X0.616 Y0.758
X0.679 Y0.762
X0.741 Y0.769
X0.804 Y0.778
X0.865 Y0.79
X0.926 Y0.804
X0.987 Y0.823
X1.019 Y0.834
X1.074 Y0.86
X1.124 Y0.895
X1.168 Y0.938
X1.203 Y0.988
X1.229 Y1.044
X1.245 Y1.103
X1.25 Y1.163
Y1.605
X1.244 Y1.644
X1.227 Y1.68
X1.202 Y1.71
X1.17 Y1.733
X1.134 Y1.746
X0.56 Y1.878
X-0.376 Y2.094
X-0.94 Y2.223
X-0.981 Y2.227
X-1.022 Y2.219
X-1.059 Y2.201
X-1.089 Y2.173
X-1.111 Y2.138
X-1.126 Y2.1
X-1.145 Y2.055
X-1.156 Y2.029
X-1.164 Y2.01
X-1.187 Y1.965
X-1.201 Y1.938
X-1.21 Y1.92
X-1.235 Y1.875
X-1.246 Y1.857
X-1.264 Y1.823
X-1.279 Y1.791
X-1.291 Y1.756
X-1.302 Y1.716
X-1.31 Y1.67
X-1.315 Y1.62
X-1.316 Y1.565
X-1.313 Y1.505
X-1.304 Y1.442
X-1.29 Y1.381
X-1.272 Y1.321
X-1.251 Y1.262
X-1.225 Y1.204
X-1.197 Y1.148
X-1.165 Y1.094
X-1.131 Y1.041
X-1.094 Y0.99
X-1.055 Y0.94
X-1.014 Y0.893
X-0.971 Y0.847
X-0.926 Y0.803
X-0.879 Y0.761
X-0.831 Y0.72
X-0.782 Y0.681
X-0.731 Y0.644
X-0.679 Y0.609
X-0.626 Y0.575
X-0.572 Y0.543
X-0.517 Y0.513
X-0.46 Y0.485
X-0.404 Y0.458
X-0.346 Y0.433
X-0.288 Y0.409
X-0.229 Y0.387
X-0.169 Y0.367
X-0.109 Y0.348
X-0.048 Y0.332
X0.013 Y0.316
X0.074 Y0.303
X0.136 Y0.291
X0.198 Y0.281
X0.26 Y0.273
X0.323 Y0.266
X0.386 Y0.261
X0.448 Y0.258
X0.511
X0.574 Y0.259
X0.637 Y0.262
X0.7 Y0.267
X0.762 Y0.275
X0.824 Y0.286
X0.886 Y0.299
X0.946 Y0.315
X1.006 Y0.335
X1.026 Y0.343
X1.08 Y0.369
X1.129 Y0.404
X1.171 Y0.447
X1.205 Y0.497
X1.23 Y0.551
X1.245 Y0.609
X1.25 Y0.669
Y1.111
X1.241 Y1.157
X1.219 Y1.197
X1.185 Y1.229
X1.143 Y1.249
X0.57 Y1.422
X-0.509 Y1.746
X-1.078 Y1.917
X-1.125 Y1.924
X-1.172 Y1.915
X-1.213 Y1.892
X-1.246 Y1.857
X-1.262 Y1.83
X-1.291 Y1.785
X-1.321 Y1.74
X-1.336 Y1.72
X-1.355 Y1.695
X-1.381 Y1.661
X-1.389 Y1.65
X-1.426 Y1.607
X-1.44 Y1.589
X-1.458 Y1.563
X-1.476 Y1.532
X-1.493 Y1.495
X-1.509 Y1.454
X-1.522 Y1.408
X-1.532 Y1.356
X-1.539 Y1.299
X-1.541 Y1.236
X-1.538 Y1.174
X-1.531 Y1.111
X-1.52 Y1.049
X-1.504 Y0.988
X-1.485 Y0.928
X-1.463 Y0.87
X-1.437 Y0.812
X-1.409 Y0.756
X-1.378 Y0.701
X-1.345 Y0.648
X-1.309 Y0.596
X-1.271 Y0.546
X-1.232 Y0.497
X-1.19 Y0.45
X-1.147 Y0.404
X-1.102 Y0.36
X-1.056 Y0.317
X-1.008 Y0.276
X-0.959 Y0.237
X-0.909 Y0.199
X-0.857 Y0.163
X-0.805 Y0.128
X-0.752 Y0.095
X-0.697 Y0.063
X-0.642 Y0.033
X-0.586 Y0.004
X-0.529 Y-0.023
X-0.472 Y-0.049
X-0.414 Y-0.073
X-0.355 Y-0.096
X-0.296 Y-0.117
X-0.236 Y-0.136
X-0.176 Y-0.154
X-0.115 Y-0.171
X-0.054 Y-0.186
X0.007 Y-0.199
X0.069 Y-0.211
X0.131 Y-0.222
X0.193 Y-0.23
X0.256 Y-0.237
X0.319 Y-0.243
X0.381 Y-0.246
X0.444 Y-0.248
X0.507
X0.57 Y-0.246
X0.633 Y-0.242
X0.695 Y-0.236
X0.758 Y-0.228
X0.82 Y-0.217
X0.881 Y-0.203
X0.942 Y-0.186
X1.002 Y-0.167
X1.027 Y-0.157
X1.081 Y-0.13
X1.129 Y-0.095
X1.171 Y-0.052
X1.205 Y-0.003
X1.23 Y0.052
X1.245 Y0.11
X1.25 Y0.169
Y0.616
X1.242 Y0.66
X1.222 Y0.699
X1.191 Y0.731
X1.152 Y0.752
X0.582 Y0.962
X-0.692 Y1.432
X-1.266 Y1.644
X-1.308 Y1.653
X-1.351 Y1.649
X-1.391 Y1.633
X-1.426 Y1.607
X-1.427 Y1.605
X-1.468 Y1.561
X-1.471 Y1.557
X-1.51 Y1.516
X-1.516 Y1.51
X-1.557 Y1.471
X-1.561 Y1.468
X-1.605 Y1.427
X-1.607 Y1.426
X-1.629 Y1.407
X-1.655 Y1.384
X-1.677 Y1.359
X-1.7 Y1.33
X-1.722 Y1.297
X-1.743 Y1.259
X-1.763 Y1.214
X-1.781 Y1.165
X-1.795 Y1.109
X-1.807 Y1.048
X-1.813 Y0.986
X-1.815 Y0.923
X-1.812 Y0.86
X-1.806 Y0.797
X-1.796 Y0.735
X-1.782 Y0.674
X-1.765 Y0.613
X-1.745 Y0.554
X-1.722 Y0.495
X-1.696 Y0.438
X-1.668 Y0.381
X-1.638 Y0.326
X-1.605 Y0.272
X-1.571 Y0.22
X-1.534 Y0.169
X-1.496 Y0.119
X-1.456 Y0.07
X-1.414 Y0.023
X-1.371 Y-0.023
X-1.327 Y-0.067
X-1.281 Y-0.11
X-1.234 Y-0.152
X-1.186 Y-0.192
X-1.136 Y-0.231
X-1.086 Y-0.269
X-1.034 Y-0.305
X-0.982 Y-0.34
X-0.929 Y-0.374
X-0.875 Y-0.406
X-0.82 Y-0.436
X-0.764 Y-0.466
X-0.708 Y-0.494
X-0.651 Y-0.521
X-0.593 Y-0.546
X-0.535 Y-0.57
X-0.477 Y-0.592
X-0.417 Y-0.614
X-0.358 Y-0.633
X-0.298 Y-0.652
X-0.237 Y-0.669
X-0.176 Y-0.685
X-0.115 Y-0.699
X-0.053 Y-0.712
X0.009 Y-0.723
X0.071 Y-0.733
X0.133 Y-0.742
X0.196 Y-0.749
X0.258 Y-0.754
X0.321 Y-0.758
X0.384 Y-0.76
X0.447 Y-0.761
X0.51 Y-0.76
X0.572 Y-0.757
X0.635 Y-0.752
X0.698 Y-0.744
X0.76 Y-0.735
X0.822 Y-0.724
X0.883 Y-0.709
X0.943 Y-0.692
X1.003 Y-0.672
X1.029 Y-0.661
X1.083 Y-0.634
X1.131 Y-0.599
X1.172 Y-0.556
X1.205 Y-0.507
X1.23 Y-0.453
X1.245 Y-0.395
X1.25 Y-0.336
Y0.122
X1.243 Y0.163
X1.224 Y0.2
X1.196 Y0.231
X1.161 Y0.254
X0.597 Y0.505
X-0.906 Y1.173
X-1.476 Y1.426
X-1.505 Y1.436
X-1.536 Y1.439
X-1.537
X-1.569 Y1.435
X-1.601 Y1.425
X-1.629 Y1.407
X-1.65 Y1.389
X-1.661 Y1.381
X-1.695 Y1.355
X-1.72 Y1.336
X-1.74 Y1.321
X-1.785 Y1.291
X-1.83 Y1.262
X-1.857 Y1.246
X-1.875 Y1.235
X-1.883 Y1.23
X-1.907 Y1.212
X-1.934 Y1.19
X-1.961 Y1.162
X-1.987 Y1.131
X-2.014 Y1.093
X-2.04 Y1.05
X-2.064 Y1.001
X-2.086 Y0.946
X-2.105 Y0.886
X-2.118 Y0.825
X-2.128 Y0.762
X-2.133 Y0.7
X-2.134 Y0.637
X-2.132 Y0.574
X-2.126 Y0.511
X-2.116 Y0.449
X-2.104 Y0.387
X-2.089 Y0.326
X-2.071 Y0.266
X-2.05 Y0.207
X-2.027 Y0.148
X-2.002 Y0.09
X-1.975 Y0.034
X-1.945 Y-0.022
X-1.914 Y-0.076
X-1.88 Y-0.13
X-1.846 Y-0.182
X-1.809 Y-0.233
X-1.771 Y-0.283
X-1.731 Y-0.332
X-1.69 Y-0.379
X-1.647 Y-0.426
X-1.604 Y-0.471
X-1.559 Y-0.515
X-1.513 Y-0.558
X-1.465 Y-0.599
X-1.417 Y-0.64
X-1.368 Y-0.679
X-1.318 Y-0.717
X-1.267 Y-0.754
X-1.215 Y-0.789
X-1.162 Y-0.824
X-1.109 Y-0.857
X-1.054 Y-0.889
X-1. Y-0.919
X-0.944 Y-0.949
X-0.888 Y-0.977
X-0.831 Y-1.004
X-0.774 Y-1.03
X-0.716 Y-1.055
X-0.657 Y-1.078
X-0.599 Y-1.1
X-0.539 Y-1.121
X-0.48 Y-1.141
X-0.419 Y-1.159
X-0.359 Y-1.177
X-0.298 Y-1.193
X-0.237 Y-1.207
X-0.175 Y-1.221
X-0.114 Y-1.233
X-0.052 Y-1.244
X-0.036 Y-1.246
X-0.019 Y-1.248
X-0.001 Y-1.25
X0.017
X0.463
X0.526 Y-1.247
X0.588 Y-1.245
X0.651 Y-1.241
X0.714 Y-1.235
X0.776 Y-1.226
X0.838 Y-1.214
X0.899 Y-1.2
X0.96 Y-1.183
X1.019 Y-1.162
X1.031 Y-1.158
X1.084 Y-1.131
X1.132 Y-1.095
X1.173 Y-1.053
X1.206 Y-1.003
X1.23 Y-0.949
X1.245 Y-0.892
X1.25 Y-0.833
X1.241 Y-0.786
X1.217 Y-0.744
X1.181 Y-0.712
X1.137 Y-0.693
X1.089 Y-0.689
X1.043 Y-0.7
X0.76 Y-0.817
X0.411 Y-0.962
G3 X0.329 Y-1.157 I0.057 J-0.139
X0.463 Y-1.25 I0.139 J0.057
G1 X1.092
X1.115 Y-1.249
X1.137 Y-1.245
X1.157 Y-1.237
X1.177 Y-1.227
X1.182 Y-1.224
X1.192 Y-1.216
X1.203 Y-1.206
X1.214 Y-1.194
X1.224 Y-1.182
X1.227 Y-1.177
X1.237 Y-1.157
X1.245 Y-1.137
X1.249 Y-1.115
X1.25 Y-1.092
Y-0.373
X1.243 Y-0.333
X1.227 Y-0.297
X1.201 Y-0.267
X1.168 Y-0.244
X0.61 Y0.039
X-1.165 Y0.942
X-1.74 Y1.234
X-1.784 Y1.249
X-1.831
X-1.875 Y1.235
X-1.92 Y1.21
X-1.938 Y1.201
X-1.965 Y1.187
X-2.01 Y1.164
X-2.029 Y1.156
X-2.055 Y1.145
X-2.1 Y1.126
X-2.138 Y1.111
X-2.155 Y1.103
X-2.183 Y1.087
X-2.214 Y1.067
X-2.245 Y1.042
X-2.276 Y1.012
X-2.309 Y0.977
X-2.341 Y0.936
X-2.372 Y0.888
X-2.401 Y0.834
X-2.426 Y0.777
X-2.447 Y0.717
X-2.464 Y0.657
X-2.477 Y0.595
X-2.486 Y0.533
X-2.492 Y0.47
X-2.494 Y0.407
X-2.493 Y0.344
X-2.488 Y0.282
X-2.481 Y0.219
X-2.472 Y0.157
X-2.459 Y0.095
X-2.444 Y0.034
X-2.427 Y-0.026
X-2.407 Y-0.086
X-2.385 Y-0.145
X-2.362 Y-0.203
X-2.336 Y-0.261
X-2.308 Y-0.317
X-2.279 Y-0.373
X-2.248 Y-0.427
X-2.215 Y-0.481
X-2.181 Y-0.534
X-2.145 Y-0.586
X-2.108 Y-0.636
X-2.07 Y-0.686
X-2.03 Y-0.735
X-1.989 Y-0.783
X-1.947 Y-0.829
X-1.903 Y-0.875
X-1.859 Y-0.92
X-1.814 Y-0.963
X-1.767 Y-1.006
X-1.72 Y-1.047
X-1.672 Y-1.087
X-1.622 Y-1.127
X-1.572 Y-1.165
X-1.548 Y-1.182
X-1.501 Y-1.211
X-1.45 Y-1.233
X-1.397 Y-1.246
X-1.342 Y-1.25
X-0.032
G3 X0.113 Y-1.095 I-0.005 J0.15
X0.069 Y-0.995 I-0.15 J-0.005
G1 X-0.239 Y-0.683
X-1.548 Y0.638
X-1.98 Y1.075
X-2.014 Y1.101
X-2.054 Y1.116
X-2.096 Y1.12
X-2.138 Y1.111
X-2.145 Y1.108
X-2.19 Y1.093
X-2.235 Y1.078
X-2.275 Y1.066
X-2.28 Y1.065
X-2.325 Y1.053
X-2.37 Y1.043
X-2.395 Y1.037
X-2.427 Y1.028
X-2.458 Y1.017
X-2.49 Y1.003
X-2.525 Y0.983
X-2.561 Y0.959
X-2.598 Y0.93
X-2.635 Y0.896
X-2.673 Y0.854
X-2.711 Y0.806
X-2.745 Y0.754
X-2.776 Y0.699
X-2.802 Y0.642
X-2.825 Y0.583
X-2.844 Y0.523
X-2.859 Y0.462
X-2.872 Y0.4
X-2.88 Y0.338
X-2.886 Y0.275
X-2.889 Y0.213
Y0.15
X-2.887 Y0.087
X-2.882 Y0.024
X-2.874 Y-0.038
X-2.864 Y-0.1
X-2.852 Y-0.162
X-2.838 Y-0.223
X-2.821 Y-0.284
X-2.803 Y-0.344
X-2.782 Y-0.404
X-2.76 Y-0.462
X-2.736 Y-0.521
X-2.711 Y-0.578
X-2.683 Y-0.635
X-2.655 Y-0.691
X-2.624 Y-0.746
X-2.592 Y-0.8
X-2.559 Y-0.854
X-2.525 Y-0.906
X-2.489 Y-0.958
X-2.452 Y-1.009
X-2.414 Y-1.059
X-2.375 Y-1.108
X-2.361 Y-1.125
X-2.318 Y-1.168
X-2.268 Y-1.203
X-2.212 Y-1.229
X-2.153 Y-1.245
X-2.093 Y-1.25
X-1.381
G3 X-1.236 Y-1.095 I-0.005 J0.15
X-1.251 Y-1.034 I-0.15 J-0.005
G1 X-1.467 Y-0.598
X-1.971 Y0.426
X-2.233 Y0.956
X-2.261 Y0.995
X-2.3 Y1.024
X-2.346 Y1.038
X-2.395 Y1.037
X-2.415 Y1.033
X-2.46 Y1.024
X-2.484 Y1.021
X-2.505 Y1.018
X-2.55 Y1.012
X-2.595 Y1.007
X-2.64 Y1.004
X-2.685 Y1.002
X-2.701 Y1.001
X-2.731 Y0.996
X-2.765 Y0.987
X-2.802 Y0.975
X-2.841 Y0.958
X-2.881 Y0.936
X-2.923 Y0.909
X-2.967 Y0.876
X-3.012 Y0.836
X-3.055 Y0.791
X-3.095 Y0.742
X-3.131 Y0.691
X-3.163 Y0.637
X-3.192 Y0.581
X-3.218 Y0.524
X-3.241 Y0.465
X-3.26 Y0.405
X-3.276 Y0.344
X-3.29 Y0.283
X-3.301 Y0.221
X-3.308 Y0.158
X-3.314 Y0.096
X-3.317 Y0.033
Y-0.03
X-3.315 Y-0.093
X-3.311 Y-0.156
X-3.305 Y-0.218
X-3.296 Y-0.281
X-3.286 Y-0.343
X-3.274 Y-0.404
X-3.26 Y-0.466
X-3.244 Y-0.526
X-3.226 Y-0.587
X-3.207 Y-0.647
X-3.186 Y-0.706
X-3.163 Y-0.765
X-3.139 Y-0.823
X-3.113 Y-0.88
X-3.086 Y-0.937
X-3.058 Y-0.993
X-3.028 Y-1.048
X-3.01 Y-1.078
X-2.975 Y-1.128
X-2.932 Y-1.17
X-2.882 Y-1.204
X-2.827 Y-1.229
X-2.769 Y-1.245
X-2.709 Y-1.25
X-2.145
X-2.101 Y-1.242
X-2.061 Y-1.221
X-2.029 Y-1.189
X-2.009 Y-1.149
X-2. Y-1.105
X-2.006 Y-1.061
X-2.141 Y-0.564
X-2.384 Y0.323
X-2.54 Y0.892
X-2.56 Y0.936
X-2.593 Y0.971
X-2.636 Y0.994
X-2.685 Y1.002
X-2.729 Y1.001
X-2.774 Y1.
X-2.999
X-3.041 Y0.998
X-3.077 Y0.993
X-3.116 Y0.985
X-3.156 Y0.973
X-3.2 Y0.956
X-3.247 Y0.933
X-3.295 Y0.904
X-3.345 Y0.869
X-3.394 Y0.829
X-3.439 Y0.785
X-3.481 Y0.739
X-3.52 Y0.689
X-3.555 Y0.637
X-3.588 Y0.584
X-3.618 Y0.528
X-3.645 Y0.471
X-3.668 Y0.413
X-3.69 Y0.354
X-3.708 Y0.294
X-3.724 Y0.233
X-3.738 Y0.171
X-3.749 Y0.11
X-3.757 Y0.047
X-3.764 Y-0.015
X-3.768 Y-0.078
X-3.77 Y-0.141
Y-0.204
X-3.768 Y-0.267
X-3.764 Y-0.329
X-3.759 Y-0.392
X-3.751 Y-0.455
X-3.742 Y-0.517
X-3.731 Y-0.579
X-3.718 Y-0.64
X-3.703 Y-0.701
X-3.687 Y-0.762
X-3.67 Y-0.823
X-3.65 Y-0.882
X-3.628 Y-0.941
X-3.604 Y-1.
X-3.578 Y-1.057
X-3.575 Y-1.062
X-3.546 Y-1.108
X-3.51 Y-1.149
X-3.469 Y-1.184
X-3.422 Y-1.212
X-3.372 Y-1.233
X-3.319 Y-1.246
X-3.265 Y-1.25
X-2.729
X-2.688 Y-1.243
X-2.651 Y-1.225
X-2.62 Y-1.197
X-2.598 Y-1.161
X-2.586 Y-1.121
Y-1.08
X-2.659 Y-0.55
X-2.777 Y0.3
X-2.856 Y0.871
X-2.867 Y0.911
X-2.889 Y0.946
X-2.921 Y0.974
X-2.958 Y0.993
X-2.999 Y1.
X-3.404
X-3.432 Y0.999
X-3.471 Y0.994
X-3.513 Y0.984
X-3.559 Y0.971
X-3.608 Y0.952
X-3.659 Y0.927
X-3.712 Y0.896
X-3.763 Y0.859
X-3.812 Y0.82
X-3.858 Y0.776
X-3.901 Y0.73
X-3.941 Y0.682
X-3.978 Y0.631
X-4.012 Y0.578
X-4.044 Y0.524
X-4.073 Y0.468
X-4.1 Y0.411
X-4.124 Y0.353
X-4.146 Y0.294
X-4.165 Y0.234
X-4.182 Y0.174
X-4.197 Y0.113
X-4.209 Y0.051
X-4.22 Y-0.011
X-4.228 Y-0.073
X-4.235 Y-0.136
X-4.239 Y-0.198
X-4.242 Y-0.261
X-4.243 Y-0.324
X-4.242 Y-0.387
X-4.239 Y-0.45
X-4.234 Y-0.513
X-4.228 Y-0.575
X-4.22 Y-0.638
X-4.21 Y-0.7
X-4.198 Y-0.761
X-4.184 Y-0.823
X-4.167 Y-0.883
X-4.148 Y-0.943
X-4.126 Y-1.002
X-4.111 Y-1.037
X-4.084 Y-1.089
X-4.049 Y-1.135
X-4.006 Y-1.175
X-3.957 Y-1.207
X-3.904 Y-1.231
X-3.848 Y-1.245
X-3.789 Y-1.25
X-3.314
X-3.268 Y-1.241
X-3.226 Y-1.218
X-3.194 Y-1.183
X-3.175 Y-1.14
X-3.169 Y-1.093
X-3.195 Y-0.546
X-3.233 Y0.296
X-3.259 Y0.857
X-3.268 Y0.901
X-3.289 Y0.94
X-3.321 Y0.971
X-3.36 Y0.992
X-3.404 Y1.
X-3.809
X-3.851 Y0.998
X-3.892 Y0.992
X-3.937 Y0.983
X-3.985 Y0.968
X-4.037 Y0.948
X-4.092 Y0.922
X-4.146 Y0.89
X-4.198 Y0.854
X-4.247 Y0.814
X-4.293 Y0.772
X-4.337 Y0.727
X-4.378 Y0.679
X-4.416 Y0.629
X-4.452 Y0.578
X-4.486 Y0.524
X-4.517 Y0.47
X-4.546 Y0.414
X-4.572 Y0.357
X-4.596 Y0.299
X-4.618 Y0.24
X-4.638 Y0.18
X-4.655 Y0.12
X-4.671 Y0.059
X-4.685 Y-0.003
X-4.696 Y-0.065
X-4.706 Y-0.127
X-4.714 Y-0.189
X-4.72 Y-0.252
X-4.724 Y-0.315
X-4.726 Y-0.377
X-4.727 Y-0.44
X-4.725 Y-0.503
X-4.722 Y-0.566
X-4.717 Y-0.629
X-4.71 Y-0.691
X-4.7 Y-0.753
X-4.688 Y-0.815
X-4.674 Y-0.876
X-4.656 Y-0.937
X-4.636 Y-0.996
X-4.623 Y-1.029
X-4.597 Y-1.082
X-4.562 Y-1.13
X-4.519 Y-1.172
X-4.469 Y-1.205
X-4.415 Y-1.23
X-4.357 Y-1.245
X-4.298 Y-1.25
X-3.854
X-3.809 Y-1.242
X-3.769 Y-1.22
X-3.737 Y-1.188
X-3.717 Y-1.148
X-3.709 Y-1.104
X-3.696 Y-0.545
X-3.677 Y0.295
X-3.664 Y0.847
X-3.67 Y0.893
X-3.69 Y0.935
X-3.722 Y0.969
X-3.763 Y0.991
X-3.809 Y1.
X-4.258
X-4.288 Y0.998
X-4.332 Y0.993
X-4.379 Y0.983
X-4.43 Y0.967
X-4.484 Y0.946
X-4.541 Y0.919
X-4.595 Y0.887
X-4.647 Y0.851
X-4.696 Y0.812
X-4.743 Y0.77
X-4.787 Y0.726
X-4.829 Y0.679
X-4.869 Y0.63
X-4.906 Y0.579
X-4.941 Y0.527
X-4.973 Y0.473
X-5.004 Y0.418
X-5.032 Y0.362
X-5.058 Y0.304
X-5.081 Y0.246
X-5.103 Y0.187
X-5.123 Y0.127
X-5.141 Y0.067
X-5.157 Y0.006
X-5.17 Y-0.055
X-5.182 Y-0.117
X-5.193 Y-0.179
X-5.201 Y-0.241
X-5.207 Y-0.304
X-5.212 Y-0.367
X-5.214 Y-0.43
X-5.215 Y-0.492
X-5.214 Y-0.555
X-5.21 Y-0.618
X-5.205 Y-0.681
X-5.197 Y-0.743
X-5.187 Y-0.805
X-5.173 Y-0.867
X-5.158 Y-0.928
X-5.139 Y-0.988
X-5.125 Y-1.023
X-5.099 Y-1.077
X-5.064 Y-1.127
X-5.021 Y-1.169
X-4.971 Y-1.204
X-4.916 Y-1.229
X-4.858 Y-1.245
X-4.798 Y-1.25
X-4.348
X-4.304 Y-1.242
X-4.265 Y-1.221
X-4.233 Y-1.19
X-4.212 Y-1.151
X-4.203 Y-1.107
X-4.178 Y-0.546
X-4.139 Y0.296
X-4.114 Y0.843
X-4.119 Y0.89
X-4.138 Y0.933
X-4.171 Y0.968
X-4.212 Y0.991
X-4.258 Y1.
X-4.708
X-4.742 Y0.998
X-4.787 Y0.992
X-4.836 Y0.982
X-4.889 Y0.966
X-4.945 Y0.944
X-5.002 Y0.917
X-5.056 Y0.885
X-5.108 Y0.85
X-5.158 Y0.811
X-5.205 Y0.769
X-5.25 Y0.725
X-5.293 Y0.679
X-5.333 Y0.631
X-5.371 Y0.581
X-5.407 Y0.529
X-5.44 Y0.476
X-5.472 Y0.421
X-5.501 Y0.366
X-5.528 Y0.309
X-5.553 Y0.251
X-5.576 Y0.193
X-5.597 Y0.133
X-5.617 Y0.074
X-5.634 Y0.013
X-5.649 Y-0.048
X-5.663 Y-0.109
X-5.674 Y-0.171
X-5.684 Y-0.233
X-5.692 Y-0.296
X-5.698 Y-0.358
X-5.701 Y-0.421
X-5.703 Y-0.484
Y-0.547
X-5.701 Y-0.61
X-5.696 Y-0.673
X-5.69 Y-0.735
X-5.68 Y-0.797
X-5.668 Y-0.859
X-5.653 Y-0.92
X-5.635 Y-0.98
X-5.621 Y-1.018
X-5.596 Y-1.074
X-5.561 Y-1.124
X-5.518 Y-1.168
X-5.468 Y-1.203
X-5.412 Y-1.229
X-5.353 Y-1.245
X-5.292 Y-1.25
X-4.843
X-4.8 Y-1.242
X-4.761 Y-1.222
X-4.729 Y-1.192
X-4.708 Y-1.153
X-4.698 Y-1.11
X-4.659 Y-0.546
X-4.601 Y0.296
X-4.563 Y0.84
X-4.568 Y0.887
X-4.587 Y0.931
X-4.619 Y0.967
X-4.661 Y0.991
X-4.708 Y1.
X-5.157
X-5.208 Y0.997
X-5.254 Y0.991
X-5.304 Y0.981
X-5.358 Y0.964
X-5.416 Y0.942
X-5.473 Y0.914
X-5.527 Y0.883
X-5.58 Y0.848
X-5.629 Y0.809
X-5.677 Y0.768
X-5.722 Y0.725
X-5.765 Y0.679
X-5.806 Y0.631
X-5.845 Y0.581
X-5.881 Y0.53
X-5.915 Y0.477
X-5.947 Y0.423
X-5.977 Y0.368
X-6.005 Y0.311
X-6.031 Y0.254
X-6.055 Y0.196
X-6.077 Y0.137
X-6.097 Y0.077
X-6.115 Y0.017
X-6.131 Y-0.044
X-6.146 Y-0.105
X-6.158 Y-0.167
X-6.169 Y-0.229
X-6.177 Y-0.291
X-6.184 Y-0.354
X-6.188 Y-0.416
X-6.191 Y-0.479
X-6.192 Y-0.542
X-6.19 Y-0.605
X-6.186 Y-0.668
X-6.18 Y-0.73
X-6.172 Y-0.793
X-6.16 Y-0.854
X-6.146 Y-0.916
X-6.128 Y-0.976
X-6.114 Y-1.016
X-6.088 Y-1.072
X-6.054 Y-1.123
X-6.01 Y-1.167
X-5.96 Y-1.202
X-5.904 Y-1.229
X-5.845 Y-1.245
X-5.784 Y-1.25
X-5.337
X-5.295 Y-1.242
X-5.256 Y-1.223
X-5.225 Y-1.193
X-5.203 Y-1.156
X-5.193 Y-1.114
X-5.141 Y-0.547
X-5.063 Y0.297
X-5.013 Y0.836
X-5.017 Y0.885
X-5.035 Y0.93
X-5.068 Y0.966
X-5.11 Y0.99
X-5.157 Y1.
X-5.652
X-5.681 Y0.999
X-5.727 Y0.992
X-5.779 Y0.981
X-5.834 Y0.965
X-5.892 Y0.942
X-5.949 Y0.915
X-6.004 Y0.883
X-6.056 Y0.848
X-6.106 Y0.81
X-6.154 Y0.769
X-6.199 Y0.726
X-6.243 Y0.68
X-6.284 Y0.633
X-6.323 Y0.583
X-6.359 Y0.532
X-6.394 Y0.48
X-6.427 Y0.426
X-6.457 Y0.371
X-6.486 Y0.315
X-6.512 Y0.258
X-6.537 Y0.2
X-6.559 Y0.141
X-6.58 Y0.082
X-6.598 Y0.022
X-6.615 Y-0.039
X-6.63 Y-0.1
X-6.643 Y-0.162
X-6.654 Y-0.223
X-6.663 Y-0.286
X-6.67 Y-0.348
X-6.675 Y-0.411
X-6.679 Y-0.474
X-6.68 Y-0.537
X-6.679 Y-0.6
X-6.675 Y-0.662
X-6.67 Y-0.725
X-6.662 Y-0.787
X-6.65 Y-0.849
X-6.636 Y-0.911
X-6.619 Y-0.971
X-6.599 Y-1.031
X-6.598 Y-1.033
X-6.571 Y-1.085
X-6.536 Y-1.132
X-6.493 Y-1.173
X-6.444 Y-1.206
X-6.39 Y-1.23
X-6.333 Y-1.245
X-6.274 Y-1.25
X-5.832
X-5.789 Y-1.242
X-5.751 Y-1.223
X-5.719 Y-1.193
X-5.698 Y-1.156
X-5.688 Y-1.114
X-5.635 Y-0.547
X-5.557 Y0.297
X-5.508 Y0.836
X-5.511 Y0.885
X-5.53 Y0.93
X-5.562 Y0.966
X-5.604 Y0.99
X-5.652 Y1.
X-6.102
X-6.162 Y0.997
X-6.209 Y0.991
X-6.26 Y0.98
X-6.316 Y0.963
X-6.374 Y0.94
X-6.431 Y0.913
X-6.486 Y0.882
X-6.538 Y0.847
X-6.588 Y0.809
X-6.636 Y0.768
X-6.682 Y0.725
X-6.725 Y0.679
X-6.767 Y0.632
X-6.806 Y0.583
X-6.843 Y0.532
X-6.877 Y0.479
X-6.91 Y0.426
X-6.941 Y0.371
X-6.97 Y0.315
X-6.996 Y0.258
X-7.021 Y0.2
X-7.044 Y0.141
X-7.065 Y0.082
X-7.084 Y0.022
X-7.101 Y-0.038
X-7.116 Y-0.099
X-7.129 Y-0.161
X-7.141 Y-0.223
X-7.15 Y-0.285
X-7.157 Y-0.347
X-7.163 Y-0.41
X-7.166 Y-0.473
X-7.168 Y-0.536
X-7.167 Y-0.599
X-7.164 Y-0.662
X-7.158 Y-0.724
X-7.15 Y-0.787
X-7.139 Y-0.849
X-7.125 Y-0.91
X-7.108 Y-0.97
X-7.088 Y-1.03
X-7.087 Y-1.032
X-7.06 Y-1.084
X-7.025 Y-1.132
X-6.982 Y-1.173
X-6.933 Y-1.206
X-6.879 Y-1.23
X-6.822 Y-1.245
X-6.763 Y-1.25
X-6.326
X-6.285 Y-1.243
X-6.246 Y-1.224
X-6.215 Y-1.195
X-6.193 Y-1.158
X-6.183 Y-1.117
X-6.117 Y-0.549
X-6.019 Y0.299
X-5.958 Y0.833
X-5.957 Y0.85
X-5.964 Y0.895
X-5.984 Y0.937
X-6.016 Y0.97
X-6.056 Y0.991
X-6.102 Y1.
X-6.596
X-6.643 Y0.998
X-6.691 Y0.991
X-6.743 Y0.98
X-6.799 Y0.963
X-6.858 Y0.941
X-6.914 Y0.913
X-6.969 Y0.882
X-7.021 Y0.847
X-7.071 Y0.809
X-7.119 Y0.769
X-7.165 Y0.726
X-7.209 Y0.68
X-7.25 Y0.633
X-7.289 Y0.584
X-7.327 Y0.533
X-7.362 Y0.481
X-7.395 Y0.427
X-7.426 Y0.372
X-7.454 Y0.317
X-7.481 Y0.26
X-7.506 Y0.202
X-7.529 Y0.143
X-7.55 Y0.084
X-7.57 Y0.024
X-7.587 Y-0.036
X-7.602 Y-0.097
X-7.616 Y-0.159
X-7.627 Y-0.22
X-7.637 Y-0.283
X-7.644 Y-0.345
X-7.65 Y-0.408
X-7.654 Y-0.471
X-7.655 Y-0.533
Y-0.596
X-7.652 Y-0.659
X-7.647 Y-0.722
X-7.639 Y-0.784
X-7.628 Y-0.846
X-7.614 Y-0.908
X-7.597 Y-0.968
X-7.577 Y-1.028
X-7.576 Y-1.031
X-7.549 Y-1.084
X-7.514 Y-1.131
X-7.471 Y-1.172
X-7.422 Y-1.206
X-7.368 Y-1.23
X-7.311 Y-1.245
X-7.251 Y-1.25
X-6.821
X-6.779 Y-1.243
X-6.741 Y-1.224
X-6.71 Y-1.195
X-6.688 Y-1.158
X-6.677 Y-1.117
X-6.612 Y-0.549
X-6.514 Y0.299
X-6.452 Y0.833
X-6.451 Y0.85
X-6.458 Y0.895
X-6.479 Y0.937
X-6.511 Y0.97
X-6.551 Y0.991
X-6.596 Y1.
X-7.091
X-7.128 Y0.998
X-7.175 Y0.992
X-7.227 Y0.981
X-7.284 Y0.964
X-7.343 Y0.941
X-7.399 Y0.914
X-7.454 Y0.882
X-7.506 Y0.848
X-7.556 Y0.81
X-7.605 Y0.769
X-7.65 Y0.726
X-7.694 Y0.681
X-7.736 Y0.634
X-7.775 Y0.585
X-7.812 Y0.534
X-7.847 Y0.482
X-7.88 Y0.428
X-7.911 Y0.374
X-7.94 Y0.318
X-7.967 Y0.261
X-7.992 Y0.203
X-8.016 Y0.145
X-8.037 Y0.086
X-8.056 Y0.026
X-8.074 Y-0.035
X-8.089 Y-0.096
X-8.103 Y-0.157
X-8.114 Y-0.219
X-8.124 Y-0.281
X-8.132 Y-0.344
X-8.138 Y-0.406
X-8.141 Y-0.469
X-8.143 Y-0.532
Y-0.595
X-8.14 Y-0.658
X-8.135 Y-0.72
X-8.127 Y-0.783
X-8.116 Y-0.845
X-8.103 Y-0.906
X-8.086 Y-0.967
X-8.066 Y-1.026
X-8.064 Y-1.03
X-8.038 Y-1.083
X-8.002 Y-1.131
X-7.959 Y-1.172
X-7.91 Y-1.205
X-7.856 Y-1.23
X-7.799 Y-1.245
X-7.739 Y-1.25
X-7.315
X-7.274 Y-1.243
X-7.236 Y-1.224
X-7.204 Y-1.195
X-7.182 Y-1.158
X-7.172 Y-1.117
X-7.106 Y-0.549
X-7.008 Y0.299
X-6.947 Y0.833
X-6.946 Y0.85
X-6.953 Y0.895
X-6.973 Y0.937
X-7.005 Y0.97
X-7.046 Y0.991
X-7.091 Y1.
X-7.226
X-7.271 Y1.001
X-7.315 Y1.002
X-7.36 Y1.004
X-7.405 Y1.007
X-7.45 Y1.012
X-7.495 Y1.018
X-7.524 Y1.021
X-7.565
X-7.611 Y1.018
X-7.662 Y1.01
X-7.716 Y0.997
X-7.776 Y0.977
X-7.834 Y0.953
X-7.89 Y0.925
X-7.944 Y0.893
X-7.996 Y0.857
X-8.046 Y0.819
X-8.093 Y0.778
X-8.139 Y0.734
X-8.182 Y0.689
X-8.223 Y0.641
X-8.262 Y0.592
X-8.3 Y0.541
X-8.335 Y0.489
X-8.367 Y0.435
X-8.398 Y0.381
X-8.427 Y0.325
X-8.454 Y0.268
X-8.48 Y0.21
X-8.503 Y0.152
X-8.524 Y0.093
X-8.543 Y0.033
X-8.561 Y-0.028
X-8.576 Y-0.089
X-8.59 Y-0.15
X-8.602 Y-0.212
X-8.612 Y-0.274
X-8.62 Y-0.336
X-8.626 Y-0.399
X-8.63 Y-0.462
X-8.631 Y-0.525
Y-0.587
X-8.629 Y-0.65
X-8.624 Y-0.713
X-8.616 Y-0.775
X-8.606 Y-0.837
X-8.593 Y-0.899
X-8.576 Y-0.96
X-8.557 Y-1.019
X-8.553 Y-1.028
X-8.527 Y-1.082
X-8.492 Y-1.13
X-8.449 Y-1.171
X-8.399 Y-1.205
X-8.345 Y-1.23
X-8.287 Y-1.245
X-8.227 Y-1.25
X-7.765
X-7.724 Y-1.243
X-7.686 Y-1.224
X-7.655 Y-1.196
X-7.633 Y-1.16
X-7.621 Y-1.119
X-7.549 Y-0.55
X-7.442 Y0.299
X-7.372 Y0.852
X-7.373 Y0.897
X-7.388 Y0.94
X-7.415 Y0.977
X-7.452 Y1.004
X-7.495 Y1.018
X-7.516 Y1.021
X-7.54 Y1.024
X-7.585 Y1.033
X-7.63 Y1.043
X-7.675 Y1.053
X-7.72 Y1.065
X-7.725 Y1.066
X-7.765 Y1.078
X-7.81 Y1.093
X-7.838 Y1.101
X-7.874 Y1.108
X-7.914 Y1.113
X-7.959 Y1.114
X-8.009 Y1.112
X-8.063 Y1.106
X-8.122 Y1.093
X-8.183 Y1.076
X-8.242 Y1.054
X-8.299 Y1.027
X-8.354 Y0.998
X-8.408 Y0.965
X-8.459 Y0.928
X-8.509 Y0.89
X-8.556 Y0.848
X-8.602 Y0.805
X-8.645 Y0.76
X-8.687 Y0.712
X-8.726 Y0.663
X-8.764 Y0.613
X-8.8 Y0.561
X-8.833 Y0.508
X-8.865 Y0.454
X-8.895 Y0.399
X-8.923 Y0.342
X-8.949 Y0.285
X-8.974 Y0.227
X-8.996 Y0.168
X-9.017 Y0.109
X-9.036 Y0.049
X-9.053 Y-0.011
X-9.069 Y-0.072
X-9.082 Y-0.134
X-9.094 Y-0.196
X-9.103 Y-0.258
X-9.111 Y-0.32
X-9.117 Y-0.383
X-9.121 Y-0.446
X-9.123 Y-0.509
Y-0.571
X-9.121 Y-0.634
X-9.116 Y-0.697
X-9.109 Y-0.76
X-9.1 Y-0.822
X-9.087 Y-0.883
X-9.071 Y-0.944
X-9.052 Y-1.004
X-9.045 Y-1.024
X-9.018 Y-1.078
X-8.983 Y-1.127
X-8.94 Y-1.17
X-8.891 Y-1.204
X-8.836 Y-1.229
X-8.777 Y-1.245
X-8.717 Y-1.25
X-8.26
X-8.22 Y-1.243
X-8.184 Y-1.226
X-8.153 Y-1.2
X-8.131 Y-1.167
X-8.118 Y-1.129
X-8.006 Y-0.556
X-7.827 Y0.359
X-7.716 Y0.924
X-7.713 Y0.952
X-7.72 Y0.997
X-7.74 Y1.038
X-7.771 Y1.07
X-7.81 Y1.093
X-7.855 Y1.108
X-7.9 Y1.126
X-7.945 Y1.145
X-7.971 Y1.156
X-7.99 Y1.164
X-8.035 Y1.187
X-8.062 Y1.201
X-8.08 Y1.21
X-8.093 Y1.218
X-8.119 Y1.23
X-8.152 Y1.243
X-8.189 Y1.253
X-8.23 Y1.262
X-8.277 Y1.268
X-8.329 Y1.271
X-8.386 Y1.269
X-8.447 Y1.262
X-8.509 Y1.25
X-8.57 Y1.233
X-8.629 Y1.212
X-8.687 Y1.187
X-8.743 Y1.159
X-8.798 Y1.128
X-8.851 Y1.094
X-8.902 Y1.058
X-8.952 Y1.019
X-8.999 Y0.978
X-9.045 Y0.935
X-9.089 Y0.89
X-9.131 Y0.843
X-9.172 Y0.795
X-9.21 Y0.745
X-9.247 Y0.694
X-9.282 Y0.642
X-9.315 Y0.589
X-9.347 Y0.534
X-9.377 Y0.479
X-9.405 Y0.423
X-9.431 Y0.366
X-9.456 Y0.308
X-9.479 Y0.249
X-9.5 Y0.19
X-9.52 Y0.13
X-9.538 Y0.07
X-9.554 Y0.009
X-9.569 Y-0.052
X-9.582 Y-0.113
X-9.593 Y-0.175
X-9.602 Y-0.238
X-9.609 Y-0.3
X-9.615 Y-0.363
X-9.619 Y-0.425
X-9.621 Y-0.488
Y-0.551
X-9.618 Y-0.614
X-9.614 Y-0.677
X-9.607 Y-0.739
X-9.598 Y-0.802
X-9.586 Y-0.863
X-9.571 Y-0.924
X-9.552 Y-0.985
X-9.54 Y-1.019
X-9.514 Y-1.075
X-9.479 Y-1.125
X-9.436 Y-1.168
X-9.386 Y-1.203
X-9.33 Y-1.229
X-9.271 Y-1.245
X-9.211 Y-1.25
X-8.754
X-8.708 Y-1.241
X-8.666 Y-1.218
X-8.634 Y-1.182
X-8.615 Y-1.139
X-8.46 Y-0.565
X-8.178 Y0.479
X-8.025 Y1.049
X-8.02 Y1.098
X-8.031 Y1.145
X-8.056 Y1.186
X-8.093 Y1.218
X-8.125 Y1.235
X-8.143 Y1.246
X-8.17 Y1.262
X-8.215 Y1.291
X-8.26 Y1.321
X-8.28 Y1.336
X-8.305 Y1.355
X-8.339 Y1.381
X-8.366 Y1.4
X-8.395 Y1.417
X-8.429 Y1.433
X-8.467 Y1.449
X-8.511 Y1.462
X-8.56 Y1.472
X-8.614 Y1.479
X-8.674 Y1.482
X-8.737 Y1.48
X-8.799 Y1.474
X-8.861 Y1.462
X-8.922 Y1.447
X-8.982 Y1.428
X-9.041 Y1.406
X-9.098 Y1.38
X-9.154 Y1.352
X-9.209 Y1.32
X-9.262 Y1.287
X-9.314 Y1.25
X-9.364 Y1.212
X-9.412 Y1.172
X-9.459 Y1.13
X-9.504 Y1.086
X-9.547 Y1.041
X-9.589 Y0.994
X-9.63 Y0.946
X-9.669 Y0.896
X-9.706 Y0.846
X-9.741 Y0.794
X-9.775 Y0.741
X-9.808 Y0.687
X-9.839 Y0.632
X-9.868 Y0.576
X-9.896 Y0.52
X-9.922 Y0.463
X-9.946 Y0.405
X-9.969 Y0.346
X-9.991 Y0.287
X-10.011 Y0.228
X-10.029 Y0.167
X-10.046 Y0.107
X-10.061 Y0.046
X-10.075 Y-0.016
X-10.087 Y-0.077
X-10.098 Y-0.139
X-10.107 Y-0.202
X-10.114 Y-0.264
X-10.119 Y-0.327
X-10.123 Y-0.39
X-10.125 Y-0.452
Y-0.515
X-10.123 Y-0.578
X-10.119 Y-0.641
X-10.113 Y-0.704
X-10.104 Y-0.766
X-10.093 Y-0.828
X-10.079 Y-0.889
X-10.062 Y-0.95
X-10.042 Y-1.009
X-10.034 Y-1.029
X-10.008 Y-1.082
X-9.973 Y-1.13
X-9.93 Y-1.172
X-9.88 Y-1.205
X-9.826 Y-1.23
X-9.768 Y-1.245
X-9.709 Y-1.25
X-9.249
X-9.205 Y-1.242
X-9.165 Y-1.221
X-9.133 Y-1.189
X-9.112 Y-1.149
X-8.914 Y-0.577
X-8.491 Y0.645
X-8.293 Y1.217
X-8.285 Y1.261
X-8.29 Y1.306
X-8.309 Y1.347
X-8.339 Y1.381
X-8.35 Y1.389
X-8.393 Y1.426
X-8.395 Y1.427
X-8.439 Y1.468
X-8.443 Y1.471
X-8.484 Y1.51
X-8.49 Y1.516
X-8.529 Y1.557
X-8.532 Y1.561
X-8.553 Y1.583
X-8.572 Y1.602
X-8.597 Y1.624
X-8.627 Y1.645
X-8.662 Y1.666
X-8.701 Y1.686
X-8.746 Y1.704
X-8.797 Y1.719
X-8.853 Y1.732
X-8.915 Y1.741
X-8.978 Y1.745
X-9.041 Y1.744
X-9.104 Y1.739
X-9.166 Y1.73
X-9.228 Y1.717
X-9.288 Y1.701
X-9.348 Y1.681
X-9.407 Y1.659
X-9.465 Y1.634
X-9.521 Y1.606
X-9.576 Y1.576
X-9.63 Y1.544
X-9.683 Y1.509
X-9.734 Y1.473
X-9.784 Y1.434
X-9.832 Y1.394
X-9.879 Y1.352
X-9.925 Y1.309
X-9.969 Y1.264
X-10.012 Y1.218
X-10.053 Y1.171
X-10.093 Y1.122
X-10.132 Y1.073
X-10.169 Y1.022
X-10.205 Y0.97
X-10.239 Y0.917
X-10.272 Y0.864
X-10.304 Y0.809
X-10.334 Y0.754
X-10.362 Y0.698
X-10.39 Y0.642
X-10.416 Y0.584
X-10.44 Y0.526
X-10.463 Y0.468
X-10.485 Y0.409
X-10.505 Y0.349
X-10.524 Y0.289
X-10.542 Y0.229
X-10.558 Y0.168
X-10.572 Y0.107
X-10.586 Y0.045
X-10.597 Y-0.016
X-10.608 Y-0.079
X-10.616 Y-0.141
X-10.623 Y-0.203
X-10.629 Y-0.266
X-10.633 Y-0.329
X-10.635 Y-0.392
X-10.636 Y-0.454
X-10.635 Y-0.517
X-10.632 Y-0.58
X-10.627 Y-0.643
X-10.62 Y-0.705
X-10.61 Y-0.768
X-10.598 Y-0.829
X-10.584 Y-0.891
X-10.566 Y-0.951
X-10.546 Y-1.01
X-10.537 Y-1.031
X-10.511 Y-1.084
X-10.475 Y-1.132
X-10.433 Y-1.173
X-10.383 Y-1.206
X-10.329 Y-1.23
X-10.272 Y-1.245
X-10.213 Y-1.25
X-9.743
X-9.701 Y-1.242
X-9.663 Y-1.223
X-9.632 Y-1.195
X-9.61 Y-1.158
X-9.373 Y-0.591
X-8.768 Y0.856
X-8.529 Y1.428
X-8.518 Y1.468
X-8.519 Y1.509
X-8.531 Y1.548
X-8.553 Y1.583
X-8.573 Y1.605
X-8.574 Y1.607
X-8.611 Y1.65
X-8.619 Y1.661
X-8.645 Y1.695
X-8.664 Y1.72
X-8.679 Y1.74
X-8.709 Y1.785
X-8.724 Y1.808
X-8.741 Y1.833
X-8.762 Y1.858
X-8.787 Y1.883
X-8.817 Y1.909
X-8.853 Y1.935
X-8.893 Y1.959
X-8.939 Y1.983
X-8.992 Y2.004
X-9.05 Y2.023
X-9.112 Y2.037
X-9.174 Y2.047
X-9.236 Y2.052
X-9.299 Y2.053
X-9.362 Y2.051
X-9.425 Y2.044
X-9.487 Y2.035
X-9.548 Y2.022
X-9.609 Y2.006
X-9.669 Y1.988
X-9.729 Y1.966
X-9.787 Y1.943
X-9.844 Y1.917
X-9.9 Y1.888
X-9.956 Y1.858
X-10.01 Y1.826
X-10.062 Y1.792
X-10.114 Y1.756
X-10.165 Y1.718
X-10.214 Y1.679
X-10.262 Y1.639
X-10.309 Y1.597
X-10.354 Y1.553
X-10.399 Y1.509
X-10.442 Y1.463
X-10.484 Y1.416
X-10.524 Y1.368
X-10.564 Y1.319
X-10.602 Y1.269
X-10.639 Y1.218
X-10.674 Y1.166
X-10.708 Y1.113
X-10.742 Y1.06
X-10.773 Y1.006
X-10.804 Y0.951
X-10.833 Y0.895
X-10.862 Y0.839
X-10.888 Y0.782
X-10.914 Y0.724
X-10.939 Y0.667
X-10.962 Y0.608
X-10.984 Y0.549
X-11.004 Y0.49
X-11.024 Y0.43
X-11.042 Y0.37
X-11.058 Y0.309
X-11.074 Y0.248
X-11.088 Y0.187
X-11.101 Y0.125
X-11.112 Y0.063
X-11.123 Y0.001
X-11.131 Y-0.061
X-11.139 Y-0.124
X-11.145 Y-0.186
X-11.149 Y-0.249
X-11.152 Y-0.312
X-11.154 Y-0.375
X-11.153 Y-0.438
X-11.152 Y-0.5
X-11.148 Y-0.563
X-11.143 Y-0.626
X-11.135 Y-0.688
X-11.126 Y-0.75
X-11.114 Y-0.812
X-11.099 Y-0.873
X-11.082 Y-0.934
X-11.062 Y-0.994
X-11.048 Y-1.028
X-11.022 Y-1.082
X-10.986 Y-1.13
X-10.944 Y-1.172
X-10.894 Y-1.205
X-10.84 Y-1.23
X-10.782 Y-1.245
X-10.723 Y-1.25
X-10.238
X-10.198 Y-1.243
X-10.162 Y-1.226
X-10.131 Y-1.2
X-10.108 Y-1.166
X-9.834 Y-0.607
X-8.999 Y1.094
X-8.718 Y1.665
X-8.707 Y1.697
X-8.703 Y1.731
X-8.708 Y1.771
X-8.724 Y1.808
X-8.738 Y1.83
X-8.754 Y1.857
X-8.765 Y1.875
X-8.79 Y1.92
X-8.799 Y1.938
X-8.813 Y1.965
X-8.836 Y2.01
X-8.844 Y2.029
X-8.855 Y2.055
X-8.868 Y2.082
X-8.884 Y2.11
X-8.904 Y2.138
X-8.928 Y2.168
X-8.958 Y2.199
X-8.992 Y2.23
X-9.033 Y2.26
X-9.079 Y2.29
X-9.132 Y2.318
X-9.19 Y2.342
X-9.25 Y2.363
X-9.311 Y2.378
X-9.372 Y2.39
X-9.435 Y2.398
X-9.498 Y2.403
X-9.56
X-9.623 Y2.401
X-9.686 Y2.395
X-9.748 Y2.387
X-9.81 Y2.375
X-9.871 Y2.362
X-9.932 Y2.345
X-9.992 Y2.326
X-10.051 Y2.305
X-10.11 Y2.282
X-10.167 Y2.257
X-10.224 Y2.229
X-10.28 Y2.2
X-10.335 Y2.169
X-10.389 Y2.137
X-10.441 Y2.103
X-10.493 Y2.067
X-10.544 Y2.03
X-10.594 Y1.991
X-10.642 Y1.952
X-10.69 Y1.91
X-10.736 Y1.868
X-10.782 Y1.825
X-10.826 Y1.78
X-10.869 Y1.734
X-10.912 Y1.688
X-10.953 Y1.64
X-10.993 Y1.591
X-11.032 Y1.542
X-11.069 Y1.492
X-11.106 Y1.441
X-11.142 Y1.389
X-11.176 Y1.336
X-11.197 Y1.303
X-11.22 Y1.26
X-11.236 Y1.214
X-11.247 Y1.166
X-11.25 Y1.117
Y-1.047
Y-1.092
X-11.249 Y-1.115
X-11.245 Y-1.137
X-11.237 Y-1.157
X-11.227 Y-1.177
X-11.224 Y-1.182
X-11.216 Y-1.192
X-11.206 Y-1.203
X-11.194 Y-1.214
X-11.182 Y-1.224
X-11.177 Y-1.227
X-11.157 Y-1.237
X-11.137 Y-1.245
X-11.115 Y-1.249
X-11.092 Y-1.25
X-10.777
X-10.74 Y-1.244
X-10.705 Y-1.229
X-10.676 Y-1.205
X-10.653 Y-1.175
X-10.337 Y-0.626
X-9.192 Y1.362
X-8.866 Y1.928
X-8.85 Y1.968
X-8.846 Y2.012
X-8.855 Y2.055
X-8.874 Y2.1
X-8.892 Y2.145
X-8.907 Y2.19
X-8.922 Y2.235
X-8.934 Y2.275
X-8.935 Y2.28
X-8.947 Y2.325
X-8.953 Y2.348
X-8.964 Y2.377
X-8.978 Y2.408
X-8.997 Y2.441
X-9.02 Y2.476
X-9.048 Y2.511
X-9.082 Y2.547
X-9.122 Y2.583
X-9.168 Y2.619
X-9.221 Y2.654
X-9.276 Y2.684
X-9.334 Y2.71
X-9.392 Y2.732
X-9.453 Y2.75
X-9.514 Y2.765
X-9.576 Y2.776
X-9.638 Y2.784
X-9.701 Y2.789
X-9.764 Y2.791
X-9.827 Y2.79
X-9.889 Y2.786
X-9.952 Y2.78
X-10.014 Y2.771
X-10.076 Y2.759
X-10.137 Y2.746
X-10.198 Y2.73
X-10.259 Y2.712
X-10.318 Y2.692
X-10.377 Y2.671
X-10.436 Y2.647
X-10.493 Y2.622
X-10.55 Y2.595
X-10.606 Y2.566
X-10.661 Y2.536
X-10.716 Y2.504
X-10.769 Y2.471
X-10.822 Y2.436
X-10.873 Y2.401
X-10.924 Y2.363
X-10.974 Y2.325
X-11.023 Y2.286
X-11.071 Y2.245
X-11.118 Y2.203
X-11.138 Y2.185
X-11.177 Y2.143
X-11.208 Y2.094
X-11.231 Y2.041
X-11.245 Y1.986
X-11.25 Y1.928
Y1.156
G3 X-11.095 Y1.011 I0.15 J0.005
X-11.026 Y1.031 I-0.005 J0.15
G1 X-10.611 Y1.266
X-9.542 Y1.871
X-9.021 Y2.167
X-8.984 Y2.196
X-8.959 Y2.234
X-8.946 Y2.279
X-8.947 Y2.325
X-8.957 Y2.37
X-8.967 Y2.415
X-8.976 Y2.46
X-8.979 Y2.484
X-8.982 Y2.505
X-8.988 Y2.55
X-8.993 Y2.595
X-8.994 Y2.608
X-8.996 Y2.628
X-9.002 Y2.66
X-9.012 Y2.692
X-9.025 Y2.728
X-9.043 Y2.766
X-9.065 Y2.806
X-9.093 Y2.847
X-9.127 Y2.889
X-9.167 Y2.931
X-9.214 Y2.973
X-9.264 Y3.012
X-9.316 Y3.046
X-9.371 Y3.077
X-9.428 Y3.105
X-9.486 Y3.128
X-9.545 Y3.149
X-9.606 Y3.167
X-9.667 Y3.181
X-9.729 Y3.193
X-9.791 Y3.201
X-9.854 Y3.207
X-9.917 Y3.21
X-9.979 Y3.211
X-10.042 Y3.209
X-10.105 Y3.206
X-10.168 Y3.199
X-10.23 Y3.191
X-10.292 Y3.18
X-10.354 Y3.168
X-10.415 Y3.154
X-10.476 Y3.137
X-10.536 Y3.119
X-10.596 Y3.099
X-10.655 Y3.078
X-10.713 Y3.055
X-10.771 Y3.03
X-10.829 Y3.004
X-10.885 Y2.977
X-10.941 Y2.948
X-10.996 Y2.918
X-11.05 Y2.886
X-11.086 Y2.864
X-11.133 Y2.828
X-11.173 Y2.786
X-11.206 Y2.737
X-11.23 Y2.683
X-11.245 Y2.626
X-11.25 Y2.567
Y1.965
X-11.241 Y1.92
X-11.219 Y1.879
X-11.186 Y1.848
X-11.145 Y1.827
X-11.099 Y1.82
X-11.054 Y1.828
X-10.571 Y1.984
X-9.661 Y2.279
X-9.098 Y2.461
X-9.055 Y2.483
X-9.021 Y2.517
X-9. Y2.561
X-8.994 Y2.608
X-8.996 Y2.64
X-8.998 Y2.685
X-8.999 Y2.729
X-9. Y2.774
Y2.909
X-9.002 Y2.952
X-9.007 Y2.987
X-9.015 Y3.023
X-9.027 Y3.063
X-9.043 Y3.107
X-9.065 Y3.151
X-9.093 Y3.198
X-9.126 Y3.246
X-9.167 Y3.295
X-9.211 Y3.34
X-9.258 Y3.382
X-9.307 Y3.42
X-9.359 Y3.455
X-9.413 Y3.488
X-9.469 Y3.517
X-9.526 Y3.543
X-9.585 Y3.566
X-9.644 Y3.587
X-9.705 Y3.604
X-9.766 Y3.619
X-9.827 Y3.632
X-9.889 Y3.642
X-9.952 Y3.65
X-10.015 Y3.655
X-10.077 Y3.658
X-10.14 Y3.659
X-10.203 Y3.658
X-10.266 Y3.654
X-10.329 Y3.649
X-10.391 Y3.642
X-10.453 Y3.633
X-10.515 Y3.623
X-10.577 Y3.61
X-10.638 Y3.596
X-10.699 Y3.58
X-10.76 Y3.563
X-10.82 Y3.544
X-10.879 Y3.523
X-10.938 Y3.501
X-10.996 Y3.476
X-11.052 Y3.449
X-11.064 Y3.443
X-11.11 Y3.414
X-11.15 Y3.378
X-11.185 Y3.337
X-11.213 Y3.29
X-11.233 Y3.24
X-11.246 Y3.188
X-11.25 Y3.134
Y2.595
X-11.243 Y2.553
X-11.224 Y2.515
X-11.195 Y2.484
X-11.159 Y2.462
X-11.118 Y2.451
X-11.076 Y2.452
X-10.552 Y2.536
X-9.698 Y2.674
X-9.126 Y2.766
X-9.087 Y2.779
X-9.052 Y2.801
X-9.025 Y2.832
X-9.007 Y2.869
X-9. Y2.909
Y3.294
X-9.002 Y3.335
X-9.007 Y3.373
X-9.016 Y3.414
X-9.029 Y3.459
X-9.048 Y3.507
X-9.072 Y3.557
X-9.103 Y3.609
X-9.139 Y3.661
X-9.179 Y3.709
X-9.222 Y3.755
X-9.269 Y3.797
X-9.317 Y3.837
X-9.368 Y3.874
X-9.421 Y3.908
X-9.476 Y3.939
X-9.532 Y3.968
X-9.589 Y3.994
X-9.647 Y4.018
X-9.707 Y4.039
X-9.767 Y4.057
X-9.827 Y4.073
X-9.889 Y4.087
X-9.951 Y4.099
X-10.013 Y4.109
X-10.075 Y4.116
X-10.138 Y4.122
X-10.201 Y4.125
X-10.264 Y4.127
X-10.326
X-10.389 Y4.125
X-10.452 Y4.121
X-10.515 Y4.115
X-10.577 Y4.108
X-10.639 Y4.099
X-10.701 Y4.088
X-10.763 Y4.075
X-10.824 Y4.06
X-10.885 Y4.043
X-10.944 Y4.023
X-11.003 Y4.001
X-11.039 Y3.985
X-11.091 Y3.958
X-11.136 Y3.922
X-11.176 Y3.88
X-11.208 Y3.831
X-11.231 Y3.778
X-11.245 Y3.722
X-11.25 Y3.664
Y3.179
X-11.241 Y3.132
X-11.217 Y3.091
X-11.182 Y3.059
X-11.139 Y3.039
X-11.091 Y3.035
X-10.546 Y3.067
X-9.704 Y3.116
X-9.141 Y3.149
X-9.098 Y3.158
X-9.059 Y3.18
X-9.028 Y3.211
X-9.008 Y3.25
X-9. Y3.294
Y3.719
X-9.001 Y3.747
X-9.007 Y3.788
X-9.016 Y3.832
X-9.031 Y3.88
X-9.05 Y3.931
X-9.077 Y3.985
X-9.109 Y4.039
X-9.145 Y4.091
X-9.184 Y4.14
X-9.227 Y4.186
X-9.272 Y4.23
X-9.32 Y4.27
X-9.37 Y4.309
X-9.422 Y4.344
X-9.475 Y4.377
X-9.53 Y4.408
X-9.586 Y4.436
X-9.644 Y4.462
X-9.702 Y4.486
X-9.761 Y4.507
X-9.821 Y4.526
X-9.882 Y4.543
X-9.943 Y4.558
X-10.004 Y4.571
X-10.066 Y4.582
X-10.128 Y4.591
X-10.191 Y4.599
X-10.254 Y4.604
X-10.316 Y4.607
X-10.379 Y4.609
X-10.442
X-10.505 Y4.607
X-10.568 Y4.603
X-10.63 Y4.597
X-10.693 Y4.589
X-10.755 Y4.579
X-10.817 Y4.567
X-10.878 Y4.552
X-10.938 Y4.534
X-10.998 Y4.514
X-11.031 Y4.501
X-11.084 Y4.474
X-11.131 Y4.439
X-11.172 Y4.396
X-11.206 Y4.347
X-11.23 Y4.293
X-11.245 Y4.235
X-11.25 Y4.176
Y3.719
X-11.241 Y3.674
X-11.22 Y3.633
X-11.187 Y3.601
X-11.145 Y3.581
X-11.1 Y3.574
X-10.545
X-9.705
X-9.15
X-9.105 Y3.581
X-9.063 Y3.601
X-9.03 Y3.633
X-9.009 Y3.674
X-9. Y3.719
Y4.123
X-9.003 Y4.182
X-9.009 Y4.225
X-9.019 Y4.271
X-9.034 Y4.321
X-9.054 Y4.375
X-9.082 Y4.432
X-9.114 Y4.486
X-9.15 Y4.538
X-9.189 Y4.587
X-9.231 Y4.634
X-9.276 Y4.678
X-9.323 Y4.72
X-9.372 Y4.759
X-9.423 Y4.796
X-9.475 Y4.83
X-9.529 Y4.862
X-9.585 Y4.892
X-9.641 Y4.92
X-9.699 Y4.945
X-9.757 Y4.969
X-9.816 Y4.99
X-9.876 Y5.009
X-9.937 Y5.027
X-9.998 Y5.042
X-10.059 Y5.056
X-10.121 Y5.067
X-10.183 Y5.077
X-10.245 Y5.084
X-10.308 Y5.09
X-10.371 Y5.094
X-10.434 Y5.096
X-10.497 Y5.097
X-10.559 Y5.095
X-10.622 Y5.091
X-10.685 Y5.085
X-10.747 Y5.077
X-10.809 Y5.066
X-10.871 Y5.053
X-10.931 Y5.036
X-10.991 Y5.017
X-11.025 Y5.004
X-11.079 Y4.978
X-11.128 Y4.943
X-11.17 Y4.9
X-11.204 Y4.85
X-11.229 Y4.796
X-11.245 Y4.737
X-11.25 Y4.677
Y4.213
X-11.242 Y4.169
X-11.221 Y4.13
X-11.19 Y4.098
X-11.151 Y4.077
X-11.107 Y4.069
X-10.546 Y4.043
X-9.704 Y4.004
X-9.157 Y3.979
X-9.11 Y3.984
X-9.067 Y4.004
X-9.032 Y4.036
X-9.009 Y4.077
X-9. Y4.123
Y4.573
X-9.003 Y4.631
X-9.009 Y4.676
X-9.019 Y4.724
X-9.035 Y4.777
X-9.057 Y4.833
X-9.084 Y4.89
X-9.116 Y4.944
X-9.151 Y4.996
X-9.19 Y5.046
X-9.232 Y5.093
X-9.276 Y5.138
X-9.322 Y5.18
X-9.371 Y5.22
X-9.421 Y5.258
X-9.473 Y5.293
X-9.526 Y5.327
X-9.581 Y5.358
X-9.637 Y5.387
X-9.693 Y5.414
X-9.751 Y5.439
X-9.81 Y5.461
X-9.869 Y5.482
X-9.929 Y5.501
X-9.99 Y5.518
X-10.051 Y5.533
X-10.112 Y5.546
X-10.174 Y5.558
X-10.236 Y5.567
X-10.299 Y5.574
X-10.362 Y5.58
X-10.424 Y5.583
X-10.487 Y5.585
X-10.55
X-10.613 Y5.582
X-10.676 Y5.577
X-10.738 Y5.57
X-10.8 Y5.561
X-10.862 Y5.548
X-10.923 Y5.533
X-10.983 Y5.515
X-11.02 Y5.502
X-11.075 Y5.476
X-11.125 Y5.441
X-11.168 Y5.398
X-11.203 Y5.348
X-11.229 Y5.292
X-11.245 Y5.233
X-11.25 Y5.173
Y4.708
X-11.242 Y4.665
X-11.222 Y4.626
X-11.192 Y4.594
X-11.153 Y4.573
X-11.11 Y4.563
X-10.546 Y4.524
X-9.704 Y4.466
X-9.16 Y4.428
X-9.113 Y4.433
X-9.069 Y4.452
X-9.033 Y4.484
X-9.009 Y4.526
X-9. Y4.573
Y5.047
X-9.002 Y5.093
X-9.008 Y5.139
X-9.019 Y5.189
X-9.035 Y5.243
X-9.058 Y5.301
X-9.085 Y5.358
X-9.117 Y5.412
X-9.152 Y5.464
X-9.19 Y5.514
X-9.231 Y5.562
X-9.275 Y5.607
X-9.321 Y5.65
X-9.369 Y5.691
X-9.419 Y5.729
X-9.47 Y5.765
X-9.523 Y5.799
X-9.577 Y5.831
X-9.633 Y5.861
X-9.689 Y5.889
X-9.747 Y5.915
X-9.805 Y5.939
X-9.864 Y5.96
X-9.923 Y5.98
X-9.984 Y5.998
X-10.045 Y6.014
X-10.106 Y6.028
X-10.168 Y6.041
X-10.23 Y6.051
X-10.292 Y6.059
X-10.354 Y6.066
X-10.417 Y6.07
X-10.48 Y6.073
X-10.543
X-10.606 Y6.072
X-10.669 Y6.068
X-10.731 Y6.062
X-10.794 Y6.053
X-10.855 Y6.041
X-10.916 Y6.027
X-10.977 Y6.009
X-11.016 Y5.995
X-11.072 Y5.969
X-11.123 Y5.934
X-11.167 Y5.891
X-11.202 Y5.841
X-11.229 Y5.785
X-11.245 Y5.726
X-11.25 Y5.665
Y5.202
X-11.242 Y5.159
X-11.222 Y5.121
X-11.192 Y5.089
X-11.154 Y5.068
X-11.112 Y5.058
X-10.547 Y5.013
X-9.703 Y4.946
X-9.162 Y4.903
X-9.15 Y4.902
X-9.105 Y4.909
X-9.063 Y4.93
X-9.03 Y4.962
X-9.009 Y5.002
X-9. Y5.047
Y5.517
X-9.002 Y5.566
X-9.003 Y5.57
Y5.574
Y5.578
X-9.004 Y5.582
Y5.586
Y5.59
X-9.005 Y5.594
Y5.599
X-9.006 Y5.603
Y5.607
X-9.007 Y5.611
Y5.616
X-9.008 Y5.62
X-9.009 Y5.625
Y5.629
X-9.01 Y5.634
X-9.011 Y5.638
X-9.012 Y5.643
X-9.013 Y5.647
X-9.014 Y5.652
X-9.015 Y5.657
X-9.016 Y5.661
X-9.017 Y5.666
X-9.018 Y5.671
X-9.019 Y5.676
X-9.02 Y5.681
X-9.021 Y5.686
X-9.023 Y5.691
X-9.024 Y5.696
X-9.025 Y5.701
X-9.027 Y5.705
X-9.028 Y5.71
X-9.03 Y5.715
X-9.031 Y5.72
X-9.033 Y5.726
X-9.035 Y5.731
X-9.036 Y5.736
X-9.038 Y5.741
X-9.04 Y5.747
X-9.042 Y5.752
X-9.044 Y5.758
X-9.046 Y5.763
X-9.048 Y5.768
X-9.05 Y5.774
X-9.052 Y5.779
X-9.055 Y5.784
X-9.057 Y5.79
X-9.059 Y5.796
X-9.062 Y5.801
X-9.064 Y5.807
X-9.067 Y5.813
X-9.069 Y5.819
X-9.072 Y5.824
X-9.075 Y5.83
X-9.078 Y5.835
X-9.08 Y5.841
X-9.083 Y5.847
X-9.086 Y5.853
X-9.09 Y5.859
X-9.093 Y5.865
X-9.096 Y5.871
X-9.099 Y5.877
X-9.103 Y5.883
X-9.106 Y5.889
X-9.11 Y5.895
X-9.113 Y5.901
X-9.117 Y5.907
X-9.121 Y5.913
X-9.125 Y5.92
X-9.129 Y5.926
X-9.132 Y5.932
X-9.136 Y5.938
X-9.14 Y5.944
X-9.145 Y5.95
X-9.149 Y5.957
X-9.153 Y5.963
X-9.158 Y5.969
X-9.163 Y5.976
X-9.167 Y5.982
X-9.172 Y5.989
X-9.177 Y5.995
X-9.181 Y6.001
X-9.186 Y6.008
X-9.191 Y6.014
X-9.197 Y6.021
X-9.202 Y6.027
X-9.208 Y6.034
X-9.213 Y6.04
X-9.218 Y6.047
X-9.224 Y6.053
X-9.229 Y6.06
X-9.235 Y6.066
X-9.24 Y6.071
X-9.246 Y6.078
X-9.252 Y6.085
X-9.258 Y6.091
X-9.264 Y6.098
X-9.271 Y6.104
X-9.277 Y6.111
X-9.284 Y6.117
X-9.29 Y6.124
X-9.297 Y6.131
X-9.304 Y6.138
X-9.311 Y6.144
X-9.318 Y6.151
X-9.325 Y6.157
X-9.333 Y6.164
X-9.34 Y6.17
X-9.348 Y6.177
X-9.356 Y6.184
X-9.363 Y6.191
X-9.371 Y6.197
X-9.379 Y6.204
X-9.387 Y6.21
X-9.395 Y6.217
X-9.403 Y6.223
X-9.412 Y6.23
X-9.421 Y6.237
X-9.429 Y6.243
X-9.438 Y6.25
X-9.446 Y6.256
X-9.455 Y6.263
X-9.465 Y6.269
X-9.474 Y6.276
X-9.483 Y6.282
X-9.492 Y6.289
X-9.502 Y6.295
X-9.512 Y6.301
X-9.521 Y6.308
X-9.532 Y6.314
X-9.542 Y6.32
X-9.552 Y6.327
X-9.562 Y6.333
X-9.572 Y6.339
X-9.583 Y6.345
X-9.593 Y6.351
X-9.604 Y6.358
X-9.615 Y6.364
X-9.626 Y6.369
X-9.637 Y6.375
X-9.648 Y6.381
X-9.659 Y6.387
X-9.671 Y6.393
X-9.682 Y6.399
X-9.694 Y6.405
X-9.705 Y6.41
X-9.717 Y6.416
X-9.73 Y6.422
X-9.742 Y6.427
X-9.754 Y6.433
X-9.766 Y6.438
X-9.778 Y6.443
X-9.791 Y6.449
X-9.804 Y6.454
X-9.816 Y6.459
X-9.829 Y6.464
X-9.842 Y6.469
X-9.855 Y6.474
X-9.868 Y6.479
X-9.882 Y6.484
X-9.895 Y6.489
X-9.908 Y6.493
X-9.921 Y6.498
X-9.935 Y6.502
X-9.949 Y6.507
X-9.963 Y6.511
X-9.976 Y6.515
X-9.99 Y6.519
X-10.003 Y6.523
X-10.018 Y6.527
X-10.032 Y6.531
X-10.046 Y6.535
X-10.06 Y6.538
X-10.074 Y6.542
X-10.088 Y6.546
X-10.103 Y6.549
X-10.118 Y6.552
X-10.132 Y6.555
X-10.146 Y6.558
X-10.16 Y6.561
X-10.175 Y6.564
X-10.19 Y6.567
X-10.204 Y6.57
X-10.218 Y6.572
X-10.232 Y6.574
X-10.246 Y6.577
X-10.261 Y6.579
X-10.276 Y6.581
X-10.291 Y6.583
X-10.305 Y6.585
X-10.319 Y6.587
X-10.333 Y6.588
X-10.348 Y6.59
X-10.363 Y6.591
X-10.377 Y6.593
X-10.391 Y6.594
X-10.405 Y6.595
X-10.419 Y6.596
X-10.433 Y6.597
X-10.448 Y6.598
X-10.462
X-10.476 Y6.599
X-10.49
X-10.503 Y6.6
X-10.517
X-10.531
X-10.545
X-10.558
X-10.571
X-10.583
X-10.595 Y6.599
X-10.607
X-10.62 Y6.598
X-10.633
X-10.646 Y6.597
X-10.659 Y6.596
X-10.671
X-10.682 Y6.595
X-10.694 Y6.594
X-10.705 Y6.593
X-10.716 Y6.592
X-10.726 Y6.59
X-10.736 Y6.589
X-10.746 Y6.588
X-10.756 Y6.587
X-10.766 Y6.585
X-10.776 Y6.584
X-10.787 Y6.582
X-10.797 Y6.581
X-10.808 Y6.579
X-10.818 Y6.577
X-10.828 Y6.575
X-10.838 Y6.573
X-10.848 Y6.572
X-10.857 Y6.57
X-10.866 Y6.568
X-10.875 Y6.566
X-10.884 Y6.564
X-10.893 Y6.562
X-10.901 Y6.56
X-10.91 Y6.558
X-10.918 Y6.555
X-10.927 Y6.553
X-10.935 Y6.551
X-10.944 Y6.548
X-10.953 Y6.546
X-10.962 Y6.543
X-10.971 Y6.54
X-10.98 Y6.537
X-10.988 Y6.535
X-10.996 Y6.532
X-11.005 Y6.529
X-11.013 Y6.527
X-11.017 Y6.525
X-11.073 Y6.499
X-11.123 Y6.464
X-11.167 Y6.421
X-11.203 Y6.371
X-11.229 Y6.316
X-11.245 Y6.256
X-11.25 Y6.195
Y5.697
X-11.242 Y5.654
X-11.223 Y5.616
X-11.193 Y5.585
X-11.156 Y5.563
X-11.114 Y5.553
X-10.547 Y5.501
X-9.703 Y5.423
X-9.164 Y5.373
X-9.115 Y5.376
X-9.07 Y5.395
X-9.034 Y5.427
X-9.01 Y5.469
X-9. Y5.517
Y6.012
Y6.036
Y6.042
X-9.001 Y6.072
X-9.01 Y6.134
X-9.017 Y6.196
X-9.014 Y6.259
X-9.005 Y6.311
X-9.002 Y6.33
X-9.001 Y6.349
X-9. Y6.369
G3 X-9.155 Y6.514 I-0.15 J-0.005
X-9.3 Y6.358 I0.005 J-0.15
X-9.22 Y6.001 I0.999 J0.035
G1 X-9.2 Y5.969
X-9.169 Y5.945
X-9.132 Y5.933
X-9.094 Y5.934
X-9.058 Y5.947
X-9.028 Y5.972
X-9.008 Y6.005
X-9. Y6.042
Y7.226
X-8.999 Y7.271
X-8.998 Y7.315
X-8.996 Y7.36
X-8.993 Y7.405
X-8.988 Y7.45
X-8.982 Y7.495
X-8.979 Y7.516
X-8.976 Y7.54
X-8.967 Y7.585
X-8.957 Y7.63
X-8.947 Y7.675
X-8.935 Y7.72
X-8.934 Y7.725
X-8.922 Y7.765
X-8.916 Y7.804
Y7.805
X-8.922 Y7.846
X-8.939 Y7.884
X-8.966 Y7.916
X-9.001 Y7.94
X-9.52 Y8.192
X-10.596 Y8.716
X-11.034 Y8.929
G3 X-11.235 Y8.86 I-0.066 J-0.135
X-11.25 Y8.799 I0.135 J-0.066
G1 Y8.215
Y8.19
Y8.189
X-11.248 Y8.159
X-11.241 Y8.105
X-11.229 Y8.047
X-11.211 Y7.986
X-11.202 Y7.924
X-11.203 Y7.861
X-11.21 Y7.799
X-11.223 Y7.737
X-11.237 Y7.688
X-11.244 Y7.657
X-11.249 Y7.626
X-11.25 Y7.594
G3 X-11.095 Y7.449 I0.15 J0.005
X-10.99 Y7.497 I-0.005 J0.15
X-10.95 Y7.604 I-0.11 J0.102
X-11.183 Y8.212 I-0.999 J-0.035
G1 X-11.202 Y8.224
X-11.225
X-11.243 Y8.21
X-11.25 Y8.189
Y6.236
X-11.241 Y6.191
X-11.22 Y6.151
X-11.187 Y6.119
X-11.146 Y6.099
X-11.1 Y6.092
G3 X-10.95 Y6.242 I0. J0.15
X-11.1 Y6.392 I-0.15 J0.
X-11.18 Y6.369 I0. J-0.15
G0 Z15.

(2D Contour (cutout))
G64
X-4.85 Y-1.2
Z15.
Z0.35
G1 Z-2.85 F80
Z-5.3
Y-1.193 Z-5.346
Y-1.171 Z-5.388
Y-1.138 Z-5.421
Y-1.096 Z-5.443
Y-1.05 Z-5.45
Y-0.9 F800
X-4.857 Y-0.854
X-4.879 Y-0.812
X-4.912 Y-0.779
X-4.954 Y-0.757
X-5. Y-0.75
X-9.
G2 X-10.75 Y1. I0. J1.75
G1 Y9.
G2 X-9. Y10.75 I1.75 J0.
G1 X-1.
G2 X0.75 Y9. I0. J-1.75
G1 Y1.
G2 X-1. Y-0.75 I-1.75 J0.
G1 X-5.
X-5.046 Y-0.757
X-5.088 Y-0.779
X-5.121 Y-0.812
X-5.143 Y-0.854
X-5.15 Y-0.9
Y-1.05
Y-1.096 Z-5.443
Y-1.138 Z-5.421
Y-1.171 Z-5.388
Y-1.193 Z-5.346
Y-1.2 Z-5.3
G0 Z5.
X-4.85
Z0.35
G1 Z-3.65 F80
Z-5.8
Y-1.193 Z-5.846
Y-1.171 Z-5.888
Y-1.138 Z-5.921
Y-1.096 Z-5.943
Y-1.05 Z-5.95
Y-0.9 F800
X-4.857 Y-0.854
X-4.879 Y-0.812
X-4.912 Y-0.779
X-4.954 Y-0.757
X-5. Y-0.75
X-9.
G2 X-10.75 Y1. I0. J1.75
G1 Y9.
G2 X-9. Y10.75 I1.75 J0.
G1 X-1.
G2 X0.75 Y9. I0. J-1.75
G1 Y1.
G2 X-1. Y-0.75 I-1.75 J0.
G1 X-5.
X-5.046 Y-0.757
X-5.088 Y-0.779
X-5.121 Y-0.812
X-5.143 Y-0.854
X-5.15 Y-0.9
Y-1.05
Y-1.096 Z-5.943
Y-1.138 Z-5.921
Y-1.171 Z-5.888
Y-1.193 Z-5.846
Y-1.2 Z-5.8
G0 Z15.
M5
G53 Z0.
M30
