(1001)
(T1  D=1.5 CR=0. - ZMIN=-5.95 - flat end mill)
G90
G0 G53 Z0.

(2D Adaptive (buttons))
T1 M6 (flat end mill D=1.5 1.5 mm Fishtail Upcut Endmill - Acrylic Max Pass Depth 0.8 mm)
S18000 M3
G64
G54
G43 H1
G0 X-33.755 Y12.527
Z15.
Z5.
Z-0.699
G3 X-33.527 Y11.546 Z-0.738 I0.605 J-0.377 F800
X-32.546 Y11.773 Z-0.777 I0.377 J0.605
X-32.773 Y12.755 Z-0.816 I-0.605 J0.377
X-33.755 Y12.527 Z-0.855 I-0.377 J-0.605
X-33.527 Y11.546 Z-0.894 I0.605 J-0.377
X-32.546 Y11.773 Z-0.933 I0.377 J0.605
X-32.773 Y12.755 Z-0.973 I-0.605 J0.377
X-33.755 Y12.527 Z-1.012 I-0.377 J-0.605
X-33.527 Y11.546 Z-1.051 I0.605 J-0.377
X-32.546 Y11.773 Z-1.09 I0.377 J0.605
X-32.773 Y12.755 Z-1.129 I-0.605 J0.377
X-33.755 Y12.527 Z-1.168 I-0.377 J-0.605
X-33.527 Y11.546 Z-1.207 I0.605 J-0.377
X-32.546 Y11.773 Z-1.246 I0.377 J0.605
X-32.773 Y12.755 Z-1.285 I-0.605 J0.377
X-33.755 Y12.527 Z-1.324 I-0.377 J-0.605
X-33.527 Y11.546 Z-1.363 I0.605 J-0.377
X-32.546 Y11.773 Z-1.402 I0.377 J0.605
X-32.773 Y12.755 Z-1.442 I-0.605 J0.377
X-33.755 Y12.527 Z-1.481 I-0.377 J-0.605
X-33.527 Y11.546 Z-1.52 I0.605 J-0.377
X-32.546 Y11.773 Z-1.559 I0.377 J0.605
X-32.773 Y12.755 Z-1.598 I-0.605 J0.377
X-33.755 Y12.527 Z-1.637 I-0.377 J-0.605
X-33.527 Y11.546 Z-1.676 I0.605 J-0.377
X-32.546 Y11.773 Z-1.715 I0.377 J0.605
X-32.773 Y12.755 Z-1.754 I-0.605 J0.377
X-33.755 Y12.527 Z-1.793 I-0.377 J-0.605
X-33.527 Y11.546 Z-1.832 I0.605 J-0.377
X-32.546 Y11.773 Z-1.871 I0.377 J0.605
X-32.773 Y12.755 Z-1.911 I-0.605 J0.377
X-33.755 Y12.527 Z-1.95 I-0.377 J-0.605
X-33.527 Y11.546 Z-1.989 I0.605 J-0.377
X-32.546 Y11.773 Z-2.028 I0.377 J0.605
X-32.773 Y12.755 Z-2.067 I-0.605 J0.377
X-33.755 Y12.527 Z-2.106 I-0.377 J-0.605
X-33.527 Y11.546 Z-2.145 I0.605 J-0.377
X-32.546 Y11.773 Z-2.184 I0.377 J0.605
X-32.773 Y12.755 Z-2.223 I-0.605 J0.377
X-33.755 Y12.527 Z-2.262 I-0.377 J-0.605
X-33.527 Y11.546 Z-2.301 I0.605 J-0.377
X-32.546 Y11.773 Z-2.34 I0.377 J0.605
X-32.773 Y12.755 Z-2.38 I-0.605 J0.377
X-33.755 Y12.527 Z-2.419 I-0.377 J-0.605
X-33.527 Y11.546 Z-2.458 I0.605 J-0.377
X-32.546 Y11.773 Z-2.497 I0.377 J0.605
X-32.773 Y12.755 Z-2.536 I-0.605 J0.377
X-33.755 Y12.527 Z-2.575 I-0.377 J-0.605
X-33.527 Y11.546 Z-2.614 I0.605 J-0.377
X-32.546 Y11.773 Z-2.653 I0.377 J0.605
X-32.773 Y12.755 Z-2.692 I-0.605 J0.377
X-33.755 Y12.527 Z-2.731 I-0.377 J-0.605
X-33.527 Y11.546 Z-2.77 I0.605 J-0.377
X-32.546 Y11.773 Z-2.809 I0.377 J0.605
X-32.773 Y12.755 Z-2.849 I-0.605 J0.377
X-33.755 Y12.527 Z-2.888 I-0.377 J-0.605
X-33.527 Y11.546 Z-2.927 I0.605 J-0.377
X-32.546 Y11.773 Z-2.966 I0.377 J0.605
X-32.773 Y12.755 Z-3.005 I-0.605 J0.377
X-33.755 Y12.527 Z-3.044 I-0.377 J-0.605
X-33.527 Y11.546 Z-3.083 I0.605 J-0.377
X-32.546 Y11.773 Z-3.122 I0.377 J0.605
X-32.773 Y12.755 Z-3.161 I-0.605 J0.377
X-33.755 Y12.527 Z-3.2 I-0.377 J-0.605
X-33.527 Y11.546 Z-3.239 I0.605 J-0.377
X-32.546 Y11.773 Z-3.278 I0.377 J0.605
X-32.773 Y12.755 Z-3.318 I-0.605 J0.377
X-33.755 Y12.527 Z-3.357 I-0.377 J-0.605
X-33.527 Y11.546 Z-3.396 I0.605 J-0.377
X-32.546 Y11.773 Z-3.435 I0.377 J0.605
X-32.773 Y12.755 Z-3.474 I-0.605 J0.377
X-33.755 Y12.527 Z-3.513 I-0.377 J-0.605
X-33.527 Y11.546 Z-3.552 I0.605 J-0.377
X-32.546 Y11.773 Z-3.591 I0.377 J0.605
X-32.773 Y12.755 Z-3.63 I-0.605 J0.377
X-33.755 Y12.527 Z-3.669 I-0.377 J-0.605
X-33.527 Y11.546 Z-3.708 I0.605 J-0.377
X-32.546 Y11.773 Z-3.747 I0.377 J0.605
X-32.773 Y12.755 Z-3.787 I-0.605 J0.377
X-33.755 Y12.527 Z-3.826 I-0.377 J-0.605
X-33.527 Y11.546 Z-3.865 I0.605 J-0.377
X-32.546 Y11.773 Z-3.904 I0.377 J0.605
X-32.773 Y12.755 Z-3.943 I-0.605 J0.377
X-33.755 Y12.527 Z-3.982 I-0.377 J-0.605
X-33.527 Y11.546 Z-4.021 I0.605 J-0.377
X-32.546 Y11.773 Z-4.06 I0.377 J0.605
X-32.773 Y12.755 Z-4.099 I-0.605 J0.377
X-33.755 Y12.527 Z-4.138 I-0.377 J-0.605
X-33.527 Y11.546 Z-4.177 I0.605 J-0.377
X-32.546 Y11.773 Z-4.216 I0.377 J0.605
X-32.773 Y12.755 Z-4.256 I-0.605 J0.377
X-33.755 Y12.527 Z-4.295 I-0.377 J-0.605
X-33.527 Y11.546 Z-4.334 I0.605 J-0.377
X-32.546 Y11.773 Z-4.373 I0.377 J0.605
X-32.773 Y12.755 Z-4.412 I-0.605 J0.377
X-33.755 Y12.527 Z-4.451 I-0.377 J-0.605
X-33.527 Y11.546 Z-4.49 I0.605 J-0.377
X-32.546 Y11.773 Z-4.529 I0.377 J0.605
X-32.773 Y12.755 Z-4.568 I-0.605 J0.377
X-33.755 Y12.527 Z-4.607 I-0.377 J-0.605
X-33.527 Y11.546 Z-4.646 I0.605 J-0.377
X-32.546 Y11.773 Z-4.685 I0.377 J0.605
X-32.773 Y12.755 Z-4.725 I-0.605 J0.377
X-33.755 Y12.527 Z-4.764 I-0.377 J-0.605
X-33.527 Y11.546 Z-4.803 I0.605 J-0.377
X-32.546 Y11.773 Z-4.842 I0.377 J0.605
X-32.773 Y12.755 Z-4.881 I-0.605 J0.377
X-33.755 Y12.527 Z-4.92 I-0.377 J-0.605
X-33.527 Y11.546 Z-4.959 I0.605 J-0.377
X-32.546 Y11.773 Z-4.998 I0.377 J0.605
X-32.773 Y12.755 Z-5.037 I-0.605 J0.377
X-33.755 Y12.527 Z-5.076 I-0.377 J-0.605
X-33.527 Y11.546 Z-5.115 I0.605 J-0.377
X-32.546 Y11.773 Z-5.154 I0.377 J0.605
X-32.773 Y12.755 Z-5.194 I-0.605 J0.377
X-33.755 Y12.527 Z-5.233 I-0.377 J-0.605
X-33.527 Y11.546 Z-5.272 I0.605 J-0.377
X-32.546 Y11.773 Z-5.311 I0.377 J0.605
X-32.773 Y12.755 Z-5.35 I-0.605 J0.377
X-33.755 Y12.527 Z-5.389 I-0.377 J-0.605
X-33.527 Y11.546 Z-5.428 I0.605 J-0.377
X-32.546 Y11.773 Z-5.467 I0.377 J0.605
X-32.773 Y12.755 Z-5.506 I-0.605 J0.377
X-33.755 Y12.527 Z-5.545 I-0.377 J-0.605
X-33.527 Y11.546 Z-5.584 I0.605 J-0.377
X-32.546 Y11.773 Z-5.623 I0.377 J0.605
X-32.773 Y12.755 Z-5.663 I-0.605 J0.377
X-33.755 Y12.527 Z-5.702 I-0.377 J-0.605
X-33.527 Y11.546 Z-5.741 I0.605 J-0.377
X-32.546 Y11.773 Z-5.78 I0.377 J0.605
X-32.773 Y12.755 Z-5.819 I-0.605 J0.377
X-33.755 Y12.527 Z-5.858 I-0.377 J-0.605
X-33.527 Y11.546 Z-5.897 I0.605 J-0.377
X-32.546 Y11.773 Z-5.936 I0.377 J0.605
X-32.438 Y12.15 Z-5.95 I-0.605 J0.377
X-33.15 Y12.863 I-0.713 J0.
X-33.863 Y12.15 I0. J-0.713
X-33.15 Y11.438 I0.713 J0.
X-32.438 Y12.15 I0. J0.713
G1 Y12.213
X-32.426 Y12.275
X-32.404 Y12.334
X-32.388 Y12.361
X-32.378 Y12.382
X-32.368 Y12.406
X-32.36 Y12.434
X-32.353 Y12.464
X-32.348 Y12.498
X-32.346 Y12.535
X-32.347 Y12.574
X-32.351 Y12.617
X-32.36 Y12.661
X-32.372 Y12.707
X-32.389 Y12.755
X-32.411 Y12.804
X-32.438 Y12.853
X-32.47 Y12.901
X-32.508 Y12.949
X-32.551 Y12.995
X-32.597 Y13.038
X-32.646 Y13.077
X-32.699 Y13.112
X-32.753 Y13.144
X-32.81 Y13.171
X-32.868 Y13.195
X-32.928 Y13.214
X-32.989 Y13.23
X-33.051 Y13.241
X-33.113 Y13.249
X-33.176 Y13.252
X-33.239
X-33.302 Y13.248
X-33.364 Y13.24
X-33.426 Y13.228
X-33.487 Y13.213
X-33.547 Y13.194
X-33.605 Y13.171
X-33.663 Y13.146
X-33.718 Y13.116
X-33.772 Y13.084
X-33.824 Y13.048
X-33.874 Y13.01
X-33.922 Y12.969
X-33.967 Y12.925
X-34.009 Y12.879
X-34.049 Y12.83
X-34.086 Y12.779
X-34.12 Y12.726
X-34.151 Y12.671
X-34.179 Y12.615
X-34.204 Y12.557
X-34.225 Y12.498
X-34.243 Y12.438
X-34.258 Y12.377
X-34.269 Y12.315
X-34.276 Y12.252
X-34.28 Y12.189
X-34.281 Y12.127
X-34.278 Y12.064
X-34.272 Y12.001
X-34.262 Y11.939
X-34.248 Y11.878
X-34.232 Y11.817
X-34.212 Y11.757
X-34.188 Y11.699
X-34.162 Y11.642
X-34.132 Y11.587
X-34.099 Y11.533
X-34.063 Y11.481
X-34.025 Y11.431
X-33.984 Y11.384
X-33.94 Y11.339
X-33.894 Y11.296
X-33.845 Y11.256
X-33.794 Y11.219
X-33.742 Y11.185
X-33.687 Y11.153
X-33.631 Y11.125
X-33.573 Y11.1
X-33.514 Y11.078
X-33.454 Y11.059
X-33.393 Y11.044
X-33.331 Y11.032
X-33.269 Y11.024
X-33.206 Y11.019
X-33.143 Y11.018
X-33.081 Y11.02
X-33.018 Y11.026
X-32.956 Y11.035
X-32.894 Y11.047
X-32.833 Y11.063
X-32.773 Y11.082
X-32.715 Y11.105
X-32.657 Y11.131
X-32.601 Y11.16
X-32.547 Y11.192
X-32.495 Y11.227
X-32.445 Y11.264
X-32.397 Y11.305
X-32.351 Y11.348
X-32.307 Y11.394
X-32.267 Y11.442
X-32.229 Y11.492
X-32.194 Y11.544
X-32.161 Y11.598
X-32.129 Y11.652
X-32.099 Y11.707
X-32.069 Y11.763
X-32.042 Y11.819
X-32.016 Y11.876
X-31.992 Y11.935
X-31.97 Y11.994
X-31.95 Y12.053
X-31.934 Y12.114
X-31.919 Y12.175
X-31.908 Y12.237
X-31.9 Y12.299
X-31.894 Y12.362
X-31.892 Y12.425
X-31.893 Y12.488
X-31.897 Y12.551
X-31.904 Y12.613
X-31.915 Y12.675
X-31.928 Y12.737
X-31.945 Y12.797
X-31.965 Y12.857
X-31.988 Y12.915
X-32.015 Y12.973
X-32.044 Y13.028
X-32.075 Y13.083
X-32.11 Y13.135
X-32.147 Y13.186
X-32.187 Y13.235
X-32.229 Y13.282
X-32.273 Y13.326
X-32.319 Y13.369
X-32.368 Y13.409
X-32.418 Y13.447
X-32.47 Y13.482
X-32.524 Y13.515
X-32.579 Y13.545
X-32.636 Y13.573
X-32.693 Y13.597
X-32.752 Y13.62
X-32.812 Y13.639
X-32.872 Y13.656
X-32.934 Y13.67
X-32.996 Y13.682
X-33.058 Y13.69
X-33.121 Y13.696
X-33.183 Y13.699
X-33.246 Y13.7
X-33.309 Y13.697
X-33.372 Y13.692
X-33.434 Y13.684
X-33.496 Y13.674
X-33.558 Y13.661
X-33.619 Y13.645
X-33.679 Y13.627
X-33.738 Y13.607
X-33.797 Y13.583
X-33.854 Y13.558
X-33.911 Y13.53
X-33.966 Y13.5
X-34.02 Y13.467
X-34.072 Y13.432
X-34.123 Y13.396
X-34.173 Y13.357
X-34.22 Y13.316
X-34.267 Y13.273
X-34.311 Y13.228
X-34.353 Y13.182
X-34.394 Y13.134
X-34.433 Y13.084
X-34.469 Y13.033
X-34.504 Y12.981
X-34.536 Y12.927
X-34.566 Y12.871
X-34.594 Y12.815
X-34.62 Y12.758
X-34.643 Y12.699
X-34.664 Y12.64
X-34.682 Y12.58
X-34.698 Y12.519
X-34.712 Y12.458
X-34.723 Y12.396
X-34.732 Y12.333
X-34.738 Y12.271
X-34.742 Y12.208
X-34.743 Y12.145
X-34.742 Y12.082
X-34.738 Y12.019
X-34.732 Y11.957
X-34.724 Y11.895
X-34.712 Y11.833
X-34.699 Y11.771
X-34.683 Y11.71
X-34.664 Y11.65
X-34.644 Y11.591
X-34.62 Y11.532
X-34.595 Y11.475
X-34.567 Y11.418
X-34.538 Y11.363
X-34.505 Y11.309
X-34.471 Y11.256
X-34.435 Y11.205
X-34.397 Y11.155
X-34.357 Y11.106
X-34.315 Y11.059
X-34.271 Y11.014
X-34.225 Y10.971
X-34.178 Y10.93
X-34.129 Y10.89
X-34.079 Y10.852
X-34.027 Y10.817
X-33.974 Y10.783
X-33.919 Y10.752
X-33.863 Y10.723
X-33.807 Y10.696
X-33.749 Y10.671
X-33.69 Y10.648
X-33.63 Y10.628
X-33.57 Y10.61
X-33.509 Y10.595
X-33.448 Y10.582
X-33.386 Y10.572
X-33.323 Y10.564
X-33.26 Y10.558
X-33.198 Y10.555
X-33.135 Y10.554
X-33.072 Y10.556
X-33.009 Y10.56
X-32.947 Y10.567
X-32.884 Y10.576
X-32.823 Y10.588
X-32.761 Y10.602
X-32.701 Y10.619
X-32.641 Y10.638
X-32.581 Y10.659
X-32.523 Y10.682
X-32.466 Y10.708
X-32.409 Y10.736
X-32.354 Y10.767
X-32.3 Y10.799
X-32.248 Y10.834
X-32.197 Y10.87
X-32.147 Y10.909
X-32.099 Y10.949
X-32.052 Y10.991
X-32.006 Y11.035
X-31.962 Y11.08
X-31.92 Y11.126
X-31.879 Y11.173
X-31.839 Y11.222
X-31.801 Y11.272
X-31.764 Y11.323
X-31.729 Y11.375
X-31.695 Y11.429
X-31.663 Y11.483
X-31.633 Y11.538
X-31.605 Y11.594
X-31.578 Y11.651
X-31.553 Y11.709
X-31.53 Y11.767
X-31.509 Y11.826
X-31.49 Y11.886
X-31.473 Y11.947
X-31.458 Y12.008
X-31.445 Y12.07
X-31.434 Y12.131
X-31.425 Y12.194
X-31.418 Y12.256
X-31.414 Y12.319
X-31.412 Y12.382
Y12.445
X-31.414 Y12.508
X-31.419 Y12.57
X-31.425 Y12.633
X-31.434 Y12.695
X-31.446 Y12.757
X-31.459 Y12.819
X-31.475 Y12.879
X-31.493 Y12.94
X-31.513 Y12.999
X-31.535 Y13.058
X-31.559 Y13.116
X-31.586 Y13.173
X-31.614 Y13.229
X-31.645 Y13.284
X-31.677 Y13.338
X-31.712 Y13.391
X-31.748 Y13.442
X-31.786 Y13.492
X-31.826 Y13.541
X-31.867 Y13.588
X-31.911 Y13.634
X-31.955 Y13.678
X-32.002 Y13.721
X-32.049 Y13.762
X-32.099 Y13.801
X-32.149 Y13.838
X-32.201 Y13.874
X-32.254 Y13.908
X-32.308 Y13.94
X-32.363 Y13.97
X-32.42 Y13.998
X-32.477 Y14.024
X-32.535 Y14.048
X-32.594 Y14.071
X-32.653 Y14.091
X-32.713 Y14.109
X-32.774 Y14.125
X-32.835 Y14.14
X-32.897 Y14.152
X-32.959 Y14.162
X-33.022 Y14.17
X-33.084 Y14.176
X-33.147 Y14.18
X-33.21 Y14.181
X-33.273
X-33.336 Y14.179
X-33.398 Y14.175
X-33.461 Y14.168
X-33.523 Y14.16
X-33.585 Y14.15
X-33.647 Y14.137
X-33.708 Y14.123
X-33.769 Y14.106
X-33.829 Y14.088
X-33.889 Y14.068
X-33.948 Y14.046
X-34.006 Y14.022
X-34.063 Y13.997
X-34.12 Y13.969
X-34.176 Y13.94
X-34.23 Y13.909
X-34.284 Y13.876
X-34.337 Y13.842
X-34.388 Y13.806
X-34.439 Y13.768
X-34.488 Y13.729
X-34.536 Y13.688
X-34.583 Y13.646
X-34.628 Y13.602
X-34.672 Y13.558
X-34.715 Y13.511
X-34.756 Y13.464
X-34.795 Y13.415
X-34.833 Y13.365
X-34.87 Y13.314
X-34.905 Y13.261
X-34.938 Y13.208
X-34.97 Y13.154
X-35. Y13.098
X-35.028 Y13.042
X-35.055 Y12.985
X-35.08 Y12.927
X-35.103 Y12.869
X-35.124 Y12.81
X-35.143 Y12.75
X-35.161 Y12.689
X-35.177 Y12.628
X-35.19 Y12.567
X-35.202 Y12.505
X-35.212 Y12.443
X-35.221 Y12.381
X-35.227 Y12.318
X-35.231 Y12.256
X-35.234 Y12.193
Y12.13
X-35.233 Y12.067
X-35.23 Y12.004
X-35.225 Y11.941
X-35.218 Y11.879
X-35.209 Y11.817
X-35.198 Y11.755
X-35.185 Y11.693
X-35.17 Y11.632
X-35.154 Y11.571
X-35.136 Y11.511
X-35.116 Y11.451
X-35.094 Y11.392
X-35.07 Y11.334
X-35.045 Y11.276
X-35.018 Y11.22
X-34.989 Y11.164
X-34.959 Y11.109
X-34.926 Y11.055
X-34.893 Y11.002
X-34.857 Y10.95
X-34.82 Y10.899
X-34.782 Y10.849
X-34.742 Y10.8
X-34.701 Y10.753
X-34.658 Y10.707
X-34.614 Y10.662
X-34.568 Y10.618
X-34.522 Y10.576
X-34.474 Y10.536
X-34.424 Y10.497
X-34.374 Y10.459
X-34.323 Y10.423
X-34.27 Y10.388
X-34.216 Y10.355
X-34.162 Y10.324
X-34.106 Y10.294
X-34.05 Y10.266
X-33.993 Y10.24
X-33.935 Y10.215
X-33.876 Y10.193
X-33.817 Y10.172
X-33.757 Y10.152
X-33.697 Y10.135
X-33.636 Y10.119
X-33.574 Y10.106
X-33.513 Y10.094
X-33.451 Y10.084
X-33.388 Y10.076
X-33.326 Y10.07
X-33.263 Y10.065
X-33.2 Y10.063
X-33.137 Y10.062
X-33.074 Y10.063
X-33.011 Y10.067
X-32.949 Y10.072
X-32.886 Y10.079
X-32.824 Y10.088
X-32.762 Y10.098
X-32.7 Y10.111
X-32.639 Y10.126
X-32.578 Y10.142
X-32.518 Y10.16
X-32.458 Y10.18
X-32.399 Y10.202
X-32.341 Y10.225
X-32.283 Y10.25
X-32.227 Y10.277
X-32.171 Y10.306
X-32.115 Y10.336
X-32.061 Y10.368
X-32.008 Y10.401
X-31.955 Y10.436
X-31.904 Y10.472
X-31.853 Y10.509
X-31.804 Y10.548
X-31.756 Y10.589
X-31.708 Y10.63
X-31.662 Y10.673
X-31.617 Y10.717
X-31.573 Y10.762
X-31.53 Y10.808
X-31.489 Y10.855
X-31.449 Y10.903
X-31.41 Y10.953
X-31.372 Y11.003
X-31.335 Y11.054
X-31.3 Y11.107
X-31.267 Y11.16
X-31.234 Y11.214
X-31.203 Y11.268
X-31.174 Y11.324
X-31.145 Y11.38
X-31.119 Y11.437
X-31.094 Y11.495
X-31.07 Y11.553
X-31.048 Y11.612
X-31.027 Y11.671
X-31.009 Y11.731
X-30.991 Y11.792
X-30.975 Y11.853
X-30.961 Y11.914
X-30.949 Y11.976
X-30.938 Y12.038
X-30.929 Y12.1
X-30.922 Y12.162
X-30.916 Y12.225
X-30.912 Y12.288
X-30.91 Y12.351
X-30.909 Y12.414
X-30.91 Y12.476
X-30.913 Y12.539
X-30.918 Y12.602
X-30.924 Y12.665
X-30.932 Y12.727
X-30.942 Y12.789
X-30.954 Y12.851
X-30.967 Y12.912
X-30.982 Y12.973
X-30.999 Y13.034
X-31.017 Y13.094
X-31.037 Y13.154
X-31.059 Y13.213
X-31.082 Y13.271
X-31.107 Y13.329
X-31.134 Y13.386
X-31.162 Y13.442
X-31.192 Y13.498
X-31.223 Y13.552
X-31.256 Y13.606
X-31.29 Y13.659
X-31.326 Y13.711
X-31.363 Y13.761
X-31.401 Y13.811
X-31.441 Y13.86
X-31.482 Y13.907
X-31.525 Y13.954
X-31.569 Y13.999
X-31.614 Y14.043
X-31.66 Y14.086
X-31.707 Y14.127
X-31.755 Y14.167
X-31.805 Y14.206
X-31.855 Y14.243
X-31.907 Y14.279
X-31.96 Y14.314
X-32.013 Y14.347
X-32.067 Y14.379
X-32.122 Y14.409
X-32.178 Y14.438
X-32.235 Y14.465
X-32.292 Y14.491
X-32.35 Y14.515
X-32.409 Y14.538
X-32.468 Y14.559
X-32.528 Y14.578
X-32.589 Y14.596
X-32.649 Y14.613
X-32.71 Y14.627
X-32.772 Y14.64
X-32.834 Y14.652
X-32.896 Y14.662
X-32.958 Y14.67
X-33.021 Y14.676
X-33.084 Y14.681
X-33.146 Y14.684
X-33.209 Y14.686
X-33.272
X-33.335 Y14.684
X-33.398 Y14.681
X-33.461 Y14.676
X-33.523 Y14.67
X-33.586 Y14.662
X-33.648 Y14.652
X-33.71 Y14.641
X-33.771 Y14.628
X-33.832 Y14.614
X-33.893 Y14.598
X-33.954 Y14.58
X-34.014 Y14.561
X-34.073 Y14.54
X-34.132 Y14.518
X-34.19 Y14.495
X-34.248 Y14.47
X-34.305 Y14.443
X-34.361 Y14.416
X-34.417 Y14.386
X-34.472 Y14.356
X-34.526 Y14.323
X-34.579 Y14.29
X-34.632 Y14.255
X-34.683 Y14.219
X-34.734 Y14.182
X-34.784 Y14.143
X-34.833 Y14.104
X-34.88 Y14.063
X-34.927 Y14.021
X-34.973 Y13.977
X-35.017 Y13.933
X-35.06 Y13.887
X-35.103 Y13.841
X-35.144 Y13.793
X-35.184 Y13.745
X-35.222 Y13.695
X-35.26 Y13.644
X-35.296 Y13.593
X-35.331 Y13.541
X-35.365 Y13.488
X-35.397 Y13.434
X-35.428 Y13.379
X-35.458 Y13.323
X-35.486 Y13.267
X-35.513 Y13.21
X-35.538 Y13.153
X-35.562 Y13.095
X-35.585 Y13.036
X-35.606 Y12.977
X-35.626 Y12.917
X-35.644 Y12.857
X-35.661 Y12.796
X-35.676 Y12.735
X-35.69 Y12.674
X-35.702 Y12.612
X-35.712 Y12.55
X-35.722 Y12.488
X-35.729 Y12.425
X-35.736 Y12.363
X-35.74 Y12.3
X-35.743 Y12.237
X-35.745 Y12.174
Y12.111
X-35.743 Y12.048
X-35.74 Y11.986
X-35.736 Y11.923
X-35.73 Y11.86
X-35.722 Y11.798
X-35.713 Y11.736
X-35.702 Y11.674
X-35.69 Y11.612
X-35.677 Y11.551
X-35.661 Y11.489
X-35.645 Y11.429
X-35.627 Y11.369
X-35.607 Y11.309
X-35.586 Y11.249
X-35.564 Y11.191
X-35.54 Y11.132
X-35.515 Y11.075
X-35.488 Y11.018
X-35.46 Y10.962
X-35.431 Y10.906
X-35.4 Y10.851
X-35.368 Y10.797
X-35.335 Y10.744
X-35.3 Y10.691
X-35.264 Y10.639
X-35.227 Y10.589
X-35.189 Y10.539
X-35.149 Y10.49
X-35.108 Y10.442
X-35.066 Y10.395
X-35.023 Y10.349
X-34.979 Y10.304
X-34.934 Y10.261
X-34.888 Y10.218
X-34.841 Y10.176
X-34.792 Y10.136
X-34.743 Y10.097
X-34.693 Y10.059
X-34.642 Y10.022
X-34.59 Y9.987
X-34.537 Y9.952
X-34.484 Y9.919
X-34.429 Y9.888
X-34.374 Y9.857
X-34.319 Y9.828
X-34.262 Y9.801
X-34.205 Y9.775
X-34.147 Y9.75
X-34.089 Y9.726
X-34.03 Y9.704
X-33.97 Y9.684
X-33.91 Y9.664
X-33.85 Y9.647
X-33.789 Y9.631
X-33.728 Y9.616
X-33.667 Y9.603
X-33.605 Y9.591
X-33.543 Y9.581
X-33.481 Y9.572
X-33.418 Y9.565
X-33.355 Y9.559
X-33.293 Y9.555
X-33.23 Y9.552
X-33.167 Y9.551
X-33.104
X-33.041 Y9.553
X-32.978 Y9.556
X-32.916 Y9.561
X-32.853 Y9.568
X-32.791 Y9.576
X-32.728 Y9.585
X-32.667 Y9.596
X-32.605 Y9.608
X-32.544 Y9.622
X-32.483 Y9.638
X-32.422 Y9.655
X-32.362 Y9.673
X-32.302 Y9.693
X-32.243 Y9.714
X-32.184 Y9.736
X-32.126 Y9.76
X-32.068 Y9.785
X-32.011 Y9.812
X-31.955 Y9.84
X-31.899 Y9.869
X-31.844 Y9.9
X-31.79 Y9.931
X-31.736 Y9.964
X-31.683 Y9.998
X-31.631 Y10.034
X-31.58 Y10.07
X-31.53 Y10.108
X-31.48 Y10.146
X-31.431 Y10.186
X-31.383 Y10.227
X-31.337 Y10.269
X-31.291 Y10.312
X-31.245 Y10.356
X-31.201 Y10.4
X-31.158 Y10.446
X-31.116 Y10.493
X-31.075 Y10.54
X-31.035 Y10.589
X-30.996 Y10.638
X-30.958 Y10.688
X-30.921 Y10.739
X-30.885 Y10.791
X-30.851 Y10.844
X-30.817 Y10.897
X-30.785 Y10.951
X-30.754 Y11.006
X-30.724 Y11.061
X-30.695 Y11.117
X-30.667 Y11.173
X-30.641 Y11.23
X-30.616 Y11.288
X-30.592 Y11.346
X-30.57 Y11.405
X-30.548 Y11.464
X-30.528 Y11.524
X-30.51 Y11.584
X-30.492 Y11.644
X-30.476 Y11.705
X-30.462 Y11.766
X-30.448 Y11.828
X-30.437 Y11.89
X-30.426 Y11.952
X-30.417 Y12.014
X-30.409 Y12.076
X-30.402 Y12.139
X-30.397 Y12.202
X-30.394 Y12.264
X-30.392 Y12.327
X-30.391 Y12.39
Y12.453
X-30.393 Y12.516
X-30.397 Y12.579
X-30.401 Y12.641
X-30.408 Y12.704
X-30.415 Y12.766
X-30.424 Y12.829
X-30.435 Y12.891
X-30.446 Y12.953
X-30.46 Y13.014
X-30.474 Y13.075
X-30.49 Y13.136
X-30.508 Y13.197
X-30.526 Y13.257
X-30.546 Y13.316
X-30.568 Y13.375
X-30.59 Y13.434
X-30.614 Y13.492
X-30.64 Y13.55
X-30.666 Y13.607
X-30.694 Y13.663
X-30.724 Y13.719
X-30.754 Y13.774
X-30.786 Y13.828
X-30.819 Y13.882
X-30.853 Y13.935
X-30.888 Y13.987
X-30.924 Y14.038
X-30.962 Y14.088
X-31.001 Y14.138
X-31.04 Y14.187
X-31.081 Y14.234
X-31.123 Y14.281
X-31.166 Y14.327
X-31.21 Y14.372
X-31.255 Y14.416
X-31.301 Y14.459
X-31.348 Y14.501
X-31.396 Y14.542
X-31.445 Y14.582
X-31.494 Y14.62
X-31.545 Y14.658
X-31.596 Y14.694
X-31.648 Y14.729
X-31.701 Y14.764
X-31.755 Y14.796
X-31.809 Y14.828
X-31.864 Y14.859
X-31.92 Y14.888
X-31.976 Y14.916
X-32.033 Y14.943
X-32.09 Y14.969
X-32.148 Y14.993
X-32.207 Y15.016
X-32.266 Y15.038
X-32.325 Y15.058
X-32.385 Y15.077
X-32.412 Y15.086
X-32.445 Y15.094
X-32.478 Y15.098
X-32.512 Y15.1
X-33.582
X-33.645 Y15.097
X-33.708 Y15.095
X-33.771 Y15.091
X-33.833 Y15.085
X-33.896 Y15.077
X-33.958 Y15.068
X-34.02 Y15.056
X-34.081 Y15.043
X-34.142 Y15.028
X-34.203 Y15.011
X-34.263 Y14.993
X-34.323 Y14.974
X-34.382 Y14.952
X-34.441 Y14.93
X-34.499 Y14.906
X-34.557 Y14.88
X-34.613 Y14.853
X-34.67 Y14.825
X-34.725 Y14.796
X-34.78 Y14.765
X-34.834 Y14.733
X-34.888 Y14.7
X-34.94 Y14.665
X-34.992 Y14.63
X-35.043 Y14.593
X-35.094 Y14.556
X-35.143 Y14.517
X-35.192 Y14.477
X-35.24 Y14.436
X-35.286 Y14.394
X-35.332 Y14.351
X-35.377 Y14.307
X-35.421 Y14.262
X-35.464 Y14.216
X-35.507 Y14.169
X-35.548 Y14.122
X-35.588 Y14.073
X-35.627 Y14.024
X-35.665 Y13.974
X-35.702 Y13.923
X-35.738 Y13.872
X-35.773 Y13.819
X-35.807 Y13.766
X-35.839 Y13.712
X-35.871 Y13.658
X-35.901 Y13.603
X-35.931 Y13.547
X-35.959 Y13.491
X-35.986 Y13.434
X-36.011 Y13.377
X-36.036 Y13.319
X-36.059 Y13.261
X-36.077 Y13.213
X-36.09 Y13.173
X-36.097 Y13.131
X-36.1 Y13.089
G3 X-35.945 Y12.945 I0.15 J0.005
X-35.857 Y12.977 I-0.005 J0.15
G1 X-35.499 Y13.258
X-33.825 Y14.573
X-33.495 Y14.832
G3 X-33.47 Y15.043 I-0.093 J0.118
X-33.582 Y15.1 I-0.118 J-0.093
G1 X-34.707
X-34.77 Y15.097
X-34.833 Y15.091
X-34.895 Y15.081
X-34.956 Y15.068
X-35.017 Y15.052
X-35.077 Y15.033
X-35.136 Y15.012
X-35.194 Y14.988
X-35.252 Y14.962
X-35.308 Y14.933
X-35.363 Y14.903
X-35.417 Y14.872
X-35.471 Y14.838
X-35.523 Y14.803
X-35.574 Y14.766
X-35.624 Y14.729
X-35.673 Y14.689
X-35.721 Y14.649
X-35.769 Y14.607
X-35.815 Y14.564
X-35.86 Y14.52
X-35.904 Y14.475
X-35.947 Y14.43
X-35.989 Y14.383
X-36.016 Y14.351
X-36.045 Y14.311
X-36.069 Y14.268
X-36.086 Y14.221
X-36.096 Y14.173
X-36.1 Y14.123
G3 X-35.945 Y13.979 I0.15 J0.005
X-35.867 Y14.004 I-0.005 J0.15
G1 X-35.478 Y14.262
X-34.969 Y14.6
X-34.629 Y14.825
X-34.602 Y14.849
X-34.58 Y14.879
X-34.567 Y14.913
X-34.562 Y14.95
X-34.569 Y14.995
X-34.59 Y15.037
X-34.622 Y15.07
X-34.662 Y15.091
X-34.707 Y15.1
X-35.472
X-35.535 Y15.097
X-35.597 Y15.089
X-35.659 Y15.077
X-35.72 Y15.06
X-35.78 Y15.041
X-35.838 Y15.018
X-35.896 Y14.992
X-35.907 Y14.987
X-35.955 Y14.958
X-35.997 Y14.922
X-36.033 Y14.88
X-36.062 Y14.834
X-36.083 Y14.783
X-36.096 Y14.729
X-36.1 Y14.674
G3 X-35.945 Y14.529 I0.15 J0.005
X-35.876 Y14.549 I-0.005 J0.15
G1 X-35.748 Y14.622
X-35.403 Y14.82
G3 X-35.347 Y15.025 I-0.075 J0.13
X-35.472 Y15.1 I-0.13 J-0.075
G1 X-35.787
X-35.832
X-35.877 Y15.097
X-35.9 Y15.094
X-35.922 Y15.088
X-35.949 Y15.078
X-35.967 Y15.07
X-35.99 Y15.056
X-36.012 Y15.039
X-36.018 Y15.033
X-36.04 Y15.011
X-36.057 Y14.988
X-36.07 Y14.966
X-36.081 Y14.944
X-36.089 Y14.921
X-36.094 Y14.899
X-36.099 Y14.854
X-36.1 Y14.809
Y14.179
Y13.144
Y11.615
X-36.097 Y11.552
X-36.094 Y11.489
X-36.09 Y11.427
X-36.083 Y11.364
X-36.074 Y11.302
X-36.063 Y11.24
X-36.05 Y11.178
X-36.035 Y11.117
X-36.018 Y11.057
X-36. Y10.996
X-35.98 Y10.937
X-35.958 Y10.878
X-35.935 Y10.819
X-35.91 Y10.761
X-35.884 Y10.704
X-35.857 Y10.648
X-35.828 Y10.592
X-35.798 Y10.536
X-35.766 Y10.482
X-35.734 Y10.428
X-35.7 Y10.375
X-35.664 Y10.323
X-35.628 Y10.272
X-35.591 Y10.221
X-35.552 Y10.172
X-35.513 Y10.123
X-35.472 Y10.075
X-35.43 Y10.028
X-35.387 Y9.982
X-35.344 Y9.936
X-35.299 Y9.892
X-35.254 Y9.849
X-35.207 Y9.806
X-35.16 Y9.765
X-35.112 Y9.724
X-35.062 Y9.685
X-35.013 Y9.647
X-34.962 Y9.609
X-34.911 Y9.573
X-34.859 Y9.538
X-34.806 Y9.504
X-34.752 Y9.471
X-34.698 Y9.439
X-34.643 Y9.408
X-34.588 Y9.378
X-34.532 Y9.35
X-34.475 Y9.322
X-34.418 Y9.296
X-34.36 Y9.271
X-34.302 Y9.247
X-34.243 Y9.224
X-34.235 Y9.221
X-34.196 Y9.209
X-34.156 Y9.202
X-34.115 Y9.2
G3 X-33.971 Y9.355 I-0.005 J0.15
X-34.004 Y9.444 I-0.15 J-0.005
G1 X-34.289 Y9.796
X-35.568 Y11.377
X-35.834 Y11.704
G3 X-36.044 Y11.726 I-0.117 J-0.094
X-36.1 Y11.615 I0.094 J-0.117
G1 Y10.58
X-36.097 Y10.518
X-36.092 Y10.455
X-36.084 Y10.393
X-36.071 Y10.331
X-36.056 Y10.27
X-36.038 Y10.21
X-36.017 Y10.15
X-35.993 Y10.092
X-35.967 Y10.035
X-35.939 Y9.978
X-35.909 Y9.923
X-35.878 Y9.869
X-35.844 Y9.816
X-35.809 Y9.763
X-35.773 Y9.712
X-35.735 Y9.662
X-35.695 Y9.613
X-35.655 Y9.565
X-35.613 Y9.518
X-35.57 Y9.472
X-35.526 Y9.427
X-35.481 Y9.383
X-35.435 Y9.34
X-35.388 Y9.299
X-35.37 Y9.283
X-35.33 Y9.254
X-35.287 Y9.231
X-35.24 Y9.214
X-35.192 Y9.203
X-35.143 Y9.2
G3 X-34.998 Y9.355 I-0.005 J0.15
X-35.023 Y9.432 I-0.15 J-0.005
G1 X-35.279 Y9.824
X-35.602 Y10.317
X-35.825 Y10.657
G3 X-36.032 Y10.701 I-0.126 J-0.082
X-36.1 Y10.58 I0.082 J-0.126
G1 Y9.816
Y9.791
Y9.785
X-36.098 Y9.744
X-36.09 Y9.681
X-36.077 Y9.62
X-36.061 Y9.559
X-36.041 Y9.499
X-36.018 Y9.441
X-36.002 Y9.406
X-35.974 Y9.356
X-35.939 Y9.311
X-35.896 Y9.273
X-35.848 Y9.241
X-35.796 Y9.219
X-35.74 Y9.205
X-35.683 Y9.2
G3 X-35.538 Y9.355 I-0.005 J0.15
X-35.56 Y9.428 I-0.15 J-0.005
G1 X-35.613 Y9.515
X-35.822 Y9.858
X-35.846 Y9.887
X-35.876 Y9.91
X-35.912 Y9.925
X-35.949 Y9.93
X-35.95
X-35.995 Y9.923
X-36.037 Y9.902
X-36.07 Y9.87
X-36.091 Y9.83
X-36.1 Y9.785
Y9.501
X-36.099 Y9.456
X-36.096 Y9.411
X-36.085 Y9.366
X-36.075 Y9.344
X-36.063 Y9.321
X-36.057 Y9.312
X-36.044 Y9.294
X-36.028 Y9.276
X-36.012 Y9.261
X-35.99 Y9.244
X-35.968 Y9.231
X-35.967 Y9.23
X-35.945 Y9.22
X-35.922 Y9.212
X-35.9 Y9.206
X-35.877 Y9.203
X-35.832 Y9.2
X-35.787
X-35.742
X-35.202
X-34.167
X-32.592
X-32.529 Y9.203
X-32.467 Y9.206
X-32.404 Y9.212
X-32.342 Y9.219
X-32.279 Y9.229
X-32.218 Y9.24
X-32.156 Y9.254
X-32.095 Y9.269
X-32.035 Y9.286
X-31.974 Y9.305
X-31.915 Y9.325
X-31.856 Y9.347
X-31.797 Y9.37
X-31.74 Y9.395
X-31.682 Y9.421
X-31.626 Y9.448
X-31.57 Y9.477
X-31.515 Y9.507
X-31.46 Y9.538
X-31.406 Y9.571
X-31.353 Y9.604
X-31.3 Y9.639
X-31.249 Y9.675
X-31.198 Y9.711
X-31.147 Y9.749
X-31.098 Y9.788
X-31.049 Y9.828
X-31.002 Y9.869
X-30.955 Y9.911
X-30.908 Y9.954
X-30.863 Y9.997
X-30.819 Y10.042
X-30.775 Y10.087
X-30.732 Y10.133
X-30.691 Y10.18
X-30.65 Y10.228
X-30.61 Y10.277
X-30.571 Y10.326
X-30.532 Y10.376
X-30.495 Y10.427
X-30.459 Y10.478
X-30.424 Y10.53
X-30.389 Y10.583
X-30.356 Y10.636
X-30.324 Y10.69
X-30.293 Y10.745
X-30.262 Y10.8
X-30.24 Y10.842
X-30.218 Y10.894
X-30.205 Y10.949
X-30.2 Y11.005
G3 X-30.355 Y11.149 I-0.15 J-0.005
X-30.439 Y11.12 I0.005 J-0.15
G1 X-30.809 Y10.847
X-32.342 Y9.717
X-32.676 Y9.471
G3 X-32.708 Y9.261 I0.089 J-0.121
X-32.592 Y9.2 I0.121 J0.089
G1 X-31.557
X-31.495 Y9.203
X-31.432 Y9.208
X-31.37 Y9.217
X-31.308 Y9.229
X-31.247 Y9.244
X-31.187 Y9.262
X-31.127 Y9.283
X-31.069 Y9.306
X-31.011 Y9.331
X-30.954 Y9.358
X-30.899 Y9.388
X-30.844 Y9.419
X-30.79 Y9.451
X-30.738 Y9.486
X-30.686 Y9.521
X-30.635 Y9.559
X-30.585 Y9.597
X-30.536 Y9.636
X-30.488 Y9.677
X-30.441 Y9.719
X-30.395 Y9.762
X-30.35 Y9.806
X-30.306 Y9.851
X-30.295 Y9.863
X-30.262 Y9.904
X-30.235 Y9.949
X-30.216 Y9.998
X-30.204 Y10.05
X-30.2 Y10.103
G3 X-30.355 Y10.247 I-0.15 J-0.005
X-30.429 Y10.225 I0.005 J-0.15
G1 X-30.83 Y9.976
X-31.289 Y9.69
X-31.631 Y9.477
G3 X-31.68 Y9.271 I0.079 J-0.127
X-31.557 Y9.2 I0.127 J0.079
G1 X-30.792
X-30.747
X-30.743
X-30.702 Y9.202
X-30.64 Y9.21
X-30.578 Y9.223
X-30.517 Y9.239
X-30.457 Y9.258
X-30.424 Y9.271
X-30.37 Y9.298
X-30.321 Y9.333
X-30.279 Y9.376
X-30.245 Y9.425
X-30.22 Y9.48
X-30.205 Y9.538
X-30.2 Y9.598
G3 X-30.355 Y9.742 I-0.15 J-0.005
X-30.429 Y9.72 I0.005 J-0.15
G1 X-30.476 Y9.691
X-30.818 Y9.477
G3 X-30.865 Y9.27 I0.08 J-0.127
X-30.743 Y9.2 I0.127 J0.08
G1 X-30.522
X-30.477
X-30.432 Y9.202
X-30.41 Y9.204
X-30.387 Y9.209
X-30.365 Y9.216
X-30.342 Y9.226
X-30.331 Y9.231
X-30.297 Y9.253
X-30.272 Y9.276
X-30.252 Y9.298
X-30.237 Y9.321
X-30.225 Y9.344
X-30.215 Y9.366
X-30.207 Y9.394
X-30.204 Y9.411
X-30.201 Y9.456
X-30.2 Y9.501
Y9.546
Y10.041
Y10.94
Y13.324
X-30.203 Y13.387
X-30.207 Y13.45
X-30.213 Y13.512
X-30.222 Y13.575
X-30.234 Y13.636
X-30.248 Y13.698
X-30.264 Y13.758
X-30.283 Y13.819
X-30.303 Y13.878
X-30.326 Y13.937
X-30.35 Y13.995
X-30.376 Y14.052
X-30.403 Y14.109
X-30.432 Y14.165
X-30.463 Y14.22
X-30.495 Y14.274
X-30.528 Y14.327
X-30.563 Y14.38
X-30.599 Y14.431
X-30.636 Y14.482
X-30.674 Y14.532
X-30.713 Y14.581
X-30.754 Y14.629
X-30.795 Y14.677
X-30.838 Y14.723
X-30.881 Y14.768
X-30.926 Y14.813
X-30.971 Y14.856
X-31.018 Y14.899
X-31.065 Y14.94
X-31.113 Y14.981
X-31.162 Y15.021
X-31.168 Y15.026
X-31.217 Y15.058
X-31.27 Y15.081
X-31.326 Y15.095
X-31.383 Y15.1
G3 X-31.528 Y14.945 I0.005 J-0.15
X-31.505 Y14.87 I0.15 J0.005
G1 X-31.253 Y14.473
X-30.693 Y13.59
X-30.477 Y13.249
G3 X-30.27 Y13.203 I0.127 J0.08
X-30.2 Y13.324 I-0.08 J0.127
G1 Y14.224
X-30.203 Y14.287
X-30.208 Y14.349
X-30.217 Y14.412
X-30.231 Y14.473
X-30.247 Y14.534
X-30.266 Y14.594
X-30.289 Y14.652
X-30.314 Y14.71
X-30.341 Y14.767
X-30.37 Y14.823
X-30.401 Y14.877
X-30.434 Y14.931
X-30.443 Y14.944
X-30.479 Y14.989
X-30.521 Y15.028
X-30.57 Y15.059
X-30.622 Y15.081
X-30.678 Y15.095
X-30.735 Y15.1
G3 X-30.879 Y14.945 I0.005 J-0.15
X-30.862 Y14.88 I0.15 J0.005
G1 X-30.665 Y14.506
X-30.483 Y14.159
G3 X-30.28 Y14.096 I0.133 J0.07
X-30.2 Y14.224 I-0.07 J0.133
G1 Y14.809
X-30.201 Y14.854
X-30.206 Y14.899
X-30.207 Y14.906
X-30.219 Y14.944
X-30.23 Y14.966
X-30.243 Y14.989
X-30.252 Y15.002
X-30.282 Y15.033
X-30.297 Y15.047
X-30.32 Y15.062
X-30.342 Y15.074
X-30.351 Y15.078
X-30.387 Y15.091
X-30.41 Y15.096
X-30.432 Y15.098
X-30.477 Y15.1
X-30.522
X-31.332
X-32.457
X-32.502 Y15.091
X-32.543 Y15.07
X-32.575 Y15.037
X-32.595 Y14.996
X-32.602 Y14.95
G3 X-32.452 Y14.8 I0.15 J0.
X-32.316 Y14.886 I0. J0.15
G1 X-32.309 Y14.914 Z-5.947
X-32.302 Y14.941 Z-5.939
Y14.95 Z-5.935
X-32.311 Y14.983 Z-5.911
X-32.319 Y15.008 Z-5.879
X-32.323 Y15.024 Z-5.841
X-32.325 Y15.03 Z-5.8
G0 Z5.
X-17.755 Y12.527
Z-0.699
G3 X-17.527 Y11.545 Z-0.738 I0.605 J-0.377 F800
X-16.546 Y11.773 Z-0.777 I0.377 J0.605
X-16.773 Y12.755 Z-0.816 I-0.605 J0.377
X-17.755 Y12.527 Z-0.855 I-0.377 J-0.605
X-17.527 Y11.545 Z-0.894 I0.605 J-0.377
X-16.546 Y11.773 Z-0.933 I0.377 J0.605
X-16.773 Y12.755 Z-0.973 I-0.605 J0.377
X-17.755 Y12.527 Z-1.012 I-0.377 J-0.605
X-17.527 Y11.545 Z-1.051 I0.605 J-0.377
X-16.546 Y11.773 Z-1.09 I0.377 J0.605
X-16.773 Y12.755 Z-1.129 I-0.605 J0.377
X-17.755 Y12.527 Z-1.168 I-0.377 J-0.605
X-17.527 Y11.545 Z-1.207 I0.605 J-0.377
X-16.546 Y11.773 Z-1.246 I0.377 J0.605
X-16.773 Y12.755 Z-1.285 I-0.605 J0.377
X-17.755 Y12.527 Z-1.324 I-0.377 J-0.605
X-17.527 Y11.545 Z-1.363 I0.605 J-0.377
X-16.546 Y11.773 Z-1.402 I0.377 J0.605
X-16.773 Y12.755 Z-1.442 I-0.605 J0.377
X-17.755 Y12.527 Z-1.481 I-0.377 J-0.605
X-17.527 Y11.545 Z-1.52 I0.605 J-0.377
X-16.546 Y11.773 Z-1.559 I0.377 J0.605
X-16.773 Y12.755 Z-1.598 I-0.605 J0.377
X-17.755 Y12.527 Z-1.637 I-0.377 J-0.605
X-17.527 Y11.545 Z-1.676 I0.605 J-0.377
X-16.546 Y11.773 Z-1.715 I0.377 J0.605
X-16.773 Y12.755 Z-1.754 I-0.605 J0.377
X-17.755 Y12.527 Z-1.793 I-0.377 J-0.605
X-17.527 Y11.545 Z-1.832 I0.605 J-0.377
X-16.546 Y11.773 Z-1.871 I0.377 J0.605
X-16.773 Y12.755 Z-1.911 I-0.605 J0.377
X-17.755 Y12.527 Z-1.95 I-0.377 J-0.605
X-17.527 Y11.545 Z-1.989 I0.605 J-0.377
X-16.546 Y11.773 Z-2.028 I0.377 J0.605
X-16.773 Y12.755 Z-2.067 I-0.605 J0.377
X-17.755 Y12.527 Z-2.106 I-0.377 J-0.605
X-17.527 Y11.545 Z-2.145 I0.605 J-0.377
X-16.546 Y11.773 Z-2.184 I0.377 J0.605
X-16.773 Y12.755 Z-2.223 I-0.605 J0.377
X-17.755 Y12.527 Z-2.262 I-0.377 J-0.605
X-17.527 Y11.545 Z-2.301 I0.605 J-0.377
X-16.546 Y11.773 Z-2.34 I0.377 J0.605
X-16.773 Y12.755 Z-2.38 I-0.605 J0.377
X-17.755 Y12.527 Z-2.419 I-0.377 J-0.605
X-17.527 Y11.545 Z-2.458 I0.605 J-0.377
X-16.546 Y11.773 Z-2.497 I0.377 J0.605
X-16.773 Y12.755 Z-2.536 I-0.605 J0.377
X-17.755 Y12.527 Z-2.575 I-0.377 J-0.605
X-17.527 Y11.545 Z-2.614 I0.605 J-0.377
X-16.546 Y11.773 Z-2.653 I0.377 J0.605
X-16.773 Y12.755 Z-2.692 I-0.605 J0.377
X-17.755 Y12.527 Z-2.731 I-0.377 J-0.605
X-17.527 Y11.545 Z-2.77 I0.605 J-0.377
X-16.546 Y11.773 Z-2.809 I0.377 J0.605
X-16.773 Y12.755 Z-2.849 I-0.605 J0.377
X-17.755 Y12.527 Z-2.888 I-0.377 J-0.605
X-17.527 Y11.545 Z-2.927 I0.605 J-0.377
X-16.546 Y11.773 Z-2.966 I0.377 J0.605
X-16.773 Y12.755 Z-3.005 I-0.605 J0.377
X-17.755 Y12.527 Z-3.044 I-0.377 J-0.605
X-17.527 Y11.545 Z-3.083 I0.605 J-0.377
X-16.546 Y11.773 Z-3.122 I0.377 J0.605
X-16.773 Y12.755 Z-3.161 I-0.605 J0.377
X-17.755 Y12.527 Z-3.2 I-0.377 J-0.605
X-17.527 Y11.545 Z-3.239 I0.605 J-0.377
X-16.546 Y11.773 Z-3.278 I0.377 J0.605
X-16.773 Y12.755 Z-3.318 I-0.605 J0.377
X-17.755 Y12.527 Z-3.357 I-0.377 J-0.605
X-17.527 Y11.545 Z-3.396 I0.605 J-0.377
X-16.546 Y11.773 Z-3.435 I0.377 J0.605
X-16.773 Y12.755 Z-3.474 I-0.605 J0.377
X-17.755 Y12.527 Z-3.513 I-0.377 J-0.605
X-17.527 Y11.545 Z-3.552 I0.605 J-0.377
X-16.546 Y11.773 Z-3.591 I0.377 J0.605
X-16.773 Y12.755 Z-3.63 I-0.605 J0.377
X-17.755 Y12.527 Z-3.669 I-0.377 J-0.605
X-17.527 Y11.545 Z-3.708 I0.605 J-0.377
X-16.546 Y11.773 Z-3.747 I0.377 J0.605
X-16.773 Y12.755 Z-3.787 I-0.605 J0.377
X-17.755 Y12.527 Z-3.826 I-0.377 J-0.605
X-17.527 Y11.545 Z-3.865 I0.605 J-0.377
X-16.546 Y11.773 Z-3.904 I0.377 J0.605
X-16.773 Y12.755 Z-3.943 I-0.605 J0.377
X-17.755 Y12.527 Z-3.982 I-0.377 J-0.605
X-17.527 Y11.545 Z-4.021 I0.605 J-0.377
X-16.546 Y11.773 Z-4.06 I0.377 J0.605
X-16.773 Y12.755 Z-4.099 I-0.605 J0.377
X-17.755 Y12.527 Z-4.138 I-0.377 J-0.605
X-17.527 Y11.545 Z-4.177 I0.605 J-0.377
X-16.546 Y11.773 Z-4.216 I0.377 J0.605
X-16.773 Y12.755 Z-4.256 I-0.605 J0.377
X-17.755 Y12.527 Z-4.295 I-0.377 J-0.605
X-17.527 Y11.545 Z-4.334 I0.605 J-0.377
X-16.546 Y11.773 Z-4.373 I0.377 J0.605
X-16.773 Y12.755 Z-4.412 I-0.605 J0.377
X-17.755 Y12.527 Z-4.451 I-0.377 J-0.605
X-17.527 Y11.545 Z-4.49 I0.605 J-0.377
X-16.546 Y11.773 Z-4.529 I0.377 J0.605
X-16.773 Y12.755 Z-4.568 I-0.605 J0.377
X-17.755 Y12.527 Z-4.607 I-0.377 J-0.605
X-17.527 Y11.545 Z-4.646 I0.605 J-0.377
X-16.546 Y11.773 Z-4.685 I0.377 J0.605
X-16.773 Y12.755 Z-4.725 I-0.605 J0.377
X-17.755 Y12.527 Z-4.764 I-0.377 J-0.605
X-17.527 Y11.545 Z-4.803 I0.605 J-0.377
X-16.546 Y11.773 Z-4.842 I0.377 J0.605
X-16.773 Y12.755 Z-4.881 I-0.605 J0.377
X-17.755 Y12.527 Z-4.92 I-0.377 J-0.605
X-17.527 Y11.545 Z-4.959 I0.605 J-0.377
X-16.546 Y11.773 Z-4.998 I0.377 J0.605
X-16.773 Y12.755 Z-5.037 I-0.605 J0.377
X-17.755 Y12.527 Z-5.076 I-0.377 J-0.605
X-17.527 Y11.545 Z-5.115 I0.605 J-0.377
X-16.546 Y11.773 Z-5.154 I0.377 J0.605
X-16.773 Y12.755 Z-5.194 I-0.605 J0.377
X-17.755 Y12.527 Z-5.233 I-0.377 J-0.605
X-17.527 Y11.545 Z-5.272 I0.605 J-0.377
X-16.546 Y11.773 Z-5.311 I0.377 J0.605
X-16.773 Y12.755 Z-5.35 I-0.605 J0.377
X-17.755 Y12.527 Z-5.389 I-0.377 J-0.605
X-17.527 Y11.545 Z-5.428 I0.605 J-0.377
X-16.546 Y11.773 Z-5.467 I0.377 J0.605
X-16.773 Y12.755 Z-5.506 I-0.605 J0.377
X-17.755 Y12.527 Z-5.545 I-0.377 J-0.605
X-17.527 Y11.545 Z-5.584 I0.605 J-0.377
X-16.546 Y11.773 Z-5.623 I0.377 J0.605
X-16.773 Y12.755 Z-5.663 I-0.605 J0.377
X-17.755 Y12.527 Z-5.702 I-0.377 J-0.605
X-17.527 Y11.545 Z-5.741 I0.605 J-0.377
X-16.546 Y11.773 Z-5.78 I0.377 J0.605
X-16.773 Y12.755 Z-5.819 I-0.605 J0.377
X-17.755 Y12.527 Z-5.858 I-0.377 J-0.605
X-17.527 Y11.545 Z-5.897 I0.605 J-0.377
X-16.546 Y11.773 Z-5.936 I0.377 J0.605
X-16.438 Y12.15 Z-5.95 I-0.605 J0.377
X-17.15 Y12.862 I-0.712 J0.
X-17.863 Y12.15 I0. J-0.712
X-17.15 Y11.437 I0.712 J0.
X-16.438 Y12.15 I0. J0.712
G1 Y12.213
X-16.426 Y12.275
X-16.404 Y12.334
X-16.388 Y12.36
X-16.377 Y12.381
X-16.368 Y12.406
X-16.359 Y12.433
X-16.353 Y12.464
X-16.348 Y12.498
X-16.346 Y12.534
X-16.347 Y12.574
X-16.351 Y12.616
X-16.359 Y12.661
X-16.372 Y12.707
X-16.389 Y12.755
X-16.411 Y12.803
X-16.438 Y12.852
X-16.47 Y12.901
X-16.508 Y12.949
X-16.551 Y12.995
X-16.597 Y13.038
X-16.646 Y13.077
X-16.698 Y13.112
X-16.753 Y13.143
X-16.81 Y13.171
X-16.868 Y13.194
X-16.928 Y13.214
X-16.989 Y13.229
X-17.05 Y13.241
X-17.113 Y13.248
X-17.176 Y13.252
X-17.239
X-17.301 Y13.248
X-17.364 Y13.24
X-17.426 Y13.228
X-17.487 Y13.213
X-17.547 Y13.194
X-17.605 Y13.171
X-17.663 Y13.145
X-17.718 Y13.116
X-17.772 Y13.083
X-17.824 Y13.048
X-17.874 Y13.01
X-17.921 Y12.968
X-17.967 Y12.925
X-18.009 Y12.878
X-18.049 Y12.83
X-18.086 Y12.779
X-18.12 Y12.726
X-18.151 Y12.671
X-18.179 Y12.615
X-18.203 Y12.557
X-18.225 Y12.498
X-18.243 Y12.437
X-18.257 Y12.376
X-18.268 Y12.314
X-18.276 Y12.252
X-18.28 Y12.189
X-18.281 Y12.126
X-18.278 Y12.063
X-18.272 Y12.001
X-18.262 Y11.939
X-18.248 Y11.877
X-18.232 Y11.817
X-18.211 Y11.757
X-18.188 Y11.699
X-18.161 Y11.642
X-18.132 Y11.586
X-18.099 Y11.532
X-18.063 Y11.481
X-18.025 Y11.431
X-17.983 Y11.383
X-17.94 Y11.338
X-17.893 Y11.296
X-17.845 Y11.256
X-17.794 Y11.218
X-17.741 Y11.184
X-17.687 Y11.153
X-17.631 Y11.124
X-17.573 Y11.099
X-17.514 Y11.077
X-17.454 Y11.059
X-17.393 Y11.044
X-17.331 Y11.032
X-17.269 Y11.024
X-17.206 Y11.019
X-17.143 Y11.017
X-17.08 Y11.019
X-17.018 Y11.025
X-16.955 Y11.034
X-16.894 Y11.047
X-16.833 Y11.063
X-16.773 Y11.082
X-16.714 Y11.104
X-16.657 Y11.13
X-16.601 Y11.159
X-16.547 Y11.191
X-16.495 Y11.226
X-16.444 Y11.264
X-16.396 Y11.305
X-16.351 Y11.348
X-16.307 Y11.393
X-16.267 Y11.441
X-16.229 Y11.491
X-16.193 Y11.544
X-16.161 Y11.597
X-16.129 Y11.652
X-16.099 Y11.707
X-16.069 Y11.762
X-16.041 Y11.819
X-16.016 Y11.876
X-15.992 Y11.934
X-15.97 Y11.993
X-15.95 Y12.053
X-15.933 Y12.114
X-15.919 Y12.175
X-15.908 Y12.237
X-15.899 Y12.299
X-15.894 Y12.362
X-15.892 Y12.425
X-15.893 Y12.487
X-15.897 Y12.55
X-15.904 Y12.613
X-15.915 Y12.675
X-15.928 Y12.736
X-15.945 Y12.797
X-15.965 Y12.856
X-15.988 Y12.915
X-16.014 Y12.972
X-16.043 Y13.028
X-16.075 Y13.082
X-16.11 Y13.135
X-16.147 Y13.186
X-16.186 Y13.234
X-16.228 Y13.281
X-16.273 Y13.326
X-16.319 Y13.368
X-16.368 Y13.408
X-16.418 Y13.446
X-16.47 Y13.481
X-16.524 Y13.514
X-16.579 Y13.544
X-16.635 Y13.572
X-16.693 Y13.597
X-16.752 Y13.619
X-16.812 Y13.639
X-16.872 Y13.656
X-16.934 Y13.67
X-16.995 Y13.681
X-17.058 Y13.69
X-17.12 Y13.696
X-17.183 Y13.699
X-17.246
X-17.309 Y13.697
X-17.372 Y13.692
X-17.434 Y13.684
X-17.496 Y13.674
X-17.558 Y13.661
X-17.619 Y13.645
X-17.679 Y13.627
X-17.738 Y13.606
X-17.797 Y13.583
X-17.854 Y13.557
X-17.91 Y13.529
X-17.966 Y13.499
X-18.019 Y13.467
X-18.072 Y13.432
X-18.123 Y13.395
X-18.172 Y13.356
X-18.22 Y13.315
X-18.266 Y13.273
X-18.311 Y13.228
X-18.353 Y13.182
X-18.394 Y13.134
X-18.432 Y13.084
X-18.469 Y13.033
X-18.503 Y12.98
X-18.536 Y12.926
X-18.566 Y12.871
X-18.594 Y12.815
X-18.619 Y12.757
X-18.643 Y12.699
X-18.664 Y12.639
X-18.682 Y12.579
X-18.698 Y12.518
X-18.712 Y12.457
X-18.723 Y12.395
X-18.732 Y12.333
X-18.738 Y12.27
X-18.742 Y12.208
X-18.743 Y12.145
X-18.742 Y12.082
X-18.738 Y12.019
X-18.732 Y11.956
X-18.723 Y11.894
X-18.712 Y11.832
X-18.699 Y11.771
X-18.683 Y11.71
X-18.664 Y11.65
X-18.643 Y11.59
X-18.62 Y11.532
X-18.595 Y11.474
X-18.567 Y11.418
X-18.537 Y11.363
X-18.505 Y11.308
X-18.471 Y11.256
X-18.435 Y11.204
X-18.397 Y11.154
X-18.357 Y11.106
X-18.315 Y11.059
X-18.271 Y11.014
X-18.225 Y10.971
X-18.178 Y10.929
X-18.129 Y10.89
X-18.078 Y10.852
X-18.027 Y10.816
X-17.973 Y10.783
X-17.919 Y10.751
X-17.863 Y10.722
X-17.806 Y10.695
X-17.749 Y10.67
X-17.69 Y10.648
X-17.63 Y10.628
X-17.57 Y10.61
X-17.509 Y10.595
X-17.447 Y10.582
X-17.385 Y10.571
X-17.323 Y10.563
X-17.26 Y10.558
X-17.197 Y10.554
X-17.135
X-17.072 Y10.556
X-17.009 Y10.56
X-16.946 Y10.567
X-16.884 Y10.576
X-16.822 Y10.588
X-16.761 Y10.602
X-16.7 Y10.618
X-16.64 Y10.637
X-16.581 Y10.658
X-16.523 Y10.682
X-16.466 Y10.708
X-16.409 Y10.736
X-16.354 Y10.766
X-16.3 Y10.799
X-16.248 Y10.833
X-16.196 Y10.87
X-16.147 Y10.908
X-16.099 Y10.949
X-16.052 Y10.991
X-16.006 Y11.034
X-15.962 Y11.079
X-15.92 Y11.125
X-15.878 Y11.173
X-15.839 Y11.222
X-15.801 Y11.272
X-15.764 Y11.323
X-15.729 Y11.375
X-15.695 Y11.428
X-15.663 Y11.482
X-15.633 Y11.537
X-15.605 Y11.594
X-15.578 Y11.65
X-15.553 Y11.708
X-15.53 Y11.767
X-15.509 Y11.826
X-15.49 Y11.886
X-15.473 Y11.946
X-15.457 Y12.008
X-15.444 Y12.069
X-15.434 Y12.131
X-15.425 Y12.193
X-15.418 Y12.256
X-15.414 Y12.319
X-15.412 Y12.381
Y12.444
X-15.414 Y12.507
X-15.418 Y12.57
X-15.425 Y12.633
X-15.434 Y12.695
X-15.445 Y12.757
X-15.459 Y12.818
X-15.475 Y12.879
X-15.493 Y12.939
X-15.513 Y12.999
X-15.535 Y13.058
X-15.559 Y13.116
X-15.586 Y13.173
X-15.614 Y13.229
X-15.645 Y13.284
X-15.677 Y13.338
X-15.711 Y13.39
X-15.748 Y13.442
X-15.786 Y13.492
X-15.826 Y13.541
X-15.867 Y13.588
X-15.91 Y13.634
X-15.955 Y13.678
X-16.001 Y13.72
X-16.049 Y13.761
X-16.098 Y13.8
X-16.149 Y13.838
X-16.201 Y13.873
X-16.254 Y13.907
X-16.308 Y13.939
X-16.363 Y13.969
X-16.42 Y13.997
X-16.477 Y14.024
X-16.535 Y14.048
X-16.594 Y14.07
X-16.653 Y14.091
X-16.713 Y14.109
X-16.774 Y14.125
X-16.835 Y14.139
X-16.897 Y14.151
X-16.959 Y14.161
X-17.022 Y14.169
X-17.084 Y14.175
X-17.147 Y14.179
X-17.21 Y14.181
X-17.273
X-17.336 Y14.179
X-17.398 Y14.174
X-17.461 Y14.168
X-17.523 Y14.159
X-17.585 Y14.149
X-17.647 Y14.137
X-17.708 Y14.122
X-17.769 Y14.106
X-17.829 Y14.088
X-17.889 Y14.068
X-17.948 Y14.046
X-18.006 Y14.022
X-18.063 Y13.996
X-18.12 Y13.969
X-18.175 Y13.939
X-18.23 Y13.908
X-18.284 Y13.876
X-18.337 Y13.841
X-18.388 Y13.805
X-18.439 Y13.768
X-18.488 Y13.728
X-18.536 Y13.688
X-18.583 Y13.646
X-18.628 Y13.602
X-18.672 Y13.557
X-18.714 Y13.511
X-18.756 Y13.463
X-18.795 Y13.414
X-18.833 Y13.364
X-18.87 Y13.313
X-18.905 Y13.261
X-18.938 Y13.207
X-18.97 Y13.153
X-19. Y13.098
X-19.028 Y13.042
X-19.055 Y12.985
X-19.079 Y12.927
X-19.102 Y12.868
X-19.124 Y12.809
X-19.143 Y12.749
X-19.161 Y12.689
X-19.176 Y12.628
X-19.19 Y12.567
X-19.202 Y12.505
X-19.212 Y12.443
X-19.22 Y12.38
X-19.227 Y12.318
X-19.231 Y12.255
X-19.234 Y12.192
Y12.129
X-19.233 Y12.066
X-19.23 Y12.004
X-19.224 Y11.941
X-19.217 Y11.878
X-19.208 Y11.816
X-19.198 Y11.754
X-19.185 Y11.693
X-19.17 Y11.631
X-19.154 Y11.571
X-19.136 Y11.51
X-19.116 Y11.451
X-19.094 Y11.392
X-19.07 Y11.334
X-19.045 Y11.276
X-19.018 Y11.219
X-18.989 Y11.163
X-18.958 Y11.108
X-18.926 Y11.054
X-18.892 Y11.001
X-18.857 Y10.949
X-18.82 Y10.898
X-18.782 Y10.848
X-18.742 Y10.8
X-18.701 Y10.752
X-18.658 Y10.706
X-18.614 Y10.661
X-18.568 Y10.618
X-18.521 Y10.576
X-18.473 Y10.535
X-18.424 Y10.496
X-18.374 Y10.458
X-18.322 Y10.422
X-18.27 Y10.388
X-18.216 Y10.355
X-18.162 Y10.323
X-18.106 Y10.294
X-18.05 Y10.266
X-17.993 Y10.24
X-17.935 Y10.215
X-17.876 Y10.192
X-17.817 Y10.171
X-17.757 Y10.152
X-17.697 Y10.135
X-17.636 Y10.119
X-17.574 Y10.105
X-17.512 Y10.093
X-17.45 Y10.083
X-17.388 Y10.075
X-17.325 Y10.069
X-17.263 Y10.065
X-17.2 Y10.062
X-17.137
X-17.074 Y10.063
X-17.011 Y10.066
X-16.949 Y10.071
X-16.886 Y10.078
X-16.824 Y10.087
X-16.762 Y10.098
X-16.7 Y10.111
X-16.639 Y10.125
X-16.578 Y10.141
X-16.518 Y10.16
X-16.458 Y10.179
X-16.399 Y10.201
X-16.341 Y10.225
X-16.283 Y10.25
X-16.226 Y10.277
X-16.17 Y10.305
X-16.115 Y10.336
X-16.061 Y10.367
X-16.008 Y10.401
X-15.955 Y10.435
X-15.904 Y10.471
X-15.853 Y10.509
X-15.804 Y10.548
X-15.755 Y10.588
X-15.708 Y10.63
X-15.662 Y10.672
X-15.617 Y10.716
X-15.573 Y10.761
X-15.53 Y10.807
X-15.489 Y10.855
X-15.448 Y10.903
X-15.409 Y10.952
X-15.372 Y11.003
X-15.335 Y11.054
X-15.3 Y11.106
X-15.266 Y11.159
X-15.234 Y11.213
X-15.203 Y11.268
X-15.173 Y11.323
X-15.145 Y11.38
X-15.119 Y11.437
X-15.094 Y11.494
X-15.07 Y11.553
X-15.048 Y11.611
X-15.027 Y11.671
X-15.008 Y11.731
X-14.991 Y11.791
X-14.975 Y11.852
X-14.961 Y11.914
X-14.949 Y11.975
X-14.938 Y12.037
X-14.929 Y12.099
X-14.921 Y12.162
X-14.916 Y12.225
X-14.912 Y12.287
X-14.91 Y12.35
X-14.909 Y12.413
X-14.91 Y12.476
X-14.913 Y12.539
X-14.918 Y12.602
X-14.924 Y12.664
X-14.932 Y12.726
X-14.942 Y12.789
X-14.954 Y12.85
X-14.967 Y12.912
X-14.982 Y12.973
X-14.999 Y13.034
X-15.017 Y13.094
X-15.037 Y13.153
X-15.059 Y13.212
X-15.082 Y13.271
X-15.107 Y13.329
X-15.134 Y13.386
X-15.162 Y13.442
X-15.192 Y13.497
X-15.223 Y13.552
X-15.256 Y13.606
X-15.29 Y13.658
X-15.326 Y13.71
X-15.363 Y13.761
X-15.401 Y13.811
X-15.441 Y13.859
X-15.482 Y13.907
X-15.525 Y13.953
X-15.568 Y13.998
X-15.613 Y14.042
X-15.66 Y14.085
X-15.707 Y14.127
X-15.755 Y14.167
X-15.805 Y14.206
X-15.855 Y14.243
X-15.907 Y14.279
X-15.959 Y14.314
X-16.013 Y14.347
X-16.067 Y14.379
X-16.122 Y14.409
X-16.178 Y14.438
X-16.235 Y14.465
X-16.292 Y14.491
X-16.35 Y14.515
X-16.409 Y14.537
X-16.468 Y14.558
X-16.528 Y14.578
X-16.588 Y14.596
X-16.649 Y14.612
X-16.71 Y14.627
X-16.772 Y14.64
X-16.834 Y14.651
X-16.896 Y14.661
X-16.958 Y14.669
X-17.021 Y14.676
X-17.083 Y14.681
X-17.146 Y14.684
X-17.209 Y14.686
X-17.272
X-17.335 Y14.684
X-17.398 Y14.681
X-17.46 Y14.676
X-17.523 Y14.669
X-17.585 Y14.661
X-17.648 Y14.652
X-17.709 Y14.64
X-17.771 Y14.628
X-17.832 Y14.613
X-17.893 Y14.597
X-17.954 Y14.58
X-18.013 Y14.561
X-18.073 Y14.54
X-18.132 Y14.518
X-18.19 Y14.494
X-18.248 Y14.469
X-18.305 Y14.443
X-18.361 Y14.415
X-18.417 Y14.386
X-18.472 Y14.355
X-18.526 Y14.323
X-18.579 Y14.29
X-18.632 Y14.255
X-18.683 Y14.219
X-18.734 Y14.182
X-18.784 Y14.143
X-18.832 Y14.103
X-18.88 Y14.062
X-18.927 Y14.02
X-18.972 Y13.977
X-19.017 Y13.932
X-19.06 Y13.887
X-19.103 Y13.84
X-19.144 Y13.793
X-19.184 Y13.744
X-19.222 Y13.694
X-19.26 Y13.644
X-19.296 Y13.593
X-19.331 Y13.54
X-19.365 Y13.487
X-19.397 Y13.433
X-19.428 Y13.378
X-19.457 Y13.323
X-19.486 Y13.267
X-19.513 Y13.21
X-19.538 Y13.152
X-19.562 Y13.094
X-19.585 Y13.035
X-19.606 Y12.976
X-19.625 Y12.916
X-19.644 Y12.856
X-19.66 Y12.796
X-19.676 Y12.735
X-19.689 Y12.673
X-19.702 Y12.611
X-19.712 Y12.549
X-19.722 Y12.487
X-19.729 Y12.425
X-19.735 Y12.362
X-19.74 Y12.3
X-19.743 Y12.237
X-19.745 Y12.174
Y12.111
X-19.743 Y12.048
X-19.74 Y11.985
X-19.736 Y11.922
X-19.73 Y11.86
X-19.722 Y11.797
X-19.713 Y11.735
X-19.702 Y11.673
X-19.69 Y11.611
X-19.676 Y11.55
X-19.661 Y11.489
X-19.645 Y11.428
X-19.627 Y11.368
X-19.607 Y11.308
X-19.586 Y11.249
X-19.564 Y11.19
X-19.54 Y11.132
X-19.515 Y11.074
X-19.488 Y11.017
X-19.46 Y10.961
X-19.431 Y10.906
X-19.4 Y10.851
X-19.368 Y10.796
X-19.334 Y10.743
X-19.3 Y10.691
X-19.264 Y10.639
X-19.227 Y10.588
X-19.188 Y10.538
X-19.149 Y10.489
X-19.108 Y10.442
X-19.066 Y10.395
X-19.023 Y10.349
X-18.979 Y10.304
X-18.934 Y10.26
X-18.888 Y10.217
X-18.841 Y10.176
X-18.792 Y10.136
X-18.743 Y10.096
X-18.693 Y10.058
X-18.642 Y10.022
X-18.59 Y9.986
X-18.537 Y9.952
X-18.484 Y9.919
X-18.429 Y9.887
X-18.374 Y9.857
X-18.318 Y9.828
X-18.262 Y9.8
X-18.205 Y9.774
X-18.147 Y9.749
X-18.089 Y9.726
X-18.03 Y9.704
X-17.97 Y9.683
X-17.91 Y9.664
X-17.85 Y9.646
X-17.789 Y9.63
X-17.728 Y9.615
X-17.666 Y9.602
X-17.605 Y9.59
X-17.543 Y9.58
X-17.48 Y9.571
X-17.418 Y9.564
X-17.355 Y9.558
X-17.292 Y9.554
X-17.23 Y9.551
X-17.167 Y9.55
X-17.104 Y9.551
X-17.041 Y9.552
X-16.978 Y9.556
X-16.915 Y9.561
X-16.853 Y9.567
X-16.791 Y9.575
X-16.728 Y9.585
X-16.666 Y9.595
X-16.605 Y9.608
X-16.543 Y9.622
X-16.482 Y9.637
X-16.422 Y9.654
X-16.362 Y9.672
X-16.302 Y9.692
X-16.243 Y9.713
X-16.184 Y9.736
X-16.126 Y9.76
X-16.068 Y9.785
X-16.011 Y9.811
X-15.955 Y9.839
X-15.899 Y9.869
X-15.844 Y9.899
X-15.79 Y9.931
X-15.736 Y9.964
X-15.683 Y9.998
X-15.631 Y10.033
X-15.58 Y10.07
X-15.529 Y10.107
X-15.48 Y10.146
X-15.431 Y10.186
X-15.383 Y10.226
X-15.336 Y10.268
X-15.29 Y10.311
X-15.245 Y10.355
X-15.201 Y10.4
X-15.158 Y10.446
X-15.116 Y10.492
X-15.075 Y10.54
X-15.035 Y10.589
X-14.996 Y10.638
X-14.958 Y10.688
X-14.921 Y10.739
X-14.885 Y10.791
X-14.851 Y10.843
X-14.817 Y10.897
X-14.785 Y10.95
X-14.754 Y11.005
X-14.724 Y11.06
X-14.695 Y11.116
X-14.667 Y11.173
X-14.641 Y11.23
X-14.616 Y11.288
X-14.592 Y11.346
X-14.569 Y11.405
X-14.548 Y11.464
X-14.528 Y11.523
X-14.51 Y11.584
X-14.492 Y11.644
X-14.476 Y11.705
X-14.462 Y11.766
X-14.448 Y11.827
X-14.436 Y11.889
X-14.426 Y11.951
X-14.417 Y12.013
X-14.409 Y12.076
X-14.402 Y12.138
X-14.397 Y12.201
X-14.394 Y12.264
X-14.391 Y12.327
Y12.39
Y12.453
X-14.393 Y12.515
X-14.396 Y12.578
X-14.401 Y12.641
X-14.407 Y12.704
X-14.415 Y12.766
X-14.424 Y12.828
X-14.435 Y12.89
X-14.446 Y12.952
X-14.46 Y13.014
X-14.474 Y13.075
X-14.49 Y13.136
X-14.507 Y13.196
X-14.526 Y13.256
X-14.546 Y13.316
X-14.568 Y13.375
X-14.59 Y13.434
X-14.614 Y13.492
X-14.64 Y13.549
X-14.666 Y13.606
X-14.694 Y13.663
X-14.723 Y13.718
X-14.754 Y13.773
X-14.786 Y13.828
X-14.818 Y13.881
X-14.853 Y13.934
X-14.888 Y13.986
X-14.924 Y14.038
X-14.962 Y14.088
X-15.001 Y14.138
X-15.04 Y14.186
X-15.081 Y14.234
X-15.123 Y14.281
X-15.166 Y14.327
X-15.21 Y14.372
X-15.255 Y14.416
X-15.301 Y14.459
X-15.348 Y14.5
X-15.396 Y14.541
X-15.445 Y14.581
X-15.494 Y14.62
X-15.545 Y14.657
X-15.596 Y14.694
X-15.648 Y14.729
X-15.701 Y14.763
X-15.755 Y14.796
X-15.809 Y14.828
X-15.864 Y14.858
X-15.919 Y14.888
X-15.976 Y14.916
X-16.033 Y14.943
X-16.09 Y14.968
X-16.148 Y14.993
X-16.207 Y15.016
X-16.266 Y15.037
X-16.325 Y15.058
X-16.385 Y15.077
X-16.414 Y15.086
X-16.446 Y15.094
X-16.48 Y15.098
X-16.513 Y15.1
X-17.608
X-17.671 Y15.097
X-17.734 Y15.094
X-17.797 Y15.089
X-17.859 Y15.082
X-17.921 Y15.074
X-17.983 Y15.063
X-18.045 Y15.051
X-18.106 Y15.037
X-18.167 Y15.021
X-18.228 Y15.004
X-18.288 Y14.985
X-18.347 Y14.965
X-18.406 Y14.943
X-18.465 Y14.92
X-18.523 Y14.895
X-18.58 Y14.869
X-18.637 Y14.842
X-18.692 Y14.813
X-18.748 Y14.783
X-18.802 Y14.752
X-18.856 Y14.719
X-18.909 Y14.686
X-18.962 Y14.651
X-19.013 Y14.615
X-19.064 Y14.578
X-19.114 Y14.539
X-19.163 Y14.5
X-19.211 Y14.46
X-19.259 Y14.418
X-19.305 Y14.376
X-19.351 Y14.333
X-19.395 Y14.288
X-19.439 Y14.243
X-19.482 Y14.197
X-19.523 Y14.15
X-19.564 Y14.102
X-19.604 Y14.053
X-19.642 Y14.003
X-19.68 Y13.953
X-19.717 Y13.902
X-19.752 Y13.85
X-19.787 Y13.797
X-19.82 Y13.744
X-19.852 Y13.69
X-19.883 Y13.635
X-19.913 Y13.58
X-19.942 Y13.524
X-19.97 Y13.467
X-19.996 Y13.41
X-20.022 Y13.353
X-20.046 Y13.295
X-20.069 Y13.236
X-20.078 Y13.209
X-20.09 Y13.17
X-20.098 Y13.129
X-20.1 Y13.088
G3 X-19.945 Y12.944 I0.15 J0.005
X-19.857 Y12.976 I-0.005 J0.15
G1 X-19.501 Y13.259
X-17.849 Y14.571
X-17.52 Y14.833
G3 X-17.496 Y15.043 I-0.093 J0.117
X-17.608 Y15.1 I-0.117 J-0.093
G1 X-18.688
X-18.751 Y15.097
X-18.814 Y15.092
X-18.876 Y15.084
X-18.938 Y15.072
X-18.999 Y15.056
X-19.059 Y15.038
X-19.118 Y15.018
X-19.177 Y14.994
X-19.234 Y14.969
X-19.291 Y14.941
X-19.346 Y14.912
X-19.401 Y14.881
X-19.455 Y14.848
X-19.507 Y14.813
X-19.559 Y14.777
X-19.609 Y14.739
X-19.659 Y14.701
X-19.707 Y14.661
X-19.754 Y14.619
X-19.801 Y14.577
X-19.846 Y14.533
X-19.89 Y14.488
X-19.934 Y14.443
X-19.976 Y14.396
X-20.017 Y14.349
X-20.019 Y14.347
X-20.054 Y14.297
X-20.079 Y14.242
X-20.095 Y14.183
X-20.1 Y14.123
G3 X-19.945 Y13.978 I0.15 J0.005
X-19.868 Y14.003 I-0.005 J0.15
G1 X-19.476 Y14.259
X-18.951 Y14.602
X-18.611 Y14.825
G3 X-18.568 Y15.032 I-0.082 J0.126
X-18.688 Y15.1 I-0.126 J-0.082
G1 X-19.453
X-19.516 Y15.097
X-19.578 Y15.09
X-19.64 Y15.079
X-19.701 Y15.064
X-19.762 Y15.046
X-19.821 Y15.024
X-19.878 Y14.999
X-19.902 Y14.988
X-19.951 Y14.959
X-19.994 Y14.924
X-20.031 Y14.882
X-20.06 Y14.834
X-20.082 Y14.783
X-20.096 Y14.728
X-20.1 Y14.673
G3 X-19.945 Y14.528 I0.15 J0.005
X-19.877 Y14.547 I-0.005 J0.15
G1 X-19.731 Y14.627
X-19.386 Y14.819
G3 X-19.327 Y15.023 I-0.073 J0.131
X-19.453 Y15.1 I-0.131 J-0.073
G1 X-19.813
X-19.858 Y15.099
X-19.903 Y15.093
X-19.926 Y15.087
X-19.948 Y15.079
X-19.949 Y15.078
X-19.993 Y15.054
X-20.018 Y15.033
X-20.038 Y15.013
X-20.057 Y14.989
X-20.07 Y14.966
X-20.081 Y14.944
X-20.083 Y14.938
X-20.094 Y14.899
X-20.099 Y14.854
X-20.1 Y14.809
Y14.719
Y14.179
Y13.144
Y11.615
X-20.097 Y11.552
X-20.094 Y11.489
X-20.09 Y11.427
X-20.083 Y11.364
X-20.074 Y11.302
X-20.063 Y11.24
X-20.05 Y11.178
X-20.035 Y11.117
X-20.018 Y11.057
X-20. Y10.996
X-19.98 Y10.937
X-19.958 Y10.878
X-19.935 Y10.819
X-19.91 Y10.761
X-19.884 Y10.704
X-19.857 Y10.648
X-19.828 Y10.592
X-19.798 Y10.536
X-19.766 Y10.482
X-19.734 Y10.428
X-19.7 Y10.375
X-19.665 Y10.323
X-19.628 Y10.272
X-19.591 Y10.221
X-19.552 Y10.172
X-19.513 Y10.123
X-19.472 Y10.075
X-19.43 Y10.028
X-19.388 Y9.981
X-19.344 Y9.936
X-19.299 Y9.892
X-19.254 Y9.848
X-19.207 Y9.806
X-19.16 Y9.765
X-19.112 Y9.724
X-19.063 Y9.685
X-19.013 Y9.646
X-18.962 Y9.609
X-18.911 Y9.573
X-18.859 Y9.538
X-18.806 Y9.503
X-18.752 Y9.47
X-18.698 Y9.438
X-18.643 Y9.408
X-18.588 Y9.378
X-18.532 Y9.349
X-18.475 Y9.322
X-18.418 Y9.296
X-18.361 Y9.271
X-18.302 Y9.247
X-18.244 Y9.224
X-18.236 Y9.221
X-18.197 Y9.209
X-18.157 Y9.202
X-18.116 Y9.2
G3 X-17.972 Y9.355 I-0.005 J0.15
X-18.005 Y9.444 I-0.15 J-0.005
G1 X-18.29 Y9.796
X-19.568 Y11.376
X-19.833 Y11.704
G3 X-20.044 Y11.726 I-0.117 J-0.094
X-20.1 Y11.615 I0.094 J-0.117
G1 Y10.58
X-20.097 Y10.518
X-20.092 Y10.455
X-20.084 Y10.393
X-20.072 Y10.331
X-20.056 Y10.27
X-20.038 Y10.21
X-20.017 Y10.15
X-19.993 Y10.092
X-19.967 Y10.035
X-19.94 Y9.978
X-19.91 Y9.923
X-19.878 Y9.869
X-19.844 Y9.815
X-19.809 Y9.763
X-19.773 Y9.712
X-19.735 Y9.662
X-19.695 Y9.613
X-19.655 Y9.565
X-19.613 Y9.518
X-19.57 Y9.472
X-19.526 Y9.427
X-19.481 Y9.383
X-19.435 Y9.34
X-19.388 Y9.298
X-19.37 Y9.283
X-19.331 Y9.254
X-19.287 Y9.231
X-19.241 Y9.214
X-19.193 Y9.203
X-19.143 Y9.2
G3 X-18.999 Y9.355 I-0.005 J0.15
X-19.023 Y9.432 I-0.15 J-0.005
G1 X-19.279 Y9.824
X-19.602 Y10.317
X-19.825 Y10.657
G3 X-20.032 Y10.701 I-0.126 J-0.082
X-20.1 Y10.58 I0.082 J-0.126
G1 Y9.816
Y9.791
Y9.785
X-20.098 Y9.743
X-20.09 Y9.681
X-20.077 Y9.619
X-20.061 Y9.558
X-20.041 Y9.499
X-20.018 Y9.44
X-20.002 Y9.406
X-19.975 Y9.356
X-19.939 Y9.311
X-19.897 Y9.273
X-19.848 Y9.241
X-19.796 Y9.219
X-19.74 Y9.205
X-19.683 Y9.2
G3 X-19.539 Y9.355 I-0.005 J0.15
X-19.56 Y9.428 I-0.15 J-0.005
G1 X-19.613 Y9.515
X-19.822 Y9.858
X-19.846 Y9.887
X-19.876 Y9.91
X-19.912 Y9.925
X-19.949 Y9.93
X-19.95
X-19.995 Y9.923
X-20.037 Y9.902
X-20.07 Y9.87
X-20.091 Y9.83
X-20.1 Y9.785
Y9.501
X-20.099 Y9.456
X-20.096 Y9.411
X-20.085 Y9.366
X-20.083 Y9.362
X-20.063 Y9.321
X-20.038 Y9.287
X-20.028 Y9.276
X-20.011 Y9.26
X-19.993 Y9.246
X-19.969 Y9.231
X-19.948 Y9.221
X-19.926 Y9.213
X-19.903 Y9.207
X-19.858 Y9.201
X-19.813 Y9.2
X-16.573
X-16.51 Y9.203
X-16.448 Y9.207
X-16.385 Y9.213
X-16.323 Y9.221
X-16.261 Y9.231
X-16.199 Y9.244
X-16.138 Y9.258
X-16.077 Y9.273
X-16.016 Y9.291
X-15.956 Y9.31
X-15.897 Y9.331
X-15.838 Y9.353
X-15.78 Y9.377
X-15.722 Y9.402
X-15.665 Y9.428
X-15.609 Y9.456
X-15.553 Y9.485
X-15.498 Y9.516
X-15.443 Y9.547
X-15.39 Y9.58
X-15.337 Y9.614
X-15.285 Y9.649
X-15.233 Y9.685
X-15.182 Y9.722
X-15.132 Y9.76
X-15.083 Y9.8
X-15.035 Y9.84
X-14.987 Y9.881
X-14.941 Y9.923
X-14.895 Y9.966
X-14.85 Y10.01
X-14.805 Y10.055
X-14.762 Y10.1
X-14.72 Y10.147
X-14.678 Y10.194
X-14.637 Y10.242
X-14.598 Y10.291
X-14.559 Y10.34
X-14.521 Y10.391
X-14.484 Y10.441
X-14.448 Y10.493
X-14.413 Y10.545
X-14.379 Y10.598
X-14.346 Y10.652
X-14.314 Y10.706
X-14.283 Y10.761
X-14.253 Y10.816
X-14.239 Y10.843
X-14.218 Y10.894
X-14.204 Y10.949
X-14.2 Y11.004
G3 X-14.355 Y11.149 I-0.15 J-0.005
X-14.439 Y11.119 I0.005 J-0.15
G1 X-14.808 Y10.845
X-16.324 Y9.718
X-16.657 Y9.47
G3 X-16.688 Y9.26 I0.089 J-0.12
X-16.573 Y9.2 I0.12 J0.089
G1 X-15.538
X-15.475 Y9.203
X-15.413 Y9.209
X-15.351 Y9.219
X-15.289 Y9.232
X-15.228 Y9.248
X-15.168 Y9.267
X-15.109 Y9.289
X-15.051 Y9.312
X-14.994 Y9.338
X-14.937 Y9.366
X-14.882 Y9.396
X-14.828 Y9.428
X-14.774 Y9.461
X-14.722 Y9.496
X-14.67 Y9.532
X-14.62 Y9.569
X-14.57 Y9.608
X-14.522 Y9.648
X-14.474 Y9.689
X-14.427 Y9.731
X-14.382 Y9.774
X-14.337 Y9.819
X-14.299 Y9.858
X-14.264 Y9.9
X-14.237 Y9.946
X-14.216 Y9.996
X-14.204 Y10.048
X-14.2 Y10.102
G3 X-14.355 Y10.246 I-0.15 J-0.005
X-14.43 Y10.223 I0.005 J-0.15
G1 X-14.828 Y9.972
X-15.272 Y9.692
X-15.613 Y9.477
G3 X-15.66 Y9.27 I0.08 J-0.127
X-15.538 Y9.2 I0.127 J0.08
G1 X-14.773
X-14.749
X-14.742
X-14.701 Y9.202
X-14.639 Y9.21
X-14.577 Y9.223
X-14.517 Y9.239
X-14.457 Y9.258
X-14.423 Y9.271
X-14.37 Y9.298
X-14.321 Y9.333
X-14.279 Y9.376
X-14.245 Y9.425
X-14.22 Y9.48
X-14.205 Y9.538
X-14.2 Y9.598
G3 X-14.355 Y9.742 I-0.15 J-0.005
X-14.43 Y9.719 I0.005 J-0.15
G1 X-14.475 Y9.691
X-14.817 Y9.477
G3 X-14.864 Y9.27 I0.08 J-0.127
X-14.742 Y9.2 I0.127 J0.08
G1 X-14.503
X-14.458
X-14.413 Y9.204
X-14.391 Y9.208
X-14.368 Y9.215
X-14.35 Y9.222
X-14.332 Y9.231
X-14.323 Y9.236
X-14.301 Y9.251
X-14.278 Y9.27
X-14.272 Y9.276
X-14.252 Y9.299
X-14.237 Y9.321
X-14.233 Y9.327
X-14.224 Y9.347
X-14.215 Y9.366
X-14.204 Y9.411
X-14.201 Y9.456
X-14.2 Y9.501
Y9.546
Y10.041
Y10.94
Y13.324
X-14.203 Y13.387
X-14.207 Y13.45
X-14.213 Y13.512
X-14.222 Y13.575
X-14.234 Y13.636
X-14.248 Y13.698
X-14.264 Y13.758
X-14.283 Y13.819
X-14.303 Y13.878
X-14.326 Y13.937
X-14.35 Y13.995
X-14.376 Y14.052
X-14.403 Y14.109
X-14.432 Y14.165
X-14.463 Y14.22
X-14.495 Y14.274
X-14.528 Y14.327
X-14.563 Y14.38
X-14.599 Y14.431
X-14.636 Y14.482
X-14.674 Y14.532
X-14.713 Y14.581
X-14.754 Y14.629
X-14.795 Y14.676
X-14.838 Y14.723
X-14.882 Y14.768
X-14.926 Y14.813
X-14.971 Y14.856
X-15.018 Y14.899
X-15.065 Y14.94
X-15.113 Y14.981
X-15.162 Y15.021
X-15.169 Y15.026
X-15.217 Y15.058
X-15.27 Y15.081
X-15.326 Y15.095
X-15.384 Y15.1
G3 X-15.529 Y14.945 I0.005 J-0.15
X-15.505 Y14.87 I0.15 J0.005
G1 X-15.253 Y14.473
X-14.693 Y13.59
X-14.477 Y13.249
G3 X-14.27 Y13.203 I0.127 J0.08
X-14.2 Y13.324 I-0.08 J0.127
G1 Y14.224
X-14.203 Y14.287
X-14.208 Y14.349
X-14.218 Y14.412
X-14.231 Y14.473
X-14.247 Y14.534
X-14.267 Y14.594
X-14.289 Y14.652
X-14.314 Y14.71
X-14.341 Y14.767
X-14.37 Y14.823
X-14.401 Y14.877
X-14.435 Y14.931
X-14.444 Y14.944
X-14.479 Y14.989
X-14.522 Y15.028
X-14.57 Y15.059
X-14.622 Y15.081
X-14.678 Y15.095
X-14.735 Y15.1
G3 X-14.88 Y14.945 I0.005 J-0.15
X-14.862 Y14.88 I0.15 J0.005
G1 X-14.665 Y14.506
X-14.483 Y14.159
G3 X-14.28 Y14.096 I0.133 J0.07
X-14.2 Y14.224 I-0.07 J0.133
G1 Y14.809
X-14.201 Y14.854
X-14.206 Y14.899
X-14.211 Y14.921
X-14.219 Y14.944
X-14.233 Y14.972
X-14.243 Y14.989
X-14.259 Y15.009
X-14.278 Y15.03
X-14.282 Y15.033
X-14.302 Y15.051
X-14.323 Y15.064
X-14.351 Y15.078
X-14.368 Y15.085
X-14.391 Y15.092
X-14.413 Y15.096
X-14.458 Y15.1
X-14.503
X-14.683
X-16.483
X-16.528 Y15.091
X-16.569 Y15.07
X-16.6 Y15.037
X-16.621 Y14.996
X-16.628 Y14.95
G3 X-16.478 Y14.8 I0.15 J0.
X-16.342 Y14.886 I0. J0.15
G1 X-16.335 Y14.914 Z-5.947
X-16.328 Y14.941 Z-5.939
Y14.95 Z-5.935
X-16.337 Y14.983 Z-5.911
X-16.345 Y15.008 Z-5.879
X-16.349 Y15.024 Z-5.841
X-16.351 Y15.03 Z-5.8
G0 Z5.
X-11.755 Y23.627
Z-0.699
G3 X-11.527 Y22.645 Z-0.738 I0.605 J-0.377 F800
X-10.545 Y22.873 Z-0.777 I0.377 J0.605
X-10.773 Y23.854 Z-0.816 I-0.605 J0.377
X-11.755 Y23.627 Z-0.855 I-0.377 J-0.605
X-11.527 Y22.645 Z-0.894 I0.605 J-0.377
X-10.545 Y22.873 Z-0.933 I0.377 J0.605
X-10.773 Y23.854 Z-0.973 I-0.605 J0.377
X-11.755 Y23.627 Z-1.012 I-0.377 J-0.605
X-11.527 Y22.645 Z-1.051 I0.605 J-0.377
X-10.545 Y22.873 Z-1.09 I0.377 J0.605
X-10.773 Y23.854 Z-1.129 I-0.605 J0.377
X-11.755 Y23.627 Z-1.168 I-0.377 J-0.605
X-11.527 Y22.645 Z-1.207 I0.605 J-0.377
X-10.545 Y22.873 Z-1.246 I0.377 J0.605
X-10.773 Y23.854 Z-1.285 I-0.605 J0.377
X-11.755 Y23.627 Z-1.324 I-0.377 J-0.605
X-11.527 Y22.645 Z-1.363 I0.605 J-0.377
X-10.545 Y22.873 Z-1.402 I0.377 J0.605
X-10.773 Y23.854 Z-1.442 I-0.605 J0.377
X-11.755 Y23.627 Z-1.481 I-0.377 J-0.605
X-11.527 Y22.645 Z-1.52 I0.605 J-0.377
X-10.545 Y22.873 Z-1.559 I0.377 J0.605
X-10.773 Y23.854 Z-1.598 I-0.605 J0.377
X-11.755 Y23.627 Z-1.637 I-0.377 J-0.605
X-11.527 Y22.645 Z-1.676 I0.605 J-0.377
X-10.545 Y22.873 Z-1.715 I0.377 J0.605
X-10.773 Y23.854 Z-1.754 I-0.605 J0.377
X-11.755 Y23.627 Z-1.793 I-0.377 J-0.605
X-11.527 Y22.645 Z-1.832 I0.605 J-0.377
X-10.545 Y22.873 Z-1.871 I0.377 J0.605
X-10.773 Y23.854 Z-1.911 I-0.605 J0.377
X-11.755 Y23.627 Z-1.95 I-0.377 J-0.605
X-11.527 Y22.645 Z-1.989 I0.605 J-0.377
X-10.545 Y22.873 Z-2.028 I0.377 J0.605
X-10.773 Y23.854 Z-2.067 I-0.605 J0.377
X-11.755 Y23.627 Z-2.106 I-0.377 J-0.605
X-11.527 Y22.645 Z-2.145 I0.605 J-0.377
X-10.545 Y22.873 Z-2.184 I0.377 J0.605
X-10.773 Y23.854 Z-2.223 I-0.605 J0.377
X-11.755 Y23.627 Z-2.262 I-0.377 J-0.605
X-11.527 Y22.645 Z-2.301 I0.605 J-0.377
X-10.545 Y22.873 Z-2.34 I0.377 J0.605
X-10.773 Y23.854 Z-2.38 I-0.605 J0.377
X-11.755 Y23.627 Z-2.419 I-0.377 J-0.605
X-11.527 Y22.645 Z-2.458 I0.605 J-0.377
X-10.545 Y22.873 Z-2.497 I0.377 J0.605
X-10.773 Y23.854 Z-2.536 I-0.605 J0.377
X-11.755 Y23.627 Z-2.575 I-0.377 J-0.605
X-11.527 Y22.645 Z-2.614 I0.605 J-0.377
X-10.545 Y22.873 Z-2.653 I0.377 J0.605
X-10.773 Y23.854 Z-2.692 I-0.605 J0.377
X-11.755 Y23.627 Z-2.731 I-0.377 J-0.605
X-11.527 Y22.645 Z-2.77 I0.605 J-0.377
X-10.545 Y22.873 Z-2.809 I0.377 J0.605
X-10.773 Y23.854 Z-2.849 I-0.605 J0.377
X-11.755 Y23.627 Z-2.888 I-0.377 J-0.605
X-11.527 Y22.645 Z-2.927 I0.605 J-0.377
X-10.545 Y22.873 Z-2.966 I0.377 J0.605
X-10.773 Y23.854 Z-3.005 I-0.605 J0.377
X-11.755 Y23.627 Z-3.044 I-0.377 J-0.605
X-11.527 Y22.645 Z-3.083 I0.605 J-0.377
X-10.545 Y22.873 Z-3.122 I0.377 J0.605
X-10.773 Y23.854 Z-3.161 I-0.605 J0.377
X-11.755 Y23.627 Z-3.2 I-0.377 J-0.605
X-11.527 Y22.645 Z-3.239 I0.605 J-0.377
X-10.545 Y22.873 Z-3.278 I0.377 J0.605
X-10.773 Y23.854 Z-3.318 I-0.605 J0.377
X-11.755 Y23.627 Z-3.357 I-0.377 J-0.605
X-11.527 Y22.645 Z-3.396 I0.605 J-0.377
X-10.545 Y22.873 Z-3.435 I0.377 J0.605
X-10.773 Y23.854 Z-3.474 I-0.605 J0.377
X-11.755 Y23.627 Z-3.513 I-0.377 J-0.605
X-11.527 Y22.645 Z-3.552 I0.605 J-0.377
X-10.545 Y22.873 Z-3.591 I0.377 J0.605
X-10.773 Y23.854 Z-3.63 I-0.605 J0.377
X-11.755 Y23.627 Z-3.669 I-0.377 J-0.605
X-11.527 Y22.645 Z-3.708 I0.605 J-0.377
X-10.545 Y22.873 Z-3.747 I0.377 J0.605
X-10.773 Y23.854 Z-3.787 I-0.605 J0.377
X-11.755 Y23.627 Z-3.826 I-0.377 J-0.605
X-11.527 Y22.645 Z-3.865 I0.605 J-0.377
X-10.545 Y22.873 Z-3.904 I0.377 J0.605
X-10.773 Y23.854 Z-3.943 I-0.605 J0.377
X-11.755 Y23.627 Z-3.982 I-0.377 J-0.605
X-11.527 Y22.645 Z-4.021 I0.605 J-0.377
X-10.545 Y22.873 Z-4.06 I0.377 J0.605
X-10.773 Y23.854 Z-4.099 I-0.605 J0.377
X-11.755 Y23.627 Z-4.138 I-0.377 J-0.605
X-11.527 Y22.645 Z-4.177 I0.605 J-0.377
X-10.545 Y22.873 Z-4.216 I0.377 J0.605
X-10.773 Y23.854 Z-4.256 I-0.605 J0.377
X-11.755 Y23.627 Z-4.295 I-0.377 J-0.605
X-11.527 Y22.645 Z-4.334 I0.605 J-0.377
X-10.545 Y22.873 Z-4.373 I0.377 J0.605
X-10.773 Y23.854 Z-4.412 I-0.605 J0.377
X-11.755 Y23.627 Z-4.451 I-0.377 J-0.605
X-11.527 Y22.645 Z-4.49 I0.605 J-0.377
X-10.545 Y22.873 Z-4.529 I0.377 J0.605
X-10.773 Y23.854 Z-4.568 I-0.605 J0.377
X-11.755 Y23.627 Z-4.607 I-0.377 J-0.605
X-11.527 Y22.645 Z-4.646 I0.605 J-0.377
X-10.545 Y22.873 Z-4.685 I0.377 J0.605
X-10.773 Y23.854 Z-4.725 I-0.605 J0.377
X-11.755 Y23.627 Z-4.764 I-0.377 J-0.605
X-11.527 Y22.645 Z-4.803 I0.605 J-0.377
X-10.545 Y22.873 Z-4.842 I0.377 J0.605
X-10.773 Y23.854 Z-4.881 I-0.605 J0.377
X-11.755 Y23.627 Z-4.92 I-0.377 J-0.605
X-11.527 Y22.645 Z-4.959 I0.605 J-0.377
X-10.545 Y22.873 Z-4.998 I0.377 J0.605
X-10.773 Y23.854 Z-5.037 I-0.605 J0.377
X-11.755 Y23.627 Z-5.076 I-0.377 J-0.605
X-11.527 Y22.645 Z-5.115 I0.605 J-0.377
X-10.545 Y22.873 Z-5.154 I0.377 J0.605
X-10.773 Y23.854 Z-5.194 I-0.605 J0.377
X-11.755 Y23.627 Z-5.233 I-0.377 J-0.605
X-11.527 Y22.645 Z-5.272 I0.605 J-0.377
X-10.545 Y22.873 Z-5.311 I0.377 J0.605
X-10.773 Y23.854 Z-5.35 I-0.605 J0.377
X-11.755 Y23.627 Z-5.389 I-0.377 J-0.605
X-11.527 Y22.645 Z-5.428 I0.605 J-0.377
X-10.545 Y22.873 Z-5.467 I0.377 J0.605
X-10.773 Y23.854 Z-5.506 I-0.605 J0.377
X-11.755 Y23.627 Z-5.545 I-0.377 J-0.605
X-11.527 Y22.645 Z-5.584 I0.605 J-0.377
X-10.545 Y22.873 Z-5.623 I0.377 J0.605
X-10.773 Y23.854 Z-5.663 I-0.605 J0.377
X-11.755 Y23.627 Z-5.702 I-0.377 J-0.605
X-11.527 Y22.645 Z-5.741 I0.605 J-0.377
X-10.545 Y22.873 Z-5.78 I0.377 J0.605
X-10.773 Y23.854 Z-5.819 I-0.605 J0.377
X-11.755 Y23.627 Z-5.858 I-0.377 J-0.605
X-11.527 Y22.645 Z-5.897 I0.605 J-0.377
X-10.545 Y22.873 Z-5.936 I0.377 J0.605
X-10.438 Y23.25 Z-5.95 I-0.605 J0.377
X-11.15 Y23.962 I-0.713 J0.
X-11.863 Y23.25 I0. J-0.713
X-11.15 Y22.537 I0.713 J0.
X-10.438 Y23.25 I0. J0.713
G1 X-10.437 Y23.313
X-10.426 Y23.375
X-10.404 Y23.433
X-10.388 Y23.46
X-10.377 Y23.481
X-10.368 Y23.506
X-10.359 Y23.533
X-10.353 Y23.564
X-10.348 Y23.597
X-10.346 Y23.634
X-10.347 Y23.674
X-10.351 Y23.716
X-10.359 Y23.761
X-10.372 Y23.807
X-10.389 Y23.854
X-10.411 Y23.903
X-10.438 Y23.952
X-10.47 Y24.001
X-10.508 Y24.049
X-10.551 Y24.095
X-10.597 Y24.138
X-10.646 Y24.177
X-10.698 Y24.212
X-10.753 Y24.243
X-10.809 Y24.271
X-10.868 Y24.294
X-10.928 Y24.314
X-10.989 Y24.329
X-11.05 Y24.341
X-11.113 Y24.348
X-11.176 Y24.352
X-11.239
X-11.301 Y24.348
X-11.364 Y24.34
X-11.425 Y24.328
X-11.486 Y24.312
X-11.546 Y24.293
X-11.605 Y24.271
X-11.662 Y24.245
X-11.718 Y24.216
X-11.772 Y24.183
X-11.824 Y24.148
X-11.874 Y24.11
X-11.921 Y24.068
X-11.966 Y24.024
X-12.009 Y23.978
X-12.049 Y23.929
X-12.086 Y23.879
X-12.12 Y23.826
X-12.151 Y23.771
X-12.179 Y23.715
X-12.203 Y23.657
X-12.225 Y23.598
X-12.243 Y23.537
X-12.257 Y23.476
X-12.268 Y23.414
X-12.276 Y23.352
X-12.28 Y23.289
X-12.281 Y23.226
X-12.278 Y23.163
X-12.271 Y23.101
X-12.262 Y23.039
X-12.248 Y22.977
X-12.231 Y22.916
X-12.211 Y22.857
X-12.188 Y22.798
X-12.161 Y22.741
X-12.132 Y22.686
X-12.099 Y22.632
X-12.063 Y22.581
X-12.025 Y22.531
X-11.983 Y22.483
X-11.94 Y22.438
X-11.893 Y22.396
X-11.845 Y22.356
X-11.794 Y22.318
X-11.741 Y22.284
X-11.687 Y22.253
X-11.631 Y22.224
X-11.573 Y22.199
X-11.514 Y22.177
X-11.454 Y22.159
X-11.393 Y22.144
X-11.331 Y22.132
X-11.269 Y22.123
X-11.206 Y22.119
X-11.143 Y22.117
X-11.08 Y22.119
X-11.018 Y22.125
X-10.955 Y22.134
X-10.894 Y22.147
X-10.833 Y22.163
X-10.773 Y22.182
X-10.714 Y22.204
X-10.657 Y22.23
X-10.601 Y22.259
X-10.547 Y22.291
X-10.495 Y22.326
X-10.444 Y22.364
X-10.396 Y22.404
X-10.351 Y22.448
X-10.307 Y22.493
X-10.267 Y22.541
X-10.229 Y22.591
X-10.193 Y22.643
X-10.161 Y22.697
X-10.129 Y22.752
X-10.098 Y22.806
X-10.069 Y22.862
X-10.041 Y22.919
X-10.015 Y22.976
X-9.991 Y23.034
X-9.97 Y23.093
X-9.95 Y23.153
X-9.933 Y23.213
X-9.919 Y23.275
X-9.914 Y23.303
X-9.909 Y23.34
Y23.378
X-9.912 Y23.416
X-9.914 Y23.427
X-9.916 Y23.445
X-9.924 Y23.49
X-9.934 Y23.535
X-9.945 Y23.58
X-9.958 Y23.625
X-9.974 Y23.67
X-9.991 Y23.715
X-10.004 Y23.746
X-10.01 Y23.76
X-10.031 Y23.805
X-10.049 Y23.839
X-10.054 Y23.85
X-10.08 Y23.895
X-10.109 Y23.94
X-10.139 Y23.983
X-10.14 Y23.985
X-10.174 Y24.029
X-10.184 Y24.041
X-10.212 Y24.074
X-10.229 Y24.093
X-10.253 Y24.119
X-10.274 Y24.14
X-10.299 Y24.164
X-10.319 Y24.182
X-10.35 Y24.209
X-10.364 Y24.221
X-10.409 Y24.255
X-10.454 Y24.287
X-10.473 Y24.299
X-10.499 Y24.316
X-10.544 Y24.342
X-10.547 Y24.344
X-10.589 Y24.366
X-10.634 Y24.387
X-10.638 Y24.389
X-10.679 Y24.406
X-10.724 Y24.424
X-10.752 Y24.434
X-10.769 Y24.44
X-10.814 Y24.453
X-10.859 Y24.464
X-10.904 Y24.474
X-10.927 Y24.479
X-10.949 Y24.483
X-10.994 Y24.489
X-11.039 Y24.494
X-11.084 Y24.497
X-11.129 Y24.499
X-11.174
X-11.219 Y24.497
X-11.263 Y24.494
X-11.308 Y24.489
X-11.353 Y24.482
X-11.371 Y24.479
X-11.398 Y24.474
X-11.443 Y24.464
X-11.488 Y24.452
X-11.533 Y24.439
X-11.547 Y24.434
X-11.578 Y24.423
X-11.623 Y24.406
X-11.662 Y24.389
X-11.668 Y24.387
X-11.713 Y24.365
X-11.752 Y24.344
X-11.758 Y24.341
X-11.803 Y24.314
X-11.827 Y24.299
X-11.848 Y24.286
X-11.893 Y24.254
X-11.938 Y24.219
X-11.95 Y24.209
X-11.983 Y24.18
X-12.001 Y24.164
X-12.028 Y24.138
X-12.047 Y24.119
X-12.073 Y24.091
X-12.088 Y24.074
X-12.118 Y24.039
X-12.126 Y24.029
X-12.16 Y23.985
X-12.163 Y23.98
X-12.191 Y23.94
X-12.22 Y23.895
X-12.246 Y23.85
X-12.253 Y23.836
X-12.269 Y23.805
X-12.29 Y23.76
X-12.298 Y23.741
X-12.309 Y23.715
X-12.326 Y23.67
X-12.342 Y23.625
X-12.343 Y23.619
X-12.355 Y23.58
X-12.366 Y23.535
X-12.376 Y23.49
X-12.384 Y23.445
X-12.388 Y23.414
X-12.39 Y23.4
X-12.395 Y23.355
X-12.397 Y23.31
X-12.399 Y23.265
Y23.22
X-12.397 Y23.175
X-12.393 Y23.13
X-12.388 Y23.085
X-12.381 Y23.04
X-12.373 Y22.995
X-12.362 Y22.95
X-12.35 Y22.905
X-12.343 Y22.881
X-12.337 Y22.86
X-12.321 Y22.815
X-12.303 Y22.77
X-12.298 Y22.759
X-12.284 Y22.725
X-12.261 Y22.68
X-12.253 Y22.665
X-12.237 Y22.635
X-12.211 Y22.59
X-12.208 Y22.586
X-12.181 Y22.545
X-12.163 Y22.52
X-12.149 Y22.5
X-12.118 Y22.461
X-12.114 Y22.455
X-12.075 Y22.41
X-12.073 Y22.409
X-12.032 Y22.365
X-12.028 Y22.362
X-11.984 Y22.32
X-11.983
X-11.938 Y22.281
X-11.931 Y22.275
X-11.893 Y22.246
X-11.848 Y22.215
X-11.803 Y22.185
X-11.758 Y22.159
X-11.723 Y22.14
X-11.713 Y22.135
X-11.668 Y22.113
X-11.627 Y22.095
X-11.578 Y22.077
X-11.533 Y22.061
X-11.498 Y22.05
X-11.488 Y22.048
X-11.443 Y22.036
X-11.398 Y22.026
X-11.353 Y22.018
X-11.308 Y22.011
X-11.263 Y22.006
X-11.256 Y22.005
X-11.219 Y22.003
X-11.174 Y22.001
X-11.129
X-11.084 Y22.003
X-11.039 Y22.006
X-10.994 Y22.011
X-10.949 Y22.017
X-10.904 Y22.026
X-10.859 Y22.036
X-10.814 Y22.047
X-10.769 Y22.06
X-10.724 Y22.076
X-10.679 Y22.094
X-10.674 Y22.095
X-10.634 Y22.113
X-10.589 Y22.134
X-10.577 Y22.14
X-10.544 Y22.158
X-10.497 Y22.185
X-10.454 Y22.213
X-10.429 Y22.23
X-10.409 Y22.245
X-10.369 Y22.275
X-10.364 Y22.28
X-10.319 Y22.318
X-10.316 Y22.32
X-10.274 Y22.36
X-10.268 Y22.365
X-10.229 Y22.407
X-10.225 Y22.41
X-10.187 Y22.455
X-10.184 Y22.459
X-10.152 Y22.5
X-10.139 Y22.518
X-10.119 Y22.545
X-10.094 Y22.583
X-10.089 Y22.59
X-10.063 Y22.635
X-10.049 Y22.661
X-10.039 Y22.68
X-10.017 Y22.725
X-10.004 Y22.754
X-9.997 Y22.77
X-9.979 Y22.815
X-9.963 Y22.86
X-9.959 Y22.874
X-9.95 Y22.905
X-9.938 Y22.95
X-9.927 Y22.995
X-9.919 Y23.04
X-9.914 Y23.072
X-9.912 Y23.085
X-9.907 Y23.13
X-9.903 Y23.175
X-9.901 Y23.22
Y23.265
X-9.903 Y23.31
X-9.905 Y23.355
X-9.91 Y23.4
X-9.912 Y23.416
G3 X-10.087 Y23.537 I-0.148 J-0.027
X-10.207 Y23.363 I0.027 J-0.148
X-10.103 Y23.246 I0.148 J0.027
G1 X-10.06 Y23.239 Z-5.943
X-10.02 Y23.254 Z-5.922
X-9.989 Y23.265 Z-5.888
X-9.969 Y23.273 Z-5.847
X-9.962 Y23.275 Z-5.8
G0 Z5.
X-11.754 Y34.327
Z-0.699
G3 X-11.527 Y33.345 Z-0.738 I0.605 J-0.377 F800
X-10.545 Y33.573 Z-0.777 I0.377 J0.605
X-10.773 Y34.554 Z-0.816 I-0.605 J0.377
X-11.754 Y34.327 Z-0.855 I-0.377 J-0.605
X-11.527 Y33.345 Z-0.894 I0.605 J-0.377
X-10.545 Y33.573 Z-0.933 I0.377 J0.605
X-10.773 Y34.554 Z-0.973 I-0.605 J0.377
X-11.754 Y34.327 Z-1.012 I-0.377 J-0.605
X-11.527 Y33.345 Z-1.051 I0.605 J-0.377
X-10.545 Y33.573 Z-1.09 I0.377 J0.605
X-10.773 Y34.554 Z-1.129 I-0.605 J0.377
X-11.754 Y34.327 Z-1.168 I-0.377 J-0.605
X-11.527 Y33.345 Z-1.207 I0.605 J-0.377
X-10.545 Y33.573 Z-1.246 I0.377 J0.605
X-10.773 Y34.554 Z-1.285 I-0.605 J0.377
X-11.754 Y34.327 Z-1.324 I-0.377 J-0.605
X-11.527 Y33.345 Z-1.363 I0.605 J-0.377
X-10.545 Y33.573 Z-1.402 I0.377 J0.605
X-10.773 Y34.554 Z-1.442 I-0.605 J0.377
X-11.754 Y34.327 Z-1.481 I-0.377 J-0.605
X-11.527 Y33.345 Z-1.52 I0.605 J-0.377
X-10.545 Y33.573 Z-1.559 I0.377 J0.605
X-10.773 Y34.554 Z-1.598 I-0.605 J0.377
X-11.754 Y34.327 Z-1.637 I-0.377 J-0.605
X-11.527 Y33.345 Z-1.676 I0.605 J-0.377
X-10.545 Y33.573 Z-1.715 I0.377 J0.605
X-10.773 Y34.554 Z-1.754 I-0.605 J0.377
X-11.754 Y34.327 Z-1.793 I-0.377 J-0.605
X-11.527 Y33.345 Z-1.832 I0.605 J-0.377
X-10.545 Y33.573 Z-1.871 I0.377 J0.605
X-10.773 Y34.554 Z-1.911 I-0.605 J0.377
X-11.754 Y34.327 Z-1.95 I-0.377 J-0.605
X-11.527 Y33.345 Z-1.989 I0.605 J-0.377
X-10.545 Y33.573 Z-2.028 I0.377 J0.605
X-10.773 Y34.554 Z-2.067 I-0.605 J0.377
X-11.754 Y34.327 Z-2.106 I-0.377 J-0.605
X-11.527 Y33.345 Z-2.145 I0.605 J-0.377
X-10.545 Y33.573 Z-2.184 I0.377 J0.605
X-10.773 Y34.554 Z-2.223 I-0.605 J0.377
X-11.754 Y34.327 Z-2.262 I-0.377 J-0.605
X-11.527 Y33.345 Z-2.301 I0.605 J-0.377
X-10.545 Y33.573 Z-2.34 I0.377 J0.605
X-10.773 Y34.554 Z-2.38 I-0.605 J0.377
X-11.754 Y34.327 Z-2.419 I-0.377 J-0.605
X-11.527 Y33.345 Z-2.458 I0.605 J-0.377
X-10.545 Y33.573 Z-2.497 I0.377 J0.605
X-10.773 Y34.554 Z-2.536 I-0.605 J0.377
X-11.754 Y34.327 Z-2.575 I-0.377 J-0.605
X-11.527 Y33.345 Z-2.614 I0.605 J-0.377
X-10.545 Y33.573 Z-2.653 I0.377 J0.605
X-10.773 Y34.554 Z-2.692 I-0.605 J0.377
X-11.754 Y34.327 Z-2.731 I-0.377 J-0.605
X-11.527 Y33.345 Z-2.77 I0.605 J-0.377
X-10.545 Y33.573 Z-2.809 I0.377 J0.605
X-10.773 Y34.554 Z-2.849 I-0.605 J0.377
X-11.754 Y34.327 Z-2.888 I-0.377 J-0.605
X-11.527 Y33.345 Z-2.927 I0.605 J-0.377
X-10.545 Y33.573 Z-2.966 I0.377 J0.605
X-10.773 Y34.554 Z-3.005 I-0.605 J0.377
X-11.754 Y34.327 Z-3.044 I-0.377 J-0.605
X-11.527 Y33.345 Z-3.083 I0.605 J-0.377
X-10.545 Y33.573 Z-3.122 I0.377 J0.605
X-10.773 Y34.554 Z-3.161 I-0.605 J0.377
X-11.754 Y34.327 Z-3.2 I-0.377 J-0.605
X-11.527 Y33.345 Z-3.239 I0.605 J-0.377
X-10.545 Y33.573 Z-3.278 I0.377 J0.605
X-10.773 Y34.554 Z-3.318 I-0.605 J0.377
X-11.754 Y34.327 Z-3.357 I-0.377 J-0.605
X-11.527 Y33.345 Z-3.396 I0.605 J-0.377
X-10.545 Y33.573 Z-3.435 I0.377 J0.605
X-10.773 Y34.554 Z-3.474 I-0.605 J0.377
X-11.754 Y34.327 Z-3.513 I-0.377 J-0.605
X-11.527 Y33.345 Z-3.552 I0.605 J-0.377
X-10.545 Y33.573 Z-3.591 I0.377 J0.605
X-10.773 Y34.554 Z-3.63 I-0.605 J0.377
X-11.754 Y34.327 Z-3.669 I-0.377 J-0.605
X-11.527 Y33.345 Z-3.708 I0.605 J-0.377
X-10.545 Y33.573 Z-3.747 I0.377 J0.605
X-10.773 Y34.554 Z-3.787 I-0.605 J0.377
X-11.754 Y34.327 Z-3.826 I-0.377 J-0.605
X-11.527 Y33.345 Z-3.865 I0.605 J-0.377
X-10.545 Y33.573 Z-3.904 I0.377 J0.605
X-10.773 Y34.554 Z-3.943 I-0.605 J0.377
X-11.754 Y34.327 Z-3.982 I-0.377 J-0.605
X-11.527 Y33.345 Z-4.021 I0.605 J-0.377
X-10.545 Y33.573 Z-4.06 I0.377 J0.605
X-10.773 Y34.554 Z-4.099 I-0.605 J0.377
X-11.754 Y34.327 Z-4.138 I-0.377 J-0.605
X-11.527 Y33.345 Z-4.177 I0.605 J-0.377
X-10.545 Y33.573 Z-4.216 I0.377 J0.605
X-10.773 Y34.554 Z-4.256 I-0.605 J0.377
X-11.754 Y34.327 Z-4.295 I-0.377 J-0.605
X-11.527 Y33.345 Z-4.334 I0.605 J-0.377
X-10.545 Y33.573 Z-4.373 I0.377 J0.605
X-10.773 Y34.554 Z-4.412 I-0.605 J0.377
X-11.754 Y34.327 Z-4.451 I-0.377 J-0.605
X-11.527 Y33.345 Z-4.49 I0.605 J-0.377
X-10.545 Y33.573 Z-4.529 I0.377 J0.605
X-10.773 Y34.554 Z-4.568 I-0.605 J0.377
X-11.754 Y34.327 Z-4.607 I-0.377 J-0.605
X-11.527 Y33.345 Z-4.646 I0.605 J-0.377
X-10.545 Y33.573 Z-4.685 I0.377 J0.605
X-10.773 Y34.554 Z-4.725 I-0.605 J0.377
X-11.754 Y34.327 Z-4.764 I-0.377 J-0.605
X-11.527 Y33.345 Z-4.803 I0.605 J-0.377
X-10.545 Y33.573 Z-4.842 I0.377 J0.605
X-10.773 Y34.554 Z-4.881 I-0.605 J0.377
X-11.754 Y34.327 Z-4.92 I-0.377 J-0.605
X-11.527 Y33.345 Z-4.959 I0.605 J-0.377
X-10.545 Y33.573 Z-4.998 I0.377 J0.605
X-10.773 Y34.554 Z-5.037 I-0.605 J0.377
X-11.754 Y34.327 Z-5.076 I-0.377 J-0.605
X-11.527 Y33.345 Z-5.115 I0.605 J-0.377
X-10.545 Y33.573 Z-5.154 I0.377 J0.605
X-10.773 Y34.554 Z-5.194 I-0.605 J0.377
X-11.754 Y34.327 Z-5.233 I-0.377 J-0.605
X-11.527 Y33.345 Z-5.272 I0.605 J-0.377
X-10.545 Y33.573 Z-5.311 I0.377 J0.605
X-10.773 Y34.554 Z-5.35 I-0.605 J0.377
X-11.754 Y34.327 Z-5.389 I-0.377 J-0.605
X-11.527 Y33.345 Z-5.428 I0.605 J-0.377
X-10.545 Y33.573 Z-5.467 I0.377 J0.605
X-10.773 Y34.554 Z-5.506 I-0.605 J0.377
X-11.754 Y34.327 Z-5.545 I-0.377 J-0.605
X-11.527 Y33.345 Z-5.584 I0.605 J-0.377
X-10.545 Y33.573 Z-5.623 I0.377 J0.605
X-10.773 Y34.554 Z-5.663 I-0.605 J0.377
X-11.754 Y34.327 Z-5.702 I-0.377 J-0.605
X-11.527 Y33.345 Z-5.741 I0.605 J-0.377
X-10.545 Y33.573 Z-5.78 I0.377 J0.605
X-10.773 Y34.554 Z-5.819 I-0.605 J0.377
X-11.754 Y34.327 Z-5.858 I-0.377 J-0.605
X-11.527 Y33.345 Z-5.897 I0.605 J-0.377
X-10.545 Y33.573 Z-5.936 I0.377 J0.605
X-10.437 Y33.95 Z-5.95 I-0.605 J0.377
X-11.15 Y34.662 I-0.713 J0.
X-11.862 Y33.95 I0. J-0.713
X-11.15 Y33.237 I0.713 J0.
X-10.437 Y33.95 I0. J0.713
G1 Y34.013
X-10.426 Y34.075
X-10.404 Y34.133
X-10.387 Y34.16
X-10.377 Y34.181
X-10.367 Y34.205
X-10.359 Y34.233
X-10.352 Y34.264
X-10.348 Y34.297
X-10.345 Y34.334
X-10.346 Y34.374
X-10.351 Y34.416
X-10.359 Y34.46
X-10.372 Y34.507
X-10.389 Y34.554
X-10.411 Y34.603
X-10.438 Y34.652
X-10.47 Y34.701
X-10.508 Y34.749
X-10.55 Y34.795
X-10.597 Y34.838
X-10.646 Y34.876
X-10.698 Y34.912
X-10.753 Y34.943
X-10.809 Y34.971
X-10.868 Y34.994
X-10.927 Y35.014
X-10.988 Y35.029
X-11.05 Y35.041
X-11.113 Y35.048
X-11.175 Y35.052
X-11.238
X-11.301 Y35.047
X-11.363 Y35.039
X-11.425 Y35.028
X-11.486 Y35.012
X-11.546 Y34.993
X-11.605 Y34.971
X-11.662 Y34.945
X-11.718 Y34.916
X-11.772 Y34.883
X-11.824 Y34.848
X-11.874 Y34.809
X-11.921 Y34.768
X-11.966 Y34.724
X-12.009 Y34.678
X-12.049 Y34.629
X-12.086 Y34.578
X-12.12 Y34.526
X-12.151 Y34.471
X-12.178 Y34.414
X-12.203 Y34.357
X-12.224 Y34.297
X-12.242 Y34.237
X-12.257 Y34.176
X-12.268 Y34.114
X-12.276 Y34.052
X-12.28 Y33.989
X-12.281 Y33.926
X-12.278 Y33.863
X-12.271 Y33.801
X-12.261 Y33.738
X-12.248 Y33.677
X-12.231 Y33.616
X-12.211 Y33.557
X-12.188 Y33.498
X-12.161 Y33.441
X-12.131 Y33.386
X-12.099 Y33.332
X-12.063 Y33.28
X-12.024 Y33.231
X-11.983 Y33.183
X-11.939 Y33.138
X-11.893 Y33.096
X-11.844 Y33.056
X-11.794 Y33.018
X-11.741 Y32.984
X-11.687 Y32.953
X-11.63 Y32.924
X-11.573 Y32.899
X-11.514 Y32.877
X-11.454 Y32.859
X-11.393 Y32.844
X-11.331 Y32.832
X-11.268 Y32.823
X-11.206 Y32.819
X-11.143 Y32.817
X-11.08 Y32.819
X-11.017 Y32.825
X-10.955 Y32.834
X-10.893 Y32.847
X-10.833 Y32.862
X-10.773 Y32.882
X-10.714 Y32.904
X-10.657 Y32.93
X-10.601 Y32.959
X-10.547 Y32.991
X-10.494 Y33.026
X-10.444 Y33.064
X-10.396 Y33.104
X-10.35 Y33.147
X-10.307 Y33.193
X-10.266 Y33.241
X-10.228 Y33.291
X-10.193 Y33.343
X-10.161 Y33.397
X-10.129 Y33.451
X-10.098 Y33.506
X-10.069 Y33.562
X-10.041 Y33.619
X-10.015 Y33.676
X-9.991 Y33.734
X-9.969 Y33.793
X-9.95 Y33.853
X-9.933 Y33.913
X-9.919 Y33.975
X-9.914 Y34.001
X-9.91 Y34.034
X-9.908 Y34.068
X-9.91 Y34.101
X-9.911 Y34.105
X-9.914 Y34.128
X-9.917 Y34.15
X-9.925 Y34.195
X-9.935 Y34.24
X-9.947 Y34.285
X-9.959 Y34.325
X-9.96 Y34.33
X-9.975 Y34.375
X-9.993 Y34.42
X-10.004 Y34.446
X-10.012 Y34.465
X-10.033 Y34.51
X-10.049 Y34.539
X-10.057 Y34.555
X-10.083 Y34.6
X-10.094 Y34.617
X-10.112 Y34.645
X-10.139 Y34.682
X-10.144 Y34.69
X-10.179 Y34.735
X-10.184 Y34.741
X-10.216 Y34.78
X-10.229 Y34.793
X-10.258 Y34.825
X-10.274 Y34.84
X-10.305 Y34.87
X-10.319 Y34.882
X-10.357 Y34.915
X-10.364 Y34.92
X-10.409 Y34.955
X-10.415 Y34.96
X-10.454 Y34.987
X-10.481 Y35.005
X-10.499 Y35.016
X-10.544 Y35.042
X-10.557 Y35.05
X-10.589 Y35.066
X-10.634 Y35.087
X-10.65 Y35.095
X-10.679 Y35.106
X-10.724 Y35.124
X-10.768 Y35.14
X-10.814 Y35.153
X-10.859 Y35.164
X-10.904 Y35.174
X-10.949 Y35.183
X-10.96 Y35.185
X-10.994 Y35.189
X-11.039 Y35.194
X-11.084 Y35.197
X-11.129 Y35.199
X-11.174
X-11.219 Y35.197
X-11.263 Y35.194
X-11.308 Y35.189
X-11.353 Y35.182
X-11.398 Y35.174
X-11.443 Y35.164
X-11.488 Y35.152
X-11.531 Y35.14
X-11.578 Y35.123
X-11.623 Y35.106
X-11.65 Y35.095
X-11.668 Y35.087
X-11.713 Y35.065
X-11.743 Y35.05
X-11.758 Y35.041
X-11.803 Y35.014
X-11.819 Y35.005
X-11.848 Y34.985
X-11.893 Y34.954
X-11.938 Y34.919
X-11.943 Y34.915
X-11.983 Y34.88
X-11.995 Y34.87
X-12.028 Y34.838
X-12.042 Y34.825
X-12.073 Y34.791
X-12.084 Y34.78
X-12.118 Y34.739
X-12.122 Y34.735
X-12.156 Y34.69
X-12.163 Y34.68
X-12.188 Y34.645
X-12.208 Y34.614
X-12.217 Y34.6
X-12.243 Y34.555
X-12.253 Y34.535
X-12.267 Y34.51
X-12.288 Y34.465
X-12.298 Y34.441
X-12.307 Y34.42
X-12.325 Y34.375
X-12.34 Y34.33
X-12.353 Y34.285
X-12.365 Y34.24
X-12.375 Y34.195
X-12.383 Y34.15
X-12.388 Y34.113
X-12.389 Y34.105
X-12.394 Y34.06
X-12.398 Y34.015
X-12.399 Y33.97
Y33.925
X-12.397 Y33.88
X-12.394 Y33.835
X-12.389 Y33.79
X-12.388 Y33.786
X-12.382 Y33.745
X-12.374 Y33.7
X-12.364 Y33.655
X-12.352 Y33.61
X-12.343 Y33.581
X-12.338 Y33.565
X-12.323 Y33.52
X-12.305 Y33.475
X-12.298 Y33.459
X-12.286 Y33.43
X-12.264 Y33.385
X-12.253 Y33.364
X-12.24 Y33.34
X-12.213 Y33.295
X-12.208 Y33.287
X-12.185 Y33.25
X-12.163 Y33.22
X-12.153 Y33.205
X-12.118 Y33.16
X-12.079 Y33.115
X-12.073 Y33.109
X-12.037 Y33.07
X-12.028 Y33.062
X-11.99 Y33.025
X-11.983 Y33.02
X-11.938 Y32.981
X-11.893 Y32.946
X-11.879 Y32.936
X-11.848 Y32.914
X-11.811 Y32.891
X-11.803 Y32.886
X-11.758 Y32.859
X-11.734 Y32.846
X-11.713 Y32.835
X-11.668 Y32.813
X-11.639 Y32.801
X-11.623 Y32.794
X-11.578 Y32.777
X-11.533 Y32.761
X-11.516 Y32.756
X-11.488 Y32.748
X-11.443 Y32.736
X-11.398 Y32.726
X-11.353 Y32.718
X-11.308 Y32.711
X-11.263 Y32.706
X-11.219 Y32.703
X-11.174 Y32.701
X-11.129
X-11.084 Y32.703
X-11.039 Y32.706
X-10.994 Y32.711
X-10.949 Y32.717
X-10.904 Y32.726
X-10.859 Y32.736
X-10.814 Y32.747
X-10.769 Y32.76
X-10.724 Y32.776
X-10.679 Y32.794
X-10.661 Y32.801
X-10.634 Y32.813
X-10.589 Y32.834
X-10.566 Y32.846
X-10.544 Y32.858
X-10.499 Y32.884
X-10.488 Y32.891
X-10.454 Y32.913
X-10.421 Y32.936
X-10.409 Y32.945
X-10.364 Y32.979
X-10.362 Y32.981
X-10.319 Y33.018
X-10.31 Y33.025
X-10.274 Y33.06
X-10.263 Y33.07
X-10.229 Y33.106
X-10.221 Y33.115
X-10.184 Y33.159
X-10.182 Y33.16
X-10.147 Y33.205
X-10.115 Y33.25
X-10.094 Y33.284
X-10.087 Y33.295
X-10.06 Y33.34
X-10.049 Y33.361
X-10.036 Y33.385
X-10.014 Y33.43
X-10.004 Y33.454
X-9.995 Y33.475
X-9.977 Y33.52
X-9.962 Y33.565
X-9.959 Y33.575
X-9.948 Y33.61
X-9.936 Y33.655
X-9.926 Y33.7
X-9.918 Y33.745
X-9.911 Y33.79
X-9.906 Y33.835
X-9.903 Y33.88
X-9.901 Y33.925
Y33.97
X-9.902 Y34.015
X-9.906 Y34.06
X-9.91 Y34.101
G3 X-10.08 Y34.229 I-0.149 J-0.021
X-10.207 Y34.059 I0.021 J-0.149
X-10.038 Y33.932 I0.149 J0.021
X-9.966 Y33.962 I-0.021 J0.149
G0 Z15.

(Circular1 (speaker hole))
G64
X-41.215 Y31.15
Z15.
Z-2.2
G1 Z-4.05 F800
Y31.143 Z-4.096
Y31.121 Z-4.138
Y31.088 Z-4.171
Y31.046 Z-4.193
Y31. Z-4.2
Y30.925
X-41.209 Y30.886
X-41.191 Y30.852
X-41.163 Y30.824
X-41.129 Y30.806
X-41.09 Y30.8
G3 X-40.84 Y31.05 I0. J0.25
X-41.09 Y31.3 I-0.25 J0.
X-41.34 Y31.05 I0. J-0.25
X-41.09 Y30.8 I0.25 J0.
G1 X-41.051 Y30.806
X-41.017 Y30.824
X-40.989 Y30.852
X-40.971 Y30.886
X-40.965 Y30.925
Y31.
Y31.046 Z-4.193
Y31.088 Z-4.171
Y31.121 Z-4.138
Y31.143 Z-4.096
Y31.15 Z-4.05
G0 Z5.
X-41.215
Z-3.2
G1 Z-5.05 F800
Y31.143 Z-5.096
Y31.121 Z-5.138
Y31.088 Z-5.171
Y31.046 Z-5.193
Y31. Z-5.2
Y30.925
X-41.209 Y30.886
X-41.191 Y30.852
X-41.163 Y30.824
X-41.129 Y30.806
X-41.09 Y30.8
G3 X-40.84 Y31.05 I0. J0.25
X-41.09 Y31.3 I-0.25 J0.
X-41.34 Y31.05 I0. J-0.25
X-41.09 Y30.8 I0.25 J0.
G1 X-41.051 Y30.806
X-41.017 Y30.824
X-40.989 Y30.852
X-40.971 Y30.886
X-40.965 Y30.925
Y31.
Y31.046 Z-5.193
Y31.088 Z-5.171
Y31.121 Z-5.138
Y31.143 Z-5.096
Y31.15 Z-5.05
G0 Z5.
X-41.215
Z-3.95
G1 Z-5.8 F800
Y31.143 Z-5.846
Y31.121 Z-5.888
Y31.088 Z-5.921
Y31.046 Z-5.943
Y31. Z-5.95
Y30.925
X-41.209 Y30.886
X-41.191 Y30.852
X-41.163 Y30.824
X-41.129 Y30.806
X-41.09 Y30.8
G3 X-40.84 Y31.05 I0. J0.25
X-41.09 Y31.3 I-0.25 J0.
X-41.34 Y31.05 I0. J-0.25
X-41.09 Y30.8 I0.25 J0.
G1 X-41.051 Y30.806
X-41.017 Y30.824
X-40.989 Y30.852
X-40.971 Y30.886
X-40.965 Y30.925
Y31.
Y31.046 Z-5.943
Y31.088 Z-5.921
Y31.121 Z-5.888
Y31.143 Z-5.846
Y31.15 Z-5.8
G0 Z15.

(2D Contour (cutout) )
G64
X-25.3 Y59.5
Z15.
Z5.
G1 Z1.8 F80
Z-0.65
Y59.493 Z-0.696
Y59.471 Z-0.738
Y59.438 Z-0.771
Y59.396 Z-0.793
Y59.35 Z-0.8
Y59.2 F800
X-25.293 Y59.154
X-25.271 Y59.112
X-25.238 Y59.079
X-25.196 Y59.057
X-25.15 Y59.05
X-3.5
G2 X-1.25 Y56.8 I0. J-2.25
G1 Y3.5
G2 X-3.5 Y1.25 I-2.25 J0.
G1 X-46.8
G2 X-49.05 Y3.5 I0. J2.25
G1 Y56.8
G2 X-46.8 Y59.05 I2.25 J0.
G1 X-25.15
X-25.104 Y59.057
X-25.062 Y59.079
X-25.029 Y59.112
X-25.007 Y59.154
X-25. Y59.2
Y59.35
Y59.396 Z-0.793
Y59.438 Z-0.771
Y59.471 Z-0.738
Y59.493 Z-0.696
Y59.5 Z-0.65
G0 Z5.
X-25.3
G1 Z1. F80
Z-1.45
Y59.493 Z-1.496
Y59.471 Z-1.538
Y59.438 Z-1.571
Y59.396 Z-1.593
Y59.35 Z-1.6
Y59.2 F800
X-25.293 Y59.154
X-25.271 Y59.112
X-25.238 Y59.079
X-25.196 Y59.057
X-25.15 Y59.05
X-3.5
G2 X-1.25 Y56.8 I0. J-2.25
G1 Y3.5
G2 X-3.5 Y1.25 I-2.25 J0.
G1 X-46.8
G2 X-49.05 Y3.5 I0. J2.25
G1 Y56.8
G2 X-46.8 Y59.05 I2.25 J0.
G1 X-25.15
X-25.104 Y59.057
X-25.062 Y59.079
X-25.029 Y59.112
X-25.007 Y59.154
X-25. Y59.2
Y59.35
Y59.396 Z-1.593
Y59.438 Z-1.571
Y59.471 Z-1.538
Y59.493 Z-1.496
Y59.5 Z-1.45
G0 Z5.
X-25.3
G1 Z0.2 F80
Z-2.25
Y59.493 Z-2.296
Y59.471 Z-2.338
Y59.438 Z-2.371
Y59.396 Z-2.393
Y59.35 Z-2.4
Y59.2 F800
X-25.293 Y59.154
X-25.271 Y59.112
X-25.238 Y59.079
X-25.196 Y59.057
X-25.15 Y59.05
X-3.5
G2 X-1.25 Y56.8 I0. J-2.25
G1 Y3.5
G2 X-3.5 Y1.25 I-2.25 J0.
G1 X-46.8
G2 X-49.05 Y3.5 I0. J2.25
G1 Y56.8
G2 X-46.8 Y59.05 I2.25 J0.
G1 X-25.15
X-25.104 Y59.057
X-25.062 Y59.079
X-25.029 Y59.112
X-25.007 Y59.154
X-25. Y59.2
Y59.35
Y59.396 Z-2.393
Y59.438 Z-2.371
Y59.471 Z-2.338
Y59.493 Z-2.296
Y59.5 Z-2.25
G0 Z5.
X-25.3
G1 Z-0.6 F80
Z-3.05
Y59.493 Z-3.096
Y59.471 Z-3.138
Y59.438 Z-3.171
Y59.396 Z-3.193
Y59.35 Z-3.2
Y59.2 F800
X-25.293 Y59.154
X-25.271 Y59.112
X-25.238 Y59.079
X-25.196 Y59.057
X-25.15 Y59.05
X-3.5
G2 X-1.25 Y56.8 I0. J-2.25
G1 Y3.5
G2 X-3.5 Y1.25 I-2.25 J0.
G1 X-46.8
G2 X-49.05 Y3.5 I0. J2.25
G1 Y56.8
G2 X-46.8 Y59.05 I2.25 J0.
G1 X-25.15
X-25.104 Y59.057
X-25.062 Y59.079
X-25.029 Y59.112
X-25.007 Y59.154
X-25. Y59.2
Y59.35
Y59.396 Z-3.193
Y59.438 Z-3.171
Y59.471 Z-3.138
Y59.493 Z-3.096
Y59.5 Z-3.05
G0 Z5.
X-25.3
G1 Z-1.4 F80
Z-3.85
Y59.493 Z-3.896
Y59.471 Z-3.938
Y59.438 Z-3.971
Y59.396 Z-3.993
Y59.35 Z-4.
Y59.2 F800
X-25.293 Y59.154
X-25.271 Y59.112
X-25.238 Y59.079
X-25.196 Y59.057
X-25.15 Y59.05
X-3.5
G2 X-1.25 Y56.8 I0. J-2.25
G1 Y3.5
G2 X-3.5 Y1.25 I-2.25 J0.
G1 X-46.8
G2 X-49.05 Y3.5 I0. J2.25
G1 Y56.8
G2 X-46.8 Y59.05 I2.25 J0.
G1 X-25.15
X-25.104 Y59.057
X-25.062 Y59.079
X-25.029 Y59.112
X-25.007 Y59.154
X-25. Y59.2
Y59.35
Y59.396 Z-3.993
Y59.438 Z-3.971
Y59.471 Z-3.938
Y59.493 Z-3.896
Y59.5 Z-3.85
G0 Z5.
X-25.3
G1 Z-2.2 F80
Z-4.65
Y59.493 Z-4.696
Y59.471 Z-4.738
Y59.438 Z-4.771
Y59.396 Z-4.793
Y59.35 Z-4.8
Y59.2 F800
X-25.293 Y59.154
X-25.271 Y59.112
X-25.238 Y59.079
X-25.196 Y59.057
X-25.15 Y59.05
X-3.5
G2 X-1.25 Y56.8 I0. J-2.25
G1 Y3.5
G2 X-3.5 Y1.25 I-2.25 J0.
G1 X-46.8
G2 X-49.05 Y3.5 I0. J2.25
G1 Y56.8
G2 X-46.8 Y59.05 I2.25 J0.
G1 X-25.15
X-25.104 Y59.057
X-25.062 Y59.079
X-25.029 Y59.112
X-25.007 Y59.154
X-25. Y59.2
Y59.35
Y59.396 Z-4.793
Y59.438 Z-4.771
Y59.471 Z-4.738
Y59.493 Z-4.696
Y59.5 Z-4.65
G0 Z5.
X-25.3
G1 Z-3. F80
Z-5.45
Y59.493 Z-5.496
Y59.471 Z-5.538
Y59.438 Z-5.571
Y59.396 Z-5.593
Y59.35 Z-5.6
Y59.2 F800
X-25.293 Y59.154
X-25.271 Y59.112
X-25.238 Y59.079
X-25.196 Y59.057
X-25.15 Y59.05
X-3.5
G2 X-1.25 Y56.8 I0. J-2.25
G1 Y3.5
G2 X-3.5 Y1.25 I-2.25 J0.
G1 X-46.8
G2 X-49.05 Y3.5 I0. J2.25
G1 Y56.8
G2 X-46.8 Y59.05 I2.25 J0.
G1 X-25.15
X-25.104 Y59.057
X-25.062 Y59.079
X-25.029 Y59.112
X-25.007 Y59.154
X-25. Y59.2
Y59.35
Y59.396 Z-5.593
Y59.438 Z-5.571
Y59.471 Z-5.538
Y59.493 Z-5.496
Y59.5 Z-5.45
G0 Z5.
X-25.3
G1 Z-3.8 F80
Z-5.8
Y59.493 Z-5.846
Y59.471 Z-5.888
Y59.438 Z-5.921
Y59.396 Z-5.943
Y59.35 Z-5.95
Y59.2 F800
X-25.293 Y59.154
X-25.271 Y59.112
X-25.238 Y59.079
X-25.196 Y59.057
X-25.15 Y59.05
X-3.5
G2 X-1.25 Y56.8 I0. J-2.25
G1 Y3.5
G2 X-3.5 Y1.25 I-2.25 J0.
G1 X-46.8
G2 X-49.05 Y3.5 I0. J2.25
G1 Y56.8
G2 X-46.8 Y59.05 I2.25 J0.
G1 X-25.15
X-25.104 Y59.057
X-25.062 Y59.079
X-25.029 Y59.112
X-25.007 Y59.154
X-25. Y59.2
Y59.35
Y59.396 Z-5.943
Y59.438 Z-5.921
Y59.471 Z-5.888
Y59.493 Z-5.846
Y59.5 Z-5.8
G0 Z15.
M5
G53 Z0.
M30
