(1001)
(T1  D=1.5 CR=0. - ZMIN=-5.95 - flat end mill)
G90
G0 G53 Z0.

(2D Adaptive (pocket))
T1 M6 (flat end mill D=1.5 1.5 mm Fishtail Upcut Endmill - Acrylic Max Pass Depth 0.8 mm)
S18000 M3
G64
G54
G43 H1
G0 X-25.847 Y34.994
Z15.
Z5.
Z2.501
G3 X-25.004 Y34.442 Z2.462 I0.697 J0.146 F800
X-24.453 Y35.285 Z2.423 I-0.146 J0.697
X-25.296 Y35.837 Z2.384 I-0.697 J-0.146
X-25.847 Y34.994 Z2.345 I0.146 J-0.697
X-25.004 Y34.442 Z2.306 I0.697 J0.146
X-24.453 Y35.285 Z2.267 I-0.146 J0.697
X-25.296 Y35.837 Z2.227 I-0.697 J-0.146
X-25.847 Y34.994 Z2.188 I0.146 J-0.697
X-25.004 Y34.442 Z2.149 I0.697 J0.146
X-24.453 Y35.285 Z2.11 I-0.146 J0.697
X-25.296 Y35.837 Z2.071 I-0.697 J-0.146
X-25.847 Y34.994 Z2.032 I0.146 J-0.697
X-25.004 Y34.442 Z1.993 I0.697 J0.146
X-24.453 Y35.285 Z1.954 I-0.146 J0.697
X-25.296 Y35.837 Z1.915 I-0.697 J-0.146
X-25.847 Y34.994 Z1.876 I0.146 J-0.697
X-25.004 Y34.442 Z1.837 I0.697 J0.146
X-24.453 Y35.285 Z1.798 I-0.146 J0.697
X-25.296 Y35.837 Z1.758 I-0.697 J-0.146
X-25.847 Y34.994 Z1.719 I0.146 J-0.697
X-25.004 Y34.442 Z1.68 I0.697 J0.146
X-24.453 Y35.285 Z1.641 I-0.146 J0.697
X-25.296 Y35.837 Z1.602 I-0.697 J-0.146
X-25.847 Y34.994 Z1.563 I0.146 J-0.697
X-25.004 Y34.442 Z1.524 I0.697 J0.146
X-24.453 Y35.285 Z1.485 I-0.146 J0.697
X-25.296 Y35.837 Z1.446 I-0.697 J-0.146
X-25.847 Y34.994 Z1.407 I0.146 J-0.697
X-25.004 Y34.442 Z1.368 I0.697 J0.146
X-24.453 Y35.285 Z1.329 I-0.146 J0.697
X-25.296 Y35.837 Z1.289 I-0.697 J-0.146
X-25.847 Y34.994 Z1.25 I0.146 J-0.697
X-25.004 Y34.442 Z1.211 I0.697 J0.146
X-24.453 Y35.285 Z1.172 I-0.146 J0.697
X-25.296 Y35.837 Z1.133 I-0.697 J-0.146
X-25.847 Y34.994 Z1.094 I0.146 J-0.697
X-25.004 Y34.442 Z1.055 I0.697 J0.146
X-24.453 Y35.285 Z1.016 I-0.146 J0.697
X-25.296 Y35.837 Z0.977 I-0.697 J-0.146
X-25.847 Y34.994 Z0.938 I0.146 J-0.697
X-25.004 Y34.442 Z0.899 I0.697 J0.146
X-24.453 Y35.285 Z0.86 I-0.146 J0.697
X-25.296 Y35.837 Z0.82 I-0.697 J-0.146
X-25.847 Y34.994 Z0.781 I0.146 J-0.697
X-25.004 Y34.442 Z0.742 I0.697 J0.146
X-24.453 Y35.285 Z0.703 I-0.146 J0.697
X-25.296 Y35.837 Z0.664 I-0.697 J-0.146
X-25.847 Y34.994 Z0.625 I0.146 J-0.697
X-25.004 Y34.442 Z0.586 I0.697 J0.146
X-24.453 Y35.285 Z0.547 I-0.146 J0.697
X-25.296 Y35.837 Z0.508 I-0.697 J-0.146
X-25.847 Y34.994 Z0.469 I0.146 J-0.697
X-25.004 Y34.442 Z0.43 I0.697 J0.146
X-24.453 Y35.285 Z0.391 I-0.146 J0.697
X-25.296 Y35.837 Z0.351 I-0.697 J-0.146
X-25.847 Y34.994 Z0.312 I0.146 J-0.697
X-25.004 Y34.442 Z0.273 I0.697 J0.146
X-24.453 Y35.285 Z0.234 I-0.146 J0.697
X-25.296 Y35.837 Z0.195 I-0.697 J-0.146
X-25.847 Y34.994 Z0.156 I0.146 J-0.697
X-25.004 Y34.442 Z0.117 I0.697 J0.146
X-24.453 Y35.285 Z0.078 I-0.146 J0.697
X-25.296 Y35.837 Z0.039 I-0.697 J-0.146
X-25.847 Y34.994 Z0. I0.146 J-0.697
X-25.004 Y34.442 Z-0.039 I0.697 J0.146
X-24.453 Y35.285 Z-0.078 I-0.146 J0.697
X-25.296 Y35.837 Z-0.118 I-0.697 J-0.146
X-25.847 Y34.994 Z-0.157 I0.146 J-0.697
X-25.004 Y34.442 Z-0.196 I0.697 J0.146
X-24.453 Y35.285 Z-0.235 I-0.146 J0.697
X-25.296 Y35.837 Z-0.274 I-0.697 J-0.146
X-25.847 Y34.994 Z-0.313 I0.146 J-0.697
X-25.004 Y34.442 Z-0.352 I0.697 J0.146
X-24.453 Y35.285 Z-0.391 I-0.146 J0.697
X-25.296 Y35.837 Z-0.43 I-0.697 J-0.146
X-25.847 Y34.994 Z-0.469 I0.146 J-0.697
X-25.004 Y34.442 Z-0.508 I0.697 J0.146
X-24.453 Y35.285 Z-0.547 I-0.146 J0.697
X-25.296 Y35.837 Z-0.587 I-0.697 J-0.146
X-25.847 Y34.994 Z-0.626 I0.146 J-0.697
X-25.004 Y34.442 Z-0.665 I0.697 J0.146
X-24.453 Y35.285 Z-0.704 I-0.146 J0.697
X-25.296 Y35.837 Z-0.743 I-0.697 J-0.146
X-25.847 Y34.994 Z-0.782 I0.146 J-0.697
X-25.004 Y34.442 Z-0.821 I0.697 J0.146
X-24.453 Y35.285 Z-0.86 I-0.146 J0.697
X-25.296 Y35.837 Z-0.899 I-0.697 J-0.146
X-25.847 Y34.994 Z-0.938 I0.146 J-0.697
X-25.004 Y34.442 Z-0.977 I0.697 J0.146
X-24.453 Y35.285 Z-1.016 I-0.146 J0.697
X-25.296 Y35.837 Z-1.056 I-0.697 J-0.146
X-25.847 Y34.994 Z-1.095 I0.146 J-0.697
X-25.004 Y34.442 Z-1.134 I0.697 J0.146
X-24.453 Y35.285 Z-1.173 I-0.146 J0.697
X-25.296 Y35.837 Z-1.212 I-0.697 J-0.146
X-25.847 Y34.994 Z-1.251 I0.146 J-0.697
X-25.004 Y34.442 Z-1.29 I0.697 J0.146
X-24.453 Y35.285 Z-1.329 I-0.146 J0.697
X-25.296 Y35.837 Z-1.368 I-0.697 J-0.146
X-25.847 Y34.994 Z-1.407 I0.146 J-0.697
X-25.004 Y34.442 Z-1.446 I0.697 J0.146
X-24.453 Y35.285 Z-1.485 I-0.146 J0.697
X-25.296 Y35.837 Z-1.525 I-0.697 J-0.146
X-25.847 Y34.994 Z-1.564 I0.146 J-0.697
X-25.004 Y34.442 Z-1.603 I0.697 J0.146
X-24.453 Y35.285 Z-1.642 I-0.146 J0.697
X-25.296 Y35.837 Z-1.681 I-0.697 J-0.146
X-25.847 Y34.994 Z-1.72 I0.146 J-0.697
X-25.004 Y34.442 Z-1.759 I0.697 J0.146
X-24.453 Y35.285 Z-1.798 I-0.146 J0.697
X-25.296 Y35.837 Z-1.837 I-0.697 J-0.146
X-25.847 Y34.994 Z-1.876 I0.146 J-0.697
X-25.004 Y34.442 Z-1.915 I0.697 J0.146
X-24.453 Y35.285 Z-1.954 I-0.146 J0.697
X-25.296 Y35.837 Z-1.994 I-0.697 J-0.146
X-25.847 Y34.994 Z-2.033 I0.146 J-0.697
X-25.004 Y34.442 Z-2.072 I0.697 J0.146
X-24.453 Y35.285 Z-2.111 I-0.146 J0.697
X-25.296 Y35.837 Z-2.15 I-0.697 J-0.146
X-25.847 Y34.994 Z-2.189 I0.146 J-0.697
X-25.004 Y34.442 Z-2.228 I0.697 J0.146
X-24.453 Y35.285 Z-2.267 I-0.146 J0.697
X-25.296 Y35.837 Z-2.306 I-0.697 J-0.146
X-25.847 Y34.994 Z-2.345 I0.146 J-0.697
X-25.004 Y34.442 Z-2.384 I0.697 J0.146
X-24.453 Y35.285 Z-2.423 I-0.146 J0.697
X-25.296 Y35.837 Z-2.463 I-0.697 J-0.146
X-25.847 Y34.994 Z-2.502 I0.146 J-0.697
X-25.004 Y34.442 Z-2.541 I0.697 J0.146
X-24.453 Y35.285 Z-2.58 I-0.146 J0.697
X-25.296 Y35.837 Z-2.619 I-0.697 J-0.146
X-25.847 Y34.994 Z-2.658 I0.146 J-0.697
X-25.004 Y34.442 Z-2.697 I0.697 J0.146
X-24.453 Y35.285 Z-2.736 I-0.146 J0.697
X-25.296 Y35.837 Z-2.775 I-0.697 J-0.146
X-25.847 Y34.994 Z-2.814 I0.146 J-0.697
X-25.004 Y34.442 Z-2.853 I0.697 J0.146
X-24.453 Y35.285 Z-2.892 I-0.146 J0.697
X-25.296 Y35.837 Z-2.932 I-0.697 J-0.146
X-25.847 Y34.994 Z-2.971 I0.146 J-0.697
X-25.004 Y34.442 Z-3.01 I0.697 J0.146
X-24.453 Y35.285 Z-3.049 I-0.146 J0.697
X-25.296 Y35.837 Z-3.088 I-0.697 J-0.146
X-25.847 Y34.994 Z-3.127 I0.146 J-0.697
X-25.004 Y34.442 Z-3.166 I0.697 J0.146
X-24.438 Y35.14 Z-3.2 I-0.146 J0.697
X-25.15 Y35.852 I-0.712 J0.
X-25.862 Y35.14 I0. J-0.712
X-25.15 Y34.427 I0.712 J0.
X-24.438 Y35.14 I0. J0.712
G1 X-24.437 Y35.202
X-24.426 Y35.264
X-24.404 Y35.323
X-24.388 Y35.35
X-24.377 Y35.371
X-24.368 Y35.395
X-24.359 Y35.423
X-24.352 Y35.453
X-24.348 Y35.487
X-24.346 Y35.524
X-24.347 Y35.564
X-24.351 Y35.606
X-24.359 Y35.65
X-24.372 Y35.697
X-24.389 Y35.744
X-24.411 Y35.793
X-24.438 Y35.842
X-24.47 Y35.89
X-24.508 Y35.938
X-24.551 Y35.985
X-24.597 Y36.027
X-24.646 Y36.066
X-24.698 Y36.102
X-24.753 Y36.133
X-24.809 Y36.16
X-24.868 Y36.184
X-24.928 Y36.203
X-24.988 Y36.219
X-25.05 Y36.23
X-25.113 Y36.238
X-25.176 Y36.242
X-25.238 Y36.241
X-25.301 Y36.237
X-25.364 Y36.229
X-25.425 Y36.218
X-25.486 Y36.202
X-25.546 Y36.183
X-25.605 Y36.161
X-25.662 Y36.135
X-25.718 Y36.106
X-25.772 Y36.073
X-25.824 Y36.038
X-25.874 Y35.999
X-25.921 Y35.958
X-25.966 Y35.914
X-26.009 Y35.868
X-26.049 Y35.819
X-26.086 Y35.768
X-26.12 Y35.715
X-26.151 Y35.661
X-26.179 Y35.604
X-26.203 Y35.546
X-26.225 Y35.487
X-26.243 Y35.427
X-26.257 Y35.366
X-26.268 Y35.304
X-26.276 Y35.241
X-26.28 Y35.179
X-26.281 Y35.116
X-26.278 Y35.053
X-26.271 Y34.99
X-26.261 Y34.928
X-26.248 Y34.867
X-26.231 Y34.806
X-26.211 Y34.747
X-26.188 Y34.688
X-26.161 Y34.631
X-26.132 Y34.576
X-26.099 Y34.522
X-26.063 Y34.47
X-26.025 Y34.421
X-25.983 Y34.373
X-25.939 Y34.328
X-25.893 Y34.285
X-25.845 Y34.245
X-25.794 Y34.208
X-25.741 Y34.174
X-25.687 Y34.142
X-25.631 Y34.114
X-25.573 Y34.089
X-25.514 Y34.067
X-25.454 Y34.049
X-25.393 Y34.033
X-25.331 Y34.022
X-25.269 Y34.013
X-25.206 Y34.008
X-25.143 Y34.007
X-25.08 Y34.009
X-25.018 Y34.015
X-24.955 Y34.024
X-24.894 Y34.036
X-24.833 Y34.052
X-24.773 Y34.072
X-24.714 Y34.094
X-24.657 Y34.12
X-24.601 Y34.149
X-24.547 Y34.181
X-24.495 Y34.216
X-24.444 Y34.254
X-24.396 Y34.294
X-24.35 Y34.337
X-24.307 Y34.383
X-24.266 Y34.431
X-24.228 Y34.481
X-24.193 Y34.533
X-24.161 Y34.587
X-24.129 Y34.641
X-24.098 Y34.696
X-24.069 Y34.752
X-24.041 Y34.808
X-24.015 Y34.866
X-23.991 Y34.924
X-23.97 Y34.983
X-23.95 Y35.043
X-23.933 Y35.103
X-23.919 Y35.164
X-23.908 Y35.226
X-23.899 Y35.289
X-23.894 Y35.351
X-23.892 Y35.414
X-23.893 Y35.477
X-23.897 Y35.54
X-23.904 Y35.602
X-23.914 Y35.664
X-23.928 Y35.726
X-23.945 Y35.786
X-23.965 Y35.846
X-23.988 Y35.904
X-24.014 Y35.962
X-24.043 Y36.018
X-24.075 Y36.072
X-24.11 Y36.124
X-24.147 Y36.175
X-24.186 Y36.224
X-24.228 Y36.271
X-24.273 Y36.315
X-24.319 Y36.358
X-24.367 Y36.398
X-24.418 Y36.436
X-24.47 Y36.471
X-24.524 Y36.504
X-24.579 Y36.534
X-24.635 Y36.562
X-24.693 Y36.587
X-24.752 Y36.609
X-24.812 Y36.629
X-24.872 Y36.645
X-24.933 Y36.66
X-24.995 Y36.671
X-25.058 Y36.68
X-25.12 Y36.685
X-25.183 Y36.688
X-25.246 Y36.689
X-25.309 Y36.687
X-25.371 Y36.681
X-25.434 Y36.674
X-25.496 Y36.663
X-25.557 Y36.65
X-25.618 Y36.635
X-25.679 Y36.616
X-25.738 Y36.596
X-25.796 Y36.573
X-25.854 Y36.547
X-25.91 Y36.519
X-25.965 Y36.489
X-26.019 Y36.456
X-26.072 Y36.422
X-26.123 Y36.385
X-26.172 Y36.346
X-26.22 Y36.305
X-26.266 Y36.262
X-26.311 Y36.218
X-26.353 Y36.171
X-26.394 Y36.123
X-26.432 Y36.074
X-26.469 Y36.022
X-26.503 Y35.97
X-26.536 Y35.916
X-26.566 Y35.861
X-26.594 Y35.804
X-26.619 Y35.747
X-26.642 Y35.688
X-26.663 Y35.629
X-26.682 Y35.569
X-26.698 Y35.508
X-26.712 Y35.447
X-26.723 Y35.385
X-26.732 Y35.323
X-26.738 Y35.26
X-26.742 Y35.197
X-26.743 Y35.134
X-26.742 Y35.071
X-26.738 Y35.009
X-26.732 Y34.946
X-26.723 Y34.884
X-26.712 Y34.822
X-26.698 Y34.76
X-26.682 Y34.7
X-26.664 Y34.639
X-26.643 Y34.58
X-26.62 Y34.522
X-26.595 Y34.464
X-26.567 Y34.408
X-26.537 Y34.352
X-26.505 Y34.298
X-26.471 Y34.245
X-26.435 Y34.194
X-26.397 Y34.144
X-26.356 Y34.095
X-26.314 Y34.049
X-26.27 Y34.004
X-26.225 Y33.96
X-26.178 Y33.919
X-26.129 Y33.879
X-26.078 Y33.842
X-26.026 Y33.806
X-25.973 Y33.772
X-25.919 Y33.741
X-25.863 Y33.712
X-25.806 Y33.685
X-25.748 Y33.66
X-25.69 Y33.638
X-25.63 Y33.617
X-25.57 Y33.6
X-25.509 Y33.584
X-25.447 Y33.571
X-25.385 Y33.561
X-25.323 Y33.553
X-25.26 Y33.547
X-25.197 Y33.544
X-25.134 Y33.543
X-25.072 Y33.545
X-25.009 Y33.55
X-24.946 Y33.556
X-24.884 Y33.566
X-24.822 Y33.577
X-24.761 Y33.591
X-24.7 Y33.608
X-24.64 Y33.627
X-24.581 Y33.648
X-24.523 Y33.672
X-24.465 Y33.698
X-24.409 Y33.726
X-24.354 Y33.756
X-24.3 Y33.788
X-24.248 Y33.823
X-24.196 Y33.859
X-24.147 Y33.898
X-24.098 Y33.938
X-24.052 Y33.98
X-24.006 Y34.024
X-23.962 Y34.069
X-23.92 Y34.115
X-23.878 Y34.163
X-23.839 Y34.211
X-23.8 Y34.261
X-23.764 Y34.312
X-23.729 Y34.365
X-23.695 Y34.418
X-23.663 Y34.472
X-23.633 Y34.527
X-23.604 Y34.583
X-23.578 Y34.64
X-23.553 Y34.698
X-23.53 Y34.756
X-23.509 Y34.816
X-23.49 Y34.876
X-23.472 Y34.936
X-23.457 Y34.997
X-23.444 Y35.059
X-23.433 Y35.121
X-23.425 Y35.183
X-23.418 Y35.246
X-23.414 Y35.308
X-23.411 Y35.371
Y35.434
X-23.414 Y35.497
X-23.418 Y35.56
X-23.425 Y35.622
X-23.434 Y35.684
X-23.445 Y35.746
X-23.459 Y35.808
X-23.474 Y35.869
X-23.492 Y35.929
X-23.512 Y35.989
X-23.535 Y36.047
X-23.559 Y36.105
X-23.585 Y36.162
X-23.614 Y36.219
X-23.644 Y36.274
X-23.677 Y36.327
X-23.711 Y36.38
X-23.748 Y36.432
X-23.786 Y36.482
X-23.825 Y36.53
X-23.867 Y36.577
X-23.91 Y36.623
X-23.955 Y36.667
X-24.001 Y36.71
X-24.049 Y36.751
X-24.098 Y36.79
X-24.149 Y36.827
X-24.201 Y36.863
X-24.254 Y36.897
X-24.308 Y36.929
X-24.363 Y36.959
X-24.419 Y36.987
X-24.477 Y37.013
X-24.535 Y37.038
X-24.593 Y37.06
X-24.653 Y37.08
X-24.713 Y37.098
X-24.774 Y37.115
X-24.835 Y37.129
X-24.897 Y37.141
X-24.959 Y37.151
X-25.021 Y37.159
X-25.084 Y37.165
X-25.147 Y37.169
X-25.21 Y37.171
X-25.273 Y37.17
X-25.335 Y37.168
X-25.398 Y37.164
X-25.461 Y37.157
X-25.523 Y37.149
X-25.585 Y37.139
X-25.647 Y37.126
X-25.708 Y37.112
X-25.769 Y37.096
X-25.829 Y37.077
X-25.889 Y37.057
X-25.947 Y37.035
X-26.006 Y37.011
X-26.063 Y36.986
X-26.12 Y36.958
X-26.175 Y36.929
X-26.23 Y36.898
X-26.284 Y36.865
X-26.336 Y36.831
X-26.388 Y36.795
X-26.438 Y36.757
X-26.488 Y36.718
X-26.536 Y36.677
X-26.582 Y36.635
X-26.628 Y36.592
X-26.672 Y36.547
X-26.714 Y36.5
X-26.755 Y36.453
X-26.795 Y36.404
X-26.833 Y36.354
X-26.87 Y36.303
X-26.905 Y36.25
X-26.938 Y36.197
X-26.97 Y36.143
X-27. Y36.088
X-27.028 Y36.031
X-27.055 Y35.974
X-27.079 Y35.917
X-27.102 Y35.858
X-27.124 Y35.799
X-27.143 Y35.739
X-27.161 Y35.679
X-27.176 Y35.618
X-27.19 Y35.556
X-27.202 Y35.495
X-27.212 Y35.432
X-27.22 Y35.37
X-27.227 Y35.307
X-27.231 Y35.245
X-27.233 Y35.182
X-27.234 Y35.119
X-27.233 Y35.056
X-27.229 Y34.993
X-27.224 Y34.931
X-27.217 Y34.868
X-27.208 Y34.806
X-27.197 Y34.744
X-27.185 Y34.682
X-27.17 Y34.621
X-27.154 Y34.56
X-27.136 Y34.5
X-27.115 Y34.441
X-27.094 Y34.382
X-27.07 Y34.323
X-27.045 Y34.266
X-27.018 Y34.209
X-26.989 Y34.153
X-26.958 Y34.098
X-26.926 Y34.044
X-26.892 Y33.991
X-26.857 Y33.939
X-26.82 Y33.888
X-26.782 Y33.838
X-26.742 Y33.789
X-26.7 Y33.742
X-26.658 Y33.696
X-26.614 Y33.651
X-26.568 Y33.608
X-26.521 Y33.566
X-26.473 Y33.525
X-26.424 Y33.486
X-26.374 Y33.448
X-26.322 Y33.412
X-26.27 Y33.377
X-26.216 Y33.344
X-26.162 Y33.313
X-26.106 Y33.283
X-26.05 Y33.255
X-25.993 Y33.229
X-25.935 Y33.205
X-25.876 Y33.182
X-25.817 Y33.161
X-25.757 Y33.142
X-25.696 Y33.124
X-25.635 Y33.109
X-25.574 Y33.095
X-25.512 Y33.083
X-25.45 Y33.073
X-25.388 Y33.065
X-25.325 Y33.059
X-25.263 Y33.054
X-25.2 Y33.052
X-25.137 Y33.051
X-25.074 Y33.053
X-25.011 Y33.056
X-24.948 Y33.061
X-24.886 Y33.068
X-24.824 Y33.077
X-24.762 Y33.088
X-24.7 Y33.1
X-24.639 Y33.115
X-24.578 Y33.131
X-24.518 Y33.149
X-24.458 Y33.169
X-24.399 Y33.191
X-24.341 Y33.214
X-24.283 Y33.24
X-24.226 Y33.266
X-24.17 Y33.295
X-24.115 Y33.325
X-24.061 Y33.357
X-24.007 Y33.39
X-23.955 Y33.425
X-23.903 Y33.461
X-23.853 Y33.499
X-23.804 Y33.538
X-23.755 Y33.578
X-23.708 Y33.619
X-23.662 Y33.662
X-23.617 Y33.706
X-23.573 Y33.751
X-23.53 Y33.797
X-23.489 Y33.844
X-23.448 Y33.893
X-23.409 Y33.942
X-23.372 Y33.992
X-23.335 Y34.044
X-23.3 Y34.096
X-23.266 Y34.149
X-23.234 Y34.203
X-23.203 Y34.258
X-23.173 Y34.313
X-23.145 Y34.369
X-23.119 Y34.426
X-23.093 Y34.484
X-23.07 Y34.542
X-23.048 Y34.601
X-23.027 Y34.661
X-23.008 Y34.721
X-22.991 Y34.781
X-22.975 Y34.842
X-22.961 Y34.903
X-22.949 Y34.965
X-22.938 Y35.027
X-22.929 Y35.089
X-22.921 Y35.152
X-22.916 Y35.214
X-22.912 Y35.277
X-22.909 Y35.34
Y35.403
X-22.91 Y35.466
X-22.913 Y35.528
X-22.918 Y35.591
X-22.924 Y35.654
X-22.932 Y35.716
X-22.942 Y35.778
X-22.954 Y35.84
X-22.967 Y35.902
X-22.982 Y35.963
X-22.999 Y36.023
X-23.017 Y36.083
X-23.037 Y36.143
X-23.059 Y36.202
X-23.082 Y36.26
X-23.107 Y36.318
X-23.134 Y36.375
X-23.162 Y36.431
X-23.191 Y36.487
X-23.223 Y36.542
X-23.255 Y36.595
X-23.29 Y36.648
X-23.325 Y36.7
X-23.362 Y36.751
X-23.401 Y36.8
X-23.441 Y36.849
X-23.482 Y36.897
X-23.524 Y36.943
X-23.568 Y36.988
X-23.613 Y37.032
X-23.659 Y37.075
X-23.707 Y37.116
X-23.755 Y37.156
X-23.805 Y37.195
X-23.855 Y37.233
X-23.907 Y37.269
X-23.959 Y37.303
X-24.013 Y37.337
X-24.067 Y37.368
X-24.122 Y37.399
X-24.178 Y37.427
X-24.235 Y37.455
X-24.292 Y37.48
X-24.35 Y37.504
X-24.409 Y37.527
X-24.468 Y37.548
X-24.528 Y37.568
X-24.588 Y37.586
X-24.649 Y37.602
X-24.71 Y37.616
X-24.772 Y37.629
X-24.834 Y37.641
X-24.896 Y37.651
X-24.958 Y37.659
X-25.021 Y37.665
X-25.083 Y37.67
X-25.146 Y37.674
X-25.209 Y37.675
X-25.272
X-25.335 Y37.674
X-25.398 Y37.67
X-25.46 Y37.666
X-25.523 Y37.659
X-25.585 Y37.651
X-25.647 Y37.641
X-25.709 Y37.63
X-25.771 Y37.617
X-25.832 Y37.603
X-25.893 Y37.587
X-25.953 Y37.569
X-26.013 Y37.55
X-26.073 Y37.53
X-26.132 Y37.508
X-26.19 Y37.484
X-26.248 Y37.459
X-26.305 Y37.433
X-26.361 Y37.405
X-26.417 Y37.375
X-26.472 Y37.345
X-26.526 Y37.313
X-26.579 Y37.279
X-26.632 Y37.245
X-26.683 Y37.209
X-26.734 Y37.171
X-26.783 Y37.133
X-26.832 Y37.093
X-26.88 Y37.052
X-26.927 Y37.01
X-26.972 Y36.966
X-27.017 Y36.922
X-27.06 Y36.877
X-27.102 Y36.83
X-27.144 Y36.782
X-27.183 Y36.734
X-27.222 Y36.684
X-27.26 Y36.634
X-27.296 Y36.582
X-27.331 Y36.53
X-27.364 Y36.477
X-27.397 Y36.423
X-27.428 Y36.368
X-27.457 Y36.312
X-27.486 Y36.256
X-27.512 Y36.199
X-27.538 Y36.142
X-27.562 Y36.084
X-27.584 Y36.025
X-27.606 Y35.966
X-27.625 Y35.906
X-27.643 Y35.846
X-27.66 Y35.785
X-27.675 Y35.724
X-27.689 Y35.663
X-27.701 Y35.601
X-27.712 Y35.539
X-27.721 Y35.477
X-27.729 Y35.414
X-27.735 Y35.352
X-27.74 Y35.289
X-27.743 Y35.226
X-27.745 Y35.163
Y35.101
X-27.743 Y35.038
X-27.74 Y34.975
X-27.735 Y34.912
X-27.729 Y34.85
X-27.722 Y34.787
X-27.713 Y34.725
X-27.702 Y34.663
X-27.69 Y34.601
X-27.676 Y34.54
X-27.661 Y34.479
X-27.645 Y34.418
X-27.626 Y34.358
X-27.607 Y34.298
X-27.586 Y34.239
X-27.563 Y34.18
X-27.54 Y34.122
X-27.514 Y34.064
X-27.488 Y34.007
X-27.46 Y33.951
X-27.43 Y33.895
X-27.4 Y33.84
X-27.368 Y33.786
X-27.334 Y33.733
X-27.3 Y33.68
X-27.264 Y33.629
X-27.227 Y33.578
X-27.188 Y33.528
X-27.149 Y33.479
X-27.108 Y33.431
X-27.066 Y33.384
X-27.023 Y33.338
X-26.979 Y33.293
X-26.934 Y33.25
X-26.888 Y33.207
X-26.84 Y33.166
X-26.792 Y33.125
X-26.743 Y33.086
X-26.693 Y33.048
X-26.642 Y33.011
X-26.59 Y32.976
X-26.537 Y32.941
X-26.484 Y32.909
X-26.429 Y32.877
X-26.374 Y32.847
X-26.318 Y32.818
X-26.262 Y32.79
X-26.205 Y32.764
X-26.147 Y32.739
X-26.088 Y32.715
X-26.029 Y32.693
X-25.97 Y32.673
X-25.91 Y32.654
X-25.85 Y32.636
X-25.789 Y32.62
X-25.728 Y32.605
X-25.666 Y32.592
X-25.605 Y32.58
X-25.542 Y32.57
X-25.48 Y32.561
X-25.418 Y32.554
X-25.355 Y32.548
X-25.292 Y32.544
X-25.229 Y32.541
X-25.167 Y32.54
X-25.104
X-25.041 Y32.542
X-24.978 Y32.545
X-24.915 Y32.55
X-24.853 Y32.557
X-24.79 Y32.565
X-24.728 Y32.574
X-24.666 Y32.585
X-24.605 Y32.598
X-24.543 Y32.612
X-24.482 Y32.627
X-24.422 Y32.644
X-24.361 Y32.662
X-24.302 Y32.682
X-24.242 Y32.703
X-24.184 Y32.725
X-24.126 Y32.749
X-24.068 Y32.775
X-24.011 Y32.801
X-23.955 Y32.829
X-23.899 Y32.858
X-23.844 Y32.889
X-23.789 Y32.92
X-23.736 Y32.953
X-23.683 Y32.987
X-23.631 Y33.023
X-23.58 Y33.059
X-23.529 Y33.097
X-23.48 Y33.135
X-23.431 Y33.175
X-23.383 Y33.216
X-23.336 Y33.258
X-23.29 Y33.301
X-23.245 Y33.345
X-23.201 Y33.39
X-23.158 Y33.435
X-23.116 Y33.482
X-23.075 Y33.53
X-23.035 Y33.578
X-22.996 Y33.628
X-22.958 Y33.678
X-22.921 Y33.729
X-22.885 Y33.78
X-22.85 Y33.833
X-22.817 Y33.886
X-22.785 Y33.94
X-22.753 Y33.995
X-22.723 Y34.05
X-22.695 Y34.106
X-22.667 Y34.163
X-22.641 Y34.22
X-22.616 Y34.277
X-22.592 Y34.336
X-22.569 Y34.394
X-22.548 Y34.453
X-22.528 Y34.513
X-22.509 Y34.573
X-22.492 Y34.634
X-22.476 Y34.694
X-22.461 Y34.756
X-22.448 Y34.817
X-22.436 Y34.879
X-22.426 Y34.941
X-22.416 Y35.003
X-22.409 Y35.066
X-22.402 Y35.128
X-22.397 Y35.191
X-22.393 Y35.254
X-22.391 Y35.316
X-22.39 Y35.379
X-22.391 Y35.442
X-22.393 Y35.505
X-22.396 Y35.568
X-22.401 Y35.631
X-22.407 Y35.693
X-22.415 Y35.756
X-22.424 Y35.818
X-22.434 Y35.88
X-22.446 Y35.942
X-22.459 Y36.003
X-22.474 Y36.064
X-22.49 Y36.125
X-22.507 Y36.186
X-22.526 Y36.246
X-22.546 Y36.305
X-22.567 Y36.365
X-22.59 Y36.423
X-22.614 Y36.481
X-22.639 Y36.539
X-22.666 Y36.596
X-22.694 Y36.652
X-22.723 Y36.708
X-22.754 Y36.763
X-22.785 Y36.817
X-22.818 Y36.871
X-22.852 Y36.924
X-22.888 Y36.976
X-22.924 Y37.027
X-22.962 Y37.078
X-23. Y37.127
X-23.04 Y37.176
X-23.081 Y37.224
X-23.123 Y37.271
X-23.166 Y37.316
X-23.21 Y37.361
X-23.255 Y37.405
X-23.301 Y37.448
X-23.348 Y37.49
X-23.396 Y37.531
X-23.445 Y37.571
X-23.494 Y37.609
X-23.545 Y37.647
X-23.596 Y37.683
X-23.648 Y37.719
X-23.701 Y37.753
X-23.754 Y37.786
X-23.809 Y37.817
X-23.864 Y37.848
X-23.919 Y37.877
X-23.976 Y37.905
X-24.032 Y37.932
X-24.09 Y37.958
X-24.148 Y37.982
X-24.206 Y38.005
X-24.265 Y38.027
X-24.325 Y38.048
X-24.385 Y38.067
X-24.445 Y38.085
X-24.506 Y38.101
X-24.567 Y38.116
X-24.628 Y38.13
X-24.69 Y38.143
X-24.752 Y38.154
X-24.814 Y38.164
X-24.876 Y38.173
X-24.939 Y38.18
X-25.001 Y38.186
X-25.064 Y38.19
X-25.127 Y38.194
X-25.19 Y38.195
X-25.253 Y38.196
X-25.315 Y38.195
X-25.378 Y38.193
X-25.441 Y38.189
X-25.504 Y38.185
X-25.566 Y38.178
X-25.629 Y38.171
X-25.691 Y38.162
X-25.753 Y38.152
X-25.815 Y38.141
X-25.877 Y38.128
X-25.938 Y38.114
X-25.999 Y38.098
X-26.06 Y38.082
X-26.12 Y38.064
X-26.18 Y38.045
X-26.239 Y38.024
X-26.298 Y38.003
X-26.357 Y37.98
X-26.415 Y37.956
X-26.473 Y37.93
X-26.53 Y37.904
X-26.586 Y37.876
X-26.642 Y37.847
X-26.697 Y37.817
X-26.752 Y37.786
X-26.806 Y37.754
X-26.859 Y37.721
X-26.912 Y37.686
X-26.964 Y37.651
X-27.015 Y37.614
X-27.065 Y37.576
X-27.115 Y37.537
X-27.164 Y37.498
X-27.212 Y37.457
X-27.259 Y37.415
X-27.305 Y37.373
X-27.35 Y37.329
X-27.395 Y37.284
X-27.438 Y37.239
X-27.481 Y37.193
X-27.522 Y37.145
X-27.563 Y37.097
X-27.602 Y37.048
X-27.641 Y36.999
X-27.678 Y36.948
X-27.715 Y36.897
X-27.75 Y36.845
X-27.785 Y36.792
X-27.818 Y36.739
X-27.85 Y36.685
X-27.881 Y36.63
X-27.911 Y36.575
X-27.94 Y36.519
X-27.968 Y36.463
X-27.994 Y36.406
X-28.02 Y36.348
X-28.044 Y36.29
X-28.067 Y36.232
X-28.089 Y36.173
X-28.109 Y36.113
X-28.129 Y36.053
X-28.147 Y35.993
X-28.164 Y35.932
X-28.179 Y35.872
X-28.194 Y35.81
X-28.207 Y35.749
X-28.219 Y35.687
X-28.23 Y35.625
X-28.239 Y35.563
X-28.247 Y35.5
X-28.254 Y35.438
X-28.26 Y35.375
X-28.264 Y35.313
X-28.267 Y35.25
X-28.269 Y35.187
Y35.124
Y35.061
X-28.267 Y34.998
X-28.263 Y34.935
X-28.259 Y34.873
X-28.253 Y34.81
X-28.246 Y34.748
X-28.238 Y34.685
X-28.228 Y34.623
X-28.217 Y34.561
X-28.205 Y34.499
X-28.191 Y34.438
X-28.177 Y34.377
X-28.161 Y34.316
X-28.144 Y34.255
X-28.126 Y34.195
X-28.106 Y34.135
X-28.085 Y34.076
X-28.063 Y34.017
X-28.04 Y33.958
X-28.016 Y33.9
X-27.991 Y33.843
X-27.964 Y33.786
X-27.936 Y33.73
X-27.907 Y33.674
X-27.877 Y33.618
X-27.846 Y33.564
X-27.814 Y33.51
X-27.781 Y33.456
X-27.746 Y33.404
X-27.711 Y33.352
X-27.675 Y33.3
X-27.637 Y33.25
X-27.599 Y33.2
X-27.559 Y33.151
X-27.519 Y33.103
X-27.477 Y33.056
X-27.435 Y33.009
X-27.391 Y32.964
X-27.347 Y32.919
X-27.302 Y32.875
X-27.256 Y32.832
X-27.209 Y32.79
X-27.162 Y32.749
X-27.113 Y32.709
X-27.064 Y32.67
X-27.014 Y32.632
X-26.963 Y32.595
X-26.911 Y32.559
X-26.859 Y32.524
X-26.806 Y32.49
X-26.752 Y32.457
X-26.698 Y32.426
X-26.643 Y32.395
X-26.588 Y32.365
X-26.531 Y32.337
X-26.475 Y32.31
X-26.418 Y32.284
X-26.36 Y32.259
X-26.302 Y32.235
X-26.243 Y32.212
X-26.184 Y32.191
X-26.124 Y32.171
X-26.064 Y32.152
X-26.004 Y32.134
X-25.943 Y32.117
X-25.882 Y32.102
X-25.821 Y32.088
X-25.759 Y32.075
X-25.698 Y32.063
X-25.636 Y32.053
X-25.573 Y32.043
X-25.511 Y32.036
X-25.448 Y32.029
X-25.386 Y32.023
X-25.323 Y32.019
X-25.26 Y32.016
X-25.197 Y32.015
X-25.134
X-25.071
X-25.009 Y32.018
X-24.946 Y32.021
X-24.883 Y32.026
X-24.82 Y32.032
X-24.758 Y32.039
X-24.696 Y32.048
X-24.633 Y32.057
X-24.572 Y32.068
X-24.51 Y32.08
X-24.448 Y32.094
X-24.387 Y32.109
X-24.326 Y32.124
X-24.266 Y32.142
X-24.206 Y32.16
X-24.146 Y32.179
X-24.086 Y32.2
X-24.027 Y32.222
X-23.969 Y32.244
X-23.911 Y32.269
X-23.853 Y32.294
X-23.796 Y32.32
X-23.739 Y32.347
X-23.683 Y32.376
X-23.628 Y32.405
X-23.573 Y32.436
X-23.518 Y32.468
X-23.464 Y32.5
X-23.411 Y32.534
X-23.359 Y32.569
X-23.307 Y32.604
X-23.256 Y32.641
X-23.205 Y32.678
X-23.156 Y32.717
X-23.107 Y32.756
X-23.058 Y32.797
X-23.011 Y32.838
X-22.964 Y32.88
X-22.918 Y32.923
X-22.873 Y32.967
X-22.829 Y33.011
X-22.785 Y33.057
X-22.743 Y33.103
X-22.701 Y33.15
X-22.66 Y33.198
X-22.62 Y33.246
X-22.581 Y33.296
X-22.543 Y33.346
X-22.505 Y33.396
X-22.469 Y33.448
X-22.434 Y33.5
X-22.399 Y33.552
X-22.366 Y33.605
X-22.333 Y33.659
X-22.302 Y33.714
X-22.271 Y33.769
X-22.242 Y33.824
X-22.213 Y33.88
X-22.186 Y33.937
X-22.159 Y33.994
X-22.134 Y34.052
X-22.11 Y34.11
X-22.087 Y34.168
X-22.065 Y34.227
X-22.044 Y34.286
X-22.024 Y34.346
X-22.005 Y34.406
X-21.987 Y34.467
X-21.971 Y34.527
X-21.955 Y34.588
X-21.941 Y34.649
X-21.928 Y34.711
X-21.916 Y34.773
X-21.905 Y34.835
X-21.895 Y34.897
X-21.887 Y34.959
X-21.879 Y35.022
X-21.873 Y35.084
X-21.868 Y35.147
X-21.864 Y35.21
X-21.862 Y35.273
X-21.86 Y35.335
Y35.398
X-21.861 Y35.461
X-21.863 Y35.524
X-21.866 Y35.587
X-21.871 Y35.65
X-21.876 Y35.712
X-21.883 Y35.775
X-21.891 Y35.837
X-21.9 Y35.899
X-21.911 Y35.961
X-21.922 Y36.023
X-21.935 Y36.085
X-21.949 Y36.146
X-21.964 Y36.207
X-21.98 Y36.268
X-21.997 Y36.329
X-22.016 Y36.389
X-22.035 Y36.449
X-22.056 Y36.508
X-22.078 Y36.567
X-22.101 Y36.625
X-22.125 Y36.684
X-22.15 Y36.741
X-22.176 Y36.798
X-22.203 Y36.855
X-22.232 Y36.911
X-22.261 Y36.967
X-22.292 Y37.022
X-22.323 Y37.076
X-22.356 Y37.13
X-22.389 Y37.183
X-22.424 Y37.236
X-22.46 Y37.288
X-22.496 Y37.339
X-22.534 Y37.389
X-22.572 Y37.439
X-22.611 Y37.488
X-22.652 Y37.537
X-22.693 Y37.584
X-22.735 Y37.631
X-22.778 Y37.677
X-22.822 Y37.722
X-22.866 Y37.766
X-22.912 Y37.81
X-22.958 Y37.852
X-23.005 Y37.894
X-23.053 Y37.935
X-23.101 Y37.975
X-23.151 Y38.014
X-23.201 Y38.052
X-23.252 Y38.089
X-23.303 Y38.125
X-23.355 Y38.161
X-23.408 Y38.195
X-23.461 Y38.228
X-23.515 Y38.26
X-23.57 Y38.292
X-23.625 Y38.322
X-23.681 Y38.351
X-23.737 Y38.379
X-23.794 Y38.406
X-23.851 Y38.433
X-23.909 Y38.458
X-23.967 Y38.481
X-24.025 Y38.504
X-24.084 Y38.526
X-24.144 Y38.547
X-24.204 Y38.566
X-24.264 Y38.585
X-24.324 Y38.602
X-24.385 Y38.619
X-24.446 Y38.634
X-24.507 Y38.648
X-24.569 Y38.661
X-24.631 Y38.672
X-24.693 Y38.683
X-24.755 Y38.693
X-24.817 Y38.701
X-24.88 Y38.708
X-24.942 Y38.714
X-25.005 Y38.719
X-25.068 Y38.723
X-25.131 Y38.726
X-25.193 Y38.728
X-25.256
X-25.319 Y38.727
X-25.382 Y38.725
X-25.445 Y38.722
X-25.508 Y38.718
X-25.57 Y38.713
X-25.633 Y38.707
X-25.695 Y38.699
X-25.758 Y38.691
X-25.82 Y38.681
X-25.882 Y38.67
X-25.944 Y38.658
X-26.005 Y38.645
X-26.066 Y38.631
X-26.127 Y38.616
X-26.188 Y38.599
X-26.249 Y38.582
X-26.309 Y38.563
X-26.368 Y38.544
X-26.428 Y38.523
X-26.487 Y38.502
X-26.546 Y38.479
X-26.604 Y38.455
X-26.662 Y38.43
X-26.719 Y38.404
X-26.776 Y38.378
X-26.832 Y38.35
X-26.888 Y38.321
X-26.944 Y38.291
X-26.998 Y38.26
X-27.053 Y38.229
X-27.106 Y38.196
X-27.16 Y38.162
X-27.212 Y38.128
X-27.264 Y38.092
X-27.315 Y38.056
X-27.366 Y38.018
X-27.416 Y37.98
X-27.465 Y37.941
X-27.514 Y37.901
X-27.562 Y37.86
X-27.609 Y37.819
X-27.655 Y37.776
X-27.701 Y37.733
X-27.746 Y37.689
X-27.79 Y37.644
X-27.833 Y37.598
X-27.876 Y37.552
X-27.917 Y37.505
X-27.958 Y37.457
X-27.998 Y37.409
X-28.038 Y37.36
X-28.076 Y37.31
X-28.113 Y37.259
X-28.15 Y37.208
X-28.185 Y37.156
X-28.22 Y37.104
X-28.254 Y37.051
X-28.287 Y36.997
X-28.319 Y36.943
X-28.35 Y36.888
X-28.38 Y36.833
X-28.409 Y36.777
X-28.437 Y36.721
X-28.464 Y36.664
X-28.49 Y36.607
X-28.515 Y36.549
X-28.54 Y36.491
X-28.563 Y36.432
X-28.585 Y36.374
X-28.606 Y36.314
X-28.626 Y36.255
X-28.645 Y36.195
X-28.663 Y36.134
X-28.68 Y36.074
X-28.695 Y36.013
X-28.71 Y35.952
X-28.724 Y35.89
X-28.737 Y35.829
X-28.748 Y35.767
X-28.759 Y35.705
X-28.768 Y35.643
X-28.777 Y35.58
X-28.784 Y35.518
X-28.79 Y35.455
X-28.795 Y35.393
X-28.799 Y35.33
X-28.802 Y35.267
X-28.804 Y35.204
X-28.805 Y35.141
X-28.804 Y35.078
X-28.803 Y35.016
X-28.8 Y34.953
X-28.797 Y34.89
X-28.792 Y34.827
X-28.786 Y34.765
X-28.78 Y34.702
X-28.772 Y34.64
X-28.763 Y34.577
X-28.753 Y34.515
X-28.741 Y34.453
X-28.729 Y34.392
X-28.716 Y34.33
X-28.702 Y34.269
X-28.686 Y34.208
X-28.67 Y34.147
X-28.652 Y34.087
X-28.634 Y34.027
X-28.614 Y33.967
X-28.594 Y33.907
X-28.572 Y33.848
X-28.55 Y33.79
X-28.526 Y33.731
X-28.501 Y33.674
X-28.476 Y33.616
X-28.449 Y33.559
X-28.421 Y33.503
X-28.393 Y33.447
X-28.363 Y33.391
X-28.333 Y33.336
X-28.302 Y33.281
X-28.269 Y33.227
X-28.236 Y33.174
X-28.202 Y33.121
X-28.167 Y33.069
X-28.131 Y33.018
X-28.094 Y32.967
X-28.056 Y32.916
X-28.017 Y32.867
X-27.978 Y32.818
X-27.938 Y32.769
X-27.897 Y32.722
X-27.855 Y32.675
X-27.812 Y32.629
X-27.768 Y32.583
X-27.724 Y32.539
X-27.679 Y32.495
X-27.633 Y32.452
X-27.587 Y32.409
X-27.539 Y32.368
X-27.492 Y32.327
X-27.443 Y32.287
X-27.394 Y32.248
X-27.344 Y32.21
X-27.293 Y32.173
X-27.242 Y32.136
X-27.19 Y32.101
X-27.137 Y32.066
X-27.084 Y32.032
X-27.03 Y32.
X-26.976 Y31.968
X-26.921 Y31.937
X-26.866 Y31.907
X-26.81 Y31.878
X-26.754 Y31.85
X-26.697 Y31.823
X-26.64 Y31.796
X-26.582 Y31.771
X-26.524 Y31.747
X-26.466 Y31.724
X-26.407 Y31.702
X-26.348 Y31.681
X-26.288 Y31.661
X-26.228 Y31.642
X-26.168 Y31.624
X-26.107 Y31.607
X-26.047 Y31.591
X-25.985 Y31.576
X-25.924 Y31.562
X-25.862 Y31.549
X-25.801 Y31.537
X-25.739 Y31.527
X-25.677 Y31.517
X-25.614 Y31.509
X-25.552 Y31.501
X-25.489 Y31.495
X-25.426 Y31.489
X-25.364 Y31.485
X-25.301 Y31.482
X-25.238 Y31.48
X-25.175 Y31.479
X-25.112
X-25.049 Y31.48
X-24.986 Y31.482
X-24.924 Y31.486
X-24.861 Y31.49
X-24.798 Y31.496
X-24.736 Y31.502
X-24.673 Y31.51
X-24.611 Y31.518
X-24.549 Y31.528
X-24.487 Y31.539
X-24.425 Y31.551
X-24.364 Y31.564
X-24.302 Y31.578
X-24.241 Y31.592
X-24.18 Y31.608
X-24.12 Y31.625
X-24.059 Y31.643
X-23.999 Y31.663
X-23.94 Y31.683
X-23.881 Y31.704
X-23.822 Y31.726
X-23.763 Y31.749
X-23.705 Y31.773
X-23.647 Y31.797
X-23.59 Y31.823
X-23.533 Y31.85
X-23.476 Y31.878
X-23.421 Y31.907
X-23.365 Y31.936
X-23.31 Y31.967
X-23.256 Y31.998
X-23.202 Y32.03
X-23.148 Y32.064
X-23.095 Y32.098
X-23.043 Y32.133
X-22.991 Y32.168
X-22.94 Y32.205
X-22.889 Y32.242
X-22.839 Y32.28
X-22.79 Y32.319
X-22.741 Y32.359
X-22.693 Y32.4
X-22.646 Y32.441
X-22.599 Y32.483
X-22.553 Y32.526
X-22.508 Y32.57
X-22.463 Y32.614
X-22.419 Y32.659
X-22.376 Y32.705
X-22.333 Y32.751
X-22.292 Y32.798
X-22.251 Y32.846
X-22.211 Y32.894
X-22.171 Y32.943
X-22.133 Y32.993
X-22.095 Y33.043
X-22.058 Y33.094
X-22.021 Y33.145
X-21.986 Y33.197
X-21.951 Y33.25
X-21.918 Y33.303
X-21.885 Y33.357
X-21.853 Y33.411
X-21.822 Y33.465
X-21.791 Y33.521
X-21.762 Y33.576
X-21.733 Y33.632
X-21.706 Y33.689
X-21.679 Y33.746
X-21.653 Y33.803
X-21.628 Y33.861
X-21.604 Y33.919
X-21.581 Y33.978
X-21.559 Y34.036
X-21.538 Y34.096
X-21.518 Y34.155
X-21.499 Y34.215
X-21.48 Y34.275
X-21.463 Y34.336
X-21.447 Y34.396
X-21.431 Y34.457
X-21.417 Y34.519
X-21.404 Y34.58
X-21.391 Y34.642
X-21.38 Y34.704
X-21.369 Y34.766
X-21.36 Y34.828
X-21.352 Y34.89
X-21.344 Y34.953
X-21.338 Y35.015
X-21.332 Y35.078
X-21.328 Y35.141
X-21.325 Y35.204
X-21.322 Y35.266
X-21.321 Y35.329
Y35.392
Y35.455
X-21.323 Y35.518
X-21.326 Y35.581
X-21.33 Y35.644
X-21.334 Y35.706
X-21.34 Y35.769
X-21.347 Y35.831
X-21.355 Y35.894
X-21.364 Y35.956
X-21.373 Y36.018
X-21.384 Y36.08
X-21.396 Y36.142
X-21.409 Y36.204
X-21.423 Y36.265
X-21.438 Y36.326
X-21.454 Y36.387
X-21.47 Y36.448
X-21.488 Y36.508
X-21.507 Y36.568
X-21.527 Y36.628
X-21.548 Y36.687
X-21.569 Y36.746
X-21.592 Y36.805
X-21.616 Y36.863
X-21.64 Y36.921
X-21.666 Y36.978
X-21.692 Y37.035
X-21.719 Y37.092
X-21.748 Y37.148
X-21.777 Y37.204
X-21.807 Y37.259
X-21.838 Y37.314
X-21.87 Y37.368
X-21.903 Y37.422
X-21.936 Y37.475
X-21.971 Y37.528
X-22.006 Y37.58
X-22.042 Y37.631
X-22.079 Y37.682
X-22.117 Y37.732
X-22.156 Y37.782
X-22.195 Y37.831
X-22.235 Y37.879
X-22.276 Y37.927
X-22.318 Y37.974
X-22.361 Y38.02
X-22.404 Y38.066
X-22.448 Y38.111
X-22.493 Y38.155
X-22.538 Y38.199
X-22.584 Y38.241
X-22.631 Y38.283
X-22.679 Y38.325
X-22.727 Y38.365
X-22.776 Y38.405
X-22.825 Y38.444
X-22.875 Y38.482
X-22.926 Y38.519
X-22.977 Y38.556
X-23.029 Y38.591
X-23.081 Y38.626
X-23.134 Y38.66
X-23.188 Y38.693
X-23.242 Y38.725
X-23.296 Y38.757
X-23.351 Y38.787
X-23.407 Y38.817
X-23.463 Y38.846
X-23.519 Y38.873
X-23.576 Y38.9
X-23.633 Y38.926
X-23.691 Y38.951
X-23.749 Y38.976
X-23.807 Y38.999
X-23.866 Y39.021
X-23.925 Y39.043
X-23.985 Y39.063
X-24.044 Y39.083
X-24.105 Y39.101
X-24.165 Y39.119
X-24.226 Y39.135
X-24.287 Y39.151
X-24.348 Y39.166
X-24.409 Y39.179
X-24.471 Y39.192
X-24.532 Y39.204
X-24.594 Y39.215
X-24.657 Y39.225
X-24.719 Y39.233
X-24.781 Y39.241
X-24.844 Y39.248
X-24.906 Y39.254
X-24.969 Y39.259
X-25.032 Y39.263
X-25.095 Y39.266
X-25.158 Y39.268
X-25.22 Y39.269
X-25.283
X-25.346 Y39.268
X-25.409 Y39.266
X-25.472 Y39.263
X-25.535 Y39.259
X-25.597 Y39.254
X-25.66 Y39.248
X-25.723 Y39.241
X-25.785 Y39.233
X-25.847 Y39.224
X-25.909 Y39.215
X-25.971 Y39.204
X-26.033 Y39.192
X-26.095 Y39.18
X-26.156 Y39.166
X-26.217 Y39.151
X-26.278 Y39.136
X-26.339 Y39.119
X-26.4 Y39.102
X-26.46 Y39.084
X-26.52 Y39.064
X-26.579 Y39.044
X-26.638 Y39.023
X-26.697 Y39.001
X-26.756 Y38.978
X-26.814 Y38.954
X-26.872 Y38.93
X-26.929 Y38.904
X-26.986 Y38.877
X-27.043 Y38.85
X-27.099 Y38.822
X-27.155 Y38.793
X-27.21 Y38.763
X-27.265 Y38.732
X-27.32 Y38.7
X-27.373 Y38.668
X-27.427 Y38.635
X-27.48 Y38.601
X-27.532 Y38.566
X-27.584 Y38.53
X-27.635 Y38.493
X-27.686 Y38.456
X-27.736 Y38.418
X-27.785 Y38.379
X-27.834 Y38.34
X-27.882 Y38.299
X-27.93 Y38.258
X-27.977 Y38.217
X-28.024 Y38.174
X-28.069 Y38.131
X-28.114 Y38.087
X-28.159 Y38.043
X-28.203 Y37.997
X-28.246 Y37.952
X-28.288 Y37.905
X-28.33 Y37.858
X-28.37 Y37.81
X-28.411 Y37.762
X-28.45 Y37.713
X-28.489 Y37.663
X-28.527 Y37.613
X-28.564 Y37.562
X-28.6 Y37.511
X-28.636 Y37.459
X-28.671 Y37.407
X-28.705 Y37.354
X-28.738 Y37.3
X-28.77 Y37.246
X-28.802 Y37.192
X-28.832 Y37.137
X-28.862 Y37.082
X-28.891 Y37.026
X-28.92 Y36.97
X-28.947 Y36.913
X-28.973 Y36.856
X-28.999 Y36.799
X-29.024 Y36.741
X-29.048 Y36.683
X-29.071 Y36.624
X-29.093 Y36.565
X-29.114 Y36.506
X-29.134 Y36.446
X-29.154 Y36.387
X-29.172 Y36.326
X-29.19 Y36.266
X-29.207 Y36.205
X-29.222 Y36.144
X-29.237 Y36.083
X-29.251 Y36.022
X-29.264 Y35.96
X-29.276 Y35.899
X-29.287 Y35.837
X-29.298 Y35.775
X-29.307 Y35.713
X-29.315 Y35.65
X-29.323 Y35.588
X-29.329 Y35.525
X-29.334 Y35.463
X-29.339 Y35.4
X-29.343 Y35.337
X-29.345 Y35.274
X-29.347 Y35.211
X-29.348 Y35.148
Y35.085
X-29.347 Y35.023
X-29.344 Y34.96
X-29.341 Y34.897
X-29.338 Y34.834
X-29.333 Y34.771
X-29.327 Y34.709
X-29.32 Y34.646
X-29.312 Y34.584
X-29.304 Y34.522
X-29.294 Y34.459
X-29.284 Y34.397
X-29.272 Y34.335
X-29.26 Y34.274
X-29.246 Y34.212
X-29.232 Y34.151
X-29.217 Y34.09
X-29.201 Y34.029
X-29.184 Y33.969
X-29.166 Y33.908
X-29.147 Y33.848
X-29.128 Y33.789
X-29.107 Y33.729
X-29.086 Y33.67
X-29.063 Y33.611
X-29.04 Y33.553
X-29.016 Y33.495
X-28.991 Y33.437
X-28.965 Y33.38
X-28.938 Y33.323
X-28.911 Y33.266
X-28.882 Y33.21
X-28.853 Y33.154
X-28.823 Y33.099
X-28.792 Y33.044
X-28.76 Y32.99
X-28.728 Y32.936
X-28.695 Y32.883
X-28.66 Y32.83
X-28.626 Y32.778
X-28.59 Y32.726
X-28.553 Y32.675
X-28.516 Y32.624
X-28.478 Y32.574
X-28.439 Y32.524
X-28.4 Y32.475
X-28.36 Y32.427
X-28.319 Y32.379
X-28.277 Y32.332
X-28.235 Y32.285
X-28.192 Y32.239
X-28.148 Y32.194
X-28.104 Y32.15
X-28.059 Y32.106
X-28.013 Y32.063
X-27.967 Y32.02
X-27.92 Y31.978
X-27.872 Y31.937
X-27.824 Y31.897
X-27.775 Y31.857
X-27.726 Y31.818
X-27.676 Y31.78
X-27.625 Y31.742
X-27.574 Y31.706
X-27.523 Y31.67
X-27.47 Y31.635
X-27.418 Y31.6
X-27.364 Y31.567
X-27.311 Y31.534
X-27.257 Y31.502
X-27.202 Y31.471
X-27.147 Y31.441
X-27.091 Y31.411
X-27.035 Y31.382
X-26.979 Y31.355
X-26.922 Y31.328
X-26.865 Y31.301
X-26.807 Y31.276
X-26.749 Y31.252
X-26.691 Y31.228
X-26.632 Y31.206
X-26.573 Y31.184
X-26.514 Y31.163
X-26.454 Y31.143
X-26.394 Y31.124
X-26.334 Y31.106
X-26.274 Y31.089
X-26.213 Y31.072
X-26.152 Y31.057
X-26.091 Y31.042
X-26.029 Y31.029
X-25.968 Y31.016
X-25.906 Y31.004
X-25.844 Y30.993
X-25.782 Y30.983
X-25.72 Y30.974
X-25.657 Y30.966
X-25.595 Y30.959
X-25.532 Y30.953
X-25.469 Y30.948
X-25.407 Y30.943
X-25.344 Y30.94
X-25.281 Y30.937
X-25.218 Y30.936
X-25.155 Y30.935
X-25.092 Y30.936
X-25.029 Y30.937
X-24.967 Y30.939
X-24.904 Y30.942
X-24.841 Y30.946
X-24.778 Y30.951
X-24.716 Y30.957
X-24.653 Y30.964
X-24.591 Y30.972
X-24.528 Y30.981
X-24.466 Y30.99
X-24.404 Y31.001
X-24.342 Y31.013
X-24.281 Y31.025
X-24.219 Y31.038
X-24.158 Y31.053
X-24.097 Y31.068
X-24.036 Y31.084
X-23.976 Y31.101
X-23.915 Y31.118
X-23.855 Y31.137
X-23.795 Y31.157
X-23.736 Y31.177
X-23.677 Y31.198
X-23.618 Y31.22
X-23.559 Y31.243
X-23.501 Y31.267
X-23.443 Y31.292
X-23.386 Y31.318
X-23.329 Y31.344
X-23.272 Y31.371
X-23.216 Y31.399
X-23.16 Y31.428
X-23.104 Y31.457
X-23.049 Y31.488
X-22.994 Y31.519
X-22.94 Y31.551
X-22.887 Y31.584
X-22.833 Y31.617
X-22.781 Y31.651
X-22.728 Y31.686
X-22.677 Y31.722
X-22.625 Y31.759
X-22.575 Y31.796
X-22.524 Y31.834
X-22.475 Y31.872
X-22.426 Y31.912
X-22.377 Y31.952
X-22.329 Y31.993
X-22.282 Y32.034
X-22.235 Y32.076
X-22.189 Y32.119
X-22.143 Y32.162
X-22.098 Y32.206
X-22.054 Y32.251
X-22.01 Y32.296
X-21.967 Y32.342
X-21.925 Y32.388
X-21.883 Y32.435
X-21.842 Y32.483
X-21.802 Y32.531
X-21.762 Y32.58
X-21.723 Y32.629
X-21.684 Y32.679
X-21.647 Y32.729
X-21.61 Y32.78
X-21.574 Y32.832
X-21.538 Y32.883
X-21.503 Y32.936
X-21.469 Y32.989
X-21.436 Y33.042
X-21.403 Y33.096
X-21.372 Y33.15
X-21.341 Y33.205
X-21.31 Y33.26
X-21.281 Y33.316
X-21.252 Y33.372
X-21.224 Y33.428
X-21.197 Y33.485
X-21.171 Y33.542
X-21.145 Y33.599
X-21.121 Y33.657
X-21.097 Y33.715
X-21.074 Y33.774
X-21.051 Y33.833
X-21.03 Y33.892
X-21.009 Y33.951
X-20.99 Y34.011
X-20.971 Y34.071
X-20.953 Y34.131
X-20.936 Y34.192
X-20.919 Y34.253
X-20.904 Y34.314
X-20.889 Y34.375
X-20.875 Y34.436
X-20.862 Y34.498
X-20.85 Y34.559
X-20.839 Y34.621
X-20.829 Y34.683
X-20.819 Y34.746
X-20.811 Y34.808
X-20.803 Y34.87
X-20.797 Y34.933
X-20.791 Y34.995
X-20.786 Y35.058
X-20.782 Y35.121
X-20.778 Y35.184
X-20.776 Y35.247
X-20.775 Y35.309
X-20.774 Y35.372
Y35.435
X-20.776 Y35.498
X-20.778 Y35.561
X-20.781 Y35.624
X-20.785 Y35.687
X-20.79 Y35.749
X-20.795 Y35.812
X-20.802 Y35.875
X-20.809 Y35.937
X-20.818 Y35.999
X-20.827 Y36.062
X-20.837 Y36.124
X-20.848 Y36.186
X-20.86 Y36.247
X-20.873 Y36.309
X-20.887 Y36.37
X-20.901 Y36.431
X-20.917 Y36.492
X-20.933 Y36.553
X-20.95 Y36.614
X-20.968 Y36.674
X-20.987 Y36.734
X-21.006 Y36.794
X-21.027 Y36.853
X-21.048 Y36.912
X-21.071 Y36.971
X-21.094 Y37.03
X-21.118 Y37.088
X-21.142 Y37.146
X-21.168 Y37.203
X-21.194 Y37.26
X-21.222 Y37.317
X-21.25 Y37.373
X-21.278 Y37.429
X-21.308 Y37.485
X-21.338 Y37.54
X-21.369 Y37.595
X-21.401 Y37.649
X-21.434 Y37.702
X-21.468 Y37.756
X-21.502 Y37.808
X-21.537 Y37.861
X-21.572 Y37.913
X-21.609 Y37.964
X-21.646 Y38.015
X-21.684 Y38.065
X-21.722 Y38.114
X-21.762 Y38.164
X-21.802 Y38.212
X-21.842 Y38.26
X-21.884 Y38.308
X-21.926 Y38.354
X-21.968 Y38.401
X-22.012 Y38.446
X-22.056 Y38.491
X-22.1 Y38.536
X-22.146 Y38.579
X-22.191 Y38.622
X-22.238 Y38.665
X-22.285 Y38.706
X-22.332 Y38.748
X-22.381 Y38.788
X-22.429 Y38.828
X-22.479 Y38.867
X-22.529 Y38.905
X-22.579 Y38.943
X-22.63 Y38.98
X-22.681 Y39.016
X-22.733 Y39.051
X-22.786 Y39.086
X-22.839 Y39.12
X-22.892 Y39.153
X-22.946 Y39.186
X-23. Y39.217
X-23.055 Y39.248
X-23.11 Y39.279
X-23.166 Y39.308
X-23.222 Y39.337
X-23.278 Y39.364
X-23.335 Y39.391
X-23.392 Y39.418
X-23.45 Y39.443
X-23.508 Y39.468
X-23.566 Y39.492
X-23.624 Y39.515
X-23.683 Y39.537
X-23.742 Y39.558
X-23.802 Y39.579
X-23.862 Y39.598
X-23.922 Y39.617
X-23.982 Y39.635
X-24.042 Y39.652
X-24.103 Y39.669
X-24.164 Y39.684
X-24.225 Y39.699
X-24.287 Y39.713
X-24.348 Y39.726
X-24.41 Y39.738
X-24.472 Y39.749
X-24.534 Y39.759
X-24.596 Y39.769
X-24.658 Y39.778
X-24.721 Y39.785
X-24.783 Y39.792
X-24.846 Y39.798
X-24.909 Y39.803
X-24.971 Y39.808
X-25.034 Y39.811
X-25.097 Y39.814
X-25.16 Y39.816
X-25.223
X-25.286
X-25.348
X-25.411 Y39.814
X-25.474 Y39.811
X-25.537 Y39.808
X-25.6 Y39.803
X-25.662 Y39.798
X-25.725 Y39.792
X-25.788 Y39.785
X-25.85 Y39.777
X-25.912 Y39.769
X-25.974 Y39.759
X-26.037 Y39.749
X-26.098 Y39.738
X-26.16 Y39.726
X-26.222 Y39.713
X-26.283 Y39.699
X-26.344 Y39.685
X-26.405 Y39.669
X-26.466 Y39.653
X-26.527 Y39.636
X-26.587 Y39.618
X-26.647 Y39.599
X-26.707 Y39.58
X-26.766 Y39.56
X-26.826 Y39.538
X-26.885 Y39.516
X-26.943 Y39.494
X-27.001 Y39.47
X-27.059 Y39.446
X-27.117 Y39.421
X-27.174 Y39.395
X-27.231 Y39.368
X-27.288 Y39.341
X-27.344 Y39.313
X-27.4 Y39.284
X-27.456 Y39.254
X-27.511 Y39.223
X-27.565 Y39.192
X-27.619 Y39.16
X-27.673 Y39.128
X-27.726 Y39.094
X-27.779 Y39.06
X-27.832 Y39.025
X-27.884 Y38.99
X-27.935 Y38.954
X-27.986 Y38.917
X-28.036 Y38.879
X-28.086 Y38.841
X-28.136 Y38.802
X-28.185 Y38.762
X-28.233 Y38.722
X-28.281 Y38.681
X-28.328 Y38.64
X-28.375 Y38.597
X-28.421 Y38.555
X-28.466 Y38.511
X-28.511 Y38.467
X-28.555 Y38.422
X-28.599 Y38.377
X-28.642 Y38.331
X-28.685 Y38.285
X-28.726 Y38.238
X-28.768 Y38.191
X-28.808 Y38.142
X-28.848 Y38.094
X-28.887 Y38.045
X-28.926 Y37.995
X-28.964 Y37.945
X-29.001 Y37.894
X-29.038 Y37.843
X-29.074 Y37.791
X-29.109 Y37.739
X-29.143 Y37.687
X-29.177 Y37.634
X-29.21 Y37.58
X-29.243 Y37.526
X-29.274 Y37.472
X-29.305 Y37.417
X-29.335 Y37.362
X-29.365 Y37.306
X-29.393 Y37.25
X-29.421 Y37.194
X-29.449 Y37.137
X-29.475 Y37.08
X-29.501 Y37.023
X-29.525 Y36.965
X-29.55 Y36.907
X-29.573 Y36.848
X-29.595 Y36.79
X-29.617 Y36.731
X-29.638 Y36.671
X-29.658 Y36.612
X-29.678 Y36.552
X-29.696 Y36.492
X-29.714 Y36.431
X-29.731 Y36.371
X-29.747 Y36.31
X-29.762 Y36.249
X-29.777 Y36.188
X-29.791 Y36.126
X-29.804 Y36.065
X-29.816 Y36.003
X-29.827 Y35.941
X-29.837 Y35.879
X-29.847 Y35.817
X-29.856 Y35.755
X-29.864 Y35.692
X-29.871 Y35.63
X-29.877 Y35.567
X-29.882 Y35.505
X-29.887 Y35.442
X-29.891 Y35.379
X-29.894 Y35.316
X-29.896 Y35.253
X-29.897 Y35.191
Y35.128
Y35.065
X-29.896 Y35.002
X-29.894 Y34.939
X-29.891 Y34.876
X-29.887 Y34.813
X-29.882 Y34.751
X-29.877 Y34.688
X-29.871 Y34.625
X-29.864 Y34.563
X-29.856 Y34.5
X-29.847 Y34.438
X-29.837 Y34.376
X-29.827 Y34.314
X-29.816 Y34.252
X-29.804 Y34.19
X-29.791 Y34.129
X-29.777 Y34.067
X-29.763 Y34.006
X-29.747 Y33.945
X-29.731 Y33.884
X-29.714 Y33.824
X-29.697 Y33.763
X-29.678 Y33.703
X-29.659 Y33.644
X-29.639 Y33.584
X-29.618 Y33.525
X-29.596 Y33.466
X-29.573 Y33.407
X-29.55 Y33.348
X-29.526 Y33.29
X-29.501 Y33.232
X-29.476 Y33.175
X-29.45 Y33.118
X-29.422 Y33.061
X-29.395 Y33.005
X-29.366 Y32.949
X-29.337 Y32.893
X-29.307 Y32.838
X-29.276 Y32.783
X-29.244 Y32.728
X-29.212 Y32.674
X-29.179 Y32.621
X-29.146 Y32.568
X-29.111 Y32.515
X-29.076 Y32.463
X-29.041 Y32.411
X-29.004 Y32.36
X-28.967 Y32.309
X-28.929 Y32.259
X-28.891 Y32.209
X-28.852 Y32.159
X-28.812 Y32.111
X-28.772 Y32.062
X-28.731 Y32.015
X-28.689 Y31.968
X-28.647 Y31.921
X-28.604 Y31.875
X-28.56 Y31.83
X-28.516 Y31.785
X-28.472 Y31.74
X-28.426 Y31.697
X-28.381 Y31.654
X-28.334 Y31.611
X-28.287 Y31.569
X-28.24 Y31.528
X-28.192 Y31.487
X-28.143 Y31.447
X-28.094 Y31.408
X-28.044 Y31.369
X-27.994 Y31.331
X-27.944 Y31.294
X-27.893 Y31.257
X-27.841 Y31.221
X-27.789 Y31.186
X-27.736 Y31.152
X-27.683 Y31.118
X-27.63 Y31.084
X-27.576 Y31.052
X-27.522 Y31.02
X-27.467 Y30.989
X-27.412 Y30.959
X-27.357 Y30.929
X-27.301 Y30.9
X-27.244 Y30.872
X-27.188 Y30.845
X-27.131 Y30.818
X-27.073 Y30.793
X-27.016 Y30.767
X-26.958 Y30.743
X-26.899 Y30.72
X-26.841 Y30.697
X-26.782 Y30.675
X-26.723 Y30.654
X-26.663 Y30.633
X-26.603 Y30.613
X-26.543 Y30.595
X-26.483 Y30.577
X-26.423 Y30.559
X-26.362 Y30.543
X-26.301 Y30.527
X-26.24 Y30.512
X-26.179 Y30.498
X-26.117 Y30.485
X-26.055 Y30.473
X-25.994 Y30.461
X-25.932 Y30.45
X-25.869 Y30.44
X-25.807 Y30.431
X-25.745 Y30.423
X-25.682 Y30.415
X-25.62 Y30.409
X-25.557 Y30.403
X-25.495 Y30.398
X-25.432 Y30.394
X-25.369 Y30.39
X-25.306 Y30.388
X-25.243 Y30.386
X-25.18 Y30.385
X-25.117
X-25.055 Y30.386
X-24.992 Y30.388
X-24.929 Y30.39
X-24.866 Y30.394
X-24.803 Y30.398
X-24.741 Y30.403
X-24.678 Y30.408
X-24.615 Y30.415
X-24.553 Y30.422
X-24.491 Y30.431
X-24.428 Y30.44
X-24.366 Y30.449
X-24.304 Y30.46
X-24.242 Y30.472
X-24.181 Y30.484
X-24.119 Y30.497
X-24.058 Y30.511
X-23.997 Y30.525
X-23.936 Y30.541
X-23.875 Y30.557
X-23.814 Y30.574
X-23.754 Y30.592
X-23.694 Y30.611
X-23.634 Y30.63
X-23.574 Y30.65
X-23.515 Y30.671
X-23.456 Y30.693
X-23.397 Y30.715
X-23.339 Y30.738
X-23.281 Y30.762
X-23.223 Y30.787
X-23.165 Y30.813
X-23.108 Y30.839
X-23.051 Y30.866
X-22.995 Y30.893
X-22.939 Y30.922
X-22.883 Y30.951
X-22.827 Y30.98
X-22.772 Y31.011
X-22.718 Y31.042
X-22.664 Y31.074
X-22.61 Y31.107
X-22.556 Y31.14
X-22.503 Y31.174
X-22.451 Y31.208
X-22.399 Y31.244
X-22.347 Y31.28
X-22.296 Y31.316
X-22.245 Y31.353
X-22.195 Y31.391
X-22.145 Y31.43
X-22.096 Y31.469
X-22.047 Y31.508
X-21.999 Y31.549
X-21.951 Y31.59
X-21.904 Y31.631
X-21.857 Y31.673
X-21.811 Y31.716
X-21.765 Y31.759
X-21.72 Y31.803
X-21.676 Y31.848
X-21.632 Y31.893
X-21.588 Y31.938
X-21.546 Y31.984
X-21.503 Y32.031
X-21.462 Y32.078
X-21.421 Y32.126
X-21.38 Y32.174
X-21.34 Y32.222
X-21.301 Y32.272
X-21.262 Y32.321
X-21.224 Y32.371
X-21.187 Y32.422
X-21.15 Y32.473
X-21.114 Y32.524
X-21.079 Y32.576
X-21.044 Y32.629
X-21.01 Y32.682
X-20.976 Y32.735
X-20.943 Y32.789
X-20.911 Y32.843
X-20.88 Y32.897
X-20.849 Y32.952
X-20.819 Y33.007
X-20.79 Y33.063
X-20.761 Y33.119
X-20.733 Y33.175
X-20.706 Y33.232
X-20.679 Y33.289
X-20.653 Y33.346
X-20.628 Y33.404
X-20.604 Y33.462
X-20.58 Y33.52
X-20.557 Y33.578
X-20.535 Y33.637
X-20.513 Y33.696
X-20.492 Y33.756
X-20.472 Y33.815
X-20.453 Y33.875
X-20.435 Y33.935
X-20.417 Y33.996
X-20.4 Y34.056
X-20.384 Y34.117
X-20.368 Y34.178
X-20.353 Y34.239
X-20.339 Y34.301
X-20.326 Y34.362
X-20.314 Y34.424
X-20.302 Y34.486
X-20.291 Y34.547
X-20.281 Y34.61
X-20.272 Y34.672
X-20.264 Y34.734
X-20.256 Y34.797
X-20.249 Y34.859
X-20.243 Y34.922
X-20.237 Y34.984
X-20.233 Y35.047
X-20.229 Y35.11
X-20.226 Y35.173
X-20.224 Y35.236
X-20.223 Y35.298
X-20.222 Y35.361
Y35.424
X-20.223 Y35.487
X-20.225 Y35.55
X-20.227 Y35.613
X-20.231 Y35.676
X-20.235 Y35.738
X-20.24 Y35.801
X-20.246 Y35.864
X-20.252 Y35.926
X-20.26 Y35.989
X-20.268 Y36.051
X-20.277 Y36.113
X-20.286 Y36.176
X-20.297 Y36.238
X-20.308 Y36.299
X-20.32 Y36.361
X-20.333 Y36.423
X-20.346 Y36.484
X-20.361 Y36.545
X-20.376 Y36.607
X-20.392 Y36.667
X-20.409 Y36.728
X-20.426 Y36.788
X-20.444 Y36.849
X-20.463 Y36.909
X-20.483 Y36.968
X-20.503 Y37.028
X-20.525 Y37.087
X-20.547 Y37.146
X-20.569 Y37.205
X-20.593 Y37.263
X-20.617 Y37.321
X-20.642 Y37.379
X-20.668 Y37.436
X-20.694 Y37.493
X-20.721 Y37.55
X-20.749 Y37.606
X-20.777 Y37.662
X-20.807 Y37.718
X-20.837 Y37.773
X-20.867 Y37.828
X-20.899 Y37.883
X-20.931 Y37.937
X-20.963 Y37.991
X-20.997 Y38.044
X-21.031 Y38.097
X-21.066 Y38.149
X-21.101 Y38.201
X-21.137 Y38.253
X-21.174 Y38.304
X-21.211 Y38.355
X-21.249 Y38.405
X-21.288 Y38.455
X-21.327 Y38.504
X-21.367 Y38.552
X-21.407 Y38.601
X-21.448 Y38.648
X-21.49 Y38.695
X-21.532 Y38.742
X-21.575 Y38.788
X-21.618 Y38.833
X-21.662 Y38.878
X-21.707 Y38.923
X-21.752 Y38.967
X-21.798 Y39.01
X-21.844 Y39.053
X-21.89 Y39.095
X-21.938 Y39.136
X-21.986 Y39.177
X-22.034 Y39.218
X-22.083 Y39.257
X-22.132 Y39.296
X-22.182 Y39.335
X-22.232 Y39.373
X-22.283 Y39.41
X-22.334 Y39.447
X-22.385 Y39.482
X-22.437 Y39.518
X-22.49 Y39.552
X-22.543 Y39.586
X-22.596 Y39.62
X-22.65 Y39.652
X-22.704 Y39.684
X-22.759 Y39.716
X-22.814 Y39.746
X-22.869 Y39.776
X-22.925 Y39.805
X-22.981 Y39.834
X-23.037 Y39.862
X-23.094 Y39.889
X-23.151 Y39.915
X-23.208 Y39.941
X-23.266 Y39.966
X-23.324 Y39.99
X-23.383 Y40.013
X-23.441 Y40.036
X-23.5 Y40.058
X-23.559 Y40.08
X-23.619 Y40.1
X-23.678 Y40.12
X-23.738 Y40.139
X-23.799 Y40.157
X-23.859 Y40.175
X-23.92 Y40.192
X-23.98 Y40.208
X-24.041 Y40.223
X-24.103 Y40.238
X-24.164 Y40.252
X-24.225 Y40.265
X-24.287 Y40.277
X-24.349 Y40.289
X-24.411 Y40.3
X-24.473 Y40.31
X-24.535 Y40.319
X-24.598 Y40.327
X-24.66 Y40.335
X-24.722 Y40.342
X-24.785 Y40.348
X-24.848 Y40.353
X-24.91 Y40.358
X-24.973 Y40.362
X-25.036 Y40.365
X-25.099 Y40.367
X-25.162 Y40.369
X-25.225 Y40.37
X-25.288
X-25.351 Y40.369
X-25.413 Y40.367
X-25.476 Y40.365
X-25.539 Y40.362
X-25.602 Y40.358
X-25.665 Y40.353
X-25.727 Y40.348
X-25.79 Y40.342
X-25.852 Y40.335
X-25.915 Y40.327
X-25.977 Y40.318
X-26.039 Y40.309
X-26.101 Y40.299
X-26.163 Y40.288
X-26.225 Y40.277
X-26.287 Y40.265
X-26.348 Y40.252
X-26.41 Y40.238
X-26.471 Y40.223
X-26.532 Y40.208
X-26.593 Y40.192
X-26.654 Y40.175
X-26.714 Y40.158
X-26.774 Y40.14
X-26.834 Y40.121
X-26.894 Y40.101
X-26.953 Y40.081
X-27.013 Y40.06
X-27.072 Y40.038
X-27.13 Y40.015
X-27.189 Y39.992
X-27.247 Y39.968
X-27.305 Y39.943
X-27.362 Y39.918
X-27.42 Y39.892
X-27.476 Y39.865
X-27.533 Y39.837
X-27.589 Y39.809
X-27.645 Y39.781
X-27.701 Y39.751
X-27.756 Y39.721
X-27.811 Y39.69
X-27.865 Y39.659
X-27.919 Y39.626
X-27.973 Y39.594
X-28.026 Y39.56
X-28.079 Y39.526
X-28.132 Y39.491
X-28.184 Y39.456
X-28.235 Y39.42
X-28.286 Y39.383
X-28.337 Y39.346
X-28.387 Y39.308
X-28.437 Y39.27
X-28.486 Y39.231
X-28.535 Y39.191
X-28.584 Y39.151
X-28.631 Y39.11
X-28.679 Y39.069
X-28.726 Y39.027
X-28.772 Y38.984
X-28.818 Y38.941
X-28.863 Y38.898
X-28.908 Y38.854
X-28.952 Y38.809
X-28.996 Y38.764
X-29.039 Y38.718
X-29.082 Y38.672
X-29.124 Y38.625
X-29.166 Y38.578
X-29.207 Y38.53
X-29.247 Y38.482
X-29.287 Y38.433
X-29.326 Y38.384
X-29.364 Y38.334
X-29.402 Y38.284
X-29.44 Y38.234
X-29.477 Y38.183
X-29.513 Y38.131
X-29.548 Y38.079
X-29.583 Y38.027
X-29.618 Y37.974
X-29.651 Y37.921
X-29.684 Y37.867
X-29.717 Y37.814
X-29.749 Y37.759
X-29.78 Y37.705
X-29.81 Y37.65
X-29.84 Y37.594
X-29.869 Y37.538
X-29.897 Y37.482
X-29.925 Y37.426
X-29.952 Y37.369
X-29.979 Y37.312
X-30.004 Y37.255
X-30.029 Y37.197
X-30.054 Y37.139
X-30.077 Y37.081
X-30.1 Y37.022
X-30.122 Y36.963
X-30.144 Y36.904
X-30.165 Y36.845
X-30.185 Y36.785
X-30.204 Y36.725
X-30.223 Y36.665
X-30.241 Y36.605
X-30.258 Y36.544
X-30.275 Y36.484
X-30.291 Y36.423
X-30.306 Y36.362
X-30.32 Y36.301
X-30.334 Y36.239
X-30.347 Y36.178
X-30.359 Y36.116
X-30.37 Y36.054
X-30.381 Y35.992
X-30.391 Y35.93
X-30.4 Y35.868
X-30.408 Y35.805
X-30.416 Y35.743
X-30.423 Y35.68
X-30.429 Y35.618
X-30.435 Y35.555
X-30.439 Y35.492
X-30.443 Y35.43
X-30.447 Y35.367
X-30.449 Y35.304
X-30.451 Y35.241
X-30.452 Y35.178
Y35.115
Y35.052
X-30.45 Y34.99
X-30.448 Y34.927
X-30.446 Y34.864
X-30.442 Y34.801
X-30.438 Y34.738
X-30.433 Y34.676
X-30.427 Y34.613
X-30.42 Y34.55
X-30.413 Y34.488
X-30.405 Y34.426
X-30.397 Y34.363
X-30.387 Y34.301
X-30.377 Y34.239
X-30.366 Y34.177
X-30.354 Y34.115
X-30.342 Y34.054
X-30.329 Y33.992
X-30.315 Y33.931
X-30.3 Y33.87
X-30.285 Y33.809
X-30.269 Y33.748
X-30.252 Y33.687
X-30.235 Y33.627
X-30.216 Y33.566
X-30.197 Y33.506
X-30.178 Y33.447
X-30.157 Y33.387
X-30.136 Y33.328
X-30.115 Y33.269
X-30.092 Y33.21
X-30.069 Y33.152
X-30.045 Y33.093
X-30.021 Y33.036
X-29.995 Y32.978
X-29.97 Y32.921
X-29.943 Y32.864
X-29.916 Y32.807
X-29.888 Y32.751
X-29.859 Y32.695
X-29.83 Y32.639
X-29.8 Y32.583
X-29.77 Y32.529
X-29.738 Y32.474
X-29.706 Y32.42
X-29.674 Y32.366
X-29.641 Y32.312
X-29.607 Y32.259
X-29.573 Y32.207
X-29.538 Y32.154
X-29.502 Y32.103
X-29.466 Y32.051
X-29.429 Y32.
X-29.391 Y31.95
X-29.353 Y31.9
X-29.315 Y31.85
X-29.275 Y31.801
X-29.236 Y31.752
X-29.195 Y31.704
X-29.154 Y31.656
X-29.113 Y31.609
X-29.071 Y31.562
X-29.028 Y31.516
X-28.985 Y31.47
X-28.941 Y31.425
X-28.897 Y31.38
X-28.852 Y31.336
X-28.807 Y31.293
X-28.761 Y31.249
X-28.714 Y31.207
X-28.668 Y31.165
X-28.62 Y31.123
X-28.573 Y31.083
X-28.524 Y31.042
X-28.475 Y31.003
X-28.426 Y30.963
X-28.377 Y30.925
X-28.326 Y30.887
X-28.276 Y30.85
X-28.225 Y30.813
X-28.173 Y30.777
X-28.121 Y30.741
X-28.069 Y30.706
X-28.016 Y30.672
X-27.963 Y30.638
X-27.91 Y30.605
X-27.856 Y30.573
X-27.801 Y30.541
X-27.747 Y30.51
X-27.692 Y30.479
X-27.636 Y30.45
X-27.581 Y30.42
X-27.525 Y30.392
X-27.468 Y30.364
X-27.411 Y30.337
X-27.354 Y30.311
X-27.297 Y30.285
X-27.239 Y30.26
X-27.181 Y30.235
X-27.123 Y30.211
X-27.065 Y30.188
X-27.006 Y30.166
X-26.947 Y30.144
X-26.887 Y30.123
X-26.828 Y30.103
X-26.768 Y30.084
X-26.708 Y30.065
X-26.648 Y30.047
X-26.587 Y30.029
X-26.527 Y30.013
X-26.466 Y29.997
X-26.405 Y29.981
X-26.344 Y29.967
X-26.282 Y29.953
X-26.221 Y29.94
X-26.159 Y29.928
X-26.097 Y29.916
X-26.035 Y29.905
X-25.973 Y29.895
X-25.911 Y29.886
X-25.849 Y29.877
X-25.786 Y29.869
X-25.724 Y29.862
X-25.661 Y29.855
X-25.599 Y29.85
X-25.536 Y29.845
X-25.473 Y29.84
X-25.41 Y29.837
X-25.348 Y29.834
X-25.285 Y29.832
X-25.222 Y29.831
X-25.159 Y29.83
X-25.096 Y29.831
X-25.033
X-24.97 Y29.833
X-24.907 Y29.836
X-24.845 Y29.839
X-24.782 Y29.843
X-24.719 Y29.847
X-24.656 Y29.853
X-24.594 Y29.859
X-24.531 Y29.866
X-24.469 Y29.873
X-24.407 Y29.882
X-24.344 Y29.891
X-24.282 Y29.901
X-24.22 Y29.911
X-24.158 Y29.922
X-24.097 Y29.934
X-24.035 Y29.947
X-23.973 Y29.96
X-23.912 Y29.974
X-23.851 Y29.989
X-23.79 Y30.005
X-23.729 Y30.021
X-23.669 Y30.038
X-23.608 Y30.056
X-23.548 Y30.074
X-23.488 Y30.093
X-23.429 Y30.113
X-23.369 Y30.133
X-23.31 Y30.154
X-23.251 Y30.176
X-23.192 Y30.199
X-23.134 Y30.222
X-23.075 Y30.246
X-23.017 Y30.27
X-22.96 Y30.296
X-22.903 Y30.321
X-22.845 Y30.348
X-22.789 Y30.375
X-22.732 Y30.403
X-22.676 Y30.431
X-22.62 Y30.46
X-22.565 Y30.49
X-22.51 Y30.521
X-22.455 Y30.552
X-22.401 Y30.583
X-22.347 Y30.615
X-22.293 Y30.648
X-22.24 Y30.682
X-22.187 Y30.716
X-22.135 Y30.751
X-22.083 Y30.786
X-22.031 Y30.822
X-21.98 Y30.858
X-21.929 Y30.895
X-21.878 Y30.933
X-21.828 Y30.971
X-21.779 Y31.01
X-21.73 Y31.049
X-21.681 Y31.089
X-21.633 Y31.129
X-21.585 Y31.17
X-21.538 Y31.212
X-21.491 Y31.254
X-21.445 Y31.296
X-21.399 Y31.34
X-21.354 Y31.383
X-21.309 Y31.427
X-21.264 Y31.472
X-21.221 Y31.517
X-21.177 Y31.563
X-21.135 Y31.609
X-21.092 Y31.655
X-21.051 Y31.702
X-21.009 Y31.75
X-20.969 Y31.798
X-20.928 Y31.846
X-20.889 Y31.895
X-20.85 Y31.944
X-20.811 Y31.994
X-20.773 Y32.044
X-20.736 Y32.095
X-20.699 Y32.146
X-20.663 Y32.197
X-20.628 Y32.249
X-20.593 Y32.302
X-20.558 Y32.354
X-20.524 Y32.407
X-20.491 Y32.461
X-20.458 Y32.514
X-20.426 Y32.569
X-20.395 Y32.623
X-20.364 Y32.678
X-20.334 Y32.733
X-20.304 Y32.789
X-20.275 Y32.844
X-20.247 Y32.901
X-20.219 Y32.957
X-20.192 Y33.014
X-20.166 Y33.071
X-20.14 Y33.128
X-20.115 Y33.186
X-20.091 Y33.244
X-20.067 Y33.302
X-20.044 Y33.361
X-20.021 Y33.419
X-20. Y33.478
X-19.978 Y33.538
X-19.958 Y33.597
X-19.938 Y33.657
X-19.919 Y33.717
X-19.901 Y33.777
X-19.883 Y33.837
X-19.866 Y33.898
X-19.849 Y33.959
X-19.834 Y34.019
X-19.819 Y34.081
X-19.804 Y34.142
X-19.791 Y34.203
X-19.778 Y34.265
X-19.765 Y34.326
X-19.754 Y34.388
X-19.743 Y34.45
X-19.733 Y34.512
X-19.723 Y34.574
X-19.715 Y34.637
X-19.707 Y34.699
X-19.699 Y34.762
X-19.693 Y34.824
X-19.687 Y34.887
X-19.682 Y34.949
X-19.677 Y35.012
X-19.673 Y35.075
X-19.67 Y35.138
X-19.668 Y35.201
X-19.666 Y35.264
X-19.665 Y35.326
Y35.389
X-19.666 Y35.452
X-19.667 Y35.515
X-19.669 Y35.578
X-19.671 Y35.641
X-19.675 Y35.704
X-19.679 Y35.766
X-19.684 Y35.829
X-19.689 Y35.892
X-19.695 Y35.954
X-19.702 Y36.017
X-19.71 Y36.079
X-19.718 Y36.142
X-19.727 Y36.204
X-19.737 Y36.266
X-19.747 Y36.328
X-19.759 Y36.39
X-19.77 Y36.452
X-19.783 Y36.513
X-19.796 Y36.575
X-19.81 Y36.636
X-19.825 Y36.697
X-19.84 Y36.758
X-19.856 Y36.819
X-19.873 Y36.88
X-19.89 Y36.94
X-19.909 Y37.001
X-19.927 Y37.061
X-19.947 Y37.12
X-19.967 Y37.18
X-19.988 Y37.239
X-20.009 Y37.298
X-20.031 Y37.357
X-20.054 Y37.416
X-20.078 Y37.474
X-20.102 Y37.532
X-20.127 Y37.59
X-20.152 Y37.648
X-20.178 Y37.705
X-20.205 Y37.762
X-20.233 Y37.818
X-20.261 Y37.875
X-20.29 Y37.931
X-20.319 Y37.986
X-20.349 Y38.041
X-20.379 Y38.096
X-20.411 Y38.151
X-20.443 Y38.205
X-20.475 Y38.259
X-20.508 Y38.313
X-20.542 Y38.366
X-20.576 Y38.418
X-20.611 Y38.471
X-20.646 Y38.523
X-20.682 Y38.574
X-20.719 Y38.625
X-20.756 Y38.676
X-20.794 Y38.726
X-20.833 Y38.776
X-20.871 Y38.826
X-20.911 Y38.875
X-20.951 Y38.923
X-20.992 Y38.971
X-21.033 Y39.019
X-21.074 Y39.066
X-21.117 Y39.112
X-21.159 Y39.159
X-21.203 Y39.204
X-21.246 Y39.25
X-21.291 Y39.294
X-21.335 Y39.338
X-21.381 Y39.382
X-21.426 Y39.425
X-21.473 Y39.468
X-21.519 Y39.51
X-21.567 Y39.551
X-21.614 Y39.593
X-21.662 Y39.633
X-21.711 Y39.673
X-21.76 Y39.712
X-21.809 Y39.751
X-21.859 Y39.789
X-21.91 Y39.827
X-21.961 Y39.864
X-22.012 Y39.901
X-22.063 Y39.937
X-22.115 Y39.972
X-22.168 Y40.007
X-22.22 Y40.041
X-22.274 Y40.075
X-22.327 Y40.108
X-22.381 Y40.14
X-22.435 Y40.172
X-22.49 Y40.203
X-22.545 Y40.234
X-22.6 Y40.264
X-22.656 Y40.293
X-22.712 Y40.322
X-22.768 Y40.35
X-22.825 Y40.377
X-22.882 Y40.404
X-22.939 Y40.43
X-22.996 Y40.456
X-23.054 Y40.481
X-23.112 Y40.505
X-23.17 Y40.529
X-23.229 Y40.552
X-23.288 Y40.574
X-23.347 Y40.595
X-23.406 Y40.616
X-23.466 Y40.637
X-23.526 Y40.656
X-23.586 Y40.675
X-23.646 Y40.693
X-23.706 Y40.711
X-23.767 Y40.728
X-23.827 Y40.744
X-23.888 Y40.76
X-23.95 Y40.775
X-24.011 Y40.789
X-24.072 Y40.802
X-24.134 Y40.815
X-24.196 Y40.827
X-24.257 Y40.839
X-24.319 Y40.849
X-24.381 Y40.859
X-24.444 Y40.869
X-24.506 Y40.877
X-24.568 Y40.885
X-24.631 Y40.893
X-24.693 Y40.899
X-24.756 Y40.905
X-24.819 Y40.91
X-24.881 Y40.915
X-24.944 Y40.919
X-25.007 Y40.922
X-25.07 Y40.924
X-25.133 Y40.926
X-25.196 Y40.927
X-25.259
X-25.321
X-25.384 Y40.926
X-25.447 Y40.924
X-25.51 Y40.922
X-25.573 Y40.918
X-25.636 Y40.915
X-25.698 Y40.91
X-25.761 Y40.905
X-25.824 Y40.899
X-25.886 Y40.892
X-25.949 Y40.885
X-26.011 Y40.877
X-26.073 Y40.868
X-26.136 Y40.859
X-26.198 Y40.849
X-26.26 Y40.838
X-26.322 Y40.827
X-26.383 Y40.814
X-26.445 Y40.802
X-26.506 Y40.788
X-26.568 Y40.774
X-26.629 Y40.759
X-26.69 Y40.744
X-26.75 Y40.727
X-26.811 Y40.711
X-26.871 Y40.693
X-26.932 Y40.675
X-26.992 Y40.656
X-27.051 Y40.637
X-27.111 Y40.617
X-27.17 Y40.596
X-27.23 Y40.574
X-27.288 Y40.552
X-27.347 Y40.53
X-27.406 Y40.506
X-27.464 Y40.482
X-27.522 Y40.457
X-27.579 Y40.432
X-27.636 Y40.406
X-27.693 Y40.38
X-27.75 Y40.353
X-27.807 Y40.325
X-27.863 Y40.296
X-27.919 Y40.267
X-27.974 Y40.238
X-28.029 Y40.208
X-28.084 Y40.177
X-28.139 Y40.145
X-28.193 Y40.113
X-28.246 Y40.081
X-28.3 Y40.048
X-28.353 Y40.014
X-28.406 Y39.979
X-28.458 Y39.944
X-28.51 Y39.909
X-28.561 Y39.873
X-28.613 Y39.836
X-28.663 Y39.799
X-28.714 Y39.761
X-28.764 Y39.723
X-28.813 Y39.684
X-28.862 Y39.645
X-28.911 Y39.605
X-28.959 Y39.565
X-29.007 Y39.524
X-29.054 Y39.482
X-29.101 Y39.44
X-29.147 Y39.398
X-29.193 Y39.355
X-29.239 Y39.312
X-29.284 Y39.268
X-29.328 Y39.223
X-29.372 Y39.178
X-29.416 Y39.133
X-29.459 Y39.087
X-29.501 Y39.041
X-29.543 Y38.994
X-29.585 Y38.947
X-29.626 Y38.899
X-29.667 Y38.851
X-29.706 Y38.802
X-29.746 Y38.753
X-29.785 Y38.704
X-29.823 Y38.654
X-29.861 Y38.604
X-29.898 Y38.553
X-29.935 Y38.502
X-29.971 Y38.45
X-30.007 Y38.399
X-30.042 Y38.346
X-30.076 Y38.294
X-30.11 Y38.241
X-30.143 Y38.187
X-30.176 Y38.134
X-30.208 Y38.08
X-30.24 Y38.025
X-30.271 Y37.97
X-30.301 Y37.915
X-30.331 Y37.86
X-30.36 Y37.804
X-30.389 Y37.748
X-30.417 Y37.692
X-30.444 Y37.635
X-30.471 Y37.578
X-30.497 Y37.521
X-30.523 Y37.464
X-30.548 Y37.406
X-30.572 Y37.348
X-30.595 Y37.29
X-30.618 Y37.231
X-30.641 Y37.172
X-30.663 Y37.113
X-30.684 Y37.054
X-30.704 Y36.994
X-30.724 Y36.935
X-30.743 Y36.875
X-30.762 Y36.815
X-30.779 Y36.754
X-30.797 Y36.694
X-30.813 Y36.633
X-30.829 Y36.572
X-30.844 Y36.511
X-30.859 Y36.45
X-30.873 Y36.389
X-30.886 Y36.327
X-30.899 Y36.266
X-30.911 Y36.204
X-30.922 Y36.142
X-30.933 Y36.08
X-30.943 Y36.018
X-30.952 Y35.956
X-30.96 Y35.894
X-30.968 Y35.831
X-30.976 Y35.769
X-30.982 Y35.706
X-30.988 Y35.643
X-30.993 Y35.581
X-30.998 Y35.518
X-31.002 Y35.455
X-31.005 Y35.392
X-31.007 Y35.33
X-31.009 Y35.267
X-31.01 Y35.204
X-31.011 Y35.141
Y35.078
X-31.01 Y35.015
X-31.008 Y34.952
X-31.006 Y34.889
X-31.003 Y34.827
X-31. Y34.764
X-30.995 Y34.701
X-30.99 Y34.638
X-30.985 Y34.576
X-30.979 Y34.513
X-30.972 Y34.451
X-30.964 Y34.388
X-30.956 Y34.326
X-30.947 Y34.263
X-30.937 Y34.201
X-30.927 Y34.139
X-30.916 Y34.077
X-30.904 Y34.016
X-30.892 Y33.954
X-30.879 Y33.892
X-30.865 Y33.831
X-30.851 Y33.77
X-30.836 Y33.709
X-30.821 Y33.648
X-30.804 Y33.587
X-30.787 Y33.526
X-30.77 Y33.466
X-30.752 Y33.406
X-30.733 Y33.346
X-30.713 Y33.286
X-30.693 Y33.226
X-30.672 Y33.167
X-30.651 Y33.108
X-30.629 Y33.049
X-30.606 Y32.99
X-30.583 Y32.932
X-30.559 Y32.874
X-30.535 Y32.816
X-30.509 Y32.758
X-30.484 Y32.701
X-30.457 Y32.643
X-30.43 Y32.587
X-30.403 Y32.53
X-30.374 Y32.474
X-30.346 Y32.418
X-30.316 Y32.362
X-30.286 Y32.307
X-30.255 Y32.252
X-30.224 Y32.198
X-30.192 Y32.143
X-30.16 Y32.089
X-30.127 Y32.036
X-30.094 Y31.983
X-30.059 Y31.93
X-30.025 Y31.877
X-29.99 Y31.825
X-29.954 Y31.773
X-29.917 Y31.722
X-29.881 Y31.671
X-29.843 Y31.621
X-29.805 Y31.57
X-29.767 Y31.521
X-29.728 Y31.471
X-29.688 Y31.422
X-29.648 Y31.374
X-29.607 Y31.326
X-29.566 Y31.278
X-29.525 Y31.231
X-29.483 Y31.184
X-29.44 Y31.138
X-29.397 Y31.092
X-29.353 Y31.047
X-29.309 Y31.002
X-29.265 Y30.958
X-29.22 Y30.914
X-29.174 Y30.871
X-29.128 Y30.828
X-29.082 Y30.785
X-29.035 Y30.743
X-28.987 Y30.702
X-28.94 Y30.661
X-28.891 Y30.621
X-28.843 Y30.581
X-28.794 Y30.541
X-28.744 Y30.502
X-28.694 Y30.464
X-28.644 Y30.426
X-28.593 Y30.389
X-28.542 Y30.353
X-28.491 Y30.316
X-28.439 Y30.281
X-28.386 Y30.246
X-28.334 Y30.211
X-28.281 Y30.178
X-28.227 Y30.144
X-28.174 Y30.112
X-28.12 Y30.079
X-28.065 Y30.048
X-28.011 Y30.017
X-27.955 Y29.986
X-27.9 Y29.957
X-27.844 Y29.927
X-27.788 Y29.899
X-27.732 Y29.871
X-27.675 Y29.843
X-27.619 Y29.817
X-27.561 Y29.791
X-27.504 Y29.765
X-27.446 Y29.74
X-27.388 Y29.716
X-27.33 Y29.692
X-27.271 Y29.669
X-27.213 Y29.646
X-27.154 Y29.625
X-27.094 Y29.603
X-27.035 Y29.583
X-26.975 Y29.563
X-26.915 Y29.544
X-26.855 Y29.525
X-26.795 Y29.507
X-26.735 Y29.49
X-26.674 Y29.473
X-26.613 Y29.457
X-26.552 Y29.442
X-26.491 Y29.427
X-26.43 Y29.413
X-26.368 Y29.4
X-26.307 Y29.387
X-26.245 Y29.375
X-26.183 Y29.363
X-26.121 Y29.353
X-26.059 Y29.342
X-25.997 Y29.333
X-25.934 Y29.324
X-25.872 Y29.316
X-25.81 Y29.309
X-25.747 Y29.302
X-25.684 Y29.296
X-25.622 Y29.29
X-25.559 Y29.286
X-25.496 Y29.282
X-25.433 Y29.278
X-25.371 Y29.275
X-25.308 Y29.273
X-25.245 Y29.272
X-25.182 Y29.271
X-25.119
X-25.056 Y29.272
X-24.993 Y29.273
X-24.93 Y29.275
X-24.868 Y29.278
X-24.805 Y29.281
X-24.742 Y29.285
X-24.679 Y29.29
X-24.617 Y29.295
X-24.554 Y29.301
X-24.491 Y29.307
X-24.429 Y29.315
X-24.367 Y29.323
X-24.304 Y29.331
X-24.242 Y29.341
X-24.18 Y29.35
X-24.118 Y29.361
X-24.056 Y29.372
X-23.994 Y29.384
X-23.933 Y29.397
X-23.871 Y29.41
X-23.81 Y29.424
X-23.749 Y29.438
X-23.688 Y29.453
X-23.627 Y29.469
X-23.566 Y29.486
X-23.505 Y29.503
X-23.445 Y29.52
X-23.385 Y29.539
X-23.325 Y29.558
X-23.265 Y29.577
X-23.206 Y29.598
X-23.146 Y29.618
X-23.087 Y29.64
X-23.028 Y29.662
X-22.97 Y29.685
X-22.911 Y29.708
X-22.853 Y29.732
X-22.795 Y29.757
X-22.737 Y29.782
X-22.68 Y29.807
X-22.623 Y29.834
X-22.566 Y29.861
X-22.51 Y29.888
X-22.453 Y29.916
X-22.397 Y29.945
X-22.342 Y29.974
X-22.286 Y30.004
X-22.231 Y30.035
X-22.177 Y30.066
X-22.122 Y30.097
X-22.068 Y30.129
X-22.014 Y30.162
X-21.961 Y30.195
X-21.908 Y30.229
X-21.855 Y30.264
X-21.803 Y30.299
X-21.751 Y30.334
X-21.699 Y30.37
X-21.648 Y30.406
X-21.597 Y30.444
X-21.547 Y30.481
X-21.497 Y30.519
X-21.447 Y30.558
X-21.398 Y30.597
X-21.349 Y30.636
X-21.301 Y30.677
X-21.253 Y30.717
X-21.205 Y30.758
X-21.158 Y30.8
X-21.111 Y30.842
X-21.065 Y30.885
X-21.019 Y30.928
X-20.973 Y30.971
X-20.928 Y31.015
X-20.884 Y31.059
X-20.84 Y31.104
X-20.796 Y31.15
X-20.753 Y31.195
X-20.71 Y31.242
X-20.668 Y31.288
X-20.626 Y31.335
X-20.585 Y31.383
X-20.545 Y31.431
X-20.504 Y31.479
X-20.465 Y31.528
X-20.425 Y31.577
X-20.387 Y31.627
X-20.348 Y31.677
X-20.311 Y31.727
X-20.273 Y31.778
X-20.237 Y31.829
X-20.201 Y31.88
X-20.165 Y31.932
X-20.13 Y31.984
X-20.095 Y32.037
X-20.061 Y32.09
X-20.028 Y32.143
X-19.995 Y32.197
X-19.963 Y32.251
X-19.931 Y32.305
X-19.9 Y32.36
X-19.869 Y32.414
X-19.839 Y32.47
X-19.809 Y32.525
X-19.78 Y32.581
X-19.752 Y32.637
X-19.724 Y32.693
X-19.697 Y32.75
X-19.67 Y32.807
X-19.644 Y32.864
X-19.618 Y32.922
X-19.594 Y32.98
X-19.569 Y33.038
X-19.545 Y33.096
X-19.522 Y33.154
X-19.5 Y33.213
X-19.478 Y33.272
X-19.457 Y33.331
X-19.436 Y33.391
X-19.416 Y33.45
X-19.396 Y33.51
X-19.377 Y33.57
X-19.359 Y33.63
X-19.341 Y33.691
X-19.324 Y33.751
X-19.308 Y33.812
X-19.292 Y33.873
X-19.277 Y33.934
X-19.263 Y33.995
X-19.249 Y34.056
X-19.235 Y34.118
X-19.223 Y34.179
X-19.211 Y34.241
X-19.199 Y34.303
X-19.189 Y34.365
X-19.179 Y34.427
X-19.169 Y34.489
X-19.16 Y34.552
X-19.152 Y34.614
X-19.145 Y34.676
X-19.138 Y34.739
X-19.132 Y34.802
X-19.126 Y34.864
X-19.121 Y34.927
X-19.117 Y34.99
X-19.113 Y35.052
X-19.11 Y35.115
X-19.108 Y35.178
X-19.106 Y35.241
X-19.105 Y35.304
X-19.104 Y35.367
X-19.105 Y35.43
X-19.106 Y35.493
X-19.107 Y35.555
X-19.109 Y35.618
X-19.112 Y35.681
X-19.116 Y35.744
X-19.12 Y35.807
X-19.124 Y35.869
X-19.13 Y35.932
X-19.136 Y35.995
X-19.143 Y36.057
X-19.15 Y36.12
X-19.158 Y36.182
X-19.167 Y36.244
X-19.176 Y36.307
X-19.186 Y36.369
X-19.196 Y36.431
X-19.207 Y36.493
X-19.219 Y36.554
X-19.232 Y36.616
X-19.245 Y36.678
X-19.259 Y36.739
X-19.273 Y36.8
X-19.288 Y36.861
X-19.304 Y36.922
X-19.32 Y36.983
X-19.337 Y37.044
X-19.354 Y37.104
X-19.372 Y37.164
X-19.391 Y37.224
X-19.411 Y37.284
X-19.431 Y37.344
X-19.451 Y37.403
X-19.472 Y37.462
X-19.494 Y37.521
X-19.517 Y37.58
X-19.54 Y37.639
X-19.563 Y37.697
X-19.588 Y37.755
X-19.612 Y37.813
X-19.638 Y37.87
X-19.664 Y37.928
X-19.691 Y37.985
X-19.718 Y38.041
X-19.746 Y38.098
X-19.774 Y38.154
X-19.803 Y38.21
X-19.832 Y38.265
X-19.863 Y38.32
X-19.893 Y38.375
X-19.924 Y38.43
X-19.956 Y38.484
X-19.989 Y38.538
X-20.022 Y38.592
X-20.055 Y38.645
X-20.089 Y38.698
X-20.124 Y38.75
X-20.159 Y38.803
X-20.194 Y38.854
X-20.231 Y38.906
X-20.267 Y38.957
X-20.304 Y39.008
X-20.342 Y39.058
X-20.38 Y39.108
X-20.419 Y39.158
X-20.458 Y39.207
X-20.498 Y39.255
X-20.539 Y39.304
X-20.579 Y39.352
X-20.621 Y39.399
X-20.662 Y39.446
X-20.705 Y39.493
X-20.747 Y39.539
X-20.791 Y39.585
X-20.834 Y39.63
X-20.878 Y39.675
X-20.923 Y39.719
X-20.968 Y39.763
X-21.013 Y39.806
X-21.059 Y39.849
X-21.106 Y39.892
X-21.152 Y39.934
X-21.2 Y39.975
X-21.247 Y40.016
X-21.295 Y40.057
X-21.344 Y40.097
X-21.393 Y40.137
X-21.442 Y40.176
X-21.492 Y40.214
X-21.542 Y40.252
X-21.592 Y40.29
X-21.643 Y40.327
X-21.695 Y40.363
X-21.746 Y40.399
X-21.798 Y40.435
X-21.85 Y40.47
X-21.903 Y40.504
X-21.956 Y40.538
X-22.01 Y40.571
X-22.063 Y40.604
X-22.117 Y40.636
X-22.172 Y40.668
X-22.226 Y40.699
X-22.281 Y40.729
X-22.337 Y40.759
X-22.392 Y40.788
X-22.448 Y40.817
X-22.505 Y40.845
X-22.561 Y40.873
X-22.618 Y40.9
X-22.675 Y40.927
X-22.732 Y40.952
X-22.79 Y40.978
X-22.848 Y41.003
X-22.906 Y41.027
X-22.964 Y41.05
X-23.023 Y41.073
X-23.081 Y41.095
X-23.14 Y41.117
X-23.2 Y41.138
X-23.259 Y41.159
X-23.319 Y41.179
X-23.379 Y41.198
X-23.439 Y41.217
X-23.499 Y41.235
X-23.559 Y41.253
X-23.62 Y41.269
X-23.681 Y41.286
X-23.742 Y41.301
X-23.803 Y41.316
X-23.864 Y41.331
X-23.925 Y41.345
X-23.987 Y41.358
X-24.048 Y41.37
X-24.11 Y41.382
X-24.172 Y41.393
X-24.234 Y41.404
X-24.296 Y41.414
X-24.358 Y41.423
X-24.421 Y41.432
X-24.483 Y41.44
X-24.545 Y41.448
X-24.608 Y41.455
X-24.671 Y41.461
X-24.733 Y41.467
X-24.796 Y41.472
X-24.859 Y41.476
X-24.921 Y41.48
X-24.984 Y41.483
X-25.047 Y41.485
X-25.11 Y41.487
X-25.173 Y41.488
X-25.236 Y41.489
X-25.299 Y41.488
X-25.362
X-25.424 Y41.486
X-25.487 Y41.484
X-25.55 Y41.482
X-25.613 Y41.478
X-25.676 Y41.475
X-25.738 Y41.47
X-25.801 Y41.465
X-25.864 Y41.459
X-25.926 Y41.453
X-25.989 Y41.446
X-26.051 Y41.438
X-26.114 Y41.43
X-26.176 Y41.421
X-26.238 Y41.411
X-26.3 Y41.401
X-26.362 Y41.39
X-26.424 Y41.379
X-26.486 Y41.367
X-26.547 Y41.354
X-26.609 Y41.341
X-26.67 Y41.327
X-26.731 Y41.312
X-26.792 Y41.297
X-26.853 Y41.281
X-26.914 Y41.265
X-26.975 Y41.248
X-27.035 Y41.23
X-27.095 Y41.212
X-27.155 Y41.194
X-27.215 Y41.174
X-27.275 Y41.154
X-27.334 Y41.134
X-27.393 Y41.112
X-27.452 Y41.091
X-27.511 Y41.068
X-27.57 Y41.045
X-27.628 Y41.022
X-27.686 Y40.998
X-27.744 Y40.973
X-27.802 Y40.948
X-27.859 Y40.922
X-27.916 Y40.896
X-27.973 Y40.869
X-28.03 Y40.841
X-28.086 Y40.813
X-28.142 Y40.785
X-28.198 Y40.755
X-28.253 Y40.726
X-28.308 Y40.695
X-28.363 Y40.664
X-28.417 Y40.633
X-28.472 Y40.601
X-28.526 Y40.569
X-28.579 Y40.536
X-28.632 Y40.502
X-28.685 Y40.468
X-28.738 Y40.433
X-28.79 Y40.398
X-28.842 Y40.363
X-28.893 Y40.327
X-28.944 Y40.29
X-28.995 Y40.253
X-29.045 Y40.215
X-29.095 Y40.177
X-29.145 Y40.138
X-29.194 Y40.099
X-29.243 Y40.059
X-29.292 Y40.019
X-29.34 Y39.979
X-29.387 Y39.938
X-29.435 Y39.896
X-29.481 Y39.854
X-29.528 Y39.812
X-29.574 Y39.769
X-29.619 Y39.725
X-29.664 Y39.682
X-29.709 Y39.637
X-29.753 Y39.593
X-29.797 Y39.547
X-29.84 Y39.502
X-29.883 Y39.456
X-29.926 Y39.409
X-29.968 Y39.363
X-30.009 Y39.315
X-30.05 Y39.268
X-30.091 Y39.22
X-30.131 Y39.171
X-30.171 Y39.122
X-30.21 Y39.073
X-30.248 Y39.023
X-30.286 Y38.973
X-30.324 Y38.923
X-30.361 Y38.872
X-30.398 Y38.821
X-30.434 Y38.769
X-30.47 Y38.718
X-30.505 Y38.665
X-30.539 Y38.613
X-30.573 Y38.56
X-30.607 Y38.507
X-30.64 Y38.453
X-30.672 Y38.399
X-30.704 Y38.345
X-30.736 Y38.291
X-30.767 Y38.236
X-30.797 Y38.181
X-30.827 Y38.125
X-30.856 Y38.07
X-30.885 Y38.014
X-30.913 Y37.958
X-30.94 Y37.901
X-30.967 Y37.844
X-30.994 Y37.787
X-31.02 Y37.73
X-31.045 Y37.672
X-31.07 Y37.614
X-31.094 Y37.556
X-31.118 Y37.498
X-31.141 Y37.44
X-31.163 Y37.381
X-31.185 Y37.322
X-31.206 Y37.263
X-31.227 Y37.203
X-31.247 Y37.144
X-31.267 Y37.084
X-31.286 Y37.024
X-31.304 Y36.964
X-31.322 Y36.903
X-31.339 Y36.843
X-31.355 Y36.782
X-31.371 Y36.721
X-31.387 Y36.66
X-31.402 Y36.599
X-31.416 Y36.538
X-31.429 Y36.477
X-31.442 Y36.415
X-31.455 Y36.353
X-31.466 Y36.291
X-31.478 Y36.23
X-31.488 Y36.168
X-31.498 Y36.105
X-31.507 Y36.043
X-31.516 Y35.981
X-31.524 Y35.919
X-31.532 Y35.856
X-31.538 Y35.794
X-31.545 Y35.731
X-31.55 Y35.668
X-31.555 Y35.606
X-31.56 Y35.543
X-31.564 Y35.48
X-31.567 Y35.417
X-31.569 Y35.354
X-31.571 Y35.292
X-31.572 Y35.229
X-31.573 Y35.166
Y35.103
Y35.04
X-31.572 Y34.977
X-31.57 Y34.914
X-31.567 Y34.851
X-31.564 Y34.789
X-31.561 Y34.726
X-31.556 Y34.663
X-31.552 Y34.6
X-31.546 Y34.538
X-31.54 Y34.475
X-31.533 Y34.412
X-31.526 Y34.35
X-31.518 Y34.288
X-31.51 Y34.225
X-31.5 Y34.163
X-31.491 Y34.101
X-31.48 Y34.039
X-31.469 Y33.977
X-31.458 Y33.915
X-31.445 Y33.853
X-31.433 Y33.792
X-31.419 Y33.73
X-31.405 Y33.669
X-31.391 Y33.608
X-31.375 Y33.547
X-31.36 Y33.486
X-31.343 Y33.425
X-31.326 Y33.365
X-31.309 Y33.304
X-31.29 Y33.244
X-31.272 Y33.184
X-31.252 Y33.124
X-31.232 Y33.065
X-31.212 Y33.005
X-31.191 Y32.946
X-31.169 Y32.887
X-31.147 Y32.828
X-31.124 Y32.769
X-31.1 Y32.711
X-31.076 Y32.653
X-31.052 Y32.595
X-31.027 Y32.537
X-31.001 Y32.48
X-30.975 Y32.423
X-30.948 Y32.366
X-30.921 Y32.309
X-30.893 Y32.253
X-30.864 Y32.197
X-30.835 Y32.141
X-30.806 Y32.085
X-30.776 Y32.03
X-30.745 Y31.975
X-30.714 Y31.921
X-30.682 Y31.866
X-30.65 Y31.812
X-30.617 Y31.759
X-30.584 Y31.705
X-30.55 Y31.652
X-30.516 Y31.6
X-30.481 Y31.547
X-30.445 Y31.495
X-30.409 Y31.443
X-30.373 Y31.392
X-30.336 Y31.341
X-30.299 Y31.291
X-30.261 Y31.24
X-30.223 Y31.191
X-30.184 Y31.141
X-30.144 Y31.092
X-30.105 Y31.043
X-30.064 Y30.995
X-30.024 Y30.947
X-29.982 Y30.9
X-29.941 Y30.852
X-29.898 Y30.806
X-29.856 Y30.76
X-29.813 Y30.714
X-29.769 Y30.668
X-29.725 Y30.623
X-29.681 Y30.579
X-29.636 Y30.535
X-29.591 Y30.491
X-29.545 Y30.448
X-29.499 Y30.405
X-29.453 Y30.362
X-29.406 Y30.321
X-29.358 Y30.279
X-29.311 Y30.238
X-29.263 Y30.198
X-29.214 Y30.158
X-29.165 Y30.118
X-29.116 Y30.079
X-29.066 Y30.04
X-29.016 Y30.002
X-28.966 Y29.965
X-28.915 Y29.928
X-28.864 Y29.891
X-28.812 Y29.855
X-28.76 Y29.819
X-28.708 Y29.784
X-28.656 Y29.75
X-28.603 Y29.716
X-28.549 Y29.682
X-28.496 Y29.649
X-28.442 Y29.617
X-28.388 Y29.585
X-28.333 Y29.553
X-28.279 Y29.522
X-28.224 Y29.492
X-28.168 Y29.462
X-28.112 Y29.433
X-28.057 Y29.404
X-28. Y29.376
X-27.944 Y29.348
X-27.887 Y29.321
X-27.83 Y29.295
X-27.773 Y29.269
X-27.715 Y29.243
X-27.657 Y29.219
X-27.599 Y29.194
X-27.541 Y29.171
X-27.483 Y29.148
X-27.424 Y29.125
X-27.365 Y29.103
X-27.306 Y29.082
X-27.246 Y29.061
X-27.187 Y29.041
X-27.127 Y29.021
X-27.067 Y29.002
X-27.007 Y28.983
X-26.947 Y28.965
X-26.886 Y28.948
X-26.826 Y28.931
X-26.765 Y28.915
X-26.704 Y28.9
X-26.643 Y28.885
X-26.581 Y28.871
X-26.52 Y28.857
X-26.459 Y28.844
X-26.397 Y28.831
X-26.335 Y28.819
X-26.273 Y28.808
X-26.211 Y28.797
X-26.149 Y28.787
X-26.087 Y28.778
X-26.025 Y28.769
X-25.962 Y28.761
X-25.9 Y28.753
X-25.838 Y28.746
X-25.775 Y28.739
X-25.712 Y28.733
X-25.65 Y28.728
X-25.587 Y28.724
X-25.524 Y28.72
X-25.461 Y28.716
X-25.398 Y28.713
X-25.336 Y28.711
X-25.273 Y28.71
X-25.21 Y28.709
X-25.147 Y28.708
X-25.084 Y28.709
X-25.021 Y28.71
X-24.958 Y28.711
X-24.895 Y28.713
X-24.833 Y28.716
X-24.77 Y28.719
X-24.707 Y28.723
X-24.644 Y28.728
X-24.582 Y28.733
X-24.519 Y28.739
X-24.456 Y28.745
X-24.394 Y28.752
X-24.331 Y28.76
X-24.269 Y28.768
X-24.207 Y28.777
X-24.145 Y28.786
X-24.082 Y28.796
X-24.02 Y28.807
X-23.959 Y28.818
X-23.897 Y28.83
X-23.835 Y28.842
X-23.774 Y28.855
X-23.712 Y28.869
X-23.651 Y28.883
X-23.59 Y28.898
X-23.529 Y28.913
X-23.468 Y28.929
X-23.407 Y28.945
X-23.347 Y28.963
X-23.286 Y28.98
X-23.226 Y28.999
X-23.166 Y29.017
X-23.106 Y29.037
X-23.047 Y29.057
X-22.987 Y29.077
X-22.928 Y29.099
X-22.869 Y29.12
X-22.81 Y29.143
X-22.752 Y29.165
X-22.693 Y29.189
X-22.635 Y29.213
X-22.577 Y29.237
X-22.519 Y29.262
X-22.462 Y29.288
X-22.405 Y29.314
X-22.348 Y29.341
X-22.291 Y29.368
X-22.235 Y29.396
X-22.178 Y29.424
X-22.123 Y29.453
X-22.067 Y29.482
X-22.012 Y29.512
X-21.957 Y29.543
X-21.902 Y29.574
X-21.847 Y29.605
X-21.793 Y29.637
X-21.739 Y29.67
X-21.686 Y29.703
X-21.633 Y29.736
X-21.58 Y29.77
X-21.527 Y29.805
X-21.475 Y29.84
X-21.423 Y29.876
X-21.372 Y29.912
X-21.32 Y29.948
X-21.269 Y29.985
X-21.219 Y30.022
X-21.169 Y30.06
X-21.119 Y30.099
X-21.069 Y30.138
X-21.02 Y30.177
X-20.972 Y30.217
X-20.923 Y30.257
X-20.875 Y30.298
X-20.828 Y30.339
X-20.781 Y30.381
X-20.734 Y30.423
X-20.688 Y30.465
X-20.642 Y30.508
X-20.596 Y30.552
X-20.551 Y30.595
X-20.506 Y30.64
X-20.462 Y30.684
X-20.418 Y30.729
X-20.375 Y30.775
X-20.332 Y30.821
X-20.289 Y30.867
X-20.247 Y30.914
X-20.205 Y30.961
X-20.164 Y31.008
X-20.123 Y31.056
X-20.083 Y31.104
X-20.043 Y31.153
X-20.003 Y31.202
X-19.964 Y31.251
X-19.926 Y31.301
X-19.888 Y31.351
X-19.85 Y31.401
X-19.813 Y31.452
X-19.776 Y31.503
X-19.74 Y31.555
X-19.704 Y31.607
X-19.669 Y31.659
X-19.635 Y31.711
X-19.6 Y31.764
X-19.567 Y31.817
X-19.533 Y31.87
X-19.501 Y31.924
X-19.469 Y31.978
X-19.437 Y32.033
X-19.406 Y32.087
X-19.375 Y32.142
X-19.345 Y32.197
X-19.315 Y32.253
X-19.286 Y32.309
X-19.258 Y32.365
X-19.229 Y32.421
X-19.202 Y32.477
X-19.175 Y32.534
X-19.148 Y32.591
X-19.123 Y32.649
X-19.097 Y32.706
X-19.072 Y32.764
X-19.048 Y32.822
X-19.024 Y32.88
X-19.001 Y32.939
X-18.978 Y32.997
X-18.956 Y33.056
X-18.935 Y33.115
X-18.914 Y33.175
X-18.893 Y33.234
X-18.873 Y33.294
X-18.854 Y33.354
X-18.835 Y33.414
X-18.817 Y33.474
X-18.8 Y33.534
X-18.783 Y33.595
X-18.766 Y33.656
X-18.75 Y33.716
X-18.735 Y33.777
X-18.72 Y33.839
X-18.706 Y33.9
X-18.692 Y33.961
X-18.679 Y34.023
X-18.667 Y34.084
X-18.655 Y34.146
X-18.644 Y34.208
X-18.633 Y34.27
X-18.623 Y34.332
X-18.613 Y34.394
X-18.604 Y34.457
X-18.596 Y34.519
X-18.588 Y34.581
X-18.581 Y34.644
X-18.574 Y34.706
X-18.568 Y34.769
X-18.563 Y34.832
X-18.558 Y34.894
X-18.554 Y34.957
X-18.55 Y35.02
X-18.547 Y35.083
X-18.545 Y35.146
X-18.543 Y35.208
X-18.541 Y35.271
Y35.334
Y35.397
Y35.46
X-18.542 Y35.523
X-18.544 Y35.586
X-18.546 Y35.649
X-18.549 Y35.712
X-18.553 Y35.774
X-18.557 Y35.837
X-18.561 Y35.9
X-18.566 Y35.963
X-18.572 Y36.025
X-18.579 Y36.088
X-18.586 Y36.15
X-18.593 Y36.213
X-18.602 Y36.275
X-18.61 Y36.337
X-18.62 Y36.4
X-18.63 Y36.462
X-18.64 Y36.524
X-18.651 Y36.586
X-18.663 Y36.647
X-18.675 Y36.709
X-18.688 Y36.771
X-18.702 Y36.832
X-18.716 Y36.893
X-18.73 Y36.955
X-18.745 Y37.016
X-18.761 Y37.076
X-18.778 Y37.137
X-18.795 Y37.198
X-18.812 Y37.258
X-18.83 Y37.318
X-18.849 Y37.379
X-18.868 Y37.438
X-18.888 Y37.498
X-18.908 Y37.558
X-18.929 Y37.617
X-18.95 Y37.676
X-18.972 Y37.735
X-18.995 Y37.794
X-19.018 Y37.852
X-19.042 Y37.911
X-19.066 Y37.969
X-19.091 Y38.026
X-19.116 Y38.084
X-19.142 Y38.141
X-19.168 Y38.198
X-19.195 Y38.255
X-19.223 Y38.312
X-19.251 Y38.368
X-19.279 Y38.424
X-19.308 Y38.48
X-19.338 Y38.536
X-19.368 Y38.591
X-19.398 Y38.646
X-19.43 Y38.7
X-19.461 Y38.755
X-19.493 Y38.809
X-19.526 Y38.862
X-19.559 Y38.916
X-19.593 Y38.969
X-19.627 Y39.022
X-19.662 Y39.074
X-19.697 Y39.126
X-19.733 Y39.178
X-19.769 Y39.23
X-19.806 Y39.281
X-19.843 Y39.332
X-19.88 Y39.382
X-19.918 Y39.432
X-19.957 Y39.482
X-19.996 Y39.531
X-20.035 Y39.58
X-20.075 Y39.629
X-20.116 Y39.677
X-20.157 Y39.725
X-20.198 Y39.772
X-20.24 Y39.819
X-20.282 Y39.866
X-20.324 Y39.912
X-20.368 Y39.958
X-20.411 Y40.003
X-20.455 Y40.048
X-20.499 Y40.093
X-20.544 Y40.137
X-20.589 Y40.181
X-20.635 Y40.224
X-20.681 Y40.267
X-20.727 Y40.31
X-20.774 Y40.352
X-20.821 Y40.393
X-20.869 Y40.435
X-20.917 Y40.475
X-20.965 Y40.516
X-21.014 Y40.555
X-21.063 Y40.595
X-21.112 Y40.634
X-21.162 Y40.672
X-21.212 Y40.71
X-21.263 Y40.747
X-21.314 Y40.784
X-21.365 Y40.821
X-21.416 Y40.857
X-21.468 Y40.892
X-21.52 Y40.928
X-21.573 Y40.962
X-21.626 Y40.996
X-21.679 Y41.03
X-21.733 Y41.063
X-21.786 Y41.095
X-21.84 Y41.127
X-21.895 Y41.159
X-21.95 Y41.19
X-22.005 Y41.221
X-22.06 Y41.251
X-22.115 Y41.28
X-22.171 Y41.309
X-22.227 Y41.338
X-22.284 Y41.365
X-22.34 Y41.393
X-22.397 Y41.42
X-22.454 Y41.446
X-22.512 Y41.472
X-22.569 Y41.497
X-22.627 Y41.522
X-22.685 Y41.546
X-22.744 Y41.57
X-22.802 Y41.593
X-22.861 Y41.615
X-22.92 Y41.637
X-22.979 Y41.659
X-23.038 Y41.68
X-23.098 Y41.7
X-23.157 Y41.72
X-23.217 Y41.739
X-23.277 Y41.758
X-23.338 Y41.776
X-23.398 Y41.793
X-23.459 Y41.81
X-23.519 Y41.827
X-23.58 Y41.842
X-23.641 Y41.858
X-23.702 Y41.872
X-23.764 Y41.887
X-23.825 Y41.9
X-23.887 Y41.913
X-23.948 Y41.926
X-24.01 Y41.937
X-24.072 Y41.949
X-24.134 Y41.959
X-24.196 Y41.97
X-24.258 Y41.979
X-24.32 Y41.988
X-24.383 Y41.996
X-24.445 Y42.004
X-24.508 Y42.012
X-24.57 Y42.018
X-24.633 Y42.024
X-24.695 Y42.03
X-24.758 Y42.035
X-24.821 Y42.039
X-24.884 Y42.043
X-24.946 Y42.046
X-25.009 Y42.049
X-25.072 Y42.051
X-25.135 Y42.052
X-25.198 Y42.053
X-25.261
X-25.324
X-25.387 Y42.052
X-25.45 Y42.05
X-25.512 Y42.048
X-25.575 Y42.046
X-25.638 Y42.042
X-25.701 Y42.039
X-25.764 Y42.034
X-25.826 Y42.029
X-25.889 Y42.024
X-25.952 Y42.018
X-26.014 Y42.011
X-26.077 Y42.004
X-26.139 Y41.996
X-26.201 Y41.987
X-26.264 Y41.978
X-26.326 Y41.969
X-26.388 Y41.959
X-26.45 Y41.948
X-26.512 Y41.937
X-26.573 Y41.925
X-26.635 Y41.912
X-26.697 Y41.899
X-26.758 Y41.886
X-26.819 Y41.872
X-26.881 Y41.857
X-26.942 Y41.842
X-27.002 Y41.826
X-27.063 Y41.81
X-27.124 Y41.793
X-27.184 Y41.775
X-27.244 Y41.757
X-27.305 Y41.739
X-27.364 Y41.719
X-27.424 Y41.7
X-27.484 Y41.68
X-27.543 Y41.659
X-27.602 Y41.637
X-27.661 Y41.616
X-27.72 Y41.593
X-27.779 Y41.57
X-27.837 Y41.547
X-27.895 Y41.523
X-27.953 Y41.498
X-28.011 Y41.473
X-28.068 Y41.448
X-28.125 Y41.421
X-28.182 Y41.395
X-28.239 Y41.368
X-28.296 Y41.34
X-28.352 Y41.312
X-28.408 Y41.283
X-28.463 Y41.254
X-28.519 Y41.224
X-28.574 Y41.194
X-28.629 Y41.163
X-28.683 Y41.132
X-28.738 Y41.1
X-28.792 Y41.068
X-28.846 Y41.035
X-28.899 Y41.002
X-28.952 Y40.968
X-29.005 Y40.934
X-29.057 Y40.899
X-29.109 Y40.864
X-29.161 Y40.829
X-29.213 Y40.792
X-29.264 Y40.756
X-29.315 Y40.719
X-29.365 Y40.681
X-29.416 Y40.643
X-29.465 Y40.605
X-29.515 Y40.566
X-29.564 Y40.527
X-29.613 Y40.487
X-29.661 Y40.447
X-29.709 Y40.406
X-29.757 Y40.365
X-29.804 Y40.324
X-29.851 Y40.282
X-29.897 Y40.239
X-29.943 Y40.197
X-29.989 Y40.153
X-30.035 Y40.11
X-30.079 Y40.066
X-30.124 Y40.021
X-30.168 Y39.977
X-30.212 Y39.931
X-30.255 Y39.886
X-30.298 Y39.84
X-30.34 Y39.793
X-30.382 Y39.746
X-30.424 Y39.699
X-30.465 Y39.652
X-30.506 Y39.604
X-30.546 Y39.556
X-30.586 Y39.507
X-30.626 Y39.458
X-30.665 Y39.409
X-30.703 Y39.359
X-30.741 Y39.309
X-30.779 Y39.258
X-30.816 Y39.208
X-30.853 Y39.156
X-30.889 Y39.105
X-30.925 Y39.053
X-30.96 Y39.001
X-30.995 Y38.949
X-31.029 Y38.896
X-31.063 Y38.843
X-31.096 Y38.79
X-31.129 Y38.736
X-31.162 Y38.682
X-31.194 Y38.628
X-31.225 Y38.574
X-31.256 Y38.519
X-31.286 Y38.464
X-31.316 Y38.408
X-31.346 Y38.353
X-31.375 Y38.297
X-31.403 Y38.241
X-31.431 Y38.185
X-31.458 Y38.128
X-31.485 Y38.071
X-31.512 Y38.014
X-31.537 Y37.957
X-31.563 Y37.899
X-31.588 Y37.841
X-31.612 Y37.783
X-31.636 Y37.725
X-31.659 Y37.667
X-31.682 Y37.608
X-31.704 Y37.549
X-31.725 Y37.49
X-31.746 Y37.431
X-31.767 Y37.371
X-31.787 Y37.312
X-31.806 Y37.252
X-31.825 Y37.192
X-31.844 Y37.132
X-31.862 Y37.071
X-31.879 Y37.011
X-31.896 Y36.95
X-31.912 Y36.889
X-31.927 Y36.829
X-31.943 Y36.767
X-31.957 Y36.706
X-31.971 Y36.645
X-31.985 Y36.583
X-31.997 Y36.522
X-32.01 Y36.46
X-32.022 Y36.398
X-32.033 Y36.337
X-32.043 Y36.275
X-32.053 Y36.212
X-32.063 Y36.15
X-32.072 Y36.088
X-32.08 Y36.026
X-32.088 Y35.963
X-32.095 Y35.901
X-32.102 Y35.838
X-32.108 Y35.776
X-32.114 Y35.713
X-32.119 Y35.65
X-32.123 Y35.588
X-32.127 Y35.525
X-32.131 Y35.462
X-32.133 Y35.399
X-32.135 Y35.336
X-32.137 Y35.273
X-32.138 Y35.211
X-32.139 Y35.148
Y35.085
X-32.138 Y35.022
X-32.137 Y34.959
X-32.135 Y34.896
X-32.132 Y34.833
X-32.13 Y34.77
X-32.126 Y34.708
X-32.122 Y34.645
X-32.117 Y34.582
X-32.112 Y34.519
X-32.106 Y34.457
X-32.1 Y34.394
X-32.093 Y34.332
X-32.086 Y34.269
X-32.078 Y34.207
X-32.069 Y34.144
X-32.06 Y34.082
X-32.05 Y34.02
X-32.04 Y33.958
X-32.029 Y33.896
X-32.018 Y33.834
X-32.006 Y33.772
X-31.993 Y33.711
X-31.98 Y33.649
X-31.967 Y33.588
X-31.953 Y33.527
X-31.938 Y33.465
X-31.923 Y33.404
X-31.907 Y33.344
X-31.89 Y33.283
X-31.874 Y33.222
X-31.856 Y33.162
X-31.838 Y33.102
X-31.82 Y33.041
X-31.8 Y32.981
X-31.781 Y32.922
X-31.761 Y32.862
X-31.74 Y32.803
X-31.719 Y32.744
X-31.697 Y32.684
X-31.675 Y32.626
X-31.652 Y32.567
X-31.629 Y32.509
X-31.605 Y32.45
X-31.58 Y32.392
X-31.555 Y32.335
X-31.53 Y32.277
X-31.504 Y32.22
X-31.478 Y32.163
X-31.451 Y32.106
X-31.423 Y32.049
X-31.395 Y31.993
X-31.367 Y31.937
X-31.338 Y31.881
X-31.308 Y31.826
X-31.278 Y31.77
X-31.248 Y31.715
X-31.217 Y31.661
X-31.185 Y31.606
X-31.153 Y31.552
X-31.121 Y31.498
X-31.088 Y31.445
X-31.054 Y31.391
X-31.02 Y31.338
X-30.986 Y31.286
X-30.951 Y31.233
X-30.916 Y31.181
X-30.88 Y31.13
X-30.844 Y31.078
X-30.807 Y31.027
X-30.77 Y30.976
X-30.732 Y30.926
X-30.694 Y30.876
X-30.655 Y30.826
X-30.616 Y30.777
X-30.577 Y30.728
X-30.537 Y30.679
X-30.497 Y30.631
X-30.456 Y30.583
X-30.415 Y30.535
X-30.373 Y30.488
X-30.331 Y30.441
X-30.289 Y30.395
X-30.246 Y30.349
X-30.203 Y30.303
X-30.159 Y30.258
X-30.115 Y30.213
X-30.071 Y30.169
X-30.026 Y30.125
X-29.98 Y30.081
X-29.935 Y30.038
X-29.889 Y29.995
X-29.842 Y29.952
X-29.795 Y29.91
X-29.748 Y29.869
X-29.701 Y29.828
X-29.653 Y29.787
X-29.604 Y29.747
X-29.556 Y29.707
X-29.507 Y29.667
X-29.457 Y29.628
X-29.408 Y29.59
X-29.358 Y29.552
X-29.307 Y29.514
X-29.257 Y29.477
X-29.205 Y29.44
X-29.154 Y29.404
X-29.102 Y29.368
X-29.05 Y29.333
X-28.998 Y29.298
X-28.945 Y29.264
X-28.892 Y29.23
X-28.839 Y29.196
X-28.785 Y29.163
X-28.732 Y29.131
X-28.677 Y29.099
X-28.623 Y29.067
X-28.568 Y29.036
X-28.513 Y29.006
X-28.458 Y28.976
X-28.402 Y28.946
X-28.347 Y28.917
X-28.291 Y28.889
X-28.234 Y28.861
X-28.178 Y28.833
X-28.121 Y28.806
X-28.064 Y28.78
X-28.006 Y28.754
X-27.949 Y28.728
X-27.891 Y28.704
X-27.833 Y28.679
X-27.775 Y28.655
X-27.717 Y28.632
X-27.658 Y28.609
X-27.599 Y28.587
X-27.54 Y28.565
X-27.481 Y28.544
X-27.422 Y28.523
X-27.362 Y28.503
X-27.302 Y28.483
X-27.242 Y28.464
X-27.182 Y28.446
X-27.122 Y28.428
X-27.062 Y28.41
X-27.001 Y28.393
X-26.94 Y28.377
X-26.879 Y28.361
X-26.818 Y28.346
X-26.757 Y28.331
X-26.696 Y28.317
X-26.634 Y28.303
X-26.573 Y28.29
X-26.511 Y28.277
X-26.45 Y28.265
X-26.388 Y28.254
X-26.326 Y28.243
X-26.264 Y28.233
X-26.202 Y28.223
X-26.139 Y28.214
X-26.077 Y28.205
X-26.015 Y28.197
X-25.952 Y28.19
X-25.89 Y28.183
X-25.827 Y28.176
X-25.765 Y28.17
X-25.702 Y28.165
X-25.639 Y28.16
X-25.576 Y28.156
X-25.514 Y28.153
X-25.451 Y28.15
X-25.388 Y28.147
X-25.325 Y28.145
X-25.262 Y28.144
X-25.199 Y28.143
X-25.136
X-25.073
X-25.011 Y28.144
X-24.948 Y28.146
X-24.885 Y28.148
X-24.822 Y28.15
X-24.759 Y28.153
X-24.696 Y28.157
X-24.634 Y28.161
X-24.571 Y28.166
X-24.508 Y28.172
X-24.446 Y28.178
X-24.383 Y28.184
X-24.321 Y28.191
X-24.258 Y28.199
X-24.196 Y28.207
X-24.133 Y28.216
X-24.071 Y28.225
X-24.009 Y28.235
X-23.947 Y28.245
X-23.885 Y28.256
X-23.823 Y28.268
X-23.762 Y28.28
X-23.7 Y28.292
X-23.638 Y28.305
X-23.577 Y28.319
X-23.516 Y28.333
X-23.455 Y28.348
X-23.394 Y28.363
X-23.333 Y28.379
X-23.272 Y28.396
X-23.211 Y28.413
X-23.151 Y28.43
X-23.091 Y28.448
X-23.031 Y28.467
X-22.971 Y28.486
X-22.911 Y28.505
X-22.851 Y28.525
X-22.792 Y28.546
X-22.733 Y28.567
X-22.674 Y28.589
X-22.615 Y28.611
X-22.556 Y28.634
X-22.498 Y28.657
X-22.439 Y28.681
X-22.381 Y28.705
X-22.324 Y28.73
X-22.266 Y28.755
X-22.209 Y28.781
X-22.152 Y28.807
X-22.095 Y28.834
X-22.038 Y28.862
X-21.982 Y28.889
X-21.925 Y28.918
X-21.869 Y28.946
X-21.814 Y28.976
X-21.758 Y29.006
X-21.703 Y29.036
X-21.648 Y29.067
X-21.594 Y29.098
X-21.539 Y29.129
X-21.485 Y29.162
X-21.432 Y29.194
X-21.378 Y29.227
X-21.325 Y29.261
X-21.272 Y29.295
X-21.219 Y29.329
X-21.167 Y29.364
X-21.115 Y29.4
X-21.064 Y29.436
X-21.012 Y29.472
X-20.961 Y29.509
X-20.91 Y29.546
X-20.86 Y29.584
X-20.81 Y29.622
X-20.76 Y29.66
X-20.711 Y29.699
X-20.662 Y29.739
X-20.613 Y29.778
X-20.565 Y29.819
X-20.517 Y29.859
X-20.469 Y29.9
X-20.422 Y29.942
X-20.375 Y29.984
X-20.328 Y30.026
X-20.282 Y30.069
X-20.236 Y30.112
X-20.191 Y30.155
X-20.146 Y30.199
X-20.101 Y30.243
X-20.057 Y30.288
X-20.013 Y30.333
X-19.969 Y30.379
X-19.926 Y30.424
X-19.884 Y30.471
X-19.841 Y30.517
X-19.799 Y30.564
X-19.758 Y30.611
X-19.717 Y30.659
X-19.676 Y30.707
X-19.636 Y30.755
X-19.596 Y30.804
X-19.557 Y30.853
X-19.518 Y30.902
X-19.479 Y30.952
X-19.441 Y31.002
X-19.403 Y31.052
X-19.366 Y31.103
X-19.329 Y31.154
X-19.293 Y31.205
X-19.257 Y31.257
X-19.221 Y31.309
X-19.186 Y31.361
X-19.152 Y31.414
X-19.118 Y31.467
X-19.084 Y31.52
X-19.051 Y31.573
X-19.018 Y31.627
X-18.986 Y31.681
X-18.954 Y31.735
X-18.923 Y31.79
X-18.892 Y31.845
X-18.862 Y31.9
X-18.832 Y31.955
X-18.802 Y32.011
X-18.773 Y32.066
X-18.745 Y32.122
X-18.717 Y32.179
X-18.689 Y32.235
X-18.662 Y32.292
X-18.636 Y32.349
X-18.61 Y32.407
X-18.584 Y32.464
X-18.559 Y32.522
X-18.535 Y32.58
X-18.511 Y32.638
X-18.487 Y32.696
X-18.464 Y32.755
X-18.442 Y32.813
X-18.42 Y32.872
X-18.399 Y32.932
X-18.378 Y32.991
X-18.357 Y33.05
X-18.337 Y33.11
X-18.318 Y33.17
X-18.299 Y33.23
X-18.281 Y33.29
X-18.263 Y33.35
X-18.246 Y33.411
X-18.229 Y33.471
X-18.212 Y33.532
X-18.197 Y33.593
X-18.182 Y33.654
X-18.167 Y33.715
X-18.153 Y33.777
X-18.139 Y33.838
X-18.126 Y33.899
X-18.113 Y33.961
X-18.101 Y34.023
X-18.09 Y34.085
X-18.079 Y34.147
X-18.069 Y34.209
X-18.059 Y34.271
X-18.049 Y34.333
X-18.041 Y34.395
X-18.032 Y34.458
X-18.025 Y34.52
X-18.018 Y34.583
X-18.011 Y34.645
X-18.005 Y34.708
X-17.999 Y34.77
X-17.994 Y34.833
X-17.99 Y34.896
X-17.986 Y34.959
X-17.983 Y35.021
X-17.98 Y35.084
X-17.978 Y35.147
X-17.976 Y35.21
X-17.975 Y35.273
X-17.974 Y35.336
Y35.399
Y35.462
X-17.976 Y35.524
X-17.977 Y35.587
X-17.979 Y35.65
X-17.982 Y35.713
X-17.985 Y35.776
X-17.989 Y35.839
X-17.993 Y35.901
X-17.998 Y35.964
X-18.003 Y36.027
X-18.009 Y36.089
X-18.016 Y36.152
X-18.023 Y36.214
X-18.03 Y36.277
X-18.038 Y36.339
X-18.047 Y36.402
X-18.056 Y36.464
X-18.066 Y36.526
X-18.076 Y36.588
X-18.087 Y36.65
X-18.098 Y36.712
X-18.11 Y36.774
X-18.123 Y36.835
X-18.136 Y36.897
X-18.149 Y36.958
X-18.163 Y37.02
X-18.178 Y37.081
X-18.193 Y37.142
X-18.209 Y37.203
X-18.225 Y37.264
X-18.242 Y37.324
X-18.259 Y37.385
X-18.276 Y37.445
X-18.295 Y37.505
X-18.314 Y37.565
X-18.333 Y37.625
X-18.353 Y37.685
X-18.373 Y37.744
X-18.394 Y37.804
X-18.415 Y37.863
X-18.437 Y37.922
X-18.46 Y37.981
X-18.483 Y38.039
X-18.506 Y38.097
X-18.53 Y38.156
X-18.554 Y38.214
X-18.579 Y38.271
X-18.605 Y38.329
X-18.631 Y38.386
X-18.657 Y38.443
X-18.684 Y38.5
X-18.712 Y38.557
X-18.74 Y38.613
X-18.768 Y38.669
X-18.797 Y38.725
X-18.826 Y38.781
X-18.856 Y38.836
X-18.887 Y38.891
X-18.917 Y38.946
X-18.949 Y39.
X-18.98 Y39.055
X-19.013 Y39.109
X-19.045 Y39.162
X-19.079 Y39.216
X-19.112 Y39.269
X-19.146 Y39.322
X-19.181 Y39.374
X-19.216 Y39.427
X-19.252 Y39.478
X-19.287 Y39.53
X-19.324 Y39.581
X-19.361 Y39.632
X-19.398 Y39.683
X-19.436 Y39.733
X-19.474 Y39.783
X-19.512 Y39.833
X-19.551 Y39.882
X-19.591 Y39.931
X-19.631 Y39.98
X-19.671 Y40.028
X-19.712 Y40.076
X-19.753 Y40.124
X-19.794 Y40.171
X-19.836 Y40.218
X-19.879 Y40.265
X-19.921 Y40.311
X-19.965 Y40.356
X-20.008 Y40.402
X-20.052 Y40.447
X-20.096 Y40.492
X-20.141 Y40.536
X-20.186 Y40.58
X-20.232 Y40.623
X-20.277 Y40.666
X-20.324 Y40.709
X-20.37 Y40.751
X-20.417 Y40.793
X-20.465 Y40.834
X-20.512 Y40.875
X-20.56 Y40.916
X-20.609 Y40.956
X-20.657 Y40.996
X-20.706 Y41.035
X-20.756 Y41.074
X-20.806 Y41.113
X-20.856 Y41.151
X-20.906 Y41.189
X-20.957 Y41.226
X-21.008 Y41.262
X-21.059 Y41.299
X-21.111 Y41.335
X-21.163 Y41.37
X-21.215 Y41.405
X-21.268 Y41.44
X-21.321 Y41.474
X-21.374 Y41.507
X-21.427 Y41.54
X-21.481 Y41.573
X-21.535 Y41.605
X-21.589 Y41.637
X-21.644 Y41.668
X-21.699 Y41.699
X-21.754 Y41.729
X-21.809 Y41.759
X-21.865 Y41.789
X-21.921 Y41.818
X-21.977 Y41.846
X-22.033 Y41.874
X-22.09 Y41.901
X-22.147 Y41.928
X-22.204 Y41.955
X-22.261 Y41.981
X-22.318 Y42.006
X-22.376 Y42.031
X-22.434 Y42.056
X-22.492 Y42.08
X-22.551 Y42.103
X-22.609 Y42.126
X-22.668 Y42.148
X-22.727 Y42.17
X-22.786 Y42.192
X-22.845 Y42.213
X-22.905 Y42.233
X-22.964 Y42.253
X-23.024 Y42.272
X-23.084 Y42.291
X-23.144 Y42.31
X-23.205 Y42.328
X-23.265 Y42.345
X-23.326 Y42.362
X-23.387 Y42.378
X-23.448 Y42.394
X-23.509 Y42.409
X-23.57 Y42.424
X-23.631 Y42.438
X-23.692 Y42.452
X-23.754 Y42.465
X-23.816 Y42.477
X-23.877 Y42.489
X-23.939 Y42.501
X-24.001 Y42.512
X-24.063 Y42.522
X-24.125 Y42.532
X-24.187 Y42.542
X-24.25 Y42.551
X-24.312 Y42.559
X-24.374 Y42.567
X-24.437 Y42.574
X-24.499 Y42.581
X-24.562 Y42.587
X-24.625 Y42.593
X-24.687 Y42.598
X-24.75 Y42.603
X-24.813 Y42.607
X-24.876 Y42.61
X-24.938 Y42.613
X-25.001 Y42.616
X-25.064 Y42.618
X-25.127 Y42.619
X-25.19 Y42.62
X-25.253
X-25.316
X-25.379 Y42.619
X-25.441 Y42.618
X-25.504 Y42.616
X-25.567 Y42.614
X-25.63 Y42.611
X-25.693 Y42.607
X-25.756 Y42.603
X-25.818 Y42.599
X-25.881 Y42.594
X-25.944 Y42.588
X-26.006 Y42.582
X-26.069 Y42.576
X-26.131 Y42.568
X-26.194 Y42.561
X-26.256 Y42.552
X-26.318 Y42.544
X-26.381 Y42.534
X-26.443 Y42.525
X-26.505 Y42.514
X-26.567 Y42.503
X-26.629 Y42.492
X-26.69 Y42.48
X-26.752 Y42.467
X-26.814 Y42.455
X-26.875 Y42.441
X-26.936 Y42.427
X-26.998 Y42.412
X-27.059 Y42.397
X-27.12 Y42.382
X-27.18 Y42.366
X-27.241 Y42.349
X-27.302 Y42.332
X-27.362 Y42.314
X-27.422 Y42.296
X-27.482 Y42.277
X-27.542 Y42.258
X-27.602 Y42.239
X-27.661 Y42.218
X-27.721 Y42.198
X-27.78 Y42.177
X-27.839 Y42.155
X-27.898 Y42.133
X-27.957 Y42.11
X-28.015 Y42.087
X-28.073 Y42.063
X-28.131 Y42.039
X-28.189 Y42.014
X-28.247 Y41.989
X-28.304 Y41.963
X-28.362 Y41.937
X-28.419 Y41.911
X-28.475 Y41.884
X-28.532 Y41.856
X-28.588 Y41.828
X-28.644 Y41.8
X-28.7 Y41.771
X-28.756 Y41.741
X-28.811 Y41.711
X-28.866 Y41.681
X-28.921 Y41.65
X-28.975 Y41.619
X-29.03 Y41.587
X-29.084 Y41.555
X-29.137 Y41.522
X-29.191 Y41.489
X-29.244 Y41.455
X-29.297 Y41.421
X-29.35 Y41.387
X-29.402 Y41.352
X-29.454 Y41.316
X-29.506 Y41.28
X-29.557 Y41.244
X-29.608 Y41.208
X-29.659 Y41.17
X-29.709 Y41.133
X-29.759 Y41.095
X-29.809 Y41.057
X-29.859 Y41.018
X-29.908 Y40.979
X-29.957 Y40.939
X-30.005 Y40.899
X-30.054 Y40.858
X-30.101 Y40.818
X-30.149 Y40.776
X-30.196 Y40.735
X-30.243 Y40.693
X-30.289 Y40.65
X-30.335 Y40.607
X-30.381 Y40.564
X-30.426 Y40.521
X-30.471 Y40.477
X-30.516 Y40.432
X-30.56 Y40.388
X-30.604 Y40.342
X-30.647 Y40.297
X-30.691 Y40.251
X-30.733 Y40.205
X-30.776 Y40.158
X-30.817 Y40.112
X-30.859 Y40.064
X-30.9 Y40.017
X-30.941 Y39.969
X-30.981 Y39.92
X-31.021 Y39.872
X-31.061 Y39.823
X-31.1 Y39.774
X-31.138 Y39.724
X-31.177 Y39.674
X-31.214 Y39.624
X-31.252 Y39.573
X-31.289 Y39.522
X-31.325 Y39.471
X-31.362 Y39.42
X-31.397 Y39.368
X-31.433 Y39.316
X-31.467 Y39.264
X-31.502 Y39.211
X-31.536 Y39.158
X-31.569 Y39.105
X-31.602 Y39.051
X-31.635 Y38.997
X-31.667 Y38.943
X-31.699 Y38.889
X-31.73 Y38.834
X-31.761 Y38.779
X-31.791 Y38.724
X-31.821 Y38.669
X-31.85 Y38.613
X-31.879 Y38.558
X-31.908 Y38.501
X-31.936 Y38.445
X-31.963 Y38.389
X-31.99 Y38.332
X-32.017 Y38.275
X-32.043 Y38.217
X-32.068 Y38.16
X-32.093 Y38.102
X-32.118 Y38.044
X-32.142 Y37.986
X-32.166 Y37.928
X-32.189 Y37.87
X-32.212 Y37.811
X-32.234 Y37.752
X-32.256 Y37.693
X-32.277 Y37.634
X-32.298 Y37.574
X-32.318 Y37.515
X-32.337 Y37.455
X-32.357 Y37.395
X-32.375 Y37.335
X-32.394 Y37.275
X-32.411 Y37.215
X-32.428 Y37.154
X-32.445 Y37.093
X-32.461 Y37.033
X-32.477 Y36.972
X-32.492 Y36.911
X-32.507 Y36.85
X-32.521 Y36.788
X-32.535 Y36.727
X-32.548 Y36.665
X-32.56 Y36.604
X-32.572 Y36.542
X-32.584 Y36.48
X-32.595 Y36.418
X-32.605 Y36.356
X-32.615 Y36.294
X-32.625 Y36.232
X-32.634 Y36.17
X-32.642 Y36.107
X-32.65 Y36.045
X-32.658 Y35.983
X-32.665 Y35.92
X-32.671 Y35.857
X-32.677 Y35.795
X-32.682 Y35.732
X-32.687 Y35.669
X-32.691 Y35.607
X-32.695 Y35.544
X-32.698 Y35.481
X-32.701 Y35.418
X-32.703 Y35.355
X-32.705 Y35.292
X-32.706 Y35.23
Y35.167
Y35.104
Y35.041
X-32.705 Y34.978
X-32.704 Y34.915
X-32.702 Y34.852
X-32.699 Y34.789
X-32.696 Y34.727
X-32.692 Y34.664
X-32.688 Y34.601
X-32.684 Y34.538
X-32.678 Y34.476
X-32.673 Y34.413
X-32.666 Y34.35
X-32.66 Y34.288
X-32.652 Y34.225
X-32.645 Y34.163
X-32.636 Y34.101
X-32.628 Y34.038
X-32.618 Y33.976
X-32.608 Y33.914
X-32.598 Y33.852
X-32.587 Y33.79
X-32.576 Y33.728
X-32.564 Y33.666
X-32.551 Y33.605
X-32.538 Y33.543
X-32.525 Y33.482
X-32.511 Y33.42
X-32.496 Y33.359
X-32.481 Y33.298
X-32.466 Y33.237
X-32.45 Y33.176
X-32.433 Y33.116
X-32.416 Y33.055
X-32.399 Y32.995
X-32.381 Y32.934
X-32.362 Y32.874
X-32.343 Y32.814
X-32.324 Y32.755
X-32.304 Y32.695
X-32.283 Y32.635
X-32.262 Y32.576
X-32.241 Y32.517
X-32.219 Y32.458
X-32.196 Y32.399
X-32.173 Y32.341
X-32.15 Y32.282
X-32.126 Y32.224
X-32.101 Y32.166
X-32.076 Y32.109
X-32.051 Y32.051
X-32.025 Y31.994
X-31.999 Y31.937
X-31.972 Y31.88
X-31.945 Y31.823
X-31.917 Y31.767
X-31.889 Y31.71
X-31.86 Y31.654
X-31.831 Y31.599
X-31.801 Y31.543
X-31.771 Y31.488
X-31.74 Y31.433
X-31.709 Y31.378
X-31.678 Y31.324
X-31.646 Y31.27
X-31.614 Y31.216
X-31.581 Y31.162
X-31.547 Y31.109
X-31.514 Y31.056
X-31.48 Y31.003
X-31.445 Y30.95
X-31.41 Y30.898
X-31.375 Y30.846
X-31.339 Y30.794
X-31.302 Y30.743
X-31.266 Y30.692
X-31.228 Y30.641
X-31.191 Y30.591
X-31.153 Y30.541
X-31.114 Y30.491
X-31.075 Y30.441
X-31.036 Y30.392
X-30.997 Y30.344
X-30.956 Y30.295
X-30.916 Y30.247
X-30.875 Y30.199
X-30.834 Y30.152
X-30.792 Y30.104
X-30.75 Y30.058
X-30.708 Y30.011
X-30.665 Y29.965
X-30.622 Y29.919
X-30.578 Y29.874
X-30.534 Y29.829
X-30.49 Y29.785
X-30.445 Y29.74
X-30.4 Y29.696
X-30.355 Y29.653
X-30.309 Y29.61
X-30.263 Y29.567
X-30.216 Y29.525
X-30.169 Y29.483
X-30.122 Y29.441
X-30.075 Y29.4
X-30.027 Y29.359
X-29.978 Y29.319
X-29.93 Y29.279
X-29.881 Y29.239
X-29.832 Y29.2
X-29.782 Y29.161
X-29.732 Y29.123
X-29.682 Y29.085
X-29.632 Y29.048
X-29.581 Y29.011
X-29.53 Y28.974
X-29.478 Y28.938
X-29.427 Y28.902
X-29.375 Y28.866
X-29.322 Y28.832
X-29.27 Y28.797
X-29.217 Y28.763
X-29.164 Y28.729
X-29.11 Y28.696
X-29.057 Y28.663
X-29.003 Y28.631
X-28.948 Y28.599
X-28.894 Y28.568
X-28.839 Y28.537
X-28.784 Y28.507
X-28.729 Y28.477
X-28.673 Y28.447
X-28.617 Y28.418
X-28.561 Y28.389
X-28.505 Y28.361
X-28.449 Y28.333
X-28.392 Y28.306
X-28.335 Y28.279
X-28.278 Y28.253
X-28.22 Y28.227
X-28.163 Y28.202
X-28.105 Y28.177
X-28.047 Y28.153
X-27.989 Y28.129
X-27.931 Y28.106
X-27.872 Y28.083
X-27.813 Y28.06
X-27.754 Y28.038
X-27.695 Y28.017
X-27.636 Y27.996
X-27.576 Y27.976
X-27.517 Y27.956
X-27.457 Y27.936
X-27.397 Y27.917
X-27.337 Y27.899
X-27.276 Y27.881
X-27.216 Y27.863
X-27.155 Y27.847
X-27.095 Y27.83
X-27.034 Y27.814
X-26.973 Y27.799
X-26.912 Y27.784
X-26.851 Y27.769
X-26.789 Y27.755
X-26.728 Y27.742
X-26.666 Y27.729
X-26.604 Y27.717
X-26.543 Y27.705
X-26.481 Y27.694
X-26.419 Y27.683
X-26.357 Y27.672
X-26.295 Y27.663
X-26.233 Y27.653
X-26.17 Y27.645
X-26.108 Y27.636
X-26.045 Y27.629
X-25.983 Y27.621
X-25.92 Y27.615
X-25.858 Y27.608
X-25.795 Y27.603
X-25.732 Y27.598
X-25.67 Y27.593
X-25.607 Y27.589
X-25.544 Y27.585
X-25.481 Y27.582
X-25.419 Y27.58
X-25.356 Y27.578
X-25.293 Y27.576
X-25.23 Y27.575
X-25.167
X-25.104
X-25.041
X-24.978 Y27.576
X-24.915 Y27.578
X-24.853 Y27.58
X-24.79 Y27.583
X-24.727 Y27.586
X-24.664 Y27.59
X-24.601 Y27.594
