(1001)
(T1  D=1.5 CR=0. - ZMIN=-5.95 - flat end mill)
G90
G0 G53 Z0.

(2D Adaptive (pocket))
T1 M6 (flat end mill D=1.5 1.5 mm Fishtail Upcut Endmill - Acrylic Max Pass Depth 0.8 mm)
S18000 M3
G64
G54
G43 H1
G0 X23.305 Y-26.076
Z15.
Z5.
Z2.5
G3 X22.455 Y-26.617 Z2.461 I-0.155 J-0.695 F800
X22.995 Y-27.467 Z2.422 I0.695 J-0.155
X23.845 Y-26.927 Z2.383 I0.155 J0.695
X23.305 Y-26.076 Z2.344 I-0.695 J0.155
X22.455 Y-26.617 Z2.305 I-0.155 J-0.695
X22.995 Y-27.467 Z2.266 I0.695 J-0.155
X23.845 Y-26.927 Z2.226 I0.155 J0.695
X23.305 Y-26.076 Z2.187 I-0.695 J0.155
X22.455 Y-26.617 Z2.148 I-0.155 J-0.695
X22.995 Y-27.467 Z2.109 I0.695 J-0.155
X23.845 Y-26.927 Z2.07 I0.155 J0.695
X23.305 Y-26.076 Z2.031 I-0.695 J0.155
X22.455 Y-26.617 Z1.992 I-0.155 J-0.695
X22.995 Y-27.467 Z1.953 I0.695 J-0.155
X23.845 Y-26.927 Z1.914 I0.155 J0.695
X23.305 Y-26.076 Z1.875 I-0.695 J0.155
X22.455 Y-26.617 Z1.836 I-0.155 J-0.695
X22.995 Y-27.467 Z1.797 I0.695 J-0.155
X23.845 Y-26.927 Z1.757 I0.155 J0.695
X23.305 Y-26.076 Z1.718 I-0.695 J0.155
X22.455 Y-26.617 Z1.679 I-0.155 J-0.695
X22.995 Y-27.467 Z1.64 I0.695 J-0.155
X23.845 Y-26.927 Z1.601 I0.155 J0.695
X23.305 Y-26.076 Z1.562 I-0.695 J0.155
X22.455 Y-26.617 Z1.523 I-0.155 J-0.695
X22.995 Y-27.467 Z1.484 I0.695 J-0.155
X23.845 Y-26.927 Z1.445 I0.155 J0.695
X23.305 Y-26.076 Z1.406 I-0.695 J0.155
X22.455 Y-26.617 Z1.367 I-0.155 J-0.695
X22.995 Y-27.467 Z1.328 I0.695 J-0.155
X23.845 Y-26.927 Z1.288 I0.155 J0.695
X23.305 Y-26.076 Z1.249 I-0.695 J0.155
X22.455 Y-26.617 Z1.21 I-0.155 J-0.695
X22.995 Y-27.467 Z1.171 I0.695 J-0.155
X23.845 Y-26.927 Z1.132 I0.155 J0.695
X23.305 Y-26.076 Z1.093 I-0.695 J0.155
X22.455 Y-26.617 Z1.054 I-0.155 J-0.695
X22.995 Y-27.467 Z1.015 I0.695 J-0.155
X23.845 Y-26.927 Z0.976 I0.155 J0.695
X23.305 Y-26.076 Z0.937 I-0.695 J0.155
X22.455 Y-26.617 Z0.898 I-0.155 J-0.695
X22.995 Y-27.467 Z0.859 I0.695 J-0.155
X23.845 Y-26.927 Z0.819 I0.155 J0.695
X23.305 Y-26.076 Z0.78 I-0.695 J0.155
X22.455 Y-26.617 Z0.741 I-0.155 J-0.695
X22.995 Y-27.467 Z0.702 I0.695 J-0.155
X23.845 Y-26.927 Z0.663 I0.155 J0.695
X23.305 Y-26.076 Z0.624 I-0.695 J0.155
X22.455 Y-26.617 Z0.585 I-0.155 J-0.695
X22.995 Y-27.467 Z0.546 I0.695 J-0.155
X23.845 Y-26.927 Z0.507 I0.155 J0.695
X23.305 Y-26.076 Z0.468 I-0.695 J0.155
X22.455 Y-26.617 Z0.429 I-0.155 J-0.695
X22.995 Y-27.467 Z0.39 I0.695 J-0.155
X23.845 Y-26.927 Z0.35 I0.155 J0.695
X23.305 Y-26.076 Z0.311 I-0.695 J0.155
X22.455 Y-26.617 Z0.272 I-0.155 J-0.695
X22.995 Y-27.467 Z0.233 I0.695 J-0.155
X23.845 Y-26.927 Z0.194 I0.155 J0.695
X23.305 Y-26.076 Z0.155 I-0.695 J0.155
X22.455 Y-26.617 Z0.116 I-0.155 J-0.695
X22.995 Y-27.467 Z0.077 I0.695 J-0.155
X23.845 Y-26.927 Z0.038 I0.155 J0.695
X23.305 Y-26.076 Z-0.001 I-0.695 J0.155
X22.455 Y-26.617 Z-0.04 I-0.155 J-0.695
X22.995 Y-27.467 Z-0.079 I0.695 J-0.155
X23.845 Y-26.927 Z-0.119 I0.155 J0.695
X23.305 Y-26.076 Z-0.158 I-0.695 J0.155
X22.455 Y-26.617 Z-0.197 I-0.155 J-0.695
X22.995 Y-27.467 Z-0.236 I0.695 J-0.155
X23.845 Y-26.927 Z-0.275 I0.155 J0.695
X23.305 Y-26.076 Z-0.314 I-0.695 J0.155
X22.455 Y-26.617 Z-0.353 I-0.155 J-0.695
X22.995 Y-27.467 Z-0.392 I0.695 J-0.155
X23.845 Y-26.927 Z-0.431 I0.155 J0.695
X23.305 Y-26.076 Z-0.47 I-0.695 J0.155
X22.455 Y-26.617 Z-0.509 I-0.155 J-0.695
X22.995 Y-27.467 Z-0.548 I0.695 J-0.155
X23.845 Y-26.927 Z-0.588 I0.155 J0.695
X23.305 Y-26.076 Z-0.627 I-0.695 J0.155
X22.455 Y-26.617 Z-0.666 I-0.155 J-0.695
X22.995 Y-27.467 Z-0.705 I0.695 J-0.155
X23.845 Y-26.927 Z-0.744 I0.155 J0.695
X23.305 Y-26.076 Z-0.783 I-0.695 J0.155
X22.455 Y-26.617 Z-0.822 I-0.155 J-0.695
X22.995 Y-27.467 Z-0.861 I0.695 J-0.155
X23.845 Y-26.927 Z-0.9 I0.155 J0.695
X23.305 Y-26.076 Z-0.939 I-0.695 J0.155
X22.455 Y-26.617 Z-0.978 I-0.155 J-0.695
X22.995 Y-27.467 Z-1.017 I0.695 J-0.155
X23.845 Y-26.927 Z-1.057 I0.155 J0.695
X23.305 Y-26.076 Z-1.096 I-0.695 J0.155
X22.455 Y-26.617 Z-1.135 I-0.155 J-0.695
X22.995 Y-27.467 Z-1.174 I0.695 J-0.155
X23.845 Y-26.927 Z-1.213 I0.155 J0.695
X23.305 Y-26.076 Z-1.252 I-0.695 J0.155
X22.455 Y-26.617 Z-1.291 I-0.155 J-0.695
X22.995 Y-27.467 Z-1.33 I0.695 J-0.155
X23.845 Y-26.927 Z-1.369 I0.155 J0.695
X23.305 Y-26.076 Z-1.408 I-0.695 J0.155
X22.455 Y-26.617 Z-1.447 I-0.155 J-0.695
X22.995 Y-27.467 Z-1.486 I0.695 J-0.155
X23.845 Y-26.927 Z-1.526 I0.155 J0.695
X23.305 Y-26.076 Z-1.565 I-0.695 J0.155
X22.455 Y-26.617 Z-1.604 I-0.155 J-0.695
X22.995 Y-27.467 Z-1.643 I0.695 J-0.155
X23.845 Y-26.927 Z-1.682 I0.155 J0.695
X23.305 Y-26.076 Z-1.721 I-0.695 J0.155
X22.455 Y-26.617 Z-1.76 I-0.155 J-0.695
X22.995 Y-27.467 Z-1.799 I0.695 J-0.155
X23.845 Y-26.927 Z-1.838 I0.155 J0.695
X23.305 Y-26.076 Z-1.877 I-0.695 J0.155
X22.455 Y-26.617 Z-1.916 I-0.155 J-0.695
X22.995 Y-27.467 Z-1.955 I0.695 J-0.155
X23.845 Y-26.927 Z-1.995 I0.155 J0.695
X23.862 Y-26.772 Z-2. I-0.695 J0.155
X23.15 Y-26.059 I-0.712 J0.
X22.438 Y-26.772 I0. J-0.712
X23.15 Y-27.484 I0.712 J0.
X23.862 Y-26.772 I0. J0.712
G1 X23.863 Y-26.709
X23.874 Y-26.647
X23.896 Y-26.588
X23.912 Y-26.561
X23.923 Y-26.54
X23.932 Y-26.516
X23.941 Y-26.489
X23.948 Y-26.458
X23.952 Y-26.424
X23.954 Y-26.387
X23.953 Y-26.348
X23.949 Y-26.305
X23.941 Y-26.261
X23.928 Y-26.215
X23.911 Y-26.167
X23.889 Y-26.119
X23.862 Y-26.07
X23.83 Y-26.021
X23.792 Y-25.973
X23.749 Y-25.927
X23.703 Y-25.884
X23.654 Y-25.845
X23.602 Y-25.81
X23.547 Y-25.778
X23.491 Y-25.751
X23.432 Y-25.728
X23.372 Y-25.708
X23.312 Y-25.692
X23.25 Y-25.681
X23.187 Y-25.673
X23.124 Y-25.67
X23.062
X22.999 Y-25.674
X22.936 Y-25.682
X22.875 Y-25.694
X22.814 Y-25.709
X22.754 Y-25.728
X22.695 Y-25.751
X22.638 Y-25.777
X22.582 Y-25.806
X22.528 Y-25.838
X22.476 Y-25.874
X22.426 Y-25.912
X22.379 Y-25.953
X22.334 Y-25.997
X22.291 Y-26.043
X22.251 Y-26.092
X22.214 Y-26.143
X22.18 Y-26.196
X22.149 Y-26.251
X22.121 Y-26.307
X22.097 Y-26.365
X22.075 Y-26.424
X22.057 Y-26.484
X22.043 Y-26.546
X22.032 Y-26.607
X22.024 Y-26.67
X22.02 Y-26.733
X22.019 Y-26.796
X22.022 Y-26.858
X22.029 Y-26.921
X22.039 Y-26.983
X22.052 Y-27.045
X22.069 Y-27.105
X22.089 Y-27.165
X22.112 Y-27.223
X22.139 Y-27.28
X22.168 Y-27.336
X22.201 Y-27.389
X22.237 Y-27.441
X22.275 Y-27.491
X22.317 Y-27.538
X22.361 Y-27.583
X22.407 Y-27.626
X22.455 Y-27.666
X22.506 Y-27.703
X22.559 Y-27.738
X22.613 Y-27.769
X22.669 Y-27.797
X22.727 Y-27.822
X22.786 Y-27.844
X22.846 Y-27.863
X22.907 Y-27.878
X22.969 Y-27.89
X23.031 Y-27.898
X23.094 Y-27.903
X23.157 Y-27.904
X23.22 Y-27.902
X23.282 Y-27.897
X23.345 Y-27.888
X23.406 Y-27.875
X23.467 Y-27.859
X23.527 Y-27.84
X23.586 Y-27.817
X23.643 Y-27.791
X23.699 Y-27.762
X23.753 Y-27.73
X23.805 Y-27.696
X23.856 Y-27.658
X23.904 Y-27.617
X23.95 Y-27.574
X23.993 Y-27.528
X24.034 Y-27.48
X24.072 Y-27.43
X24.107 Y-27.378
X24.139 Y-27.324
X24.171 Y-27.27
X24.202 Y-27.215
X24.231 Y-27.159
X24.259 Y-27.103
X24.285 Y-27.046
X24.309 Y-26.988
X24.33 Y-26.929
X24.35 Y-26.869
X24.367 Y-26.808
X24.381 Y-26.747
X24.392 Y-26.685
X24.401 Y-26.623
X24.406 Y-26.56
X24.408 Y-26.497
X24.407 Y-26.434
X24.403 Y-26.371
X24.396 Y-26.309
X24.386 Y-26.247
X24.372 Y-26.186
X24.355 Y-26.125
X24.335 Y-26.065
X24.312 Y-26.007
X24.286 Y-25.95
X24.257 Y-25.894
X24.225 Y-25.84
X24.19 Y-25.787
X24.153 Y-25.736
X24.114 Y-25.687
X24.072 Y-25.641
X24.027 Y-25.596
X23.981 Y-25.553
X23.933 Y-25.513
X23.882 Y-25.476
X23.83 Y-25.44
X23.776 Y-25.407
X23.721 Y-25.377
X23.665 Y-25.35
X23.607 Y-25.325
X23.548 Y-25.302
X23.488 Y-25.283
X23.428 Y-25.266
X23.367 Y-25.252
X23.305 Y-25.24
X23.242 Y-25.232
X23.18 Y-25.226
X23.117 Y-25.223
X23.054 Y-25.222
X22.991 Y-25.225
X22.929 Y-25.23
X22.866 Y-25.238
X22.804 Y-25.248
X22.743 Y-25.261
X22.682 Y-25.277
X22.621 Y-25.295
X22.562 Y-25.316
X22.504 Y-25.339
X22.446 Y-25.364
X22.39 Y-25.392
X22.335 Y-25.423
X22.281 Y-25.455
X22.228 Y-25.49
X22.177 Y-25.527
X22.128 Y-25.565
X22.08 Y-25.606
X22.034 Y-25.649
X21.989 Y-25.694
X21.947 Y-25.74
X21.906 Y-25.788
X21.868 Y-25.838
X21.831 Y-25.889
X21.797 Y-25.942
X21.764 Y-25.995
X21.734 Y-26.051
X21.706 Y-26.107
X21.681 Y-26.165
X21.658 Y-26.223
X21.637 Y-26.282
X21.618 Y-26.342
X21.602 Y-26.403
X21.588 Y-26.465
X21.577 Y-26.526
X21.568 Y-26.589
X21.562 Y-26.651
X21.558 Y-26.714
X21.557 Y-26.777
X21.558 Y-26.84
X21.562 Y-26.903
X21.568 Y-26.965
X21.577 Y-27.028
X21.588 Y-27.09
X21.602 Y-27.151
X21.618 Y-27.212
X21.636 Y-27.272
X21.657 Y-27.331
X21.68 Y-27.39
X21.705 Y-27.447
X21.733 Y-27.504
X21.763 Y-27.559
X21.795 Y-27.613
X21.829 Y-27.666
X21.865 Y-27.717
X21.903 Y-27.767
X21.944 Y-27.816
X21.986 Y-27.863
X22.03 Y-27.908
X22.075 Y-27.951
X22.122 Y-27.993
X22.171 Y-28.032
X22.222 Y-28.07
X22.274 Y-28.105
X22.327 Y-28.139
X22.381 Y-28.17
X22.437 Y-28.2
X22.494 Y-28.227
X22.552 Y-28.251
X22.61 Y-28.274
X22.67 Y-28.294
X22.73 Y-28.312
X22.791 Y-28.327
X22.853 Y-28.34
X22.915 Y-28.35
X22.977 Y-28.359
X23.04 Y-28.364
X23.103 Y-28.367
X23.166 Y-28.368
X23.228 Y-28.366
X23.291 Y-28.362
X23.354 Y-28.355
X23.416 Y-28.346
X23.478 Y-28.334
X23.539 Y-28.32
X23.6 Y-28.303
X23.66 Y-28.284
X23.719 Y-28.263
X23.777 Y-28.24
X23.835 Y-28.214
X23.891 Y-28.186
X23.946 Y-28.155
X24. Y-28.123
X24.052 Y-28.089
X24.104 Y-28.052
X24.153 Y-28.013
X24.202 Y-27.973
X24.248 Y-27.931
X24.294 Y-27.888
X24.338 Y-27.843
X24.381 Y-27.796
X24.422 Y-27.749
X24.461 Y-27.7
X24.5 Y-27.65
X24.536 Y-27.599
X24.571 Y-27.547
X24.605 Y-27.494
X24.637 Y-27.439
X24.667 Y-27.384
X24.696 Y-27.328
X24.722 Y-27.271
X24.747 Y-27.213
X24.77 Y-27.155
X24.791 Y-27.096
X24.81 Y-27.036
X24.828 Y-26.975
X24.843 Y-26.914
X24.856 Y-26.853
X24.867 Y-26.791
X24.875 Y-26.728
X24.882 Y-26.666
X24.886 Y-26.603
X24.889 Y-26.54
Y-26.477
X24.886 Y-26.414
X24.882 Y-26.352
X24.875 Y-26.289
X24.866 Y-26.227
X24.855 Y-26.165
X24.841 Y-26.104
X24.826 Y-26.043
X24.808 Y-25.982
X24.788 Y-25.923
X24.765 Y-25.864
X24.741 Y-25.806
X24.715 Y-25.749
X24.686 Y-25.693
X24.656 Y-25.638
X24.623 Y-25.584
X24.589 Y-25.531
X24.552 Y-25.48
X24.514 Y-25.43
X24.475 Y-25.381
X24.433 Y-25.334
X24.39 Y-25.288
X24.345 Y-25.244
X24.299 Y-25.201
X24.251 Y-25.161
X24.202 Y-25.121
X24.151 Y-25.084
X24.099 Y-25.048
X24.046 Y-25.014
X23.992 Y-24.983
X23.937 Y-24.952
X23.881 Y-24.924
X23.823 Y-24.898
X23.765 Y-24.874
X23.707 Y-24.851
X23.647 Y-24.831
X23.587 Y-24.813
X23.526 Y-24.797
X23.465 Y-24.783
X23.403 Y-24.77
X23.341 Y-24.76
X23.279 Y-24.752
X23.216 Y-24.746
X23.153 Y-24.742
X23.09 Y-24.741
X23.027
X22.965 Y-24.743
X22.902 Y-24.747
X22.839 Y-24.754
X22.777 Y-24.762
X22.715 Y-24.773
X22.653 Y-24.785
X22.592 Y-24.799
X22.531 Y-24.816
X22.471 Y-24.834
X22.411 Y-24.854
X22.353 Y-24.876
X22.294 Y-24.9
X22.237 Y-24.926
X22.18 Y-24.953
X22.125 Y-24.982
X22.07 Y-25.013
X22.016 Y-25.046
X21.964 Y-25.081
X21.912 Y-25.117
X21.862 Y-25.154
X21.812 Y-25.193
X21.764 Y-25.234
X21.718 Y-25.276
X21.672 Y-25.32
X21.628 Y-25.365
X21.586 Y-25.411
X21.545 Y-25.458
X21.505 Y-25.507
X21.467 Y-25.557
X21.43 Y-25.609
X21.395 Y-25.661
X21.362 Y-25.714
X21.33 Y-25.769
X21.3 Y-25.824
X21.272 Y-25.88
X21.245 Y-25.937
X21.221 Y-25.995
X21.198 Y-26.053
X21.176 Y-26.113
X21.157 Y-26.172
X21.139 Y-26.233
X21.124 Y-26.294
X21.11 Y-26.355
X21.098 Y-26.417
X21.088 Y-26.479
X21.08 Y-26.541
X21.073 Y-26.604
X21.069 Y-26.667
X21.067 Y-26.729
X21.066 Y-26.792
X21.067 Y-26.855
X21.071 Y-26.918
X21.076 Y-26.981
X21.083 Y-27.043
X21.092 Y-27.106
X21.103 Y-27.167
X21.115 Y-27.229
X21.13 Y-27.29
X21.146 Y-27.351
X21.164 Y-27.411
X21.185 Y-27.471
X21.206 Y-27.53
X21.23 Y-27.588
X21.255 Y-27.646
X21.282 Y-27.702
X21.311 Y-27.758
X21.342 Y-27.813
X21.374 Y-27.867
X21.408 Y-27.92
X21.443 Y-27.973
X21.48 Y-28.023
X21.518 Y-28.073
X21.558 Y-28.122
X21.6 Y-28.169
X21.642 Y-28.215
X21.686 Y-28.26
X21.732 Y-28.304
X21.779 Y-28.346
X21.827 Y-28.386
X21.876 Y-28.426
X21.926 Y-28.463
X21.978 Y-28.499
X22.03 Y-28.534
X22.084 Y-28.567
X22.138 Y-28.598
X22.194 Y-28.628
X22.25 Y-28.656
X22.307 Y-28.682
X22.365 Y-28.707
X22.424 Y-28.729
X22.483 Y-28.751
X22.543 Y-28.77
X22.604 Y-28.787
X22.665 Y-28.803
X22.726 Y-28.816
X22.788 Y-28.828
X22.85 Y-28.838
X22.912 Y-28.846
X22.975 Y-28.853
X23.037 Y-28.857
X23.1 Y-28.859
X23.163 Y-28.86
X23.226 Y-28.859
X23.289 Y-28.855
X23.352 Y-28.85
X23.414 Y-28.843
X23.476 Y-28.834
X23.538 Y-28.824
X23.6 Y-28.811
X23.661 Y-28.797
X23.722 Y-28.78
X23.782 Y-28.762
X23.842 Y-28.742
X23.901 Y-28.721
X23.959 Y-28.697
X24.017 Y-28.672
X24.074 Y-28.645
X24.13 Y-28.616
X24.185 Y-28.586
X24.239 Y-28.554
X24.293 Y-28.521
X24.345 Y-28.486
X24.397 Y-28.45
X24.447 Y-28.413
X24.496 Y-28.374
X24.545 Y-28.334
X24.592 Y-28.292
X24.638 Y-28.249
X24.683 Y-28.205
X24.727 Y-28.16
X24.77 Y-28.114
X24.811 Y-28.067
X24.852 Y-28.019
X24.891 Y-27.969
X24.928 Y-27.919
X24.965 Y-27.868
X25. Y-27.816
X25.034 Y-27.762
X25.066 Y-27.709
X25.097 Y-27.654
X25.127 Y-27.598
X25.155 Y-27.542
X25.181 Y-27.485
X25.207 Y-27.427
X25.23 Y-27.369
X25.252 Y-27.31
X25.273 Y-27.251
X25.292 Y-27.191
X25.309 Y-27.13
X25.325 Y-27.069
X25.339 Y-27.008
X25.351 Y-26.946
X25.362 Y-26.885
X25.371 Y-26.822
X25.379 Y-26.76
X25.384 Y-26.697
X25.388 Y-26.634
X25.391 Y-26.572
Y-26.509
X25.39 Y-26.446
X25.387 Y-26.383
X25.382 Y-26.32
X25.376 Y-26.258
X25.368 Y-26.195
X25.358 Y-26.133
X25.346 Y-26.071
X25.333 Y-26.01
X25.318 Y-25.949
X25.301 Y-25.888
X25.283 Y-25.828
X25.263 Y-25.768
X25.241 Y-25.709
X25.218 Y-25.651
X25.193 Y-25.593
X25.166 Y-25.536
X25.138 Y-25.48
X25.109 Y-25.424
X25.077 Y-25.37
X25.045 Y-25.316
X25.01 Y-25.263
X24.975 Y-25.212
X24.938 Y-25.161
X24.899 Y-25.111
X24.859 Y-25.062
X24.818 Y-25.015
X24.776 Y-24.968
X24.732 Y-24.923
X24.687 Y-24.879
X24.641 Y-24.837
X24.593 Y-24.795
X24.545 Y-24.755
X24.495 Y-24.716
X24.445 Y-24.679
X24.393 Y-24.643
X24.341 Y-24.608
X24.287 Y-24.575
X24.233 Y-24.543
X24.178 Y-24.513
X24.122 Y-24.484
X24.065 Y-24.457
X24.008 Y-24.431
X23.95 Y-24.407
X23.891 Y-24.384
X23.832 Y-24.363
X23.772 Y-24.344
X23.712 Y-24.326
X23.651 Y-24.31
X23.59 Y-24.295
X23.528 Y-24.282
X23.466 Y-24.27
X23.404 Y-24.261
X23.342 Y-24.252
X23.279 Y-24.246
X23.217 Y-24.241
X23.154 Y-24.238
X23.091 Y-24.236
X23.028
X22.965 Y-24.238
X22.902 Y-24.241
X22.84 Y-24.246
X22.777 Y-24.252
X22.715 Y-24.26
X22.653 Y-24.27
X22.591 Y-24.281
X22.529 Y-24.294
X22.468 Y-24.309
X22.407 Y-24.325
X22.347 Y-24.342
X22.287 Y-24.361
X22.227 Y-24.382
X22.168 Y-24.404
X22.11 Y-24.427
X22.052 Y-24.452
X21.995 Y-24.479
X21.939 Y-24.507
X21.883 Y-24.536
X21.828 Y-24.567
X21.774 Y-24.599
X21.721 Y-24.632
X21.668 Y-24.667
X21.617 Y-24.703
X21.566 Y-24.74
X21.517 Y-24.779
X21.468 Y-24.818
X21.42 Y-24.859
X21.373 Y-24.902
X21.328 Y-24.945
X21.283 Y-24.989
X21.24 Y-25.035
X21.198 Y-25.081
X21.156 Y-25.129
X21.117 Y-25.178
X21.078 Y-25.227
X21.04 Y-25.278
X21.004 Y-25.329
X20.969 Y-25.381
X20.936 Y-25.435
X20.903 Y-25.489
X20.872 Y-25.543
X20.843 Y-25.599
X20.814 Y-25.655
X20.788 Y-25.712
X20.762 Y-25.769
X20.738 Y-25.828
X20.716 Y-25.886
X20.694 Y-25.946
X20.675 Y-26.005
X20.657 Y-26.065
X20.64 Y-26.126
X20.625 Y-26.187
X20.611 Y-26.249
X20.599 Y-26.31
X20.588 Y-26.372
X20.579 Y-26.434
X20.571 Y-26.497
X20.565 Y-26.559
X20.56 Y-26.622
X20.557 Y-26.685
X20.555 Y-26.748
Y-26.811
X20.557 Y-26.874
X20.56 Y-26.936
X20.565 Y-26.999
X20.571 Y-27.062
X20.578 Y-27.124
X20.587 Y-27.186
X20.598 Y-27.248
X20.61 Y-27.31
X20.624 Y-27.372
X20.639 Y-27.433
X20.655 Y-27.493
X20.674 Y-27.554
X20.693 Y-27.613
X20.714 Y-27.673
X20.737 Y-27.731
X20.76 Y-27.79
X20.786 Y-27.847
X20.812 Y-27.904
X20.84 Y-27.961
X20.87 Y-28.016
X20.9 Y-28.071
X20.932 Y-28.125
X20.966 Y-28.179
X21. Y-28.231
X21.036 Y-28.283
X21.073 Y-28.333
X21.112 Y-28.383
X21.151 Y-28.432
X21.192 Y-28.48
X21.234 Y-28.527
X21.277 Y-28.573
X21.321 Y-28.618
X21.366 Y-28.662
X21.412 Y-28.704
X21.46 Y-28.746
X21.508 Y-28.786
X21.557 Y-28.825
X21.607 Y-28.863
X21.658 Y-28.9
X21.71 Y-28.936
X21.763 Y-28.97
X21.816 Y-29.003
X21.871 Y-29.034
X21.926 Y-29.065
X21.982 Y-29.094
X22.038 Y-29.121
X22.095 Y-29.148
X22.153 Y-29.172
X22.212 Y-29.196
X22.271 Y-29.218
X22.33 Y-29.239
X22.39 Y-29.258
X22.45 Y-29.275
X22.511 Y-29.292
X22.572 Y-29.306
X22.634 Y-29.32
X22.695 Y-29.331
X22.758 Y-29.342
X22.82 Y-29.35
X22.882 Y-29.358
X22.945 Y-29.363
X23.008 Y-29.368
X23.071 Y-29.37
X23.133 Y-29.371
X23.196
X23.259 Y-29.369
X23.322 Y-29.366
X23.385 Y-29.361
X23.447 Y-29.355
X23.51 Y-29.347
X23.572 Y-29.337
X23.634 Y-29.326
X23.695 Y-29.314
X23.757 Y-29.3
X23.818 Y-29.284
X23.878 Y-29.268
X23.939 Y-29.249
X23.998 Y-29.23
X24.058 Y-29.208
X24.116 Y-29.186
X24.174 Y-29.162
X24.232 Y-29.137
X24.289 Y-29.11
X24.345 Y-29.082
X24.401 Y-29.053
X24.456 Y-29.023
X24.511 Y-28.991
X24.564 Y-28.958
X24.617 Y-28.924
X24.669 Y-28.889
X24.72 Y-28.852
X24.771 Y-28.815
X24.82 Y-28.776
X24.869 Y-28.736
X24.917 Y-28.695
X24.964 Y-28.653
X25.01 Y-28.61
X25.055 Y-28.567
X25.099 Y-28.522
X25.142 Y-28.476
X25.184 Y-28.429
X25.225 Y-28.382
X25.265 Y-28.333
X25.304 Y-28.284
X25.342 Y-28.234
X25.379 Y-28.183
X25.415 Y-28.131
X25.45 Y-28.078
X25.483 Y-28.025
X25.515 Y-27.971
X25.547 Y-27.917
X25.577 Y-27.861
X25.605 Y-27.805
X25.633 Y-27.749
X25.659 Y-27.692
X25.684 Y-27.634
X25.708 Y-27.576
X25.731 Y-27.517
X25.752 Y-27.458
X25.772 Y-27.398
X25.791 Y-27.338
X25.808 Y-27.278
X25.824 Y-27.217
X25.839 Y-27.156
X25.852 Y-27.094
X25.864 Y-27.032
X25.874 Y-26.97
X25.884 Y-26.908
X25.891 Y-26.846
X25.898 Y-26.783
X25.903 Y-26.721
X25.907 Y-26.658
X25.909 Y-26.595
X25.91 Y-26.532
X25.909 Y-26.469
X25.907 Y-26.406
X25.904 Y-26.343
X25.899 Y-26.281
X25.893 Y-26.218
X25.885 Y-26.156
X25.876 Y-26.093
X25.866 Y-26.031
X25.854 Y-25.97
X25.841 Y-25.908
X25.826 Y-25.847
X25.81 Y-25.786
X25.793 Y-25.726
X25.774 Y-25.666
X25.754 Y-25.606
X25.733 Y-25.547
X25.71 Y-25.488
X25.686 Y-25.43
X25.661 Y-25.372
X25.634 Y-25.315
X25.606 Y-25.259
X25.577 Y-25.203
X25.546 Y-25.148
X25.515 Y-25.094
X25.482 Y-25.04
X25.448 Y-24.988
X25.412 Y-24.935
X25.376 Y-24.884
X25.338 Y-24.834
X25.3 Y-24.784
X25.26 Y-24.735
X25.219 Y-24.688
X25.177 Y-24.641
X25.134 Y-24.595
X25.09 Y-24.55
X25.045 Y-24.506
X24.999 Y-24.463
X24.952 Y-24.421
X24.904 Y-24.38
X24.855 Y-24.341
X24.806 Y-24.302
X24.755 Y-24.264
X24.704 Y-24.228
X24.652 Y-24.193
X24.599 Y-24.159
X24.546 Y-24.126
X24.491 Y-24.094
X24.436 Y-24.063
X24.381 Y-24.034
X24.324 Y-24.006
X24.268 Y-23.979
X24.21 Y-23.953
X24.152 Y-23.929
X24.094 Y-23.906
X24.035 Y-23.884
X23.975 Y-23.864
X23.915 Y-23.845
X23.855 Y-23.827
X23.794 Y-23.81
X23.733 Y-23.795
X23.672 Y-23.781
X23.61 Y-23.768
X23.548 Y-23.757
X23.486 Y-23.747
X23.424 Y-23.739
X23.361 Y-23.731
X23.299 Y-23.726
X23.236 Y-23.721
X23.173 Y-23.718
X23.11 Y-23.716
X23.047 Y-23.715
X22.985 Y-23.716
X22.922 Y-23.718
X22.859 Y-23.722
X22.796 Y-23.727
X22.734 Y-23.733
X22.671 Y-23.74
X22.609 Y-23.749
X22.547 Y-23.759
X22.485 Y-23.771
X22.423 Y-23.784
X22.362 Y-23.798
X22.301 Y-23.813
X22.24 Y-23.83
X22.18 Y-23.847
X22.12 Y-23.867
X22.061 Y-23.887
X22.002 Y-23.909
X21.943 Y-23.931
X21.885 Y-23.956
X21.827 Y-23.981
X21.77 Y-24.007
X21.714 Y-24.035
X21.658 Y-24.064
X21.603 Y-24.094
X21.548 Y-24.125
X21.494 Y-24.157
X21.441 Y-24.191
X21.388 Y-24.225
X21.336 Y-24.261
X21.285 Y-24.297
X21.235 Y-24.335
X21.185 Y-24.374
X21.136 Y-24.414
X21.088 Y-24.454
X21.041 Y-24.496
X20.995 Y-24.539
X20.95 Y-24.582
X20.905 Y-24.627
X20.862 Y-24.672
X20.819 Y-24.719
X20.778 Y-24.766
X20.737 Y-24.814
X20.698 Y-24.863
X20.659 Y-24.913
X20.622 Y-24.963
X20.585 Y-25.014
X20.55 Y-25.066
X20.515 Y-25.119
X20.482 Y-25.172
X20.45 Y-25.226
X20.419 Y-25.281
X20.389 Y-25.336
X20.36 Y-25.392
X20.332 Y-25.449
X20.306 Y-25.506
X20.28 Y-25.563
X20.256 Y-25.621
X20.233 Y-25.68
X20.211 Y-25.739
X20.191 Y-25.798
X20.171 Y-25.858
X20.153 Y-25.918
X20.136 Y-25.979
X20.121 Y-26.04
X20.106 Y-26.101
X20.093 Y-26.163
X20.081 Y-26.224
X20.07 Y-26.286
X20.061 Y-26.348
X20.053 Y-26.411
X20.046 Y-26.473
X20.04 Y-26.536
X20.036 Y-26.599
X20.033 Y-26.662
X20.031 Y-26.724
Y-26.787
Y-26.85
X20.033 Y-26.913
X20.037 Y-26.976
X20.041 Y-27.039
X20.047 Y-27.101
X20.054 Y-27.164
X20.062 Y-27.226
X20.072 Y-27.288
X20.083 Y-27.35
X20.095 Y-27.412
X20.109 Y-27.473
X20.123 Y-27.535
X20.139 Y-27.595
X20.156 Y-27.656
X20.174 Y-27.716
X20.194 Y-27.776
X20.215 Y-27.835
X20.237 Y-27.894
X20.26 Y-27.953
X20.284 Y-28.011
X20.309 Y-28.068
X20.336 Y-28.125
X20.364 Y-28.182
X20.393 Y-28.238
X20.423 Y-28.293
X20.454 Y-28.348
X20.486 Y-28.402
X20.519 Y-28.455
X20.554 Y-28.508
X20.589 Y-28.56
X20.625 Y-28.611
X20.663 Y-28.661
X20.701 Y-28.711
X20.741 Y-28.76
X20.781 Y-28.808
X20.823 Y-28.856
X20.865 Y-28.902
X20.909 Y-28.948
X20.953 Y-28.992
X20.998 Y-29.036
X21.044 Y-29.079
X21.091 Y-29.121
X21.138 Y-29.162
X21.187 Y-29.202
X21.236 Y-29.241
X21.286 Y-29.279
X21.337 Y-29.316
X21.389 Y-29.352
X21.441 Y-29.387
X21.494 Y-29.421
X21.548 Y-29.454
X21.602 Y-29.486
X21.657 Y-29.516
X21.712 Y-29.546
X21.769 Y-29.574
X21.825 Y-29.602
X21.882 Y-29.628
X21.94 Y-29.653
X21.998 Y-29.677
X22.057 Y-29.699
X22.116 Y-29.721
X22.176 Y-29.741
X22.236 Y-29.76
X22.296 Y-29.778
X22.357 Y-29.794
X22.418 Y-29.81
X22.479 Y-29.824
X22.541 Y-29.837
X22.602 Y-29.848
X22.664 Y-29.859
X22.727 Y-29.868
X22.789 Y-29.876
X22.852 Y-29.882
X22.914 Y-29.888
X22.977 Y-29.892
X23.04 Y-29.895
X23.103 Y-29.896
X23.166 Y-29.897
X23.229 Y-29.896
X23.291 Y-29.894
X23.354 Y-29.89
X23.417 Y-29.885
X23.48 Y-29.879
X23.542 Y-29.872
X23.604 Y-29.864
X23.667 Y-29.854
X23.728 Y-29.843
X23.79 Y-29.831
X23.852 Y-29.817
X23.913 Y-29.803
X23.974 Y-29.787
X24.034 Y-29.77
X24.094 Y-29.752
X24.154 Y-29.732
X24.214 Y-29.712
X24.273 Y-29.69
X24.331 Y-29.667
X24.389 Y-29.643
X24.447 Y-29.618
X24.504 Y-29.591
X24.561 Y-29.564
X24.617 Y-29.536
X24.672 Y-29.506
X24.727 Y-29.475
X24.782 Y-29.444
X24.836 Y-29.411
X24.889 Y-29.377
X24.941 Y-29.343
X24.993 Y-29.307
X25.044 Y-29.27
X25.095 Y-29.233
X25.144 Y-29.194
X25.193 Y-29.155
X25.242 Y-29.115
X25.289 Y-29.073
X25.336 Y-29.031
X25.382 Y-28.988
X25.427 Y-28.945
X25.471 Y-28.9
X25.515 Y-28.854
X25.557 Y-28.808
X25.599 Y-28.761
X25.64 Y-28.713
X25.68 Y-28.665
X25.719 Y-28.616
X25.757 Y-28.566
X25.795 Y-28.515
X25.831 Y-28.464
X25.866 Y-28.412
X25.901 Y-28.359
X25.934 Y-28.306
X25.967 Y-28.252
X25.998 Y-28.198
X26.029 Y-28.143
X26.058 Y-28.087
X26.087 Y-28.031
X26.114 Y-27.974
X26.141 Y-27.917
X26.166 Y-27.86
X26.19 Y-27.802
X26.213 Y-27.743
X26.235 Y-27.684
X26.256 Y-27.625
X26.276 Y-27.565
X26.295 Y-27.505
X26.313 Y-27.445
X26.329 Y-27.384
X26.345 Y-27.323
X26.359 Y-27.262
X26.372 Y-27.2
X26.384 Y-27.139
X26.395 Y-27.077
X26.405 Y-27.015
X26.413 Y-26.952
X26.421 Y-26.89
X26.427 Y-26.827
X26.432 Y-26.764
X26.436 Y-26.702
X26.438 Y-26.639
X26.44 Y-26.576
Y-26.513
X26.439 Y-26.45
X26.437 Y-26.387
X26.434 Y-26.324
X26.429 Y-26.262
X26.424 Y-26.199
X26.417 Y-26.137
X26.409 Y-26.074
X26.4 Y-26.012
X26.389 Y-25.95
X26.378 Y-25.888
X26.365 Y-25.826
X26.351 Y-25.765
X26.336 Y-25.704
X26.32 Y-25.643
X26.303 Y-25.583
X26.284 Y-25.523
X26.265 Y-25.463
X26.244 Y-25.403
X26.222 Y-25.344
X26.199 Y-25.286
X26.175 Y-25.228
X26.15 Y-25.17
X26.124 Y-25.113
X26.097 Y-25.056
X26.068 Y-25.
X26.039 Y-24.945
X26.008 Y-24.89
X25.977 Y-24.835
X25.944 Y-24.781
X25.911 Y-24.728
X25.876 Y-24.676
X25.84 Y-24.624
X25.804 Y-24.572
X25.766 Y-24.522
X25.728 Y-24.472
X25.689 Y-24.423
X25.648 Y-24.375
X25.607 Y-24.327
X25.565 Y-24.28
X25.522 Y-24.234
X25.478 Y-24.189
X25.434 Y-24.145
X25.388 Y-24.102
X25.342 Y-24.059
X25.295 Y-24.017
X25.247 Y-23.976
X25.199 Y-23.936
X25.149 Y-23.897
X25.099 Y-23.859
X25.048 Y-23.822
X24.997 Y-23.786
X24.945 Y-23.751
X24.892 Y-23.716
X24.839 Y-23.683
X24.785 Y-23.651
X24.73 Y-23.62
X24.675 Y-23.589
X24.619 Y-23.56
X24.563 Y-23.532
X24.506 Y-23.505
X24.449 Y-23.479
X24.391 Y-23.454
X24.333 Y-23.43
X24.275 Y-23.407
X24.216 Y-23.385
X24.156 Y-23.365
X24.096 Y-23.345
X24.036 Y-23.326
X23.976 Y-23.309
X23.915 Y-23.293
X23.854 Y-23.278
X23.793 Y-23.264
X23.731 Y-23.251
X23.669 Y-23.239
X23.607 Y-23.228
X23.545 Y-23.219
X23.483 Y-23.21
X23.42 Y-23.203
X23.358 Y-23.197
X23.295 Y-23.192
X23.232 Y-23.188
X23.169 Y-23.185
X23.107 Y-23.184
X23.044 Y-23.183
X22.981 Y-23.184
X22.918 Y-23.186
X22.855 Y-23.189
X22.792 Y-23.193
X22.73 Y-23.198
X22.667 Y-23.205
X22.605 Y-23.212
X22.542 Y-23.221
X22.48 Y-23.23
X22.418 Y-23.241
X22.356 Y-23.253
X22.295 Y-23.266
X22.234 Y-23.28
X22.173 Y-23.296
X22.112 Y-23.312
X22.051 Y-23.329
X21.991 Y-23.348
X21.932 Y-23.368
X21.872 Y-23.388
X21.813 Y-23.41
X21.754 Y-23.433
X21.696 Y-23.456
X21.638 Y-23.481
X21.581 Y-23.507
X21.524 Y-23.534
X21.468 Y-23.562
X21.412 Y-23.59
X21.356 Y-23.62
X21.302 Y-23.651
X21.247 Y-23.683
X21.194 Y-23.716
X21.14 Y-23.749
X21.088 Y-23.784
X21.036 Y-23.819
X20.985 Y-23.856
X20.934 Y-23.893
X20.884 Y-23.931
X20.835 Y-23.97
X20.786 Y-24.01
X20.738 Y-24.051
X20.691 Y-24.093
X20.645 Y-24.135
X20.599 Y-24.178
X20.554 Y-24.222
X20.51 Y-24.267
X20.467 Y-24.313
X20.424 Y-24.359
X20.383 Y-24.406
X20.342 Y-24.454
X20.302 Y-24.503
X20.262 Y-24.552
X20.224 Y-24.602
X20.187 Y-24.652
X20.15 Y-24.703
X20.115 Y-24.755
X20.08 Y-24.808
X20.046 Y-24.861
X20.013 Y-24.914
X19.981 Y-24.969
X19.95 Y-25.023
X19.92 Y-25.079
X19.891 Y-25.134
X19.863 Y-25.191
X19.836 Y-25.247
X19.81 Y-25.305
X19.785 Y-25.362
X19.76 Y-25.42
X19.737 Y-25.479
X19.715 Y-25.538
X19.694 Y-25.597
X19.674 Y-25.657
X19.655 Y-25.717
X19.637 Y-25.777
X19.62 Y-25.837
X19.605 Y-25.898
X19.59 Y-25.959
X19.576 Y-26.021
X19.563 Y-26.082
X19.552 Y-26.144
X19.541 Y-26.206
X19.532 Y-26.269
X19.523 Y-26.331
X19.516 Y-26.393
X19.51 Y-26.456
X19.505 Y-26.519
X19.501 Y-26.581
X19.498 Y-26.644
X19.496 Y-26.707
X19.495 Y-26.77
X19.496 Y-26.833
X19.497 Y-26.896
X19.5 Y-26.959
X19.503 Y-27.021
X19.508 Y-27.084
X19.514 Y-27.147
X19.52 Y-27.209
X19.528 Y-27.272
X19.537 Y-27.334
X19.547 Y-27.396
X19.559 Y-27.458
X19.571 Y-27.52
X19.584 Y-27.581
X19.598 Y-27.642
X19.614 Y-27.703
X19.63 Y-27.764
X19.648 Y-27.825
X19.666 Y-27.885
X19.686 Y-27.944
X19.706 Y-28.004
X19.728 Y-28.063
X19.75 Y-28.122
X19.774 Y-28.18
X19.799 Y-28.238
X19.824 Y-28.295
X19.851 Y-28.352
X19.879 Y-28.409
X19.907 Y-28.465
X19.937 Y-28.52
X19.967 Y-28.575
X19.998 Y-28.63
X20.031 Y-28.684
X20.064 Y-28.737
X20.098 Y-28.79
X20.133 Y-28.842
X20.169 Y-28.894
X20.206 Y-28.945
X20.244 Y-28.995
X20.283 Y-29.045
X20.322 Y-29.094
X20.362 Y-29.142
X20.403 Y-29.19
X20.445 Y-29.237
X20.488 Y-29.283
X20.532 Y-29.328
X20.576 Y-29.373
X20.621 Y-29.417
X20.667 Y-29.46
X20.713 Y-29.502
X20.761 Y-29.544
X20.808 Y-29.584
X20.857 Y-29.624
X20.906 Y-29.663
X20.956 Y-29.701
X21.007 Y-29.739
X21.058 Y-29.775
X21.11 Y-29.811
X21.163 Y-29.845
X21.216 Y-29.879
X21.27 Y-29.912
X21.324 Y-29.944
X21.379 Y-29.975
X21.434 Y-30.005
X21.49 Y-30.034
X21.546 Y-30.062
X21.603 Y-30.089
X21.66 Y-30.115
X21.718 Y-30.14
X21.776 Y-30.164
X21.834 Y-30.187
X21.893 Y-30.21
X21.952 Y-30.231
X22.012 Y-30.251
X22.072 Y-30.27
X22.132 Y-30.288
X22.193 Y-30.305
X22.253 Y-30.321
X22.315 Y-30.336
X22.376 Y-30.349
X22.438 Y-30.362
X22.499 Y-30.374
X22.561 Y-30.385
X22.624 Y-30.394
X22.686 Y-30.403
X22.748 Y-30.41
X22.811 Y-30.417
X22.874 Y-30.422
X22.936 Y-30.426
X22.999 Y-30.429
X23.062 Y-30.431
X23.125 Y-30.432
X23.188
X23.251 Y-30.431
X23.314 Y-30.429
X23.376 Y-30.426
X23.439 Y-30.421
X23.502 Y-30.416
X23.564 Y-30.409
X23.627 Y-30.402
X23.689 Y-30.393
X23.751 Y-30.383
X23.813 Y-30.372
X23.875 Y-30.361
X23.936 Y-30.348
X23.998 Y-30.334
X24.059 Y-30.319
X24.12 Y-30.303
X24.18 Y-30.286
X24.241 Y-30.268
X24.301 Y-30.249
X24.36 Y-30.229
X24.419 Y-30.208
X24.478 Y-30.186
X24.537 Y-30.163
X24.595 Y-30.139
X24.653 Y-30.114
X24.71 Y-30.088
X24.767 Y-30.061
X24.823 Y-30.033
X24.879 Y-30.005
X24.935 Y-29.975
X24.99 Y-29.945
X25.044 Y-29.913
X25.098 Y-29.881
X25.152 Y-29.848
X25.205 Y-29.814
X25.257 Y-29.779
X25.309 Y-29.743
X25.36 Y-29.707
X25.411 Y-29.669
X25.461 Y-29.631
X25.51 Y-29.592
X25.559 Y-29.552
X25.607 Y-29.512
X25.654 Y-29.47
X25.701 Y-29.428
X25.747 Y-29.385
X25.792 Y-29.342
X25.837 Y-29.297
X25.881 Y-29.252
X25.924 Y-29.207
X25.967 Y-29.16
X26.008 Y-29.113
X26.049 Y-29.065
X26.089 Y-29.017
X26.129 Y-28.968
X26.167 Y-28.918
X26.205 Y-28.868
X26.242 Y-28.817
X26.279 Y-28.766
X26.314 Y-28.714
X26.349 Y-28.661
X26.382 Y-28.608
X26.415 Y-28.555
X26.447 Y-28.501
X26.478 Y-28.446
X26.509 Y-28.391
X26.538 Y-28.335
X26.567 Y-28.279
X26.594 Y-28.223
X26.621 Y-28.166
X26.647 Y-28.108
X26.672 Y-28.051
X26.696 Y-27.992
X26.719 Y-27.934
X26.741 Y-27.875
X26.762 Y-27.816
X26.782 Y-27.756
X26.801 Y-27.696
X26.82 Y-27.636
X26.837 Y-27.576
X26.853 Y-27.515
X26.869 Y-27.454
X26.883 Y-27.393
X26.896 Y-27.331
X26.909 Y-27.269
X26.92 Y-27.208
X26.931 Y-27.146
X26.94 Y-27.083
X26.948 Y-27.021
X26.956 Y-26.959
X26.962 Y-26.896
X26.968 Y-26.833
X26.972 Y-26.771
X26.975 Y-26.708
X26.978 Y-26.645
X26.979 Y-26.582
Y-26.519
Y-26.456
X26.977 Y-26.393
X26.974 Y-26.331
X26.97 Y-26.268
X26.966 Y-26.205
X26.96 Y-26.142
X26.953 Y-26.08
X26.945 Y-26.017
X26.936 Y-25.955
X26.927 Y-25.893
X26.916 Y-25.831
X26.904 Y-25.769
X26.891 Y-25.708
X26.877 Y-25.646
X26.862 Y-25.585
X26.846 Y-25.524
X26.83 Y-25.464
X26.812 Y-25.404
X26.793 Y-25.343
X26.773 Y-25.284
X26.752 Y-25.224
X26.731 Y-25.165
X26.708 Y-25.107
X26.684 Y-25.048
X26.66 Y-24.99
X26.634 Y-24.933
X26.608 Y-24.876
X26.581 Y-24.819
X26.552 Y-24.763
X26.523 Y-24.707
X26.493 Y-24.652
X26.462 Y-24.597
X26.43 Y-24.543
X26.397 Y-24.489
X26.364 Y-24.436
X26.329 Y-24.384
X26.294 Y-24.332
X26.258 Y-24.28
X26.221 Y-24.229
X26.183 Y-24.179
X26.144 Y-24.129
X26.105 Y-24.08
X26.065 Y-24.032
X26.024 Y-23.984
X25.982 Y-23.937
X25.939 Y-23.891
X25.896 Y-23.845
X25.852 Y-23.8
X25.807 Y-23.756
X25.762 Y-23.713
X25.716 Y-23.67
X25.669 Y-23.628
X25.621 Y-23.587
X25.573 Y-23.546
X25.524 Y-23.507
X25.475 Y-23.468
X25.425 Y-23.43
X25.374 Y-23.392
X25.323 Y-23.356
X25.271 Y-23.32
X25.219 Y-23.285
X25.166 Y-23.251
X25.112 Y-23.218
X25.058 Y-23.186
X25.004 Y-23.155
X24.949 Y-23.124
X24.893 Y-23.094
X24.837 Y-23.066
X24.781 Y-23.038
X24.724 Y-23.011
X24.667 Y-22.985
X24.609 Y-22.96
X24.551 Y-22.936
X24.493 Y-22.912
X24.434 Y-22.89
X24.375 Y-22.869
X24.315 Y-22.848
X24.256 Y-22.829
X24.195 Y-22.81
X24.135 Y-22.793
X24.074 Y-22.776
X24.013 Y-22.76
X23.952 Y-22.746
X23.891 Y-22.732
X23.829 Y-22.719
X23.768 Y-22.707
X23.706 Y-22.697
X23.643 Y-22.687
X23.581 Y-22.678
X23.519 Y-22.67
X23.456 Y-22.663
X23.394 Y-22.657
X23.331 Y-22.652
X23.268 Y-22.648
X23.205 Y-22.646
X23.142 Y-22.644
X23.08 Y-22.643
X23.017
X22.954 Y-22.644
X22.891 Y-22.646
X22.828 Y-22.649
X22.765 Y-22.653
X22.703 Y-22.657
X22.64 Y-22.663
X22.577 Y-22.67
X22.515 Y-22.678
X22.453 Y-22.687
X22.391 Y-22.697
X22.329 Y-22.707
X22.267 Y-22.719
X22.205 Y-22.732
X22.144 Y-22.745
X22.083 Y-22.76
X22.022 Y-22.776
X21.961 Y-22.792
X21.9 Y-22.809
X21.84 Y-22.828
X21.78 Y-22.847
X21.721 Y-22.867
X21.662 Y-22.888
X21.603 Y-22.91
X21.544 Y-22.933
X21.486 Y-22.957
X21.428 Y-22.982
X21.371 Y-23.007
X21.314 Y-23.034
X21.257 Y-23.061
X21.201 Y-23.089
X21.145 Y-23.119
X21.09 Y-23.149
X21.035 Y-23.179
X20.98 Y-23.211
X20.927 Y-23.243
X20.873 Y-23.277
X20.82 Y-23.311
X20.768 Y-23.346
X20.716 Y-23.381
X20.665 Y-23.418
X20.614 Y-23.455
X20.564 Y-23.493
X20.515 Y-23.532
X20.466 Y-23.572
X20.418 Y-23.612
X20.37 Y-23.653
X20.323 Y-23.695
X20.276 Y-23.737
X20.231 Y-23.78
X20.186 Y-23.824
X20.141 Y-23.869
X20.097 Y-23.914
X20.054 Y-23.96
X20.012 Y-24.006
X19.97 Y-24.053
X19.93 Y-24.101
X19.889 Y-24.15
X19.85 Y-24.199
X19.811 Y-24.248
X19.773 Y-24.298
X19.736 Y-24.349
X19.7 Y-24.401
X19.664 Y-24.452
X19.629 Y-24.505
X19.595 Y-24.558
X19.562 Y-24.611
X19.53 Y-24.665
X19.498 Y-24.719
X19.468 Y-24.774
X19.438 Y-24.83
X19.409 Y-24.885
X19.38 Y-24.942
X19.353 Y-24.998
X19.327 Y-25.055
X19.301 Y-25.113
X19.276 Y-25.171
X19.252 Y-25.229
X19.229 Y-25.287
X19.207 Y-25.346
X19.186 Y-25.405
X19.166 Y-25.465
X19.146 Y-25.525
X19.128 Y-25.585
X19.11 Y-25.645
X19.093 Y-25.706
X19.078 Y-25.767
X19.063 Y-25.828
X19.049 Y-25.889
X19.036 Y-25.951
X19.024 Y-26.013
X19.013 Y-26.074
X19.002 Y-26.137
X18.993 Y-26.199
X18.985 Y-26.261
X18.977 Y-26.324
X18.971 Y-26.386
X18.966 Y-26.449
X18.961 Y-26.512
X18.957 Y-26.574
X18.955 Y-26.637
X18.953 Y-26.7
X18.952 Y-26.763
Y-26.826
X18.953 Y-26.889
X18.956 Y-26.952
X18.959 Y-27.014
X18.962 Y-27.077
X18.967 Y-27.14
X18.973 Y-27.203
X18.98 Y-27.265
X18.988 Y-27.328
X18.996 Y-27.39
X19.006 Y-27.452
X19.016 Y-27.514
X19.028 Y-27.576
X19.04 Y-27.638
X19.054 Y-27.699
X19.068 Y-27.76
X19.083 Y-27.821
X19.099 Y-27.882
X19.116 Y-27.943
X19.134 Y-28.003
X19.153 Y-28.063
X19.172 Y-28.123
X19.193 Y-28.182
X19.214 Y-28.241
X19.237 Y-28.3
X19.26 Y-28.359
X19.284 Y-28.417
X19.309 Y-28.474
X19.335 Y-28.532
X19.362 Y-28.589
X19.389 Y-28.645
X19.418 Y-28.701
X19.447 Y-28.757
X19.477 Y-28.812
X19.508 Y-28.867
X19.54 Y-28.921
X19.572 Y-28.975
X19.605 Y-29.029
X19.64 Y-29.081
X19.674 Y-29.134
X19.71 Y-29.186
X19.747 Y-29.237
X19.784 Y-29.287
X19.822 Y-29.338
X19.861 Y-29.387
X19.9 Y-29.436
X19.94 Y-29.485
X19.981 Y-29.532
X20.023 Y-29.579
X20.065 Y-29.626
X20.108 Y-29.672
X20.152 Y-29.717
X20.196 Y-29.762
X20.241 Y-29.806
X20.287 Y-29.849
X20.333 Y-29.891
X20.38 Y-29.933
X20.428 Y-29.974
X20.476 Y-30.015
X20.525 Y-30.054
X20.574 Y-30.093
X20.624 Y-30.132
X20.675 Y-30.169
X20.726 Y-30.206
X20.777 Y-30.242
X20.83 Y-30.277
X20.882 Y-30.311
X20.936 Y-30.345
X20.989 Y-30.377
X21.043 Y-30.409
X21.098 Y-30.441
X21.153 Y-30.471
X21.209 Y-30.5
X21.265 Y-30.529
X21.321 Y-30.557
X21.378 Y-30.584
X21.435 Y-30.61
X21.493 Y-30.635
X21.551 Y-30.659
X21.609 Y-30.683
X21.668 Y-30.706
X21.727 Y-30.727
X21.786 Y-30.748
X21.846 Y-30.768
X21.906 Y-30.787
X21.966 Y-30.806
X22.026 Y-30.823
X22.087 Y-30.839
X22.148 Y-30.855
X22.209 Y-30.869
X22.271 Y-30.883
X22.332 Y-30.896
X22.394 Y-30.907
X22.456 Y-30.918
X22.518 Y-30.928
X22.58 Y-30.937
X22.643 Y-30.945
X22.705 Y-30.952
X22.768 Y-30.959
X22.831 Y-30.964
X22.893 Y-30.968
X22.956 Y-30.972
X23.019 Y-30.974
X23.082 Y-30.976
X23.145
X23.208
X23.271 Y-30.974
X23.333 Y-30.972
X23.396 Y-30.969
X23.459 Y-30.965
X23.522 Y-30.96
X23.584 Y-30.954
X23.647 Y-30.947
X23.709 Y-30.939
X23.772 Y-30.931
X23.834 Y-30.921
X23.896 Y-30.91
X23.958 Y-30.899
X24.019 Y-30.886
X24.081 Y-30.873
X24.142 Y-30.859
X24.203 Y-30.844
X24.264 Y-30.828
X24.324 Y-30.811
X24.385 Y-30.793
X24.445 Y-30.774
X24.505 Y-30.755
X24.564 Y-30.734
X24.623 Y-30.713
X24.682 Y-30.691
X24.741 Y-30.668
X24.799 Y-30.644
X24.857 Y-30.619
X24.914 Y-30.594
X24.971 Y-30.567
X25.028 Y-30.54
X25.084 Y-30.512
X25.14 Y-30.484
X25.196 Y-30.454
X25.251 Y-30.424
X25.306 Y-30.392
X25.36 Y-30.36
X25.413 Y-30.328
X25.467 Y-30.294
X25.519 Y-30.26
X25.572 Y-30.225
X25.623 Y-30.189
X25.675 Y-30.153
X25.725 Y-30.115
X25.776 Y-30.078
X25.825 Y-30.039
X25.874 Y-30.
X25.923 Y-29.96
X25.971 Y-29.919
X26.018 Y-29.877
X26.065 Y-29.835
X26.111 Y-29.793
X26.157 Y-29.749
X26.202 Y-29.705
X26.246 Y-29.661
X26.29 Y-29.616
X26.333 Y-29.57
X26.375 Y-29.523
X26.417 Y-29.476
X26.458 Y-29.429
X26.498 Y-29.38
X26.538 Y-29.332
X26.577 Y-29.282
X26.616 Y-29.233
X26.653 Y-29.182
X26.69 Y-29.131
X26.726 Y-29.08
X26.762 Y-29.028
X26.797 Y-28.975
X26.831 Y-28.923
X26.864 Y-28.869
X26.897 Y-28.815
X26.928 Y-28.761
X26.959 Y-28.706
X26.99 Y-28.651
X27.019 Y-28.596
X27.048 Y-28.54
X27.076 Y-28.483
X27.103 Y-28.427
X27.129 Y-28.369
X27.155 Y-28.312
X27.179 Y-28.254
X27.203 Y-28.196
X27.226 Y-28.137
X27.249 Y-28.079
X27.27 Y-28.019
X27.291 Y-27.96
X27.31 Y-27.9
X27.329 Y-27.84
X27.347 Y-27.78
X27.364 Y-27.72
X27.381 Y-27.659
X27.396 Y-27.598
X27.411 Y-27.537
X27.425 Y-27.475
X27.438 Y-27.414
X27.45 Y-27.352
X27.461 Y-27.29
X27.471 Y-27.228
X27.481 Y-27.166
X27.489 Y-27.103
X27.497 Y-27.041
X27.503 Y-26.979
X27.509 Y-26.916
X27.514 Y-26.853
X27.518 Y-26.79
X27.522 Y-26.728
X27.524 Y-26.665
X27.525 Y-26.602
X27.526 Y-26.539
Y-26.476
X27.524 Y-26.413
X27.522 Y-26.35
X27.519 Y-26.287
X27.515 Y-26.225
X27.51 Y-26.162
X27.505 Y-26.099
X27.498 Y-26.037
X27.491 Y-25.974
X27.482 Y-25.912
X27.473 Y-25.85
X27.463 Y-25.788
X27.452 Y-25.726
X27.44 Y-25.664
X27.427 Y-25.602
X27.413 Y-25.541
X27.399 Y-25.48
X27.383 Y-25.419
X27.367 Y-25.358
X27.35 Y-25.298
X27.332 Y-25.237
X27.313 Y-25.177
X27.294 Y-25.118
X27.273 Y-25.058
X27.252 Y-24.999
X27.229 Y-24.94
X27.206 Y-24.882
X27.182 Y-24.823
X27.158 Y-24.766
X27.132 Y-24.708
X27.106 Y-24.651
X27.078 Y-24.594
X27.05 Y-24.538
X27.022 Y-24.482
X26.992 Y-24.427
X26.962 Y-24.371
X26.931 Y-24.317
X26.899 Y-24.263
X26.866 Y-24.209
X26.832 Y-24.156
X26.798 Y-24.103
X26.763 Y-24.051
X26.728 Y-23.999
X26.691 Y-23.948
X26.654 Y-23.897
X26.616 Y-23.847
X26.578 Y-23.797
X26.538 Y-23.748
X26.498 Y-23.699
X26.458 Y-23.651
X26.416 Y-23.604
X26.374 Y-23.557
X26.332 Y-23.511
X26.288 Y-23.465
X26.244 Y-23.42
X26.2 Y-23.376
X26.154 Y-23.332
X26.109 Y-23.289
X26.062 Y-23.247
X26.015 Y-23.205
X25.968 Y-23.164
X25.919 Y-23.123
X25.871 Y-23.084
X25.821 Y-23.045
X25.771 Y-23.006
X25.721 Y-22.969
X25.67 Y-22.932
X25.619 Y-22.896
X25.567 Y-22.86
X25.514 Y-22.825
X25.461 Y-22.791
X25.408 Y-22.758
X25.354 Y-22.726
X25.3 Y-22.694
X25.245 Y-22.663
X25.19 Y-22.633
X25.134 Y-22.603
X25.078 Y-22.575
X25.022 Y-22.547
X24.965 Y-22.52
X24.908 Y-22.494
X24.85 Y-22.468
X24.792 Y-22.444
X24.734 Y-22.42
X24.676 Y-22.397
X24.617 Y-22.375
X24.558 Y-22.353
X24.498 Y-22.333
X24.438 Y-22.313
X24.378 Y-22.294
X24.318 Y-22.276
X24.258 Y-22.259
X24.197 Y-22.243
X24.136 Y-22.227
X24.075 Y-22.212
X24.013 Y-22.199
X23.952 Y-22.186
X23.89 Y-22.174
X23.828 Y-22.162
X23.766 Y-22.152
X23.704 Y-22.142
X23.642 Y-22.134
X23.579 Y-22.126
X23.517 Y-22.119
X23.454 Y-22.113
X23.391 Y-22.108
X23.329 Y-22.104
X23.266 Y-22.1
X23.203 Y-22.098
X23.14 Y-22.096
X23.077 Y-22.095
X23.014
X22.952 Y-22.096
X22.889 Y-22.098
X22.826 Y-22.1
X22.763 Y-22.104
X22.7 Y-22.108
X22.638 Y-22.113
X22.575 Y-22.119
X22.512 Y-22.126
X22.45 Y-22.134
X22.388 Y-22.143
X22.326 Y-22.152
X22.263 Y-22.162
X22.202 Y-22.174
X22.14 Y-22.186
X22.078 Y-22.199
X22.017 Y-22.212
X21.956 Y-22.227
X21.895 Y-22.242
X21.834 Y-22.258
X21.773 Y-22.275
X21.713 Y-22.293
X21.653 Y-22.312
X21.593 Y-22.331
X21.534 Y-22.352
X21.474 Y-22.373
X21.415 Y-22.395
X21.357 Y-22.418
X21.299 Y-22.441
X21.241 Y-22.465
X21.183 Y-22.491
X21.126 Y-22.516
X21.069 Y-22.543
X21.012 Y-22.571
X20.956 Y-22.599
X20.9 Y-22.628
X20.844 Y-22.657
X20.789 Y-22.688
X20.735 Y-22.719
X20.681 Y-22.751
X20.627 Y-22.784
X20.574 Y-22.817
X20.521 Y-22.851
X20.468 Y-22.886
X20.416 Y-22.922
X20.365 Y-22.958
X20.314 Y-22.995
X20.264 Y-23.032
X20.214 Y-23.071
X20.164 Y-23.109
X20.115 Y-23.149
X20.067 Y-23.189
X20.019 Y-23.23
X19.972 Y-23.272
X19.925 Y-23.314
X19.879 Y-23.357
X19.834 Y-23.4
X19.789 Y-23.444
X19.745 Y-23.489
X19.701 Y-23.534
X19.658 Y-23.58
X19.615 Y-23.626
X19.574 Y-23.673
X19.532 Y-23.721
X19.492 Y-23.769
X19.452 Y-23.817
X19.413 Y-23.867
X19.374 Y-23.916
X19.336 Y-23.966
X19.299 Y-24.017
X19.262 Y-24.068
X19.226 Y-24.12
X19.191 Y-24.172
X19.157 Y-24.225
X19.123 Y-24.278
X19.09 Y-24.331
X19.057 Y-24.385
X19.026 Y-24.44
X18.995 Y-24.494
X18.965 Y-24.55
X18.935 Y-24.605
X18.907 Y-24.661
X18.879 Y-24.717
X18.851 Y-24.774
X18.825 Y-24.831
X18.799 Y-24.889
X18.775 Y-24.946
X18.75 Y-25.005
X18.727 Y-25.063
X18.705 Y-25.122
X18.683 Y-25.181
X18.662 Y-25.24
X18.642 Y-25.3
X18.622 Y-25.359
X18.604 Y-25.42
X18.586 Y-25.48
X18.569 Y-25.54
X18.553 Y-25.601
X18.538 Y-25.662
X18.523 Y-25.723
X18.509 Y-25.785
X18.496 Y-25.846
X18.484 Y-25.908
X18.473 Y-25.97
X18.463 Y-26.032
X18.453 Y-26.094
X18.444 Y-26.157
X18.436 Y-26.219
X18.429 Y-26.281
X18.423 Y-26.344
X18.418 Y-26.407
X18.413 Y-26.469
X18.409 Y-26.532
X18.406 Y-26.595
X18.404 Y-26.658
X18.403 Y-26.721
Y-26.784
Y-26.847
X18.404 Y-26.909
X18.406 Y-26.972
X18.409 Y-27.035
X18.413 Y-27.098
X18.418 Y-27.161
X18.423 Y-27.223
X18.429 Y-27.286
X18.436 Y-27.348
X18.444 Y-27.411
X18.453 Y-27.473
X18.463 Y-27.535
X18.473 Y-27.597
X18.484 Y-27.659
X18.496 Y-27.721
X18.509 Y-27.783
X18.523 Y-27.844
X18.537 Y-27.905
X18.553 Y-27.966
X18.569 Y-28.027
X18.586 Y-28.088
X18.603 Y-28.148
X18.622 Y-28.208
X18.641 Y-28.268
X18.661 Y-28.327
X18.682 Y-28.387
X18.704 Y-28.446
X18.727 Y-28.505
X18.75 Y-28.563
X18.774 Y-28.621
X18.799 Y-28.679
X18.824 Y-28.736
X18.85 Y-28.794
X18.878 Y-28.85
X18.905 Y-28.907
X18.934 Y-28.963
X18.963 Y-29.018
X18.993 Y-29.074
X19.024 Y-29.129
X19.056 Y-29.183
X19.088 Y-29.237
X19.121 Y-29.291
X19.154 Y-29.344
X19.189 Y-29.396
X19.224 Y-29.449
X19.259 Y-29.5
X19.296 Y-29.552
X19.333 Y-29.603
X19.371 Y-29.653
X19.409 Y-29.703
X19.448 Y-29.752
X19.488 Y-29.801
X19.528 Y-29.849
X19.569 Y-29.897
X19.611 Y-29.944
X19.653 Y-29.99
X19.696 Y-30.036
X19.74 Y-30.082
X19.784 Y-30.127
X19.828 Y-30.171
X19.874 Y-30.215
X19.919 Y-30.258
X19.966 Y-30.3
X20.013 Y-30.342
X20.06 Y-30.383
X20.108 Y-30.424
X20.157 Y-30.464
X20.206 Y-30.503
X20.256 Y-30.542
X20.306 Y-30.58
X20.356 Y-30.617
X20.407 Y-30.654
X20.459 Y-30.69
X20.511 Y-30.725
X20.564 Y-30.76
X20.617 Y-30.794
X20.67 Y-30.827
X20.724 Y-30.859
X20.778 Y-30.891
X20.833 Y-30.922
X20.888 Y-30.952
X20.943 Y-30.982
X20.999 Y-31.011
X21.056 Y-31.039
X21.112 Y-31.066
X21.169 Y-31.093
X21.227 Y-31.119
X21.284 Y-31.144
X21.342 Y-31.168
X21.401 Y-31.192
X21.459 Y-31.215
X21.518 Y-31.237
X21.577 Y-31.258
X21.637 Y-31.278
X21.697 Y-31.298
X21.757 Y-31.317
X21.817 Y-31.335
X21.877 Y-31.352
X21.938 Y-31.369
X21.999 Y-31.384
X22.06 Y-31.399
X22.121 Y-31.413
X22.183 Y-31.426
X22.245 Y-31.439
X22.306 Y-31.45
X22.368 Y-31.461
X22.431 Y-31.471
X22.493 Y-31.48
X22.555 Y-31.488
X22.618 Y-31.496
X22.68 Y-31.503
X22.743 Y-31.508
X22.805 Y-31.513
X22.868 Y-31.518
X22.931 Y-31.521
X22.994 Y-31.523
X23.057 Y-31.525
X23.12 Y-31.526
X23.183
X23.245 Y-31.525
X23.308 Y-31.524
X23.371 Y-31.521
X23.434 Y-31.518
X23.497 Y-31.514
X23.559 Y-31.509
X23.622 Y-31.503
X23.685 Y-31.496
X23.747 Y-31.489
X23.809 Y-31.481
X23.872 Y-31.472
X23.934 Y-31.462
X23.996 Y-31.451
X24.058 Y-31.44
X24.119 Y-31.428
X24.181 Y-31.414
X24.242 Y-31.401
X24.303 Y-31.386
X24.364 Y-31.37
X24.425 Y-31.354
X24.486 Y-31.337
X24.546 Y-31.319
X24.606 Y-31.301
X24.666 Y-31.281
X24.726 Y-31.261
X24.785 Y-31.24
X24.844 Y-31.219
X24.903 Y-31.196
X24.961 Y-31.173
X25.019 Y-31.149
X25.077 Y-31.124
X25.135 Y-31.099
X25.192 Y-31.073
X25.249 Y-31.046
X25.305 Y-31.018
X25.361 Y-30.99
X25.417 Y-30.961
X25.473 Y-30.931
X25.528 Y-30.9
X25.582 Y-30.869
X25.636 Y-30.837
X25.69 Y-30.805
X25.744 Y-30.772
X25.797 Y-30.738
X25.849 Y-30.703
X25.901 Y-30.668
X25.953 Y-30.632
X26.004 Y-30.595
X26.055 Y-30.558
X26.105 Y-30.52
X26.155 Y-30.482
X26.204 Y-30.443
X26.253 Y-30.403
X26.301 Y-30.363
X26.349 Y-30.322
X26.396 Y-30.28
X26.443 Y-30.238
X26.489 Y-30.195
X26.535 Y-30.152
X26.58 Y-30.108
X26.624 Y-30.064
X26.668 Y-30.019
X26.712 Y-29.973
X26.754 Y-29.927
X26.797 Y-29.881
X26.838 Y-29.833
X26.879 Y-29.786
X26.92 Y-29.738
X26.96 Y-29.689
X26.999 Y-29.64
X27.038 Y-29.59
X27.076 Y-29.54
X27.113 Y-29.489
X27.15 Y-29.438
X27.186 Y-29.387
X27.221 Y-29.335
X27.256 Y-29.283
X27.29 Y-29.23
X27.324 Y-29.176
X27.357 Y-29.123
X27.389 Y-29.069
X27.42 Y-29.014
X27.451 Y-28.959
X27.481 Y-28.904
X27.51 Y-28.849
X27.539 Y-28.793
X27.567 Y-28.736
X27.594 Y-28.68
X27.621 Y-28.623
X27.647 Y-28.565
X27.672 Y-28.508
X27.696 Y-28.45
X27.72 Y-28.391
X27.743 Y-28.333
X27.765 Y-28.274
X27.787 Y-28.215
X27.808 Y-28.156
X27.828 Y-28.096
X27.847 Y-28.036
X27.865 Y-27.976
X27.883 Y-27.916
X27.9 Y-27.855
X27.916 Y-27.794
X27.932 Y-27.733
X27.947 Y-27.672
X27.961 Y-27.611
X27.974 Y-27.549
X27.986 Y-27.488
X27.998 Y-27.426
X28.009 Y-27.364
X28.019 Y-27.302
X28.028 Y-27.24
X28.036 Y-27.177
X28.044 Y-27.115
X28.051 Y-27.052
X28.057 Y-26.99
X28.063 Y-26.927
X28.067 Y-26.864
X28.071 Y-26.801
X28.074 Y-26.739
X28.076 Y-26.676
X28.077 Y-26.613
X28.078 Y-26.55
Y-26.487
X28.077 Y-26.424
X28.075 Y-26.361
X28.073 Y-26.299
X28.069 Y-26.236
X28.065 Y-26.173
X28.06 Y-26.11
X28.054 Y-26.048
X28.048 Y-25.985
X28.04 Y-25.923
X28.032 Y-25.86
X28.023 Y-25.798
X28.014 Y-25.736
X28.003 Y-25.674
X27.992 Y-25.612
X27.98 Y-25.55
X27.967 Y-25.489
X27.954 Y-25.427
X27.939 Y-25.366
X27.924 Y-25.305
X27.908 Y-25.244
X27.891 Y-25.183
X27.874 Y-25.123
X27.856 Y-25.063
X27.837 Y-25.003
X27.817 Y-24.943
X27.797 Y-24.884
X27.775 Y-24.824
X27.753 Y-24.765
X27.731 Y-24.707
X27.707 Y-24.648
X27.683 Y-24.59
X27.658 Y-24.533
X27.632 Y-24.475
X27.606 Y-24.418
X27.579 Y-24.361
X27.551 Y-24.305
X27.523 Y-24.249
X27.493 Y-24.193
X27.463 Y-24.138
X27.433 Y-24.083
X27.401 Y-24.028
X27.369 Y-23.974
X27.337 Y-23.921
X27.303 Y-23.867
X27.269 Y-23.814
X27.234 Y-23.762
X27.199 Y-23.71
X27.163 Y-23.658
X27.126 Y-23.607
X27.089 Y-23.557
X27.051 Y-23.506
X27.012 Y-23.457
X26.973 Y-23.408
X26.933 Y-23.359
X26.893 Y-23.311
X26.852 Y-23.263
X26.81 Y-23.216
X26.768 Y-23.169
X26.725 Y-23.123
X26.682 Y-23.078
X26.638 Y-23.033
X26.593 Y-22.988
X26.548 Y-22.945
X26.502 Y-22.901
X26.456 Y-22.859
X26.41 Y-22.817
X26.362 Y-22.775
X26.314 Y-22.734
X26.266 Y-22.694
X26.217 Y-22.654
X26.168 Y-22.615
X26.118 Y-22.576
X26.068 Y-22.539
X26.017 Y-22.501
X25.966 Y-22.465
X25.915 Y-22.429
X25.863 Y-22.394
X25.81 Y-22.359
X25.757 Y-22.325
X25.704 Y-22.292
X25.65 Y-22.259
X25.596 Y-22.227
X25.541 Y-22.196
X25.486 Y-22.165
X25.431 Y-22.135
X25.375 Y-22.106
X25.319 Y-22.078
X25.263 Y-22.05
X25.206 Y-22.023
X25.149 Y-21.996
X25.092 Y-21.971
X25.034 Y-21.946
X24.976 Y-21.921
X24.917 Y-21.898
X24.859 Y-21.875
X24.8 Y-21.853
X24.741 Y-21.832
X24.681 Y-21.811
X24.622 Y-21.791
X24.562 Y-21.772
X24.501 Y-21.754
X24.441 Y-21.736
X24.38 Y-21.719
X24.32 Y-21.703
X24.259 Y-21.688
X24.197 Y-21.673
X24.136 Y-21.66
X24.075 Y-21.646
X24.013 Y-21.634
X23.951 Y-21.623
X23.889 Y-21.612
X23.827 Y-21.602
X23.765 Y-21.593
X23.702 Y-21.584
X23.64 Y-21.576
X23.578 Y-21.569
X23.515 Y-21.563
X23.452 Y-21.558
X23.39 Y-21.553
X23.327 Y-21.549
X23.264 Y-21.546
X23.201 Y-21.544
X23.138 Y-21.543
X23.075 Y-21.542
X23.012
X22.949 Y-21.543
X22.887 Y-21.544
X22.824 Y-21.546
X22.761 Y-21.55
X22.698 Y-21.553
X22.635 Y-21.558
X22.573 Y-21.564
X22.51 Y-21.57
X22.448 Y-21.577
X22.385 Y-21.584
X22.323 Y-21.593
X22.261 Y-21.602
X22.199 Y-21.612
X22.137 Y-21.623
X22.075 Y-21.634
X22.013 Y-21.647
X21.952 Y-21.66
X21.89 Y-21.673
X21.829 Y-21.688
X21.768 Y-21.703
X21.707 Y-21.719
X21.646 Y-21.736
X21.586 Y-21.753
X21.526 Y-21.772
X21.466 Y-21.791
X21.406 Y-21.81
X21.347 Y-21.831
X21.287 Y-21.852
X21.228 Y-21.874
X21.17 Y-21.896
X21.111 Y-21.919
X21.053 Y-21.943
X20.995 Y-21.968
X20.938 Y-21.994
X20.88 Y-22.02
X20.824 Y-22.046
X20.767 Y-22.074
X20.711 Y-22.102
X20.655 Y-22.131
X20.599 Y-22.16
X20.544 Y-22.19
X20.489 Y-22.221
X20.435 Y-22.253
X20.381 Y-22.285
X20.327 Y-22.318
X20.274 Y-22.351
X20.221 Y-22.385
X20.168 Y-22.42
X20.116 Y-22.455
X20.065 Y-22.491
X20.014 Y-22.528
X19.963 Y-22.565
X19.913 Y-22.603
X19.863 Y-22.642
X19.814 Y-22.681
X19.765 Y-22.72
X19.716 Y-22.76
X19.669 Y-22.801
X19.621 Y-22.843
X19.574 Y-22.884
X19.528 Y-22.927
X19.482 Y-22.97
X19.437 Y-23.014
X19.392 Y-23.058
X19.348 Y-23.102
X19.304 Y-23.148
X19.261 Y-23.193
X19.218 Y-23.24
X19.176 Y-23.286
X19.134 Y-23.334
X19.093 Y-23.381
X19.053 Y-23.43
X19.013 Y-23.478
X18.974 Y-23.527
X18.936 Y-23.577
X18.898 Y-23.627
X18.86 Y-23.678
X18.823 Y-23.729
X18.787 Y-23.78
X18.752 Y-23.832
X18.717 Y-23.884
X18.682 Y-23.937
X18.649 Y-23.99
X18.616 Y-24.044
X18.583 Y-24.098
X18.552 Y-24.152
X18.52 Y-24.207
X18.49 Y-24.262
X18.46 Y-24.317
X18.431 Y-24.373
X18.403 Y-24.429
X18.375 Y-24.486
X18.348 Y-24.542
X18.321 Y-24.599
X18.296 Y-24.657
X18.271 Y-24.714
X18.246 Y-24.772
X18.223 Y-24.831
X18.2 Y-24.889
X18.178 Y-24.948
X18.156 Y-25.007
X18.135 Y-25.067
X18.115 Y-25.126
X18.096 Y-25.186
X18.077 Y-25.246
X18.059 Y-25.306
X18.042 Y-25.367
X18.025 Y-25.428
X18.009 Y-25.488
X17.994 Y-25.55
X17.98 Y-25.611
X17.966 Y-25.672
X17.953 Y-25.734
X17.941 Y-25.795
X17.93 Y-25.857
X17.919 Y-25.919
X17.909 Y-25.981
X17.9 Y-26.044
X17.892 Y-26.106
X17.884 Y-26.168
X17.877 Y-26.231
X17.871 Y-26.293
X17.865 Y-26.356
X17.861 Y-26.419
X17.857 Y-26.482
X17.853 Y-26.544
X17.851 Y-26.607
X17.849 Y-26.67
X17.848 Y-26.733
Y-26.796
Y-26.859
X17.85 Y-26.922
X17.852 Y-26.985
X17.854 Y-27.047
X17.858 Y-27.11
X17.862 Y-27.173
X17.867 Y-27.236
X17.873 Y-27.298
X17.88 Y-27.361
X17.887 Y-27.423
X17.895 Y-27.486
X17.903 Y-27.548
X17.913 Y-27.61
X17.923 Y-27.672
X17.934 Y-27.734
X17.946 Y-27.796
X17.958 Y-27.858
X17.971 Y-27.919
X17.985 Y-27.981
X18. Y-28.042
X18.015 Y-28.103
X18.031 Y-28.164
X18.048 Y-28.224
X18.065 Y-28.285
X18.084 Y-28.345
X18.103 Y-28.405
X18.122 Y-28.465
X18.143 Y-28.524
X18.164 Y-28.583
X18.185 Y-28.642
X18.208 Y-28.701
X18.231 Y-28.76
X18.255 Y-28.818
X18.279 Y-28.876
X18.305 Y-28.933
X18.33 Y-28.991
X18.357 Y-29.048
X18.384 Y-29.104
X18.412 Y-29.161
X18.441 Y-29.217
X18.47 Y-29.273
X18.5 Y-29.328
X18.53 Y-29.383
X18.562 Y-29.437
X18.594 Y-29.492
X18.626 Y-29.545
X18.659 Y-29.599
X18.693 Y-29.652
X18.727 Y-29.705
X18.762 Y-29.757
X18.798 Y-29.809
X18.834 Y-29.86
X18.871 Y-29.911
X18.909 Y-29.962
X18.947 Y-30.012
X18.985 Y-30.061
X19.025 Y-30.11
X19.064 Y-30.159
X19.105 Y-30.207
X19.146 Y-30.255
X19.187 Y-30.302
X19.229 Y-30.349
X19.272 Y-30.395
X19.315 Y-30.441
X19.359 Y-30.486
X19.403 Y-30.531
X19.448 Y-30.575
X19.493 Y-30.619
X19.539 Y-30.662
X19.586 Y-30.704
X19.632 Y-30.746
X19.68 Y-30.788
X19.727 Y-30.829
X19.776 Y-30.869
X19.825 Y-30.909
X19.874 Y-30.948
X19.923 Y-30.986
X19.974 Y-31.024
X20.024 Y-31.062
X20.075 Y-31.099
X20.127 Y-31.135
X20.179 Y-31.17
X20.231 Y-31.205
X20.284 Y-31.239
X20.337 Y-31.273
X20.39 Y-31.306
X20.444 Y-31.339
X20.499 Y-31.37
X20.553 Y-31.401
X20.608 Y-31.432
X20.664 Y-31.462
X20.719 Y-31.491
X20.775 Y-31.519
X20.832 Y-31.547
X20.889 Y-31.574
X20.946 Y-31.601
X21.003 Y-31.627
X21.061 Y-31.652
X21.119 Y-31.676
X21.177 Y-31.7
X21.235 Y-31.723
X21.294 Y-31.745
X21.353 Y-31.767
X21.413 Y-31.788
X21.472 Y-31.808
X21.532 Y-31.828
X21.592 Y-31.847
X21.652 Y-31.865
X21.713 Y-31.882
X21.773 Y-31.899
X21.834 Y-31.915
X21.895 Y-31.93
X21.956 Y-31.945
X22.018 Y-31.958
X22.079 Y-31.971
X22.141 Y-31.984
X22.203 Y-31.995
X22.265 Y-32.006
X22.327 Y-32.016
X22.389 Y-32.026
X22.451 Y-32.034
X22.514 Y-32.042
X22.576 Y-32.05
X22.639 Y-32.056
X22.701 Y-32.062
X22.764 Y-32.067
X22.827 Y-32.071
X22.89 Y-32.074
X22.952 Y-32.077
X23.015 Y-32.079
X23.078 Y-32.081
X23.141
X23.204
X23.267 Y-32.08
X23.33 Y-32.078
X23.393 Y-32.076
X23.455 Y-32.073
X23.518 Y-32.069
X23.581 Y-32.064
X23.644 Y-32.059
X23.706 Y-32.052
X23.769 Y-32.046
X23.831 Y-32.038
X23.893 Y-32.03
X23.956 Y-32.021
X24.018 Y-32.011
X24.08 Y-32.
X24.142 Y-31.989
X24.203 Y-31.977
X24.265 Y-31.964
X24.327 Y-31.951
X24.388 Y-31.937
X24.449 Y-31.922
X24.51 Y-31.907
X24.571 Y-31.89
X24.631 Y-31.873
X24.692 Y-31.856
X24.752 Y-31.837
X24.812 Y-31.818
X24.871 Y-31.798
X24.931 Y-31.778
X24.99 Y-31.757
X25.049 Y-31.735
X25.108 Y-31.713
X25.166 Y-31.689
X25.225 Y-31.666
X25.283 Y-31.641
X25.34 Y-31.616
X25.397 Y-31.59
X25.455 Y-31.563
X25.511 Y-31.536
X25.568 Y-31.508
X25.624 Y-31.48
X25.68 Y-31.451
X25.735 Y-31.421
X25.79 Y-31.391
X25.845 Y-31.36
X25.899 Y-31.328
X25.953 Y-31.296
X26.007 Y-31.263
X26.06 Y-31.23
X26.113 Y-31.195
X26.165 Y-31.161
X26.217 Y-31.125
X26.269 Y-31.09
X26.32 Y-31.053
X26.371 Y-31.016
X26.422 Y-30.978
X26.472 Y-30.94
X26.521 Y-30.902
X26.57 Y-30.862
X26.619 Y-30.822
X26.667 Y-30.782
X26.715 Y-30.741
X26.762 Y-30.699
X26.809 Y-30.657
X26.855 Y-30.615
X26.901 Y-30.572
X26.946 Y-30.528
X26.991 Y-30.484
X27.036 Y-30.439
X27.079 Y-30.394
X27.123 Y-30.349
X27.165 Y-30.303
X27.208 Y-30.256
X27.249 Y-30.209
X27.291 Y-30.162
X27.331 Y-30.114
X27.372 Y-30.065
X27.411 Y-30.016
X27.45 Y-29.967
X27.489 Y-29.917
X27.527 Y-29.867
X27.564 Y-29.816
X27.601 Y-29.765
X27.637 Y-29.714
X27.672 Y-29.662
X27.707 Y-29.61
X27.742 Y-29.557
X27.776 Y-29.504
X27.809 Y-29.451
X27.842 Y-29.397
X27.874 Y-29.343
X27.905 Y-29.288
X27.936 Y-29.233
X27.966 Y-29.178
X27.996 Y-29.123
X28.025 Y-29.067
X28.053 Y-29.011
X28.081 Y-28.954
X28.108 Y-28.897
X28.134 Y-28.84
X28.16 Y-28.783
X28.185 Y-28.725
X28.209 Y-28.667
X28.233 Y-28.609
X28.256 Y-28.551
X28.279 Y-28.492
X28.3 Y-28.433
X28.322 Y-28.374
X28.342 Y-28.314
X28.362 Y-28.254
X28.381 Y-28.195
X28.399 Y-28.134
X28.417 Y-28.074
X28.434 Y-28.014
X28.451 Y-27.953
X28.466 Y-27.892
X28.481 Y-27.831
X28.496 Y-27.77
X28.509 Y-27.708
X28.522 Y-27.647
X28.535 Y-27.585
X28.546 Y-27.523
X28.557 Y-27.461
X28.567 Y-27.399
X28.577 Y-27.337
X28.585 Y-27.275
X28.593 Y-27.212
X28.601 Y-27.15
X28.607 Y-27.087
X28.613 Y-27.025
X28.618 Y-26.962
X28.623 Y-26.899
X28.627 Y-26.836
X28.63 Y-26.774
X28.632 Y-26.711
X28.634 Y-26.648
X28.635 Y-26.585
Y-26.522
X28.634 Y-26.459
X28.633 Y-26.396
X28.631 Y-26.333
X28.629 Y-26.27
X28.625 Y-26.208
X28.621 Y-26.145
X28.616 Y-26.082
X28.611 Y-26.02
X28.605 Y-25.957
X28.598 Y-25.894
X28.59 Y-25.832
X28.582 Y-25.77
X28.573 Y-25.707
X28.563 Y-25.645
X28.553 Y-25.583
X28.541 Y-25.521
X28.53 Y-25.46
X28.517 Y-25.398
X28.504 Y-25.336
X28.49 Y-25.275
X28.475 Y-25.214
X28.46 Y-25.153
X28.444 Y-25.092
X28.427 Y-25.031
X28.41 Y-24.971
X28.391 Y-24.911
X28.373 Y-24.851
X28.353 Y-24.791
X28.333 Y-24.731
X28.312 Y-24.672
X28.291 Y-24.613
X28.269 Y-24.554
X28.246 Y-24.495
X28.222 Y-24.437
X28.198 Y-24.379
X28.173 Y-24.321
X28.148 Y-24.264
X28.122 Y-24.207
X28.095 Y-24.15
X28.067 Y-24.093
X28.039 Y-24.037
X28.01 Y-23.981
X27.981 Y-23.925
X27.951 Y-23.87
X27.921 Y-23.815
X27.889 Y-23.76
X27.857 Y-23.706
X27.825 Y-23.652
X27.792 Y-23.599
X27.758 Y-23.546
X27.724 Y-23.493
X27.689 Y-23.441
X27.654 Y-23.389
X27.618 Y-23.337
X27.581 Y-23.286
X27.544 Y-23.235
X27.506 Y-23.185
X27.467 Y-23.135
X27.429 Y-23.086
X27.389 Y-23.037
X27.349 Y-22.988
X27.308 Y-22.94
X27.267 Y-22.893
X27.226 Y-22.845
X27.183 Y-22.799
X27.141 Y-22.753
X27.097 Y-22.707
X27.054 Y-22.662
X27.009 Y-22.617
X26.965 Y-22.573
X26.919 Y-22.529
X26.874 Y-22.486
X26.827 Y-22.444
X26.781 Y-22.401
X26.733 Y-22.36
X26.686 Y-22.319
X26.638 Y-22.278
X26.589 Y-22.238
X26.54 Y-22.199
X26.491 Y-22.16
X26.441 Y-22.122
X26.39 Y-22.084
X26.339 Y-22.047
X26.288 Y-22.01
X26.237 Y-21.974
X26.185 Y-21.939
X26.132 Y-21.904
X26.08 Y-21.87
X26.026 Y-21.836
X25.973 Y-21.803
X25.919 Y-21.771
X25.865 Y-21.739
X25.81 Y-21.708
X25.755 Y-21.677
X25.7 Y-21.647
X25.644 Y-21.618
X25.588 Y-21.589
X25.532 Y-21.561
X25.475 Y-21.534
X25.418 Y-21.507
X25.361 Y-21.481
X25.304 Y-21.455
X25.246 Y-21.431
X25.188 Y-21.406
X25.13 Y-21.383
X25.071 Y-21.36
X25.012 Y-21.338
X24.953 Y-21.316
X24.894 Y-21.295
X24.834 Y-21.275
X24.774 Y-21.255
X24.714 Y-21.236
X24.654 Y-21.218
X24.594 Y-21.2
X24.533 Y-21.183
X24.473 Y-21.167
X24.412 Y-21.152
X24.35 Y-21.137
X24.289 Y-21.123
X24.228 Y-21.109
X24.166 Y-21.096
X24.104 Y-21.084
X24.043 Y-21.073
X23.981 Y-21.062
X23.919 Y-21.052
X23.856 Y-21.043
X23.794 Y-21.034
X23.732 Y-21.026
X23.669 Y-21.019
X23.607 Y-21.012
X23.544 Y-21.006
X23.481 Y-21.001
X23.419 Y-20.996
X23.356 Y-20.993
X23.293 Y-20.99
X23.23 Y-20.987
X23.167 Y-20.985
X23.104 Y-20.984
X23.041
X22.979
X22.916 Y-20.986
X22.853 Y-20.987
X22.79 Y-20.99
X22.727 Y-20.993
X22.664 Y-20.997
X22.602 Y-21.001
X22.539 Y-21.007
X22.476 Y-21.013
X22.414 Y-21.019
X22.351 Y-21.026
X22.289 Y-21.034
X22.227 Y-21.043
X22.164 Y-21.053
X22.102 Y-21.063
X22.04 Y-21.073
X21.978 Y-21.085
X21.917 Y-21.097
X21.855 Y-21.11
X21.794 Y-21.123
X21.732 Y-21.137
X21.671 Y-21.152
X21.61 Y-21.168
X21.55 Y-21.184
X21.489 Y-21.201
X21.429 Y-21.218
X21.368 Y-21.236
X21.308 Y-21.255
X21.249 Y-21.275
X21.189 Y-21.295
X21.13 Y-21.316
X21.07 Y-21.337
X21.012 Y-21.359
X20.953 Y-21.382
X20.894 Y-21.405
X20.836 Y-21.429
X20.778 Y-21.454
X20.721 Y-21.479
X20.664 Y-21.505
X20.607 Y-21.532
X20.55 Y-21.559
X20.493 Y-21.587
X20.437 Y-21.615
X20.381 Y-21.644
X20.326 Y-21.674
X20.271 Y-21.704
X20.216 Y-21.735
X20.161 Y-21.766
X20.107 Y-21.798
X20.054 Y-21.831
X20. Y-21.864
X19.947 Y-21.898
X19.894 Y-21.932
X19.842 Y-21.967
X19.79 Y-22.002
X19.739 Y-22.038
X19.687 Y-22.075
X19.637 Y-22.112
X19.586 Y-22.15
X19.536 Y-22.188
X19.487 Y-22.227
X19.438 Y-22.266
X19.389 Y-22.306
X19.341 Y-22.347
X19.293 Y-22.388
X19.246 Y-22.429
X19.199 Y-22.471
X19.153 Y-22.513
X19.107 Y-22.556
X19.061 Y-22.6
X19.016 Y-22.644
X18.972 Y-22.688
X18.928 Y-22.733
X18.884 Y-22.779
X18.841 Y-22.824
X18.799 Y-22.871
X18.757 Y-22.918
X18.715 Y-22.965
X18.674 Y-23.012
X18.633 Y-23.061
X18.594 Y-23.109
X18.554 Y-23.158
X18.515 Y-23.208
X18.477 Y-23.257
X18.439 Y-23.308
X18.402 Y-23.358
X18.365 Y-23.409
X18.329 Y-23.461
X18.293 Y-23.513
X18.258 Y-23.565
X18.224 Y-23.618
X18.19 Y-23.671
X18.157 Y-23.724
X18.124 Y-23.778
X18.092 Y-23.832
X18.06 Y-23.886
X18.029 Y-23.941
X17.999 Y-23.996
X17.969 Y-24.051
X17.94 Y-24.107
X17.911 Y-24.163
X17.883 Y-24.219
X17.856 Y-24.276
X17.829 Y-24.333
X17.803 Y-24.39
X17.777 Y-24.448
X17.752 Y-24.505
X17.728 Y-24.563
X17.705 Y-24.622
X17.682 Y-24.68
X17.659 Y-24.739
X17.637 Y-24.798
X17.616 Y-24.857
X17.596 Y-24.917
X17.576 Y-24.977
X17.557 Y-25.036
X17.538 Y-25.097
X17.521 Y-25.157
X17.503 Y-25.217
X17.487 Y-25.278
X17.471 Y-25.339
X17.456 Y-25.4
X17.441 Y-25.461
X17.427 Y-25.522
X17.414 Y-25.584
X17.401 Y-25.646
X17.389 Y-25.707
X17.378 Y-25.769
X17.367 Y-25.831
X17.357 Y-25.893
X17.348 Y-25.956
X17.34 Y-26.018
X17.332 Y-26.08
X17.324 Y-26.143
X17.318 Y-26.205
X17.312 Y-26.268
X17.307 Y-26.331
X17.302 Y-26.393
X17.298 Y-26.456
X17.295 Y-26.519
X17.293 Y-26.582
X17.291 Y-26.645
X17.29 Y-26.708
X17.289 Y-26.77
Y-26.833
X17.29 Y-26.896
X17.292 Y-26.959
X17.294 Y-27.022
X17.297 Y-27.085
X17.3 Y-27.148
X17.305 Y-27.21
X17.31 Y-27.273
X17.315 Y-27.336
X17.321 Y-27.398
X17.328 Y-27.461
X17.336 Y-27.523
X17.344 Y-27.586
X17.353 Y-27.648
X17.363 Y-27.71
X17.373 Y-27.772
X17.384 Y-27.834
X17.396 Y-27.896
X17.408 Y-27.958
X17.421 Y-28.019
X17.435 Y-28.08
X17.449 Y-28.142
X17.464 Y-28.203
X17.479 Y-28.264
X17.496 Y-28.325
X17.513 Y-28.385
X17.53 Y-28.446
X17.548 Y-28.506
X17.567 Y-28.566
X17.587 Y-28.626
X17.607 Y-28.685
X17.628 Y-28.745
X17.649 Y-28.804
X17.671 Y-28.863
X17.694 Y-28.921
X17.717 Y-28.98
X17.741 Y-29.038
X17.765 Y-29.096
X17.791 Y-29.153
X17.816 Y-29.211
X17.843 Y-29.268
X17.87 Y-29.325
X17.897 Y-29.381
X17.926 Y-29.437
X17.954 Y-29.493
X17.984 Y-29.549
X18.014 Y-29.604
X18.045 Y-29.659
X18.076 Y-29.714
X18.108 Y-29.768
X18.14 Y-29.822
X18.173 Y-29.875
X18.206 Y-29.929
X18.241 Y-29.982
X18.275 Y-30.034
X18.31 Y-30.086
X18.346 Y-30.138
X18.383 Y-30.189
X18.419 Y-30.24
X18.457 Y-30.291
X18.495 Y-30.341
X18.533 Y-30.391
X18.572 Y-30.44
X18.612 Y-30.489
X18.652 Y-30.537
X18.693 Y-30.585
X18.734 Y-30.633
X18.775 Y-30.68
X18.817 Y-30.727
X18.86 Y-30.773
X18.903 Y-30.819
X18.947 Y-30.864
X18.991 Y-30.909
X19.035 Y-30.953
X19.08 Y-30.997
X19.126 Y-31.041
X19.172 Y-31.084
X19.218 Y-31.126
X19.265 Y-31.168
X19.313 Y-31.209
X19.36 Y-31.25
X19.409 Y-31.291
X19.457 Y-31.331
X19.506 Y-31.37
X19.556 Y-31.409
X19.606 Y-31.447
X19.656 Y-31.485
X19.707 Y-31.522
X19.758 Y-31.559
X19.809 Y-31.595
X19.861 Y-31.63
X19.914 Y-31.665
X19.966 Y-31.7
X20.019 Y-31.734
X20.073 Y-31.767
X20.126 Y-31.8
X20.18 Y-31.832
X20.235 Y-31.863
X20.289 Y-31.894
X20.345 Y-31.925
X20.4 Y-31.955
X20.456 Y-31.984
X20.512 Y-32.012
X20.568 Y-32.04
X20.625 Y-32.068
X20.681 Y-32.095
X20.739 Y-32.121
X20.796 Y-32.146
X20.854 Y-32.171
X20.912 Y-32.196
X20.97 Y-32.219
X21.029 Y-32.242
X21.087 Y-32.265
X21.146 Y-32.287
X21.206 Y-32.308
X21.265 Y-32.328
X21.325 Y-32.348
X21.385 Y-32.368
X21.445 Y-32.386
X21.505 Y-32.404
X21.565 Y-32.421
X21.626 Y-32.438
X21.687 Y-32.454
X21.748 Y-32.47
X21.809 Y-32.484
X21.87 Y-32.498
X21.932 Y-32.512
X21.993 Y-32.525
X22.055 Y-32.537
X22.117 Y-32.548
X22.179 Y-32.559
X22.241 Y-32.569
X22.303 Y-32.578
X22.366 Y-32.587
X22.428 Y-32.595
X22.49 Y-32.603
X22.553 Y-32.609
X22.616 Y-32.615
X22.678 Y-32.621
X22.741 Y-32.626
X22.804 Y-32.63
X22.867 Y-32.633
X22.929 Y-32.636
X22.992 Y-32.638
X23.055 Y-32.639
X23.118 Y-32.64
X23.181
X23.244
X23.307 Y-32.638
X23.37 Y-32.636
X23.432 Y-32.634
X23.495 Y-32.63
X23.558 Y-32.626
X23.621 Y-32.622
X23.683 Y-32.617
X23.746 Y-32.611
X23.809 Y-32.604
X23.871 Y-32.597
X23.933 Y-32.589
X23.996 Y-32.58
X24.058 Y-32.571
X24.12 Y-32.561
X24.182 Y-32.55
X24.244 Y-32.539
X24.306 Y-32.527
X24.367 Y-32.515
X24.429 Y-32.501
X24.49 Y-32.488
X24.551 Y-32.473
X24.612 Y-32.458
X24.673 Y-32.442
X24.734 Y-32.426
X24.795 Y-32.409
X24.855 Y-32.391
X24.915 Y-32.373
X24.975 Y-32.354
X25.035 Y-32.334
X25.094 Y-32.314
X25.154 Y-32.293
X25.213 Y-32.271
X25.272 Y-32.249
X25.33 Y-32.227
X25.389 Y-32.203
X25.447 Y-32.179
X25.505 Y-32.155
X25.563 Y-32.13
X25.62 Y-32.104
X25.677 Y-32.078
X25.734 Y-32.051
X25.79 Y-32.023
X25.847 Y-31.995
X25.903 Y-31.966
X25.958 Y-31.937
X26.014 Y-31.907
X26.069 Y-31.877
X26.123 Y-31.846
X26.178 Y-31.814
X26.232 Y-31.782
X26.286 Y-31.749
X26.339 Y-31.716
X26.392 Y-31.682
X26.445 Y-31.648
X26.497 Y-31.613
X26.549 Y-31.577
X26.601 Y-31.541
X26.652 Y-31.505
X26.703 Y-31.468
X26.753 Y-31.43
X26.803 Y-31.392
X26.853 Y-31.354
X26.902 Y-31.314
X26.951 Y-31.275
X26.999 Y-31.235
X27.047 Y-31.194
X27.095 Y-31.153
X27.142 Y-31.111
X27.189 Y-31.069
X27.235 Y-31.027
X27.281 Y-30.984
X27.327 Y-30.94
X27.372 Y-30.896
X27.416 Y-30.852
X27.46 Y-30.807
X27.504 Y-30.762
X27.547 Y-30.716
X27.59 Y-30.67
X27.632 Y-30.623
X27.674 Y-30.576
X27.715 Y-30.528
X27.755 Y-30.48
X27.796 Y-30.432
X27.835 Y-30.383
X27.875 Y-30.334
X27.913 Y-30.285
X27.952 Y-30.235
X27.989 Y-30.184
X28.027 Y-30.134
X28.063 Y-30.082
X28.099 Y-30.031
X28.135 Y-29.979
X28.17 Y-29.927
X28.205 Y-29.874
X28.239 Y-29.821
X28.272 Y-29.768
X28.305 Y-29.715
X28.337 Y-29.661
X28.369 Y-29.606
X28.4 Y-29.552
X28.431 Y-29.497
X28.461 Y-29.442
X28.491 Y-29.386
X28.52 Y-29.33
X28.548 Y-29.274
X28.576 Y-29.218
X28.603 Y-29.161
X28.63 Y-29.104
X28.656 Y-29.047
X28.682 Y-28.989
X28.706 Y-28.932
X28.731 Y-28.874
X28.755 Y-28.815
X28.778 Y-28.757
X28.8 Y-28.698
X28.822 Y-28.639
X28.843 Y-28.58
X28.864 Y-28.521
X28.884 Y-28.461
X28.904 Y-28.401
X28.923 Y-28.341
X28.941 Y-28.281
X28.959 Y-28.221
X28.976 Y-28.16
X28.992 Y-28.099
X29.008 Y-28.039
X29.023 Y-27.978
X29.037 Y-27.916
X29.051 Y-27.855
X29.065 Y-27.793
X29.077 Y-27.732
X29.089 Y-27.67
X29.101 Y-27.608
X29.111 Y-27.546
X29.121 Y-27.484
X29.131 Y-27.422
X29.14 Y-27.36
X29.148 Y-27.297
X29.155 Y-27.235
X29.162 Y-27.172
X29.168 Y-27.11
X29.174 Y-27.047
X29.179 Y-26.984
X29.183 Y-26.922
X29.187 Y-26.859
X29.19 Y-26.796
X29.192 Y-26.733
X29.194 Y-26.67
X29.195 Y-26.607
X29.196 Y-26.545
X29.195 Y-26.482
X29.194 Y-26.419
X29.193 Y-26.356
X29.191 Y-26.293
X29.188 Y-26.23
X29.184 Y-26.167
X29.18 Y-26.105
X29.176 Y-26.042
X29.17 Y-25.979
X29.164 Y-25.917
X29.157 Y-25.854
X29.15 Y-25.792
X29.142 Y-25.729
X29.133 Y-25.667
X29.124 Y-25.605
X29.114 Y-25.543
X29.104 Y-25.481
X29.093 Y-25.419
X29.081 Y-25.357
X29.068 Y-25.295
X29.055 Y-25.234
X29.041 Y-25.172
X29.027 Y-25.111
X29.012 Y-25.05
X28.996 Y-24.989
X28.98 Y-24.928
X28.963 Y-24.868
X28.946 Y-24.807
X28.928 Y-24.747
X28.909 Y-24.687
X28.889 Y-24.627
X28.869 Y-24.568
X28.849 Y-24.508
X28.828 Y-24.449
X28.806 Y-24.39
X28.783 Y-24.331
X28.76 Y-24.273
X28.737 Y-24.214
X28.712 Y-24.156
X28.688 Y-24.099
X28.662 Y-24.041
X28.636 Y-23.984
X28.609 Y-23.927
X28.582 Y-23.87
X28.554 Y-23.814
X28.526 Y-23.758
X28.497 Y-23.702
X28.468 Y-23.646
X28.437 Y-23.591
X28.407 Y-23.536
X28.376 Y-23.481
X28.344 Y-23.427
X28.311 Y-23.373
X28.278 Y-23.32
X28.245 Y-23.266
X28.211 Y-23.213
X28.176 Y-23.161
X28.141 Y-23.109
X28.106 Y-23.057
X28.069 Y-23.005
X28.033 Y-22.954
X27.996 Y-22.904
X27.958 Y-22.853
X27.92 Y-22.803
X27.881 Y-22.754
X27.842 Y-22.705
X27.802 Y-22.656
X27.761 Y-22.608
X27.721 Y-22.56
X27.679 Y-22.512
X27.638 Y-22.465
X27.595 Y-22.419
X27.553 Y-22.373
X27.509 Y-22.327
X27.466 Y-22.281
X27.422 Y-22.237
X27.377 Y-22.192
X27.332 Y-22.148
X27.287 Y-22.105
X27.241 Y-22.062
X27.194 Y-22.019
X27.148 Y-21.977
X27.1 Y-21.936
X27.053 Y-21.895
X27.005 Y-21.854
X26.956 Y-21.814
X26.907 Y-21.775
X26.858 Y-21.736
X26.808 Y-21.697
X26.758 Y-21.659
X26.708 Y-21.621
X26.657 Y-21.584
X26.605 Y-21.548
X26.554 Y-21.512
X26.502 Y-21.477
X26.45 Y-21.442
X26.397 Y-21.407
X26.344 Y-21.374
X26.29 Y-21.34
X26.237 Y-21.308
X26.183 Y-21.275
X26.128 Y-21.244
X26.074 Y-21.213
X26.019 Y-21.182
X25.963 Y-21.152
X25.908 Y-21.123
X25.852 Y-21.094
X25.795 Y-21.066
X25.739 Y-21.038
X25.682 Y-21.011
X25.625 Y-20.985
X25.568 Y-20.959
X25.51 Y-20.934
X25.452 Y-20.909
X25.394 Y-20.885
X25.336 Y-20.861
X25.277 Y-20.838
X25.219 Y-20.816
X25.16 Y-20.794
X25.1 Y-20.773
X25.041 Y-20.752
X24.981 Y-20.732
X24.921 Y-20.713
X24.861 Y-20.694
X24.801 Y-20.676
X24.741 Y-20.659
X24.68 Y-20.642
X24.619 Y-20.626
X24.558 Y-20.61
X24.497 Y-20.595
X24.436 Y-20.581
X24.375 Y-20.567
X24.313 Y-20.554
X24.252 Y-20.541
X24.19 Y-20.529
X24.128 Y-20.518
X24.066 Y-20.507
X24.004 Y-20.497
X23.942 Y-20.488
X23.879 Y-20.479
X23.817 Y-20.471
X23.755 Y-20.463
X23.692 Y-20.457
X23.629 Y-20.45
X23.567 Y-20.445
X23.504 Y-20.44
X23.441 Y-20.435
X23.379 Y-20.432
X23.316 Y-20.429
X23.253 Y-20.426
X23.19 Y-20.424
X23.127 Y-20.423
X23.064
X23.001
X22.938 Y-20.424
X22.876 Y-20.425
X22.813 Y-20.427
X22.75 Y-20.43
X22.687 Y-20.433
X22.624 Y-20.437
X22.562 Y-20.441
X22.499 Y-20.447
X22.436 Y-20.452
X22.374 Y-20.459
X22.311 Y-20.466
X22.249 Y-20.473
X22.186 Y-20.482
X22.124 Y-20.491
X22.062 Y-20.5
X22. Y-20.51
X21.938 Y-20.521
X21.876 Y-20.533
X21.814 Y-20.545
X21.753 Y-20.557
X21.691 Y-20.571
X21.63 Y-20.585
X21.569 Y-20.599
X21.508 Y-20.614
X21.447 Y-20.63
X21.386 Y-20.646
X21.325 Y-20.663
X21.265 Y-20.681
X21.205 Y-20.699
X21.145 Y-20.718
X21.085 Y-20.737
X21.025 Y-20.757
X20.966 Y-20.778
X20.907 Y-20.799
X20.848 Y-20.821
X20.789 Y-20.843
X20.73 Y-20.866
X20.672 Y-20.889
X20.614 Y-20.913
X20.556 Y-20.938
X20.498 Y-20.963
X20.441 Y-20.989
X20.384 Y-21.016
X20.327 Y-21.043
X20.27 Y-21.07
X20.214 Y-21.098
X20.158 Y-21.127
X20.102 Y-21.156
X20.047 Y-21.186
X19.992 Y-21.216
X19.937 Y-21.247
X19.883 Y-21.278
X19.828 Y-21.31
X19.774 Y-21.343
X19.721 Y-21.376
X19.668 Y-21.409
X19.615 Y-21.443
X19.562 Y-21.478
X19.51 Y-21.513
X19.458 Y-21.549
X19.407 Y-21.585
X19.356 Y-21.621
X19.305 Y-21.659
X19.255 Y-21.696
X19.205 Y-21.734
X19.155 Y-21.773
X19.106 Y-21.812
X19.057 Y-21.852
X19.008 Y-21.892
X18.96 Y-21.933
X18.913 Y-21.974
X18.865 Y-22.015
X18.819 Y-22.057
X18.772 Y-22.1
X18.726 Y-22.143
X18.681 Y-22.186
X18.636 Y-22.23
X18.591 Y-22.274
X18.547 Y-22.319
X18.503 Y-22.364
X18.46 Y-22.409
X18.417 Y-22.456
X18.374 Y-22.502
X18.332 Y-22.549
X18.291 Y-22.596
X18.25 Y-22.644
X18.209 Y-22.692
X18.169 Y-22.74
X18.129 Y-22.789
X18.09 Y-22.838
X18.052 Y-22.888
X18.014 Y-22.938
X17.976 Y-22.988
X17.939 Y-23.039
X17.902 Y-23.09
X17.866 Y-23.142
X17.83 Y-23.194
X17.795 Y-23.246
X17.761 Y-23.298
X17.727 Y-23.351
X17.693 Y-23.405
X17.66 Y-23.458
X17.628 Y-23.512
X17.596 Y-23.566
X17.564 Y-23.621
X17.533 Y-23.675
X17.503 Y-23.73
X17.473 Y-23.786
X17.444 Y-23.842
X17.415 Y-23.898
X17.387 Y-23.954
X17.36 Y-24.01
X17.333 Y-24.067
X17.306 Y-24.124
X17.28 Y-24.182
X17.255 Y-24.239
X17.23 Y-24.297
X17.206 Y-24.355
X17.182 Y-24.413
X17.159 Y-24.472
X17.137 Y-24.531
X17.115 Y-24.59
X17.094 Y-24.649
X17.073 Y-24.708
X17.053 Y-24.768
X17.033 Y-24.827
X17.014 Y-24.887
X16.996 Y-24.948
X16.978 Y-25.008
X16.961 Y-25.068
X16.945 Y-25.129
X16.929 Y-25.19
X16.913 Y-25.251
X16.898 Y-25.312
X16.884 Y-25.373
X16.871 Y-25.435
X16.858 Y-25.496
X16.845 Y-25.558
X16.834 Y-25.62
X16.822 Y-25.682
X16.812 Y-25.744
X16.802 Y-25.806
X16.793 Y-25.868
X16.784 Y-25.93
X16.776 Y-25.993
X16.768 Y-26.055
X16.762 Y-26.118
X16.755 Y-26.18
X16.75 Y-26.243
X16.745 Y-26.306
X16.74 Y-26.368
X16.736 Y-26.431
X16.733 Y-26.494
X16.731 Y-26.557
X16.729 Y-26.62
X16.728 Y-26.683
X16.727 Y-26.746
Y-26.808
Y-26.871
X16.728 Y-26.934
X16.73 Y-26.997
X16.733 Y-27.06
X16.736 Y-27.123
X16.739 Y-27.186
X16.744 Y-27.248
X16.748 Y-27.311
X16.754 Y-27.374
X16.76 Y-27.436
X16.767 Y-27.499
X16.774 Y-27.561
X16.782 Y-27.624
X16.79 Y-27.686
X16.8 Y-27.748
X16.809 Y-27.81
X16.82 Y-27.872
X16.831 Y-27.934
X16.842 Y-27.996
X16.855 Y-28.058
X16.867 Y-28.119
X16.881 Y-28.181
X16.895 Y-28.242
X16.909 Y-28.303
X16.925 Y-28.364
X16.94 Y-28.425
X16.957 Y-28.486
X16.974 Y-28.547
X16.991 Y-28.607
X17.01 Y-28.667
X17.028 Y-28.727
X17.048 Y-28.787
X17.068 Y-28.847
X17.088 Y-28.906
X17.109 Y-28.965
X17.131 Y-29.025
X17.153 Y-29.083
X17.176 Y-29.142
X17.2 Y-29.2
X17.224 Y-29.258
X17.248 Y-29.316
X17.273 Y-29.374
X17.299 Y-29.431
X17.325 Y-29.489
X17.352 Y-29.546
X17.379 Y-29.602
X17.407 Y-29.659
X17.436 Y-29.715
X17.465 Y-29.77
X17.494 Y-29.826
X17.524 Y-29.881
X17.555 Y-29.936
X17.586 Y-29.991
X17.618 Y-30.045
X17.65 Y-30.099
X17.683 Y-30.153
X17.716 Y-30.206
X17.75 Y-30.259
X17.784 Y-30.312
X17.819 Y-30.364
X17.855 Y-30.416
X17.891 Y-30.468
X17.927 Y-30.519
X17.964 Y-30.57
X18.001 Y-30.621
X18.039 Y-30.671
X18.077 Y-30.721
X18.116 Y-30.77
X18.156 Y-30.819
X18.195 Y-30.868
X18.236 Y-30.916
X18.276 Y-30.964
X18.318 Y-31.012
X18.359 Y-31.059
X18.402 Y-31.106
X18.444 Y-31.152
X18.487 Y-31.198
X18.531 Y-31.243
X18.575 Y-31.288
X18.619 Y-31.333
X18.664 Y-31.377
X18.709 Y-31.421
X18.755 Y-31.464
X18.801 Y-31.507
X18.847 Y-31.549
X18.894 Y-31.591
X18.942 Y-31.632
X18.989 Y-31.673
X19.037 Y-31.714
X19.086 Y-31.754
X19.135 Y-31.793
X19.184 Y-31.832
X19.234 Y-31.871
X19.284 Y-31.909
X19.334 Y-31.947
X19.385 Y-31.984
X19.436 Y-32.02
X19.488 Y-32.056
X19.54 Y-32.092
X19.592 Y-32.127
X19.644 Y-32.162
X19.697 Y-32.196
X19.751 Y-32.229
X19.804 Y-32.262
X19.858 Y-32.295
X19.912 Y-32.327
X19.967 Y-32.358
X20.021 Y-32.389
X20.076 Y-32.419
X20.132 Y-32.449
X20.188 Y-32.478
X20.243 Y-32.507
X20.3 Y-32.535
X20.356 Y-32.563
X20.413 Y-32.59
X20.47 Y-32.617
X20.527 Y-32.643
X20.585 Y-32.668
X20.643 Y-32.693
X20.701 Y-32.717
X20.759 Y-32.741
X20.817 Y-32.764
X20.876 Y-32.786
X20.935 Y-32.808
X20.994 Y-32.83
X21.054 Y-32.851
X21.113 Y-32.871
X21.173 Y-32.89
X21.233 Y-32.91
X21.293 Y-32.928
X21.353 Y-32.946
X21.414 Y-32.963
X21.474 Y-32.98
X21.535 Y-32.996
X21.596 Y-33.011
X21.657 Y-33.026
X21.719 Y-33.041
X21.78 Y-33.054
X21.841 Y-33.068
X21.903 Y-33.08
X21.965 Y-33.092
X22.027 Y-33.103
X22.089 Y-33.114
X22.151 Y-33.124
X22.213 Y-33.134
X22.275 Y-33.143
X22.338 Y-33.151
X22.4 Y-33.158
X22.462 Y-33.166
X22.525 Y-33.172
X22.588 Y-33.178
X22.65 Y-33.183
X22.713 Y-33.188
X22.776 Y-33.192
X22.839 Y-33.195
X22.902 Y-33.198
X22.964 Y-33.2
X23.027 Y-33.202
X23.09 Y-33.203
X23.153
X23.216
X23.279 Y-33.202
X23.342 Y-33.2
X23.405 Y-33.198
X23.467 Y-33.195
X23.53 Y-33.192
X23.593 Y-33.188
X23.656 Y-33.184
X23.718 Y-33.178
X23.781 Y-33.173
X23.844 Y-33.166
X23.906 Y-33.159
X23.969 Y-33.152
X24.031 Y-33.143
X24.093 Y-33.135
X24.155 Y-33.125
X24.218 Y-33.115
X24.28 Y-33.105
X24.341 Y-33.093
X24.403 Y-33.082
X24.465 Y-33.069
X24.526 Y-33.056
X24.588 Y-33.043
X24.649 Y-33.028
X24.71 Y-33.014
X24.771 Y-32.998
X24.832 Y-32.982
X24.893 Y-32.966
X24.953 Y-32.949
X25.014 Y-32.931
X25.074 Y-32.913
X25.134 Y-32.894
X25.194 Y-32.875
X25.253 Y-32.855
X25.313 Y-32.834
X25.372 Y-32.813
X25.431 Y-32.791
X25.49 Y-32.769
X25.548 Y-32.746
X25.607 Y-32.723
X25.665 Y-32.699
X25.723 Y-32.674
X25.781 Y-32.649
X25.838 Y-32.623
X25.895 Y-32.597
X25.952 Y-32.571
X26.009 Y-32.543
X26.065 Y-32.515
X26.122 Y-32.487
X26.177 Y-32.458
X26.233 Y-32.429
X26.288 Y-32.399
X26.343 Y-32.369
X26.398 Y-32.338
X26.453 Y-32.306
X26.507 Y-32.274
X26.561 Y-32.242
X26.614 Y-32.209
X26.667 Y-32.175
X26.72 Y-32.141
X26.773 Y-32.106
X26.825 Y-32.071
X26.877 Y-32.036
X26.928 Y-32.
X26.98 Y-31.963
X27.031 Y-31.926
X27.081 Y-31.889
X27.131 Y-31.851
X27.181 Y-31.812
X27.231 Y-31.774
X27.28 Y-31.734
X27.328 Y-31.694
X27.377 Y-31.654
X27.425 Y-31.613
X27.472 Y-31.572
X27.519 Y-31.531
X27.566 Y-31.489
X27.612 Y-31.446
X27.658 Y-31.403
X27.704 Y-31.36
X27.749 Y-31.316
X27.794 Y-31.272
X27.838 Y-31.227
X27.882 Y-31.182
X27.925 Y-31.137
X27.968 Y-31.091
X28.011 Y-31.044
X28.053 Y-30.998
X28.095 Y-30.951
X28.136 Y-30.903
X28.177 Y-30.855
X28.217 Y-30.807
X28.257 Y-30.758
X28.297 Y-30.709
X28.336 Y-30.66
X28.374 Y-30.61
X28.412 Y-30.56
X28.45 Y-30.51
X28.487 Y-30.459
X28.524 Y-30.408
X28.56 Y-30.357
X28.596 Y-30.305
X28.631 Y-30.253
X28.665 Y-30.2
X28.7 Y-30.147
X28.733 Y-30.094
X28.767 Y-30.041
X28.799 Y-29.987
X28.831 Y-29.933
X28.863 Y-29.879
X28.894 Y-29.824
X28.925 Y-29.769
X28.955 Y-29.714
X28.985 Y-29.659
X29.014 Y-29.603
X29.042 Y-29.547
X29.071 Y-29.49
X29.098 Y-29.434
X29.125 Y-29.377
X29.152 Y-29.32
X29.177 Y-29.263
X29.203 Y-29.205
X29.228 Y-29.147
X29.252 Y-29.089
X29.276 Y-29.031
X29.299 Y-28.973
X29.322 Y-28.914
X29.344 Y-28.855
X29.365 Y-28.796
X29.386 Y-28.737
X29.407 Y-28.677
X29.427 Y-28.618
X29.446 Y-28.558
X29.465 Y-28.498
X29.483 Y-28.437
X29.5 Y-28.377
X29.517 Y-28.316
X29.534 Y-28.256
X29.55 Y-28.195
X29.565 Y-28.134
X29.58 Y-28.073
X29.594 Y-28.011
X29.608 Y-27.95
X29.621 Y-27.889
X29.633 Y-27.827
X29.645 Y-27.765
X29.656 Y-27.703
X29.667 Y-27.641
X29.677 Y-27.579
X29.687 Y-27.517
X29.696 Y-27.455
X29.704 Y-27.392
X29.712 Y-27.33
X29.719 Y-27.268
X29.726 Y-27.205
X29.732 Y-27.142
X29.737 Y-27.08
X29.742 Y-27.017
X29.746 Y-26.954
X29.75 Y-26.891
X29.753 Y-26.829
X29.755 Y-26.766
X29.757 Y-26.703
X29.759 Y-26.64
Y-26.577
Y-26.514
Y-26.451
X29.758 Y-26.388
X29.756 Y-26.326
X29.754 Y-26.263
X29.751 Y-26.2
X29.747 Y-26.137
X29.743 Y-26.074
X29.739 Y-26.012
X29.734 Y-25.949
X29.728 Y-25.886
X29.721 Y-25.824
X29.714 Y-25.761
X29.707 Y-25.699
X29.698 Y-25.636
X29.69 Y-25.574
X29.68 Y-25.512
X29.67 Y-25.45
X29.66 Y-25.388
X29.649 Y-25.326
X29.637 Y-25.264
X29.625 Y-25.202
X29.612 Y-25.141
X29.598 Y-25.079
X29.584 Y-25.018
X29.57 Y-24.957
X29.555 Y-24.896
X29.539 Y-24.835
X29.522 Y-24.774
X29.506 Y-24.714
X29.488 Y-24.653
X29.47 Y-24.593
X29.451 Y-24.533
X29.432 Y-24.473
X29.412 Y-24.413
X29.392 Y-24.354
X29.371 Y-24.294
X29.35 Y-24.235
X29.328 Y-24.176
X29.305 Y-24.118
X29.282 Y-24.059
X29.258 Y-24.001
X29.234 Y-23.943
X29.209 Y-23.885
X29.184 Y-23.827
X29.158 Y-23.77
X29.132 Y-23.713
X29.105 Y-23.656
X29.077 Y-23.599
X29.049 Y-23.543
X29.021 Y-23.487
X28.992 Y-23.431
X28.962 Y-23.376
X28.932 Y-23.321
X28.902 Y-23.266
X28.87 Y-23.211
X28.839 Y-23.157
X28.807 Y-23.103
X28.774 Y-23.049
X28.741 Y-22.995
X28.707 Y-22.942
X28.673 Y-22.89
X28.638 Y-22.837
X28.603 Y-22.785
X28.567 Y-22.733
X28.531 Y-22.682
X28.494 Y-22.631
X28.457 Y-22.58
X28.42 Y-22.529
X28.382 Y-22.479
X28.343 Y-22.43
X28.304 Y-22.38
X28.265 Y-22.331
X28.225 Y-22.283
X28.184 Y-22.234
X28.143 Y-22.187
X28.102 Y-22.139
X28.06 Y-22.092
X28.018 Y-22.045
X27.976 Y-21.999
X27.932 Y-21.953
X27.889 Y-21.908
X27.845 Y-21.863
X27.801 Y-21.818
X27.756 Y-21.774
X27.711 Y-21.73
X27.665 Y-21.687
X27.619 Y-21.644
X27.573 Y-21.602
X27.526 Y-21.559
X27.479 Y-21.518
X27.431 Y-21.477
X27.383 Y-21.436
X27.335 Y-21.396
X27.286 Y-21.356
X27.237 Y-21.317
X27.188 Y-21.278
X27.138 Y-21.239
X27.088 Y-21.201
X27.037 Y-21.164
X26.986 Y-21.127
X26.935 Y-21.09
X26.884 Y-21.054
X26.832 Y-21.019
X26.78 Y-20.984
X26.727 Y-20.949
X26.674 Y-20.915
X26.621 Y-20.882
X26.567 Y-20.849
X26.514 Y-20.816
X26.459 Y-20.784
X26.405 Y-20.752
X26.35 Y-20.721
X26.295 Y-20.691
X26.24 Y-20.661
X26.185 Y-20.631
X26.129 Y-20.602
X26.073 Y-20.574
X26.016 Y-20.546
X25.96 Y-20.518
X25.903 Y-20.492
X25.846 Y-20.465
X25.788 Y-20.44
X25.731 Y-20.414
X25.673 Y-20.39
X25.615 Y-20.365
X25.556 Y-20.342
X25.498 Y-20.319
X25.439 Y-20.296
X25.38 Y-20.274
X25.321 Y-20.253
X25.262 Y-20.232
X25.202 Y-20.211
X25.143 Y-20.192
X25.083 Y-20.172
X25.023 Y-20.154
X24.962 Y-20.136
X24.902 Y-20.118
X24.841 Y-20.101
X24.781 Y-20.085
X24.72 Y-20.069
X24.659 Y-20.054
X24.598 Y-20.039
X24.536 Y-20.025
X24.475 Y-20.011
X24.413 Y-19.998
X24.352 Y-19.986
X24.29 Y-19.974
X24.228 Y-19.963
X24.166 Y-19.952
X24.104 Y-19.942
X24.042 Y-19.932
X23.98 Y-19.923
X23.917 Y-19.915
X23.855 Y-19.907
X23.792 Y-19.9
X23.73 Y-19.893
X23.667 Y-19.887
X23.605 Y-19.882
X23.542 Y-19.877
X23.479 Y-19.872
X23.416 Y-19.869
X23.354 Y-19.865
X23.291 Y-19.863
X23.228 Y-19.861
X23.165 Y-19.859
X23.102
X23.039 Y-19.858
X22.976 Y-19.859
X22.913
X22.85 Y-19.861
X22.788 Y-19.863
X22.725 Y-19.866
X22.662 Y-19.869
X22.599 Y-19.873
X22.536 Y-19.877
X22.474 Y-19.882
X22.411 Y-19.888
X22.348 Y-19.894
X22.286 Y-19.9
X22.223 Y-19.908
X22.161 Y-19.916
X22.099 Y-19.924
X22.036 Y-19.933
X21.974 Y-19.943
X21.912 Y-19.953
X21.85 Y-19.963
X21.788 Y-19.975
X21.727 Y-19.987
X21.665 Y-19.999
X21.603 Y-20.012
X21.542 Y-20.026
X21.481 Y-20.04
X21.419 Y-20.054
X21.358 Y-20.07
X21.298 Y-20.085
X21.237 Y-20.102
X21.176 Y-20.119
X21.116 Y-20.136
X21.056 Y-20.154
X20.995 Y-20.173
X20.936 Y-20.192
X20.876 Y-20.212
X20.816 Y-20.232
X20.757 Y-20.253
X20.698 Y-20.274
X20.639 Y-20.296
X20.58 Y-20.318
X20.521 Y-20.341
X20.463 Y-20.365
X20.405 Y-20.389
X20.347 Y-20.413
X20.289 Y-20.438
X20.232 Y-20.464
X20.175 Y-20.49
X20.118 Y-20.517
X20.061 Y-20.544
X20.004 Y-20.571
X19.948 Y-20.6
X19.892 Y-20.628
X19.837 Y-20.658
X19.781 Y-20.687
X19.726 Y-20.718
X19.671 Y-20.748
X19.617 Y-20.78
X19.562 Y-20.811
X19.508 Y-20.844
X19.454 Y-20.876
X19.401 Y-20.909
X19.348 Y-20.943
X19.295 Y-20.977
X19.243 Y-21.012
X19.191 Y-21.047
X19.139 Y-21.083
X19.087 Y-21.119
X19.036 Y-21.155
X18.985 Y-21.192
X18.935 Y-21.23
X18.884 Y-21.268
X18.835 Y-21.306
X18.785 Y-21.345
X18.736 Y-21.384
X18.687 Y-21.424
X18.639 Y-21.464
X18.591 Y-21.505
X18.543 Y-21.546
X18.496 Y-21.588
X18.449 Y-21.63
X18.403 Y-21.672
X18.357 Y-21.715
X18.311 Y-21.758
X18.265 Y-21.802
X18.221 Y-21.846
X18.176 Y-21.89
X18.132 Y-21.935
X18.088 Y-21.98
X18.045 Y-22.026
X18.002 Y-22.072
X17.96 Y-22.118
X17.918 Y-22.165
X17.876 Y-22.212
X17.835 Y-22.26
X17.794 Y-22.308
X17.754 Y-22.356
X17.714 Y-22.404
X17.674 Y-22.453
X17.635 Y-22.503
X17.597 Y-22.553
X17.559 Y-22.603
X17.521 Y-22.653
X17.484 Y-22.704
X17.447 Y-22.755
X17.411 Y-22.806
X17.375 Y-22.858
X17.34 Y-22.91
X17.305 Y-22.962
X17.271 Y-23.015
X17.237 Y-23.068
X17.204 Y-23.121
X17.171 Y-23.175
X17.138 Y-23.229
X17.106 Y-23.283
X17.075 Y-23.338
X17.044 Y-23.392
X17.014 Y-23.448
X16.984 Y-23.503
X16.954 Y-23.558
X16.925 Y-23.614
X16.897 Y-23.67
X16.869 Y-23.727
X16.842 Y-23.783
X16.815 Y-23.84
X16.788 Y-23.897
X16.763 Y-23.955
X16.737 Y-24.012
X16.712 Y-24.07
X16.688 Y-24.128
X16.664 Y-24.186
X16.641 Y-24.245
X16.618 Y-24.304
X16.596 Y-24.362
X16.575 Y-24.421
X16.554 Y-24.481
X16.533 Y-24.54
X16.513 Y-24.6
X16.494 Y-24.66
X16.475 Y-24.72
X16.456 Y-24.78
X16.438 Y-24.84
X16.421 Y-24.901
X16.404 Y-24.961
X16.388 Y-25.022
X16.373 Y-25.083
X16.357 Y-25.144
X16.343 Y-25.205
X16.329 Y-25.266
X16.315 Y-25.328
X16.303 Y-25.389
X16.29 Y-25.451
X16.278 Y-25.513
X16.267 Y-25.575
X16.257 Y-25.637
X16.247 Y-25.699
X16.237 Y-25.761
X16.228 Y-25.823
X16.22 Y-25.886
X16.212 Y-25.948
X16.205 Y-26.011
X16.198 Y-26.073
X16.192 Y-26.136
X16.186 Y-26.198
X16.181 Y-26.261
X16.177 Y-26.324
X16.173 Y-26.387
X16.169 Y-26.449
X16.167 Y-26.512
X16.165 Y-26.575
X16.163 Y-26.638
X16.162 Y-26.701
X16.161 Y-26.764
Y-26.827
X16.162 Y-26.89
X16.163 Y-26.952
X16.165 Y-27.015
X16.168 Y-27.078
X16.17 Y-27.141
X16.174 Y-27.204
X16.178 Y-27.267
X16.183 Y-27.329
X16.188 Y-27.392
X16.194 Y-27.455
X16.2 Y-27.517
X16.207 Y-27.58
X16.214 Y-27.642
X16.222 Y-27.705
X16.231 Y-27.767
X16.24 Y-27.829
X16.25 Y-27.891
X16.26 Y-27.953
X16.271 Y-28.015
X16.282 Y-28.077
X16.294 Y-28.139
X16.307 Y-28.201
X16.32 Y-28.262
X16.333 Y-28.323
X16.347 Y-28.385
X16.362 Y-28.446
X16.377 Y-28.507
X16.393 Y-28.568
X16.41 Y-28.629
X16.426 Y-28.689
X16.444 Y-28.75
X16.462 Y-28.81
X16.48 Y-28.87
X16.5 Y-28.93
X16.519 Y-28.99
X16.539 Y-29.049
X16.56 Y-29.109
X16.581 Y-29.168
X16.603 Y-29.227
X16.625 Y-29.286
X16.648 Y-29.344
X16.671 Y-29.403
X16.695 Y-29.461
X16.72 Y-29.519
X16.745 Y-29.577
X16.77 Y-29.634
X16.796 Y-29.691
X16.822 Y-29.749
X16.849 Y-29.805
X16.877 Y-29.862
X16.905 Y-29.918
X16.933 Y-29.974
X16.962 Y-30.03
X16.992 Y-30.086
X17.022 Y-30.141
X17.052 Y-30.196
X17.083 Y-30.251
X17.115 Y-30.305
X17.147 Y-30.359
X17.179 Y-30.413
X17.212 Y-30.467
X17.246 Y-30.52
X17.28 Y-30.573
X17.314 Y-30.626
X17.349 Y-30.678
X17.384 Y-30.73
X17.42 Y-30.782
X17.456 Y-30.833
X17.493 Y-30.884
X17.53 Y-30.935
X17.568 Y-30.985
X17.606 Y-31.035
X17.645 Y-31.085
X17.684 Y-31.135
X17.723 Y-31.184
X17.763 Y-31.232
X17.803 Y-31.28
X17.844 Y-31.328
X17.885 Y-31.376
X17.927 Y-31.423
X17.969 Y-31.47
X18.011 Y-31.516
X18.054 Y-31.562
X18.097 Y-31.608
X18.141 Y-31.653
X18.185 Y-31.698
X18.229 Y-31.743
X18.274 Y-31.787
X18.32 Y-31.83
X18.365 Y-31.874
X18.411 Y-31.917
X18.458 Y-31.959
X18.505 Y-32.001
X18.552 Y-32.043
X18.599 Y-32.084
X18.647 Y-32.124
X18.696 Y-32.165
X18.744 Y-32.205
X18.793 Y-32.244
X18.843 Y-32.283
X18.892 Y-32.322
X18.942 Y-32.36
X18.993 Y-32.397
X19.043 Y-32.434
X19.095 Y-32.471
X19.146 Y-32.507
X19.198 Y-32.543
X19.25 Y-32.578
X19.302 Y-32.613
X19.355 Y-32.648
X19.408 Y-32.682
X19.461 Y-32.715
X19.515 Y-32.748
X19.568 Y-32.78
X19.623 Y-32.812
X19.677 Y-32.844
X19.732 Y-32.875
X19.787 Y-32.905
X19.842 Y-32.935
X19.898 Y-32.965
X19.953 Y-32.994
X20.009 Y-33.023
X20.066 Y-33.051
X20.122 Y-33.078
X20.179 Y-33.105
X20.236 Y-33.131
X20.294 Y-33.157
X20.351 Y-33.183
X20.409 Y-33.208
X20.467 Y-33.232
X20.525 Y-33.256
X20.583 Y-33.279
X20.642 Y-33.302
X20.701 Y-33.325
X20.76 Y-33.346
X20.819 Y-33.368
X20.878 Y-33.388
X20.938 Y-33.408
X20.998 Y-33.428
X21.058 Y-33.447
X21.118 Y-33.466
X21.178 Y-33.484
X21.238 Y-33.501
X21.299 Y-33.518
X21.36 Y-33.535
X21.421 Y-33.55
X21.482 Y-33.566
X21.543 Y-33.58
X21.604 Y-33.595
X21.666 Y-33.608
X21.727 Y-33.621
X21.789 Y-33.634
X21.85 Y-33.646
X21.912 Y-33.657
X21.974 Y-33.668
X22.036 Y-33.679
X22.098 Y-33.688
X22.161 Y-33.698
X22.223 Y-33.706
X22.285 Y-33.714
X22.348 Y-33.722
X22.41 Y-33.729
X22.473 Y-33.735
X22.535 Y-33.741
X22.598 Y-33.746
X22.661 Y-33.751
X22.724 Y-33.755
X22.786 Y-33.759
X22.849 Y-33.762
X22.912 Y-33.764
X22.975 Y-33.766
X23.038 Y-33.767
X23.101 Y-33.768
X23.164
X23.227
X23.289 Y-33.767
X23.352 Y-33.766
X23.415 Y-33.764
X23.478 Y-33.761
X23.541 Y-33.758
X23.604 Y-33.754
X23.666 Y-33.75
X23.729 Y-33.745
X23.792 Y-33.74
X23.854 Y-33.734
X23.917 Y-33.727
X23.979 Y-33.72
X24.042 Y-33.713
X24.104 Y-33.704
X24.167 Y-33.696
X24.229 Y-33.686
X24.291 Y-33.677
X24.353 Y-33.666
X24.415 Y-33.655
X24.477 Y-33.644
X24.538 Y-33.632
X24.6 Y-33.619
X24.662 Y-33.606
X24.723 Y-33.592
X24.784 Y-33.578
X24.845 Y-33.563
X24.906 Y-33.548
X24.967 Y-33.532
X25.028 Y-33.516
X25.089 Y-33.499
X25.149 Y-33.481
X25.209 Y-33.463
X25.269 Y-33.445
X25.329 Y-33.426
X25.389 Y-33.406
X25.449 Y-33.386
X25.508 Y-33.365
X25.567 Y-33.344
X25.626 Y-33.322
X25.685 Y-33.3
X25.744 Y-33.277
X25.802 Y-33.254
X25.861 Y-33.23
X25.919 Y-33.206
X25.976 Y-33.181
X26.034 Y-33.156
X26.091 Y-33.13
X26.148 Y-33.104
X26.205 Y-33.077
X26.262 Y-33.05
X26.318 Y-33.022
X26.375 Y-32.994
X26.431 Y-32.965
X26.486 Y-32.936
X26.542 Y-32.906
X26.597 Y-32.876
X26.652 Y-32.845
X26.706 Y-32.814
X26.761 Y-32.782
X26.815 Y-32.75
X26.868 Y-32.717
X26.922 Y-32.684
X26.975 Y-32.65
X27.028 Y-32.616
X27.081 Y-32.582
X27.133 Y-32.547
X27.185 Y-32.511
X27.236 Y-32.476
X27.288 Y-32.439
X27.339 Y-32.403
X27.39 Y-32.365
X27.44 Y-32.328
X27.49 Y-32.29
X27.54 Y-32.251
X27.589 Y-32.212
X27.638 Y-32.173
X27.687 Y-32.133
X27.735 Y-32.093
X27.783 Y-32.052
X27.831 Y-32.011
X27.878 Y-31.97
X27.925 Y-31.928
X27.972 Y-31.885
X28.018 Y-31.843
X28.064 Y-31.8
X28.109 Y-31.756
X28.154 Y-31.712
X28.199 Y-31.668
X28.243 Y-31.623
X28.287 Y-31.578
X28.331 Y-31.533
X28.374 Y-31.487
X28.416 Y-31.441
X28.459 Y-31.394
X28.501 Y-31.347
X28.542 Y-31.3
X28.583 Y-31.252
X28.624 Y-31.204
X28.664 Y-31.156
X28.704 Y-31.107
X28.743 Y-31.058
X28.782 Y-31.009
X28.821 Y-30.959
X28.859 Y-30.909
X28.897 Y-30.859
X28.934 Y-30.808
X28.971 Y-30.757
X29.007 Y-30.706
X29.043 Y-30.654
X29.079 Y-30.602
X29.114 Y-30.55
X29.148 Y-30.498
X29.182 Y-30.445
X29.216 Y-30.392
X29.249 Y-30.338
X29.282 Y-30.284
X29.314 Y-30.23
X29.346 Y-30.176
X29.377 Y-30.122
X29.408 Y-30.067
X29.438 Y-30.012
X29.468 Y-29.956
X29.498 Y-29.901
X29.527 Y-29.845
X29.555 Y-29.789
X29.583 Y-29.733
X29.611 Y-29.676
X29.638 Y-29.619
X29.664 Y-29.562
X29.69 Y-29.505
X29.716 Y-29.447
X29.741 Y-29.39
X29.765 Y-29.332
X29.789 Y-29.273
X29.813 Y-29.215
X29.836 Y-29.157
X29.858 Y-29.098
X29.88 Y-29.039
X29.901 Y-28.98
X29.922 Y-28.92
X29.943 Y-28.861
X29.963 Y-28.801
X29.982 Y-28.741
X30.001 Y-28.681
X30.019 Y-28.621
X30.037 Y-28.561
X30.054 Y-28.501
X30.071 Y-28.44
X30.088 Y-28.379
X30.103 Y-28.318
X30.118 Y-28.257
X30.133 Y-28.196
X30.147 Y-28.135
X30.161 Y-28.073
X30.174 Y-28.012
X30.187 Y-27.95
X30.199 Y-27.888
X30.21 Y-27.827
X30.221 Y-27.765
X30.231 Y-27.703
X30.241 Y-27.641
X30.251 Y-27.578
X30.259 Y-27.516
X30.268 Y-27.454
X30.275 Y-27.391
X30.282 Y-27.329
X30.289 Y-27.266
X30.295 Y-27.204
X30.301 Y-27.141
X30.306 Y-27.078
X30.31 Y-27.016
X30.314 Y-26.953
X30.317 Y-26.89
X30.32 Y-26.827
X30.322 Y-26.764
X30.324 Y-26.701
X30.325 Y-26.638
X30.326 Y-26.576
Y-26.513
Y-26.45
X30.324 Y-26.387
X30.323 Y-26.324
X30.321 Y-26.261
X30.318 Y-26.198
X30.315 Y-26.135
X30.311 Y-26.073
X30.307 Y-26.01
X30.302 Y-25.947
X30.297 Y-25.885
X30.291 Y-25.822
X30.284 Y-25.759
X30.277 Y-25.697
X30.27 Y-25.634
X30.262 Y-25.572
X30.253 Y-25.51
X30.244 Y-25.447
X30.234 Y-25.385
X30.224 Y-25.323
X30.213 Y-25.261
X30.202 Y-25.199
X30.19 Y-25.138
X30.177 Y-25.076
X30.164 Y-25.014
X30.151 Y-24.953
X30.137 Y-24.892
X30.122 Y-24.831
X30.107 Y-24.77
X30.091 Y-24.709
X30.075 Y-24.648
X30.058 Y-24.587
X30.041 Y-24.527
X30.024 Y-24.466
X30.005 Y-24.406
X29.986 Y-24.346
X29.967 Y-24.286
X29.947 Y-24.227
X29.927 Y-24.167
X29.906 Y-24.108
X29.885 Y-24.049
X29.863 Y-23.99
X29.84 Y-23.931
X29.817 Y-23.872
X29.794 Y-23.814
X29.77 Y-23.756
X29.746 Y-23.698
X29.721 Y-23.64
X29.695 Y-23.582
X29.669 Y-23.525
X29.643 Y-23.468
X29.616 Y-23.411
X29.588 Y-23.355
X29.56 Y-23.298
X29.532 Y-23.242
X29.503 Y-23.186
X29.474 Y-23.131
X29.444 Y-23.075
X29.413 Y-23.02
X29.383 Y-22.965
X29.351 Y-22.911
X29.32 Y-22.857
X29.287 Y-22.803
X29.255 Y-22.749
X29.221 Y-22.696
X29.188 Y-22.642
X29.154 Y-22.59
X29.119 Y-22.537
X29.084 Y-22.485
X29.048 Y-22.433
X29.013 Y-22.381
X28.976 Y-22.33
X28.939 Y-22.279
X28.902 Y-22.228
X28.864 Y-22.178
X28.826 Y-22.128
X28.788 Y-22.078
X28.749 Y-22.029
X28.709 Y-21.98
X28.669 Y-21.931
X28.629 Y-21.883
X28.588 Y-21.835
X28.547 Y-21.787
X28.506 Y-21.74
X28.464 Y-21.693
X28.421 Y-21.647
X28.379 Y-21.601
X28.335 Y-21.555
X28.292 Y-21.509
X28.248 Y-21.464
X28.204 Y-21.42
X28.159 Y-21.376
X28.114 Y-21.332
X28.068 Y-21.288
X28.023 Y-21.245
X27.976 Y-21.203
X27.93 Y-21.16
X27.883 Y-21.118
X27.835 Y-21.077
X27.788 Y-21.036
X27.74 Y-20.995
X27.691 Y-20.955
X27.643 Y-20.915
X27.594 Y-20.876
X27.544 Y-20.837
X27.494 Y-20.799
X27.444 Y-20.76
X27.394 Y-20.723
X27.343 Y-20.686
X27.292 Y-20.649
X27.241 Y-20.613
X27.189 Y-20.577
X27.137 Y-20.541
X27.085 Y-20.506
X27.032 Y-20.472
X26.979 Y-20.438
X26.926 Y-20.404
X26.873 Y-20.371
X26.819 Y-20.338
X26.765 Y-20.306
X26.711 Y-20.274
X26.656 Y-20.243
X26.601 Y-20.212
X26.546 Y-20.182
X26.491 Y-20.152
X26.435 Y-20.123
X26.379 Y-20.094
X26.323 Y-20.065
X26.267 Y-20.038
X26.21 Y-20.01
X26.153 Y-19.983
X26.096 Y-19.957
X26.039 Y-19.931
X25.982 Y-19.905
X25.924 Y-19.88
X25.866 Y-19.856
X25.808 Y-19.832
X25.749 Y-19.808
X25.691 Y-19.785
X25.632 Y-19.763
X25.573 Y-19.741
X25.514 Y-19.72
X25.455 Y-19.699
X25.395 Y-19.678
X25.336 Y-19.658
X25.276 Y-19.639
X25.216 Y-19.62
X25.156 Y-19.602
X25.095 Y-19.584
X25.035 Y-19.566
X24.974 Y-19.55
X24.913 Y-19.533
X24.852 Y-19.518
X24.791 Y-19.502
X24.73 Y-19.488
X24.669 Y-19.473
X24.608 Y-19.46
X24.546 Y-19.447
X24.484 Y-19.434
X24.423 Y-19.422
X24.361 Y-19.41
X24.299 Y-19.399
X24.237 Y-19.389
X24.175 Y-19.379
X24.113 Y-19.369
X24.05 Y-19.361
X23.988 Y-19.352
X23.926 Y-19.344
X23.863 Y-19.337
X23.801 Y-19.33
X23.738 Y-19.324
X23.675 Y-19.318
X23.613 Y-19.313
X23.55 Y-19.309
X23.487 Y-19.305
X23.424 Y-19.301
X23.362 Y-19.298
X23.299 Y-19.296
X23.236 Y-19.294
X23.173 Y-19.292
X23.11 Y-19.291
X23.047
X22.984
X22.921 Y-19.292
X22.859 Y-19.293
X22.796 Y-19.295
X22.733 Y-19.298
X22.67 Y-19.3
X22.607 Y-19.304
X22.544 Y-19.308
X22.482 Y-19.312
X22.419 Y-19.317
X22.356 Y-19.323
X22.294 Y-19.329
X22.231 Y-19.336
X22.169 Y-19.343
X22.106 Y-19.351
X22.044 Y-19.359
X21.982 Y-19.368
X21.919 Y-19.377
X21.857 Y-19.387
X21.795 Y-19.397
X21.733 Y-19.408
X21.671 Y-19.419
X21.61 Y-19.431
X21.548 Y-19.444
X21.486 Y-19.457
X21.425 Y-19.47
X21.364 Y-19.484
X21.302 Y-19.499
X21.241 Y-19.514
X21.18 Y-19.53
X21.12 Y-19.546
X21.059 Y-19.562
X20.998 Y-19.579
X20.938 Y-19.597
X20.878 Y-19.615
X20.818 Y-19.634
X20.758 Y-19.653
X20.698 Y-19.673
X20.639 Y-19.693
X20.579 Y-19.714
X20.52 Y-19.735
X20.461 Y-19.756
X20.402 Y-19.779
X20.343 Y-19.801
X20.285 Y-19.825
X20.227 Y-19.848
X20.169 Y-19.872
X20.111 Y-19.897
X20.053 Y-19.922
X19.996 Y-19.948
X19.938 Y-19.974
X19.881 Y-20.001
X19.825 Y-20.028
X19.768 Y-20.055
X19.712 Y-20.083
X19.656 Y-20.112
X19.6 Y-20.141
X19.544 Y-20.17
X19.489 Y-20.2
X19.434 Y-20.231
X19.379 Y-20.261
X19.325 Y-20.293
X19.27 Y-20.325
X19.216 Y-20.357
X19.163 Y-20.389
X19.109 Y-20.423
X19.056 Y-20.456
X19.003 Y-20.49
X18.95 Y-20.525
X18.898 Y-20.56
X18.846 Y-20.595
X18.794 Y-20.631
X18.743 Y-20.667
X18.692 Y-20.704
X18.641 Y-20.741
X18.591 Y-20.778
X18.541 Y-20.816
X18.491 Y-20.855
X18.441 Y-20.894
X18.392 Y-20.933
X18.343 Y-20.972
X18.295 Y-21.012
X18.246 Y-21.053
X18.199 Y-21.094
X18.151 Y-21.135
X18.104 Y-21.177
X18.057 Y-21.219
X18.011 Y-21.261
X17.965 Y-21.304
X17.919 Y-21.347
X17.874 Y-21.391
X17.829 Y-21.435
X17.784 Y-21.479
X17.74 Y-21.524
X17.696 Y-21.569
X17.653 Y-21.614
X17.609 Y-21.66
X17.567 Y-21.706
X17.524 Y-21.753
X17.483 Y-21.8
X17.441 Y-21.847
X17.4 Y-21.895
X17.359 Y-21.943
X17.319 Y-21.991
X17.279 Y-22.039
X17.239 Y-22.088
X17.2 Y-22.138
X17.162 Y-22.187
X17.123 Y-22.237
X17.086 Y-22.287
X17.048 Y-22.338
X17.011 Y-22.389
X16.975 Y-22.44
X16.938 Y-22.492
X16.903 Y-22.543
X16.867 Y-22.595
X16.833 Y-22.648
X16.798 Y-22.7
X16.764 Y-22.753
X16.731 Y-22.807
X16.698 Y-22.86
X16.665 Y-22.914
X16.633 Y-22.968
X16.601 Y-23.022
X16.57 Y-23.077
X16.539 Y-23.132
X16.509 Y-23.187
X16.479 Y-23.242
X16.45 Y-23.298
X16.421 Y-23.354
X16.392 Y-23.41
X16.364 Y-23.466
X16.337 Y-23.523
X16.31 Y-23.58
X16.283 Y-23.637
X16.257 Y-23.694
X16.232 Y-23.751
X16.207 Y-23.809
X16.182 Y-23.867
X16.158 Y-23.925
X16.134 Y-23.983
X16.111 Y-24.042
X16.088 Y-24.1
X16.066 Y-24.159
X16.044 Y-24.218
X16.023 Y-24.277
X16.002 Y-24.337
X15.982 Y-24.396
X15.963 Y-24.456
X15.943 Y-24.516
X15.925 Y-24.576
X15.906 Y-24.636
X15.889 Y-24.697
X15.872 Y-24.757
X15.855 Y-24.818
X15.839 Y-24.879
X15.823 Y-24.94
X15.808 Y-25.001
X15.793 Y-25.062
X15.779 Y-25.123
X15.765 Y-25.184
X15.752 Y-25.246
X15.74 Y-25.308
X15.728 Y-25.369
X15.716 Y-25.431
X15.705 Y-25.493
X15.695 Y-25.555
X15.685 Y-25.617
X15.675 Y-25.679
X15.666 Y-25.742
X15.658 Y-25.804
X15.65 Y-25.866
X15.642 Y-25.929
X15.635 Y-25.991
X15.629 Y-26.054
X15.623 Y-26.117
X15.618 Y-26.179
X15.613 Y-26.242
X15.609 Y-26.305
X15.605 Y-26.367
X15.602 Y-26.43
X15.599 Y-26.493
X15.597 Y-26.556
X15.595 Y-26.619
X15.594 Y-26.682
Y-26.745
Y-26.808
Y-26.87
X15.595 Y-26.933
X15.596 Y-26.996
X15.598 Y-27.059
X15.601 Y-27.122
X15.604 Y-27.185
X15.608 Y-27.248
X15.612 Y-27.31
X15.616 Y-27.373
X15.622 Y-27.436
X15.627 Y-27.498
X15.634 Y-27.561
X15.64 Y-27.624
X15.648 Y-27.686
X15.655 Y-27.748
X15.664 Y-27.811
X15.672 Y-27.873
X15.682 Y-27.935
X15.692 Y-27.997
X15.702 Y-28.059
X15.713 Y-28.121
X15.724 Y-28.183
X15.736 Y-28.245
X15.749 Y-28.307
X15.762 Y-28.368
X15.775 Y-28.43
X15.789 Y-28.491
X15.804 Y-28.552
X15.819 Y-28.613
X15.834 Y-28.674
X15.85 Y-28.735
X15.867 Y-28.796
X15.884 Y-28.856
X15.901 Y-28.917
X15.919 Y-28.977
X15.938 Y-29.037
X15.957 Y-29.097
X15.976 Y-29.157
X15.996 Y-29.216
X16.017 Y-29.276
X16.038 Y-29.335
X16.059 Y-29.394
X16.081 Y-29.453
X16.104 Y-29.512
X16.127 Y-29.571
X16.15 Y-29.629
X16.174 Y-29.687
X16.199 Y-29.745
X16.224 Y-29.803
X16.249 Y-29.86
X16.275 Y-29.918
X16.301 Y-29.975
X16.328 Y-30.032
X16.355 Y-30.088
X16.383 Y-30.145
X16.411 Y-30.201
X16.44 Y-30.257
X16.469 Y-30.313
X16.499 Y-30.368
X16.529 Y-30.423
X16.56 Y-30.478
X16.591 Y-30.533
X16.622 Y-30.587
X16.654 Y-30.642
X16.686 Y-30.696
X16.719 Y-30.749
X16.753 Y-30.803
X16.786 Y-30.856
X16.82 Y-30.909
X16.855 Y-30.961
X16.89 Y-31.013
X16.925 Y-31.065
X16.961 Y-31.117
X16.998 Y-31.168
X17.034 Y-31.219
X17.072 Y-31.27
X17.109 Y-31.32
X17.147 Y-31.371
X17.186 Y-31.42
X17.225 Y-31.47
X17.264 Y-31.519
X17.303 Y-31.568
X17.344 Y-31.616
X17.384 Y-31.664
X17.425 Y-31.712
X17.466 Y-31.76
X17.508 Y-31.807
X17.55 Y-31.854
X17.592 Y-31.9
X17.635 Y-31.946
X17.678 Y-31.992
X17.722 Y-32.037
X17.766 Y-32.082
X17.81 Y-32.127
X17.855 Y-32.171
X17.9 Y-32.215
X17.945 Y-32.258
X17.991 Y-32.302
X18.037 Y-32.344
X18.084 Y-32.387
X18.131 Y-32.429
X18.178 Y-32.47
X18.225 Y-32.511
X18.273 Y-32.552
X18.322 Y-32.593
X18.37 Y-32.632
X18.419 Y-32.672
X18.468 Y-32.711
X18.518 Y-32.75
X18.568 Y-32.788
X18.618 Y-32.826
X18.668 Y-32.864
X18.719 Y-32.901
X18.77 Y-32.937
X18.822 Y-32.974
X18.873 Y-33.01
X18.925 Y-33.045
X18.978 Y-33.08
X19.03 Y-33.114
X19.083 Y-33.148
X19.136 Y-33.182
X19.19 Y-33.215
X19.243 Y-33.248
X19.297 Y-33.28
X19.352 Y-33.312
X19.406 Y-33.343
X19.461 Y-33.374
X19.516 Y-33.405
X19.571 Y-33.435
X19.627 Y-33.464
X19.683 Y-33.493
X19.739 Y-33.522
X19.795 Y-33.55
X19.851 Y-33.578
X19.908 Y-33.605
X19.965 Y-33.632
X20.022 Y-33.658
X20.08 Y-33.684
X20.137 Y-33.709
X20.195 Y-33.734
X20.253 Y-33.758
X20.311 Y-33.782
X20.369 Y-33.806
X20.428 Y-33.829
X20.487 Y-33.851
X20.546 Y-33.873
X20.605 Y-33.894
X20.664 Y-33.915
X20.724 Y-33.936
X20.783 Y-33.956
X20.843 Y-33.975
X20.903 Y-33.994
X20.963 Y-34.012
X21.024 Y-34.03
X21.084 Y-34.048
X21.145 Y-34.065
X21.205 Y-34.081
X21.266 Y-34.097
X21.327 Y-34.113
X21.388 Y-34.128
X21.449 Y-34.142
X21.511 Y-34.156
X21.572 Y-34.169
X21.634 Y-34.182
X21.696 Y-34.195
X21.757 Y-34.206
X21.819 Y-34.218
X21.881 Y-34.229
X21.943 Y-34.239
X22.005 Y-34.249
X22.067 Y-34.258
X22.13 Y-34.267
X22.192 Y-34.275
X22.255 Y-34.283
X22.317 Y-34.29
X22.38 Y-34.297
X22.442 Y-34.303
X22.505 Y-34.309
X22.568 Y-34.314
X22.63 Y-34.318
X22.693 Y-34.322
X22.756 Y-34.326
X22.819 Y-34.329
X22.881 Y-34.332
X22.944 Y-34.334
X23.007 Y-34.335
X23.07 Y-34.336
X23.133 Y-34.337
X23.196
X23.259 Y-34.336
X23.322 Y-34.335
X23.385 Y-34.333
X23.447 Y-34.331
X23.51 Y-34.328
X23.573 Y-34.325
X23.636 Y-34.322
X23.699 Y-34.317
X23.761 Y-34.313
X23.824 Y-34.307
X23.887 Y-34.302
X23.949 Y-34.295
X24.012 Y-34.288
X24.074 Y-34.281
X24.137 Y-34.273
X24.199 Y-34.265
X24.261 Y-34.256
X24.324 Y-34.247
X24.386 Y-34.237
X24.448 Y-34.226
X24.51 Y-34.216
X24.571 Y-34.204
X24.633 Y-34.192
X24.695 Y-34.18
X24.756 Y-34.167
X24.818 Y-34.153
X24.879 Y-34.139
X24.94 Y-34.125
X25.002 Y-34.11
X25.063 Y-34.095
X25.123 Y-34.079
X25.184 Y-34.062
X25.245 Y-34.045
X25.305 Y-34.028
X25.365 Y-34.01
X25.425 Y-33.991
X25.485 Y-33.972
X25.545 Y-33.953
X25.605 Y-33.933
X25.664 Y-33.913
X25.724 Y-33.892
X25.783 Y-33.87
X25.842 Y-33.849
X25.901 Y-33.826
X25.959 Y-33.804
X26.018 Y-33.78
X26.076 Y-33.756
X26.134 Y-33.732
X26.192 Y-33.707
X26.25 Y-33.682
X26.307 Y-33.657
X26.364 Y-33.631
X26.421 Y-33.604
X26.478 Y-33.577
X26.535 Y-33.549
X26.591 Y-33.521
X26.647 Y-33.493
X26.703 Y-33.464
X26.759 Y-33.435
X26.814 Y-33.405
X26.869 Y-33.375
X26.924 Y-33.344
X26.979 Y-33.313
X27.033 Y-33.281
X27.087 Y-33.249
X27.141 Y-33.217
X27.195 Y-33.184
X27.248 Y-33.151
X27.301 Y-33.117
X27.354 Y-33.083
X27.406 Y-33.048
X27.459 Y-33.013
X27.511 Y-32.978
X27.562 Y-32.942
X27.614 Y-32.906
X27.665 Y-32.869
X27.716 Y-32.832
X27.766 Y-32.794
