(cutout)
(T1  D=1.5 CR=0. - ZMIN=-1.8 - flat end mill)
G90
G0 G53 Z0.

(2D Contour (cutout))
T1 M6 (flat end mill D=1.5 1.5 mm Fishtail Upcut Endmill - Fiberglass Max Pass Depth 0.8 mm)
S12000 M3
G64
G54
G43 H1
G0 X-21.15 Y42.2
Z15.
Z5.
G1 Z1.8 F100
Z-0.65
Y42.193 Z-0.696
Y42.171 Z-0.738
Y42.138 Z-0.771
Y42.096 Z-0.793
Y42.05 Z-0.8
Y41.9 F300
X-21.143 Y41.854
X-21.121 Y41.812
X-21.088 Y41.779
X-21.046 Y41.757
X-21. Y41.75
X-2.
G2 X-0.25 Y40. I0. J-1.75
G1 Y2.
G2 X-2. Y0.25 I-1.75 J0.
G1 X-40.
G2 X-41.75 Y2. I0. J1.75
G1 Y40.
G2 X-40. Y41.75 I1.75 J0.
G1 X-21.
X-20.954 Y41.757
X-20.912 Y41.779
X-20.879 Y41.812
X-20.857 Y41.854
X-20.85 Y41.9
Y42.05
Y42.096 Z-0.793
Y42.138 Z-0.771
Y42.171 Z-0.738
Y42.193 Z-0.696
Y42.2 Z-0.65
G0 Z5.
X-21.15
G1 Z1. F100
Z-1.45
Y42.193 Z-1.496
Y42.171 Z-1.538
Y42.138 Z-1.571
Y42.096 Z-1.593
Y42.05 Z-1.6
Y41.9 F300
X-21.143 Y41.854
X-21.121 Y41.812
X-21.088 Y41.779
X-21.046 Y41.757
X-21. Y41.75
X-2.
G2 X-0.25 Y40. I0. J-1.75
G1 Y2.
G2 X-2. Y0.25 I-1.75 J0.
G1 X-40.
G2 X-41.75 Y2. I0. J1.75
G1 Y40.
G2 X-40. Y41.75 I1.75 J0.
G1 X-21.
X-20.954 Y41.757
X-20.912 Y41.779
X-20.879 Y41.812
X-20.857 Y41.854
X-20.85 Y41.9
Y42.05
Y42.096 Z-1.593
Y42.138 Z-1.571
Y42.171 Z-1.538
Y42.193 Z-1.496
Y42.2 Z-1.45
G0 Z5.
X-21.15
G1 Z0.2 F100
Z-1.65
Y42.193 Z-1.696
Y42.171 Z-1.738
Y42.138 Z-1.771
Y42.096 Z-1.793
Y42.05 Z-1.8
Y41.9 F300
X-21.143 Y41.854
X-21.121 Y41.812
X-21.088 Y41.779
X-21.046 Y41.757
X-21. Y41.75
X-2.
G2 X-0.25 Y40. I0. J-1.75
G1 Y2.
G2 X-2. Y0.25 I-1.75 J0.
G1 X-40.
G2 X-41.75 Y2. I0. J1.75
G1 Y40.
G2 X-40. Y41.75 I1.75 J0.
G1 X-21.
X-20.954 Y41.757
X-20.912 Y41.779
X-20.879 Y41.812
X-20.857 Y41.854
X-20.85 Y41.9
Y42.05
Y42.096 Z-1.793
Y42.138 Z-1.771
Y42.171 Z-1.738
Y42.193 Z-1.696
Y42.2 Z-1.65
G0 Z15.
M5
G53 Z0.
M30
