(1001)
(T1  D=1.5 CR=0. - ZMIN=-5.95 - flat end mill)
G90
G0 G53 Z0.

(2D Adaptive (shape))
T1 M6 (flat end mill D=1.5 1.5 mm Fishtail Upcut Endmill - Acrylic Max Pass Depth 0.8 mm)
S18000 M3
G64
G54
G43 H1
G0 X0.598 Y8.195
Z15.
Z5.
Z2.501
G3 X-0.325 Y8.599 Z2.462 I-0.664 J-0.26 F800
X-0.729 Y7.675 Z2.423 I0.26 J-0.664
X0.194 Y7.272 Z2.384 I0.664 J0.26
X0.598 Y8.195 Z2.345 I-0.26 J0.664
X-0.325 Y8.599 Z2.306 I-0.664 J-0.26
X-0.729 Y7.675 Z2.267 I0.26 J-0.664
X0.194 Y7.272 Z2.227 I0.664 J0.26
X0.598 Y8.195 Z2.188 I-0.26 J0.664
X-0.325 Y8.599 Z2.149 I-0.664 J-0.26
X-0.729 Y7.675 Z2.11 I0.26 J-0.664
X0.194 Y7.272 Z2.071 I0.664 J0.26
X0.598 Y8.195 Z2.032 I-0.26 J0.664
X-0.325 Y8.599 Z1.993 I-0.664 J-0.26
X-0.729 Y7.675 Z1.954 I0.26 J-0.664
X0.194 Y7.272 Z1.915 I0.664 J0.26
X0.598 Y8.195 Z1.876 I-0.26 J0.664
X-0.325 Y8.599 Z1.837 I-0.664 J-0.26
X-0.729 Y7.675 Z1.798 I0.26 J-0.664
X0.194 Y7.272 Z1.758 I0.664 J0.26
X0.598 Y8.195 Z1.719 I-0.26 J0.664
X-0.325 Y8.599 Z1.68 I-0.664 J-0.26
X-0.729 Y7.675 Z1.641 I0.26 J-0.664
X0.194 Y7.272 Z1.602 I0.664 J0.26
X0.598 Y8.195 Z1.563 I-0.26 J0.664
X-0.325 Y8.599 Z1.524 I-0.664 J-0.26
X-0.729 Y7.675 Z1.485 I0.26 J-0.664
X0.194 Y7.272 Z1.446 I0.664 J0.26
X0.598 Y8.195 Z1.407 I-0.26 J0.664
X-0.325 Y8.599 Z1.368 I-0.664 J-0.26
X-0.729 Y7.675 Z1.329 I0.26 J-0.664
X0.194 Y7.272 Z1.289 I0.664 J0.26
X0.598 Y8.195 Z1.25 I-0.26 J0.664
X-0.325 Y8.599 Z1.211 I-0.664 J-0.26
X-0.729 Y7.675 Z1.172 I0.26 J-0.664
X0.194 Y7.272 Z1.133 I0.664 J0.26
X0.598 Y8.195 Z1.094 I-0.26 J0.664
X-0.325 Y8.599 Z1.055 I-0.664 J-0.26
X-0.729 Y7.675 Z1.016 I0.26 J-0.664
X0.194 Y7.272 Z0.977 I0.664 J0.26
X0.598 Y8.195 Z0.938 I-0.26 J0.664
X-0.325 Y8.599 Z0.899 I-0.664 J-0.26
X-0.729 Y7.675 Z0.86 I0.26 J-0.664
X0.194 Y7.272 Z0.82 I0.664 J0.26
X0.598 Y8.195 Z0.781 I-0.26 J0.664
X-0.325 Y8.599 Z0.742 I-0.664 J-0.26
X-0.729 Y7.675 Z0.703 I0.26 J-0.664
X0.194 Y7.272 Z0.664 I0.664 J0.26
X0.598 Y8.195 Z0.625 I-0.26 J0.664
X-0.325 Y8.599 Z0.586 I-0.664 J-0.26
X-0.729 Y7.675 Z0.547 I0.26 J-0.664
X0.194 Y7.272 Z0.508 I0.664 J0.26
X0.598 Y8.195 Z0.469 I-0.26 J0.664
X-0.325 Y8.599 Z0.43 I-0.664 J-0.26
X-0.729 Y7.675 Z0.391 I0.26 J-0.664
X0.194 Y7.272 Z0.351 I0.664 J0.26
X0.598 Y8.195 Z0.312 I-0.26 J0.664
X-0.325 Y8.599 Z0.273 I-0.664 J-0.26
X-0.729 Y7.675 Z0.234 I0.26 J-0.664
X0.194 Y7.272 Z0.195 I0.664 J0.26
X0.598 Y8.195 Z0.156 I-0.26 J0.664
X-0.325 Y8.599 Z0.117 I-0.664 J-0.26
X-0.729 Y7.675 Z0.078 I0.26 J-0.664
X0.194 Y7.272 Z0.039 I0.664 J0.26
X0.598 Y8.195 Z0. I-0.26 J0.664
X-0.325 Y8.599 Z-0.039 I-0.664 J-0.26
X-0.729 Y7.675 Z-0.078 I0.26 J-0.664
X0.194 Y7.272 Z-0.118 I0.664 J0.26
X0.598 Y8.195 Z-0.157 I-0.26 J0.664
X-0.325 Y8.599 Z-0.196 I-0.664 J-0.26
X-0.729 Y7.675 Z-0.235 I0.26 J-0.664
X0.194 Y7.272 Z-0.274 I0.664 J0.26
X0.598 Y8.195 Z-0.313 I-0.26 J0.664
X-0.325 Y8.599 Z-0.352 I-0.664 J-0.26
X-0.729 Y7.675 Z-0.391 I0.26 J-0.664
X0.194 Y7.272 Z-0.43 I0.664 J0.26
X0.598 Y8.195 Z-0.469 I-0.26 J0.664
X-0.325 Y8.599 Z-0.508 I-0.664 J-0.26
X-0.729 Y7.675 Z-0.547 I0.26 J-0.664
X0.194 Y7.272 Z-0.587 I0.664 J0.26
X0.598 Y8.195 Z-0.626 I-0.26 J0.664
X-0.325 Y8.599 Z-0.665 I-0.664 J-0.26
X-0.729 Y7.675 Z-0.704 I0.26 J-0.664
X0.194 Y7.272 Z-0.743 I0.664 J0.26
X0.598 Y8.195 Z-0.782 I-0.26 J0.664
X-0.325 Y8.599 Z-0.821 I-0.664 J-0.26
X-0.729 Y7.675 Z-0.86 I0.26 J-0.664
X0.194 Y7.272 Z-0.899 I0.664 J0.26
X0.598 Y8.195 Z-0.938 I-0.26 J0.664
X-0.325 Y8.599 Z-0.977 I-0.664 J-0.26
X-0.729 Y7.675 Z-1.016 I0.26 J-0.664
X0.194 Y7.272 Z-1.056 I0.664 J0.26
X0.598 Y8.195 Z-1.095 I-0.26 J0.664
X-0.325 Y8.599 Z-1.134 I-0.664 J-0.26
X-0.729 Y7.675 Z-1.173 I0.26 J-0.664
X0.194 Y7.272 Z-1.212 I0.664 J0.26
X0.598 Y8.195 Z-1.251 I-0.26 J0.664
X-0.325 Y8.599 Z-1.29 I-0.664 J-0.26
X-0.729 Y7.675 Z-1.329 I0.26 J-0.664
X0.194 Y7.272 Z-1.368 I0.664 J0.26
X0.598 Y8.195 Z-1.407 I-0.26 J0.664
X-0.325 Y8.599 Z-1.446 I-0.664 J-0.26
X-0.729 Y7.675 Z-1.485 I0.26 J-0.664
X0.194 Y7.272 Z-1.525 I0.664 J0.26
X0.598 Y8.195 Z-1.564 I-0.26 J0.664
X-0.325 Y8.599 Z-1.603 I-0.664 J-0.26
X-0.729 Y7.675 Z-1.642 I0.26 J-0.664
X0.194 Y7.272 Z-1.681 I0.664 J0.26
X0.598 Y8.195 Z-1.72 I-0.26 J0.664
X-0.325 Y8.599 Z-1.759 I-0.664 J-0.26
X-0.729 Y7.675 Z-1.798 I0.26 J-0.664
X0.194 Y7.272 Z-1.837 I0.664 J0.26
X0.598 Y8.195 Z-1.876 I-0.26 J0.664
X-0.325 Y8.599 Z-1.915 I-0.664 J-0.26
X-0.729 Y7.675 Z-1.954 I0.26 J-0.664
X0.194 Y7.272 Z-1.994 I0.664 J0.26
X0.598 Y8.195 Z-2.033 I-0.26 J0.664
X-0.325 Y8.599 Z-2.072 I-0.664 J-0.26
X-0.729 Y7.675 Z-2.111 I0.26 J-0.664
X0.194 Y7.272 Z-2.15 I0.664 J0.26
X0.598 Y8.195 Z-2.189 I-0.26 J0.664
X-0.325 Y8.599 Z-2.228 I-0.664 J-0.26
X-0.729 Y7.675 Z-2.267 I0.26 J-0.664
X0.194 Y7.272 Z-2.306 I0.664 J0.26
X0.598 Y8.195 Z-2.345 I-0.26 J0.664
X-0.325 Y8.599 Z-2.384 I-0.664 J-0.26
X-0.729 Y7.675 Z-2.423 I0.26 J-0.664
X0.194 Y7.272 Z-2.463 I0.664 J0.26
X0.598 Y8.195 Z-2.502 I-0.26 J0.664
X-0.325 Y8.599 Z-2.541 I-0.664 J-0.26
X-0.729 Y7.675 Z-2.58 I0.26 J-0.664
X0.194 Y7.272 Z-2.619 I0.664 J0.26
X0.598 Y8.195 Z-2.658 I-0.26 J0.664
X-0.325 Y8.599 Z-2.697 I-0.664 J-0.26
X-0.729 Y7.675 Z-2.736 I0.26 J-0.664
X0.194 Y7.272 Z-2.775 I0.664 J0.26
X0.598 Y8.195 Z-2.814 I-0.26 J0.664
X-0.325 Y8.599 Z-2.853 I-0.664 J-0.26
X-0.729 Y7.675 Z-2.892 I0.26 J-0.664
X0.194 Y7.272 Z-2.932 I0.664 J0.26
X0.598 Y8.195 Z-2.971 I-0.26 J0.664
X-0.325 Y8.599 Z-3.01 I-0.664 J-0.26
X-0.729 Y7.675 Z-3.049 I0.26 J-0.664
X0.194 Y7.272 Z-3.088 I0.664 J0.26
X0.598 Y8.195 Z-3.127 I-0.26 J0.664
X-0.325 Y8.599 Z-3.166 I-0.664 J-0.26
X-0.729 Y7.675 Z-3.205 I0.26 J-0.664
X0.194 Y7.272 Z-3.244 I0.664 J0.26
X0.598 Y8.195 Z-3.283 I-0.26 J0.664
X-0.325 Y8.599 Z-3.322 I-0.664 J-0.26
X-0.729 Y7.675 Z-3.361 I0.26 J-0.664
X0.194 Y7.272 Z-3.401 I0.664 J0.26
X0.598 Y8.195 Z-3.44 I-0.26 J0.664
X-0.325 Y8.599 Z-3.479 I-0.664 J-0.26
X-0.729 Y7.675 Z-3.518 I0.26 J-0.664
X0.194 Y7.272 Z-3.557 I0.664 J0.26
X0.598 Y8.195 Z-3.596 I-0.26 J0.664
X-0.325 Y8.599 Z-3.635 I-0.664 J-0.26
X-0.729 Y7.675 Z-3.674 I0.26 J-0.664
X0.194 Y7.272 Z-3.713 I0.664 J0.26
X0.598 Y8.195 Z-3.752 I-0.26 J0.664
X-0.325 Y8.599 Z-3.791 I-0.664 J-0.26
X-0.729 Y7.675 Z-3.83 I0.26 J-0.664
X0.194 Y7.272 Z-3.87 I0.664 J0.26
X0.598 Y8.195 Z-3.909 I-0.26 J0.664
X-0.325 Y8.599 Z-3.948 I-0.664 J-0.26
X-0.729 Y7.675 Z-3.987 I0.26 J-0.664
X0.194 Y7.272 Z-4.026 I0.664 J0.26
X0.598 Y8.195 Z-4.065 I-0.26 J0.664
X-0.325 Y8.599 Z-4.104 I-0.664 J-0.26
X-0.729 Y7.675 Z-4.143 I0.26 J-0.664
X0.194 Y7.272 Z-4.182 I0.664 J0.26
X0.598 Y8.195 Z-4.221 I-0.26 J0.664
X-0.325 Y8.599 Z-4.26 I-0.664 J-0.26
X-0.729 Y7.675 Z-4.299 I0.26 J-0.664
X0.194 Y7.272 Z-4.339 I0.664 J0.26
X0.598 Y8.195 Z-4.378 I-0.26 J0.664
X-0.325 Y8.599 Z-4.417 I-0.664 J-0.26
X-0.729 Y7.675 Z-4.456 I0.26 J-0.664
X0.194 Y7.272 Z-4.495 I0.664 J0.26
X0.598 Y8.195 Z-4.534 I-0.26 J0.664
X-0.325 Y8.599 Z-4.573 I-0.664 J-0.26
X-0.729 Y7.675 Z-4.612 I0.26 J-0.664
X0.194 Y7.272 Z-4.651 I0.664 J0.26
X0.598 Y8.195 Z-4.69 I-0.26 J0.664
X-0.325 Y8.599 Z-4.729 I-0.664 J-0.26
X-0.729 Y7.675 Z-4.768 I0.26 J-0.664
X0.194 Y7.272 Z-4.808 I0.664 J0.26
X0.598 Y8.195 Z-4.847 I-0.26 J0.664
X-0.325 Y8.599 Z-4.886 I-0.664 J-0.26
X-0.729 Y7.675 Z-4.925 I0.26 J-0.664
X0.194 Y7.272 Z-4.964 I0.664 J0.26
X0.598 Y8.195 Z-5.003 I-0.26 J0.664
X-0.325 Y8.599 Z-5.042 I-0.664 J-0.26
X-0.729 Y7.675 Z-5.081 I0.26 J-0.664
X0.194 Y7.272 Z-5.12 I0.664 J0.26
X0.647 Y7.935 Z-5.15 I-0.26 J0.664
X-0.065 Y8.648 I-0.712 J0.
X-0.778 Y7.935 I0. J-0.712
X-0.065 Y7.223 I0.712 J0.
X0.647 Y7.935 I0. J0.712
G1 Y7.998
X0.659 Y8.06
X0.681 Y8.119
X0.697 Y8.146
X0.707 Y8.167
X0.717 Y8.191
X0.725 Y8.218
X0.732 Y8.249
X0.737 Y8.283
X0.739 Y8.32
X0.738 Y8.359
X0.734 Y8.401
X0.726 Y8.446
X0.713 Y8.492
X0.696 Y8.54
X0.674 Y8.588
X0.647 Y8.637
X0.615 Y8.686
X0.577 Y8.734
X0.534 Y8.78
X0.488 Y8.823
X0.439 Y8.862
X0.386 Y8.897
X0.332 Y8.928
X0.275 Y8.956
X0.217 Y8.979
X0.157 Y8.999
X0.096 Y9.014
X0.034 Y9.026
X-0.028 Y9.034
X-0.091 Y9.037
X-0.154
X-0.217 Y9.033
X-0.279 Y9.025
X-0.341 Y9.013
X-0.402 Y8.998
X-0.462 Y8.979
X-0.52 Y8.956
X-0.578 Y8.93
X-0.633 Y8.901
X-0.687 Y8.869
X-0.739 Y8.833
X-0.789 Y8.795
X-0.837 Y8.754
X-0.882 Y8.71
X-0.924 Y8.663
X-0.964 Y8.615
X-1.001 Y8.564
X-1.035 Y8.511
X-1.066 Y8.456
X-1.094 Y8.4
X-1.119 Y8.342
X-1.14 Y8.283
X-1.158 Y8.222
X-1.172 Y8.161
X-1.184 Y8.099
X-1.191 Y8.037
X-1.195 Y7.974
X-1.196 Y7.911
X-1.193 Y7.848
X-1.187 Y7.786
X-1.177 Y7.724
X-1.163 Y7.662
X-1.147 Y7.602
X-1.127 Y7.542
X-1.103 Y7.484
X-1.077 Y7.427
X-1.047 Y7.371
X-1.014 Y7.318
X-0.978 Y7.266
X-0.94 Y7.216
X-0.899 Y7.169
X-0.855 Y7.123
X-0.809 Y7.081
X-0.76 Y7.041
X-0.709 Y7.004
X-0.657 Y6.969
X-0.602 Y6.938
X-0.546 Y6.91
X-0.488 Y6.884
X-0.429 Y6.863
X-0.369 Y6.844
X-0.308 Y6.829
X-0.246 Y6.817
X-0.184 Y6.809
X-0.121 Y6.804
X-0.058 Y6.802
X0.005 Y6.805
X0.067 Y6.81
X0.129 Y6.819
X0.191 Y6.832
X0.252 Y6.848
X0.312 Y6.867
X0.37 Y6.89
X0.428 Y6.915
X0.484 Y6.944
X0.538 Y6.976
X0.59 Y7.011
X0.64 Y7.049
X0.688 Y7.09
X0.734 Y7.133
X0.778 Y7.178
X0.818 Y7.226
X0.856 Y7.276
X0.891 Y7.329
X0.924 Y7.382
X0.956 Y7.437
X0.986 Y7.492
X1.016 Y7.547
X1.043 Y7.604
X1.069 Y7.661
X1.093 Y7.719
X1.115 Y7.778
X1.135 Y7.838
X1.151 Y7.899
X1.166 Y7.96
X1.177 Y8.022
X1.185 Y8.084
X1.191 Y8.147
X1.193 Y8.21
X1.192 Y8.273
X1.188 Y8.335
X1.181 Y8.398
X1.17 Y8.46
X1.157 Y8.521
X1.14 Y8.582
X1.12 Y8.641
X1.097 Y8.7
X1.07 Y8.757
X1.042 Y8.813
X1.01 Y8.867
X0.975 Y8.92
X0.938 Y8.971
X0.898 Y9.019
X0.856 Y9.066
X0.812 Y9.111
X0.766 Y9.153
X0.717 Y9.193
X0.667 Y9.231
X0.615 Y9.267
X0.561 Y9.299
X0.506 Y9.33
X0.45 Y9.357
X0.392 Y9.382
X0.333 Y9.404
X0.273 Y9.424
X0.213 Y9.441
X0.151 Y9.455
X0.089 Y9.466
X0.027 Y9.475
X-0.036 Y9.481
X-0.098 Y9.484
X-0.161
X-0.224 Y9.482
X-0.287 Y9.477
X-0.349 Y9.469
X-0.411 Y9.459
X-0.473 Y9.446
X-0.534 Y9.43
X-0.594 Y9.412
X-0.653 Y9.391
X-0.712 Y9.368
X-0.769 Y9.342
X-0.826 Y9.315
X-0.881 Y9.284
X-0.935 Y9.252
X-0.987 Y9.217
X-1.038 Y9.18
X-1.088 Y9.141
X-1.135 Y9.101
X-1.181 Y9.058
X-1.226 Y9.013
X-1.268 Y8.967
X-1.309 Y8.919
X-1.348 Y8.869
X-1.384 Y8.818
X-1.419 Y8.765
X-1.451 Y8.711
X-1.481 Y8.656
X-1.509 Y8.6
X-1.534 Y8.542
X-1.558 Y8.484
X-1.579 Y8.425
X-1.597 Y8.364
X-1.613 Y8.304
X-1.627 Y8.242
X-1.638 Y8.18
X-1.647 Y8.118
X-1.653 Y8.055
X-1.657 Y7.993
X-1.658 Y7.93
X-1.657 Y7.867
X-1.653 Y7.804
X-1.647 Y7.742
X-1.639 Y7.679
X-1.627 Y7.617
X-1.614 Y7.556
X-1.598 Y7.495
X-1.579 Y7.435
X-1.559 Y7.376
X-1.535 Y7.317
X-1.51 Y7.26
X-1.482 Y7.203
X-1.452 Y7.148
X-1.42 Y7.094
X-1.386 Y7.041
Y7.04
X-1.369 Y7.018
X-1.35 Y6.997
X-1.329 Y6.977
X-1.319 Y6.969
X-1.301 Y6.952
X-1.271 Y6.924
X-1.211 Y6.866
X-1.178 Y6.834
X-1.166 Y6.822
X-1.134 Y6.789
X-1.088 Y6.746
X-1.041 Y6.704
X-0.993 Y6.664
X-0.942 Y6.626
X-0.89 Y6.59
X-0.837 Y6.557
X-0.782 Y6.526
X-0.726 Y6.497
X-0.669 Y6.471
X-0.611 Y6.447
X-0.552 Y6.426
X-0.492 Y6.407
X-0.431 Y6.39
X-0.37 Y6.376
X-0.308 Y6.364
X-0.246 Y6.355
X-0.183 Y6.349
X-0.121 Y6.345
X-0.058 Y6.343
X0.005 Y6.345
X0.068 Y6.348
X0.131 Y6.354
X0.193 Y6.363
X0.255 Y6.374
X0.316 Y6.388
X0.377 Y6.404
X0.437 Y6.422
X0.497 Y6.443
X0.555 Y6.466
X0.613 Y6.492
X0.669 Y6.519
X0.724 Y6.549
X0.778 Y6.581
X0.831 Y6.615
X0.883 Y6.652
X0.932 Y6.69
X0.981 Y6.73
X1.028 Y6.772
X1.074 Y6.815
X1.118 Y6.86
X1.161 Y6.906
X1.202 Y6.953
X1.242 Y7.002
X1.28 Y7.052
X1.317 Y7.103
X1.352 Y7.155
X1.386 Y7.208
X1.418 Y7.262
X1.449 Y7.317
X1.461 Y7.342
X1.483 Y7.393
X1.496 Y7.447
X1.5 Y7.502
Y8.543
X1.497 Y8.606
X1.492 Y8.669
X1.483 Y8.731
X1.471 Y8.793
X1.456 Y8.854
X1.437 Y8.914
X1.416 Y8.973
X1.392 Y9.031
X1.365 Y9.088
X1.335 Y9.143
X1.303 Y9.197
X1.268 Y9.25
X1.232 Y9.301
X1.193 Y9.35
X1.17 Y9.377
X1.127 Y9.42
X1.077 Y9.454
X1.022 Y9.479
X0.964 Y9.495
X0.904 Y9.5
G3 X0.759 Y9.345 I0.005 J-0.15
X0.777 Y9.278 I0.15 J0.005
G1 X1.009 Y8.858
X1.028 Y8.822
X1.219 Y8.476
G3 X1.422 Y8.417 I0.131 J0.072
X1.5 Y8.543 I-0.072 J0.131
G1 Y9.263
Y9.264
Y9.265
X1.499 Y9.289
X1.484 Y9.345
X1.457 Y9.397
X1.418 Y9.44
X1.371 Y9.473
X1.316 Y9.493
X1.259 Y9.5
G3 X1.039 Y9.264 I0.008 J-0.228
X1.048 Y9.209 I0.228 J0.008
X1.333 Y9.051 I0.222 J0.064
X1.5 Y9.265 I-0.064 J0.222
G1 Y9.308
Y9.353
X1.496 Y9.375
X1.489 Y9.398
X1.488 Y9.402
X1.477 Y9.422
X1.461 Y9.443
X1.443 Y9.461
X1.422 Y9.477
X1.402 Y9.488
X1.398 Y9.489
X1.375 Y9.496
X1.353 Y9.5
X1.308
X-0.941
X-1.001 Y9.497
X-1.064 Y9.489
X-1.125 Y9.476
X-1.186 Y9.458
X-1.245 Y9.436
X-1.302 Y9.411
X-1.358 Y9.382
X-1.412 Y9.351
X-1.465 Y9.316
X-1.516 Y9.279
X-1.565 Y9.239
X-1.611 Y9.197
X-1.657 Y9.153
X-1.7 Y9.108
X-1.741 Y9.06
X-1.78 Y9.011
X-1.817 Y8.96
X-1.852 Y8.908
X-1.886 Y8.855
X-1.917 Y8.8
X-1.946 Y8.744
X-1.973 Y8.687
X-1.998 Y8.63
X-2.021 Y8.571
X-2.042 Y8.512
X-2.061 Y8.452
X-2.078 Y8.391
X-2.093 Y8.33
X-2.106 Y8.269
X-2.117 Y8.207
X-2.126 Y8.144
X-2.132 Y8.082
X-2.137 Y8.019
X-2.14 Y7.956
X-2.141 Y7.893
X-2.14 Y7.831
X-2.136 Y7.768
X-2.131 Y7.705
Y7.702
X-2.121 Y7.649
X-2.102 Y7.599
X-2.076 Y7.551
X-2.044 Y7.508
X-2.005 Y7.471
X-1.96 Y7.44
X-1.931 Y7.423
X-1.886 Y7.395
X-1.796 Y7.338
X-1.751 Y7.307
X-1.661 Y7.244
X-1.654 Y7.239
X-1.616 Y7.212
X-1.592 Y7.194
X-1.571 Y7.177
X-1.503 Y7.124
X-1.477 Y7.104
X-1.436 Y7.07
X-1.371 Y7.014
G3 X-1.16 Y7.037 I0.094 J0.117
X-1.129 Y7.109 I-0.117 J0.094
G1 X-1.06 Y7.574
X-0.877 Y8.801
X-0.798 Y9.328
Y9.37
X-0.809 Y9.41
X-0.831 Y9.446
X-0.862 Y9.474
X-0.9 Y9.493
X-0.941 Y9.5
X-1.526
X-1.559 Y9.498
X-1.612 Y9.491
X-1.669 Y9.479
X-1.729 Y9.461
X-1.788 Y9.438
X-1.845 Y9.412
X-1.9 Y9.381
X-1.953 Y9.347
X-2.004 Y9.31
X-2.053 Y9.271
X-2.099 Y9.229
X-2.144 Y9.185
X-2.187 Y9.139
X-2.228 Y9.091
X-2.266 Y9.041
X-2.303 Y8.99
X-2.338 Y8.938
X-2.37 Y8.884
X-2.401 Y8.829
X-2.429 Y8.773
X-2.456 Y8.716
X-2.481 Y8.658
X-2.504 Y8.599
X-2.525 Y8.54
X-2.544 Y8.48
X-2.561 Y8.42
X-2.576 Y8.359
X-2.59 Y8.297
X-2.602 Y8.235
X-2.611 Y8.173
X-2.619 Y8.111
X-2.623 Y8.048
X-2.625 Y8.004
X-2.622 Y7.945
X-2.609 Y7.887
X-2.586 Y7.832
X-2.555 Y7.782
X-2.515 Y7.738
X-2.469 Y7.701
X-2.417 Y7.673
X-2.336 Y7.637
X-2.291 Y7.616
X-2.255 Y7.599
X-2.156 Y7.549
X-2.111 Y7.526
X-2.08 Y7.509
X-2.066 Y7.5
X-2.021 Y7.475
X-1.978 Y7.46
X-1.933 Y7.459
X-1.889 Y7.471
X-1.852 Y7.496
X-1.823 Y7.531
X-1.806 Y7.573
X-1.685 Y8.072
X-1.507 Y8.81
X-1.385 Y9.315
X-1.381 Y9.359
X-1.391 Y9.402
X-1.412 Y9.441
X-1.443 Y9.472
X-1.483 Y9.492
X-1.526 Y9.5
X-2.021
X-2.072 Y9.497
X-2.122 Y9.491
X-2.176 Y9.479
X-2.235 Y9.462
X-2.293 Y9.439
X-2.35 Y9.412
X-2.405 Y9.381
X-2.457 Y9.346
X-2.508 Y9.309
X-2.556 Y9.269
X-2.603 Y9.226
X-2.647 Y9.182
X-2.689 Y9.135
X-2.729 Y9.086
X-2.767 Y9.036
X-2.803 Y8.984
X-2.837 Y8.931
X-2.868 Y8.877
X-2.898 Y8.822
X-2.926 Y8.766
X-2.952 Y8.708
X-2.976 Y8.65
X-2.999 Y8.591
X-3.018 Y8.532
X-3.036 Y8.471
X-3.051 Y8.41
X-3.063 Y8.348
X-3.072 Y8.286
X-3.078 Y8.224
X-3.08 Y8.161
Y8.151
X-3.075 Y8.097
X-3.061 Y8.044
X-3.038 Y7.993
X-3.009 Y7.947
X-2.972 Y7.907
X-2.929 Y7.872
X-2.882 Y7.844
X-2.83 Y7.825
X-2.826 Y7.823
X-2.785 Y7.81
X-2.689 Y7.778
X-2.651 Y7.765
X-2.606 Y7.748
X-2.516 Y7.714
X-2.471 Y7.696
X-2.446 Y7.689
X-2.421 Y7.687
X-2.42
X-2.381 Y7.692
X-2.345 Y7.707
X-2.314 Y7.731
X-2.29 Y7.763
X-2.275 Y7.799
X-2.14 Y8.318
X-2.011 Y8.812
X-1.881 Y9.312
X-1.876 Y9.357
X-1.885 Y9.4
X-1.906 Y9.44
X-1.937 Y9.471
X-1.977 Y9.492
X-2.021 Y9.5
X-2.516
X-2.57 Y9.497
X-2.618 Y9.491
X-2.672 Y9.48
X-2.729 Y9.462
X-2.788 Y9.439
X-2.845 Y9.412
X-2.899 Y9.381
X-2.952 Y9.347
X-3.002 Y9.309
X-3.051 Y9.269
X-3.097 Y9.226
X-3.141 Y9.181
X-3.183 Y9.134
X-3.222 Y9.085
X-3.26 Y9.035
X-3.295 Y8.983
X-3.328 Y8.929
X-3.359 Y8.874
X-3.387 Y8.818
X-3.413 Y8.761
X-3.437 Y8.703
X-3.458 Y8.643
X-3.477 Y8.583
X-3.492 Y8.522
X-3.504 Y8.461
X-3.512 Y8.398
X-3.517 Y8.335
X-3.518 Y8.273
X-3.517 Y8.255
X-3.51 Y8.197
X-3.493 Y8.142
X-3.467 Y8.089
X-3.433 Y8.042
X-3.391 Y8.001
X-3.344 Y7.968
X-3.291 Y7.942
X-3.235 Y7.926
X-3.19 Y7.917
X-3.175 Y7.913
X-3.1 Y7.897
X-3.055 Y7.886
X-3.01 Y7.875
X-2.985 Y7.868
X-2.875 Y7.838
X-2.828 Y7.834
X-2.783 Y7.846
X-2.743 Y7.87
X-2.712 Y7.906
X-2.694 Y7.95
X-2.569 Y8.484
X-2.493 Y8.809
X-2.375 Y9.316
X-2.371 Y9.35
X-2.378 Y9.395
X-2.398 Y9.437
X-2.43 Y9.47
X-2.471 Y9.491
X-2.516 Y9.5
X-3.01
X-3.062 Y9.497
X-3.11 Y9.491
X-3.162 Y9.48
X-3.219 Y9.463
X-3.277 Y9.44
X-3.334 Y9.413
X-3.389 Y9.382
X-3.441 Y9.347
X-3.491 Y9.309
X-3.539 Y9.268
X-3.584 Y9.224
X-3.627 Y9.178
X-3.668 Y9.13
X-3.706 Y9.08
X-3.742 Y9.029
X-3.775 Y8.975
X-3.806 Y8.92
X-3.834 Y8.864
X-3.859 Y8.806
X-3.882 Y8.748
X-3.901 Y8.688
X-3.918 Y8.627
X-3.931 Y8.566
X-3.94 Y8.503
X-3.945 Y8.441
X-3.947 Y8.378
X-3.944 Y8.315
X-3.942 Y8.293
X-3.93 Y8.234
X-3.909 Y8.178
X-3.878 Y8.127
X-3.839 Y8.081
X-3.793 Y8.043
X-3.741 Y8.013
X-3.685 Y7.993
X-3.626 Y7.982
X-3.595 Y7.979
X-3.55 Y7.974
X-3.46 Y7.963
X-3.427 Y7.958
X-3.415 Y7.957
X-3.37 Y7.949
X-3.28 Y7.934
X-3.235 Y7.935
X-3.192 Y7.949
X-3.155 Y7.975
X-3.128 Y8.011
X-3.113 Y8.054
X-3.007 Y8.602
X-2.968 Y8.805
X-2.868 Y9.322
X-2.866 Y9.35
X-2.873 Y9.395
X-2.893 Y9.437
X-2.925 Y9.47
X-2.965 Y9.491
X-3.01 Y9.5
X-3.505
X-3.542 Y9.498
X-3.588 Y9.492
X-3.638 Y9.481
X-3.692 Y9.465
X-3.749 Y9.443
X-3.806 Y9.416
X-3.86 Y9.384
X-3.912 Y9.349
X-3.962 Y9.31
X-4.009 Y9.268
X-4.053 Y9.223
X-4.095 Y9.176
X-4.134 Y9.127
X-4.17 Y9.076
X-4.204 Y9.023
X-4.235 Y8.968
X-4.263 Y8.912
X-4.288 Y8.854
X-4.31 Y8.795
X-4.329 Y8.735
X-4.345 Y8.674
X-4.358 Y8.613
X-4.366 Y8.55
X-4.371 Y8.488
X-4.372 Y8.425
X-4.369 Y8.362
X-4.361 Y8.299
X-4.358 Y8.283
X-4.341 Y8.224
X-4.314 Y8.17
X-4.278 Y8.12
X-4.234 Y8.078
X-4.184 Y8.044
X-4.128 Y8.019
X-4.069 Y8.004
X-4.008 Y8.
X-4.
X-3.955 Y7.999
X-3.865 Y7.997
X-3.82 Y7.996
X-3.775 Y7.993
X-3.685 Y7.987
X-3.679
X-3.637 Y7.993
X-3.598 Y8.011
X-3.566 Y8.039
X-3.543 Y8.075
X-3.531 Y8.116
X-3.453 Y8.675
X-3.436 Y8.8
X-3.362 Y9.329
Y9.371
X-3.373 Y9.411
X-3.396 Y9.447
X-3.427 Y9.474
X-3.464 Y9.493
X-3.505 Y9.5
X-3.955
X-4.005 Y9.498
X-4.049 Y9.492
X-4.097 Y9.482
X-4.147 Y9.466
X-4.201 Y9.446
X-4.257 Y9.418
X-4.311 Y9.386
X-4.363 Y9.35
X-4.412 Y9.311
X-4.458 Y9.269
X-4.502 Y9.223
X-4.543 Y9.175
X-4.581 Y9.125
X-4.616 Y9.073
X-4.648 Y9.019
X-4.677 Y8.963
X-4.703 Y8.906
X-4.727 Y8.848
X-4.747 Y8.788
X-4.764 Y8.727
X-4.777 Y8.666
X-4.788 Y8.604
X-4.794 Y8.541
X-4.797 Y8.479
X-4.795 Y8.416
X-4.789 Y8.353
X-4.78 Y8.291
X-4.765 Y8.23
X-4.764 Y8.225
X-4.742 Y8.17
X-4.71 Y8.119
X-4.671 Y8.075
X-4.624 Y8.037
X-4.572 Y8.009
X-4.516 Y7.989
X-4.457 Y7.979
X-4.397 Y7.98
X-4.36 Y7.983
X-4.225 Y7.993
X-4.18 Y7.996
X-4.135 Y7.997
X-4.045 Y7.999
X-4.003 Y8.008
X-3.965 Y8.028
X-3.935 Y8.058
X-3.914 Y8.095
X-3.904 Y8.137
X-3.86 Y8.706
X-3.853 Y8.797
X-3.811 Y9.338
X-3.81 Y9.35
X-3.817 Y9.395
X-3.838 Y9.437
X-3.87 Y9.47
X-3.91 Y9.491
X-3.955 Y9.5
X-4.405
X-4.45 Y9.498
X-4.492 Y9.492
X-4.538 Y9.482
X-4.587 Y9.468
X-4.639 Y9.448
X-4.693 Y9.421
X-4.747 Y9.389
X-4.799 Y9.353
X-4.848 Y9.314
X-4.894 Y9.271
X-4.937 Y9.225
X-4.977 Y9.177
X-5.015 Y9.126
X-5.049 Y9.073
X-5.08 Y9.019
X-5.109 Y8.963
X-5.134 Y8.905
X-5.156 Y8.846
X-5.176 Y8.787
X-5.192 Y8.726
X-5.205 Y8.664
X-5.214 Y8.602
X-5.221 Y8.539
X-5.223 Y8.477
X-5.222 Y8.414
X-5.216 Y8.351
X-5.207 Y8.289
X-5.193 Y8.227
X-5.176 Y8.167
X-5.167 Y8.145
X-5.141 Y8.09
X-5.105 Y8.039
X-5.06 Y7.996
X-5.009 Y7.962
X-4.952 Y7.937
X-4.892 Y7.922
X-4.831 Y7.918
X-4.769 Y7.925
X-4.765 Y7.926
X-4.72 Y7.934
X-4.63 Y7.949
X-4.585 Y7.957
X-4.573 Y7.958
X-4.54 Y7.963
X-4.45 Y7.974
X-4.411 Y7.986
X-4.376 Y8.007
X-4.349 Y8.038
X-4.331 Y8.074
X-4.324 Y8.114
X-4.294 Y8.695
X-4.288 Y8.796
X-4.26 Y9.342
X-4.265 Y9.39
X-4.285 Y9.433
X-4.317 Y9.468
X-4.358 Y9.491
X-4.405 Y9.5
X-4.855
X-4.884 Y9.499
X-4.925 Y9.493
X-4.97 Y9.484
X-5.018 Y9.469
X-5.069 Y9.449
X-5.123 Y9.423
X-5.177 Y9.391
X-5.228 Y9.355
X-5.277 Y9.316
X-5.323 Y9.272
X-5.366 Y9.227
X-5.406 Y9.178
X-5.443 Y9.127
X-5.477 Y9.074
X-5.509 Y9.02
X-5.537 Y8.964
X-5.562 Y8.906
X-5.584 Y8.847
X-5.603 Y8.787
X-5.62 Y8.726
X-5.633 Y8.665
X-5.643 Y8.603
X-5.65 Y8.54
X-5.653 Y8.478
Y8.415
X-5.65 Y8.352
X-5.643 Y8.289
X-5.632 Y8.227
X-5.617 Y8.166
X-5.598 Y8.106
X-5.575 Y8.048
X-5.561 Y8.018
X-5.53 Y7.964
X-5.49 Y7.917
X-5.442 Y7.878
X-5.388 Y7.848
X-5.329 Y7.828
X-5.268 Y7.818
X-5.206 Y7.82
X-5.146 Y7.832
X-5.125 Y7.838
X-5.015 Y7.868
X-4.99 Y7.875
X-4.945 Y7.886
X-4.9 Y7.897
X-4.825 Y7.913
X-4.788 Y7.928
X-4.757 Y7.952
X-4.733 Y7.983
X-4.718 Y8.019
X-4.713 Y8.058
X-4.711 Y8.647
Y8.795
X-4.71 Y9.35
X-4.717 Y9.395
X-4.737 Y9.437
X-4.769 Y9.47
X-4.81 Y9.491
X-4.855 Y9.5
X-5.259
X-5.314 Y9.497
X-5.355 Y9.492
X-5.399 Y9.482
X-5.447 Y9.468
X-5.498 Y9.448
X-5.551 Y9.423
X-5.605 Y9.391
X-5.657 Y9.355
X-5.706 Y9.315
X-5.752 Y9.272
X-5.794 Y9.226
X-5.834 Y9.177
X-5.872 Y9.126
X-5.906 Y9.074
X-5.937 Y9.019
X-5.966 Y8.963
X-5.991 Y8.906
X-6.014 Y8.847
X-6.034 Y8.787
X-6.05 Y8.727
X-6.064 Y8.665
X-6.075 Y8.603
X-6.083 Y8.541
X-6.088 Y8.478
X-6.09 Y8.415
Y8.352
X-6.085 Y8.29
X-6.078 Y8.227
X-6.067 Y8.165
X-6.053 Y8.104
X-6.035 Y8.044
X-6.014 Y7.985
X-5.988 Y7.927
X-5.959 Y7.871
X-5.942 Y7.844
X-5.905 Y7.795
X-5.861 Y7.753
X-5.81 Y7.719
X-5.754 Y7.695
X-5.694 Y7.681
X-5.633 Y7.677
X-5.573 Y7.684
X-5.514 Y7.702
X-5.484 Y7.714
X-5.394 Y7.748
X-5.349 Y7.765
X-5.311 Y7.778
X-5.215 Y7.81
X-5.175 Y7.832
X-5.143 Y7.865
X-5.123 Y7.906
X-5.117 Y7.951
X-5.116 Y8.554
X-5.115 Y8.795
Y9.35
X-5.122 Y9.395
X-5.142 Y9.437
X-5.174 Y9.47
X-5.214 Y9.491
X-5.259 Y9.5
X-5.709
X-5.741 Y9.498
X-5.782 Y9.493
X-5.827 Y9.483
X-5.875 Y9.469
X-5.926 Y9.449
X-5.98 Y9.423
X-6.034 Y9.391
X-6.086 Y9.355
X-6.135 Y9.315
X-6.181 Y9.273
X-6.224 Y9.227
X-6.264 Y9.178
X-6.301 Y9.128
X-6.336 Y9.075
X-6.368 Y9.021
X-6.397 Y8.965
X-6.423 Y8.908
X-6.447 Y8.85
X-6.467 Y8.79
X-6.485 Y8.73
X-6.501 Y8.669
X-6.513 Y8.608
X-6.523 Y8.545
X-6.53 Y8.483
X-6.534 Y8.42
X-6.536 Y8.357
X-6.535 Y8.294
X-6.531 Y8.232
X-6.524 Y8.169
X-6.515 Y8.107
X-6.502 Y8.045
X-6.486 Y7.984
X-6.468 Y7.924
X-6.445 Y7.865
X-6.42 Y7.808
X-6.391 Y7.752
X-6.358 Y7.698
X-6.322 Y7.647
X-6.306 Y7.626
X-6.265 Y7.583
X-6.216 Y7.547
X-6.163 Y7.52
X-6.106 Y7.503
X-6.046 Y7.496
X-5.986 Y7.498
X-5.928 Y7.511
X-5.872 Y7.534
X-5.844 Y7.549
X-5.745 Y7.599
X-5.709 Y7.616
X-5.664 Y7.637
X-5.574 Y7.676
X-5.538 Y7.701
X-5.511 Y7.735
X-5.494 Y7.775
X-5.49 Y7.819
X-5.52 Y8.428
X-5.537 Y8.796
X-5.565 Y9.357
X-5.573 Y9.401
X-5.595 Y9.44
X-5.626 Y9.471
X-5.666 Y9.492
X-5.709 Y9.5
X-6.114
X-6.173 Y9.497
X-6.215 Y9.492
X-6.259 Y9.482
X-6.308 Y9.467
X-6.36 Y9.447
X-6.414 Y9.421
X-6.468 Y9.389
X-6.52 Y9.353
X-6.569 Y9.314
X-6.615 Y9.271
X-6.658 Y9.225
X-6.699 Y9.177
X-6.737 Y9.127
X-6.772 Y9.075
X-6.804 Y9.021
X-6.834 Y8.966
X-6.861 Y8.909
X-6.886 Y8.851
X-6.907 Y8.792
X-6.927 Y8.732
X-6.943 Y8.671
X-6.958 Y8.61
X-6.969 Y8.548
X-6.978 Y8.486
X-6.985 Y8.424
X-6.989 Y8.361
X-6.991 Y8.298
X-6.99 Y8.235
X-6.987 Y8.172
X-6.981 Y8.11
X-6.972 Y8.047
X-6.961 Y7.985
X-6.948 Y7.924
X-6.932 Y7.863
X-6.913 Y7.803
X-6.892 Y7.744
X-6.867 Y7.686
X-6.84 Y7.629
X-6.81 Y7.574
X-6.776 Y7.521
X-6.739 Y7.47
X-6.7 Y7.421
X-6.657 Y7.375
X-6.648 Y7.367
X-6.602 Y7.33
X-6.55 Y7.302
X-6.495 Y7.283
X-6.437 Y7.273
X-6.378
X-6.32 Y7.283
X-6.264 Y7.303
X-6.213 Y7.332
X-6.204 Y7.338
X-6.114 Y7.395
X-6.069 Y7.423
X-6.024 Y7.449
X-5.934 Y7.5
X-5.905 Y7.524
X-5.882 Y7.555
X-5.868 Y7.59
X-5.863 Y7.628
Y7.638
X-5.901 Y8.259
X-5.935 Y8.796
X-5.97 Y9.359
X-5.979 Y9.402
X-6. Y9.441
X-6.032 Y9.472
X-6.071 Y9.492
X-6.114 Y9.5
X-6.564
X-6.607 Y9.498
X-6.65 Y9.492
X-6.695 Y9.483
X-6.745 Y9.468
X-6.797 Y9.447
X-6.853 Y9.42
X-6.907 Y9.388
X-6.959 Y9.353
X-7.008 Y9.313
X-7.054 Y9.271
X-7.098 Y9.225
X-7.139 Y9.178
X-7.177 Y9.128
X-7.213 Y9.076
X-7.246 Y9.023
X-7.277 Y8.968
X-7.305 Y8.912
X-7.33 Y8.854
X-7.353 Y8.796
X-7.374 Y8.736
X-7.392 Y8.676
X-7.408 Y8.615
X-7.422 Y8.554
X-7.433 Y8.492
X-7.442 Y8.43
X-7.449 Y8.367
X-7.453 Y8.304
X-7.455 Y8.241
Y8.178
X-7.452 Y8.116
X-7.448 Y8.053
X-7.441 Y7.99
X-7.432 Y7.928
X-7.42 Y7.866
X-7.407 Y7.805
X-7.391 Y7.744
X-7.373 Y7.684
X-7.352 Y7.624
X-7.329 Y7.566
X-7.304 Y7.508
X-7.277 Y7.451
X-7.247 Y7.396
X-7.214 Y7.342
X-7.178 Y7.291
X-7.14 Y7.241
X-7.099 Y7.193
X-7.056 Y7.148
X-7.009 Y7.105
X-6.983 Y7.085
X-6.934 Y7.052
X-6.879 Y7.027
X-6.821 Y7.013
X-6.761 Y7.008
X-6.702 Y7.014
X-6.644 Y7.029
X-6.59 Y7.055
X-6.541 Y7.089
X-6.523 Y7.104
X-6.465 Y7.149
X-6.429 Y7.177
X-6.408 Y7.194
X-6.384 Y7.212
X-6.346 Y7.239
X-6.339 Y7.244
X-6.249 Y7.307
X-6.221 Y7.335
X-6.202 Y7.368
X-6.191 Y7.406
Y7.445
X-6.265 Y8.069
X-6.352 Y8.799
X-6.42 Y9.368
X-6.431 Y9.409
X-6.453 Y9.445
X-6.484 Y9.474
X-6.522 Y9.493
X-6.564 Y9.5
X-7.014
X-7.048 Y9.498
X-7.091 Y9.493
X-7.138 Y9.483
X-7.188 Y9.468
X-7.242 Y9.447
X-7.299 Y9.419
X-7.353 Y9.387
X-7.405 Y9.352
X-7.454 Y9.312
X-7.5 Y9.27
X-7.544 Y9.225
X-7.586 Y9.178
X-7.625 Y9.128
X-7.661 Y9.077
X-7.695 Y9.024
X-7.727 Y8.97
X-7.756 Y8.914
X-7.782 Y8.857
X-7.807 Y8.799
X-7.829 Y8.74
X-7.848 Y8.68
X-7.866 Y8.62
X-7.881 Y8.559
X-7.894 Y8.497
X-7.905 Y8.435
X-7.914 Y8.373
X-7.921 Y8.311
X-7.926 Y8.248
X-7.928 Y8.185
X-7.929 Y8.122
X-7.928 Y8.059
X-7.924 Y7.997
X-7.919 Y7.934
X-7.912 Y7.871
X-7.902 Y7.809
X-7.891 Y7.747
X-7.878 Y7.686
X-7.862 Y7.625
X-7.845 Y7.564
X-7.826 Y7.505
X-7.804 Y7.445
X-7.781 Y7.387
X-7.756 Y7.329
X-7.728 Y7.273
X-7.699 Y7.217
X-7.667 Y7.163
X-7.634 Y7.11
X-7.598 Y7.058
X-7.56 Y7.008
X-7.519 Y6.96
X-7.476 Y6.914
X-7.431 Y6.87
X-7.383 Y6.829
X-7.333 Y6.791
X-7.281 Y6.756
X-7.272 Y6.751
X-7.219 Y6.726
X-7.163 Y6.711
X-7.106 Y6.704
X-7.048 Y6.708
X-6.992 Y6.72
X-6.938 Y6.742
X-6.889 Y6.773
X-6.845 Y6.811
X-6.834 Y6.822
X-6.822 Y6.834
X-6.789 Y6.866
X-6.729 Y6.924
X-6.699 Y6.952
X-6.681 Y6.969
X-6.654 Y6.992
X-6.576 Y7.059
X-6.547 Y7.097
X-6.531 Y7.143
X-6.53 Y7.192
X-6.629 Y7.823
X-6.782 Y8.802
X-6.871 Y9.373
X-6.883 Y9.413
X-6.905 Y9.448
X-6.936 Y9.475
X-6.973 Y9.493
X-7.014 Y9.5
X-7.464
X-7.496 Y9.498
X-7.54 Y9.493
X-7.588 Y9.482
X-7.64 Y9.467
X-7.695 Y9.446
X-7.751 Y9.418
X-7.805 Y9.386
X-7.857 Y9.351
X-7.907 Y9.312
X-7.954 Y9.27
X-7.998 Y9.225
X-8.04 Y9.178
X-8.079 Y9.129
X-8.116 Y9.079
X-8.151 Y9.026
X-8.184 Y8.972
X-8.214 Y8.917
X-8.241 Y8.86
X-8.267 Y8.803
X-8.29 Y8.745
X-8.311 Y8.685
X-8.33 Y8.625
X-8.347 Y8.565
X-8.362 Y8.504
X-8.375 Y8.442
X-8.386 Y8.38
X-8.395 Y8.318
X-8.402 Y8.255
X-8.407 Y8.193
X-8.411 Y8.13
X-8.412 Y8.067
Y8.004
X-8.41 Y7.941
X-8.406 Y7.879
X-8.4 Y7.816
X-8.392 Y7.753
X-8.383 Y7.691
X-8.372 Y7.629
X-8.359 Y7.568
X-8.344 Y7.507
X-8.328 Y7.446
X-8.31 Y7.386
X-8.29 Y7.326
X-8.269 Y7.267
X-8.245 Y7.208
X-8.22 Y7.151
X-8.194 Y7.094
X-8.165 Y7.038
X-8.135 Y6.983
X-8.103 Y6.929
X-8.069 Y6.876
X-8.033 Y6.824
X-7.996 Y6.773
X-7.956 Y6.724
X-7.915 Y6.677
X-7.872 Y6.631
X-7.827 Y6.587
X-7.779 Y6.546
X-7.73 Y6.507
X-7.678 Y6.471
X-7.625 Y6.437
X-7.57 Y6.408
X-7.546 Y6.396
X-7.491 Y6.376
X-7.433 Y6.366
X-7.375 Y6.365
X-7.317 Y6.374
X-7.261 Y6.392
X-7.209 Y6.42
X-7.163 Y6.456
X-7.123 Y6.499
X-7.104 Y6.523
X-7.07 Y6.564
X-6.992 Y6.654
X-6.969 Y6.681
X-6.952 Y6.699
X-6.924 Y6.729
X-6.879 Y6.776
X-6.854 Y6.814
X-6.842 Y6.858
X-6.844 Y6.904
X-6.967 Y7.54
X-7.211 Y8.805
X-7.322 Y9.379
X-7.334 Y9.417
X-7.357 Y9.45
X-7.388 Y9.476
X-7.424 Y9.493
X-7.464 Y9.5
X-7.913
X-7.952 Y9.498
X-7.997 Y9.492
X-8.046 Y9.482
X-8.099 Y9.466
X-8.155 Y9.444
X-8.211 Y9.417
X-8.266 Y9.385
X-8.318 Y9.349
X-8.367 Y9.311
X-8.414 Y9.269
X-8.459 Y9.225
X-8.502 Y9.178
X-8.542 Y9.13
X-8.579 Y9.08
X-8.615 Y9.028
X-8.648 Y8.974
X-8.679 Y8.919
X-8.708 Y8.863
X-8.734 Y8.806
X-8.759 Y8.748
X-8.781 Y8.69
X-8.802 Y8.63
X-8.82 Y8.57
X-8.837 Y8.509
X-8.851 Y8.448
X-8.864 Y8.387
X-8.875 Y8.325
X-8.884 Y8.263
X-8.892 Y8.2
X-8.897 Y8.137
X-8.901 Y8.075
X-8.904 Y8.012
Y7.949
X-8.903 Y7.886
X-8.9 Y7.823
X-8.896 Y7.76
X-8.89 Y7.698
X-8.882 Y7.635
X-8.873 Y7.573
X-8.862 Y7.511
X-8.85 Y7.449
X-8.836 Y7.388
X-8.821 Y7.327
X-8.804 Y7.267
X-8.785 Y7.206
X-8.765 Y7.147
X-8.744 Y7.088
X-8.721 Y7.029
X-8.696 Y6.971
X-8.67 Y6.914
X-8.643 Y6.857
X-8.614 Y6.802
X-8.583 Y6.747
X-8.551 Y6.693
X-8.517 Y6.639
X-8.482 Y6.587
X-8.446 Y6.536
X-8.407 Y6.486
X-8.367 Y6.438
X-8.326 Y6.39
X-8.283 Y6.344
X-8.238 Y6.3
X-8.192 Y6.257
X-8.144 Y6.216
X-8.095 Y6.178
X-8.044 Y6.141
X-7.991 Y6.107
X-7.936 Y6.076
X-7.879 Y6.049
X-7.822 Y6.024
X-7.783 Y6.01
X-7.726 Y5.995
X-7.667 Y5.99
X-7.609 Y5.995
X-7.552 Y6.009
X-7.498 Y6.033
X-7.449 Y6.066
X-7.406 Y6.106
X-7.37 Y6.153
X-7.338 Y6.204
X-7.307 Y6.249
X-7.244 Y6.339
X-7.239 Y6.346
X-7.212 Y6.384
X-7.194 Y6.408
X-7.177 Y6.429
X-7.149 Y6.465
X-7.129 Y6.503
X-7.12 Y6.545
X-7.124 Y6.587
X-7.272 Y7.227
X-7.639 Y8.81
X-7.773 Y9.384
X-7.786 Y9.421
X-7.809 Y9.452
X-7.839 Y9.477
X-7.875 Y9.494
X-7.913 Y9.5
X-8.363
X-8.415 Y9.497
X-8.461 Y9.491
X-8.511 Y9.481
X-8.565 Y9.465
X-8.622 Y9.442
X-8.679 Y9.415
X-8.733 Y9.383
X-8.785 Y9.348
X-8.835 Y9.31
X-8.883 Y9.268
X-8.928 Y9.224
X-8.97 Y9.178
X-9.011 Y9.13
X-9.049 Y9.08
X-9.085 Y9.029
X-9.119 Y8.976
X-9.151 Y8.922
X-9.181 Y8.866
X-9.208 Y8.81
X-9.234 Y8.752
X-9.258 Y8.694
X-9.279 Y8.635
X-9.299 Y8.575
X-9.317 Y8.515
X-9.333 Y8.454
X-9.348 Y8.393
X-9.361 Y8.331
X-9.372 Y8.269
X-9.381 Y8.207
X-9.389 Y8.145
X-9.395 Y8.082
X-9.399 Y8.019
X-9.402 Y7.957
X-9.404 Y7.894
X-9.403 Y7.831
X-9.402 Y7.768
X-9.399 Y7.705
X-9.394 Y7.642
X-9.388 Y7.58
X-9.38 Y7.517
X-9.371 Y7.455
X-9.361 Y7.393
X-9.349 Y7.331
X-9.336 Y7.27
X-9.322 Y7.208
X-9.306 Y7.148
X-9.289 Y7.087
X-9.27 Y7.027
X-9.25 Y6.967
X-9.229 Y6.908
X-9.206 Y6.849
X-9.182 Y6.791
X-9.157 Y6.734
X-9.13 Y6.677
X-9.102 Y6.62
X-9.073 Y6.565
X-9.043 Y6.51
X-9.011 Y6.456
X-8.977 Y6.402
X-8.943 Y6.349
X-8.907 Y6.298
X-8.87 Y6.247
X-8.832 Y6.197
X-8.792 Y6.149
X-8.751 Y6.101
X-8.708 Y6.055
X-8.664 Y6.009
X-8.619 Y5.966
X-8.573 Y5.923
X-8.525 Y5.882
X-8.476 Y5.843
X-8.425 Y5.806
X-8.373 Y5.77
X-8.32 Y5.737
X-8.265 Y5.706
X-8.209 Y5.677
X-8.151 Y5.652
X-8.093 Y5.63
X-8.033 Y5.611
X-7.972 Y5.595
X-7.959 Y5.593
X-7.903 Y5.587
X-7.847 Y5.59
X-7.792 Y5.602
X-7.739 Y5.623
X-7.691 Y5.652
X-7.648 Y5.688
X-7.611 Y5.731
X-7.581 Y5.779
X-7.549 Y5.844
X-7.526 Y5.889
X-7.509 Y5.92
X-7.5 Y5.934
X-7.449 Y6.024
X-7.423 Y6.069
X-7.395 Y6.114
X-7.379 Y6.151
X-7.374 Y6.19
X-7.379 Y6.229
X-7.551 Y6.873
X-8.07 Y8.815
X-8.224 Y9.389
X-8.243 Y9.432
X-8.275 Y9.467
X-8.317 Y9.491
X-8.363 Y9.5
X-8.858
X-8.885 Y9.499
X-8.931 Y9.493
X-8.982 Y9.482
X-9.037 Y9.465
X-9.095 Y9.442
X-9.152 Y9.415
X-9.206 Y9.384
X-9.259 Y9.349
X-9.309 Y9.31
X-9.356 Y9.269
X-9.402 Y9.226
X-9.404 Y9.224
X-9.438 Y9.182
X-9.464 Y9.137
X-9.484 Y9.087
X-9.496 Y9.036
X-9.5 Y8.983
G3 X-9.345 Y8.838 I0.15 J0.005
X-9.261 Y8.868 I-0.005 J0.15
G1 X-9.107 Y8.982
X-8.774 Y9.23
G3 X-8.743 Y9.44 I-0.089 J0.12
X-8.858 Y9.5 I-0.12 J-0.089
G1 X-9.308
X-9.353
X-9.375 Y9.496
X-9.398 Y9.489
X-9.402 Y9.488
X-9.422 Y9.477
X-9.443 Y9.461
X-9.461 Y9.443
X-9.477 Y9.422
X-9.488 Y9.402
X-9.489 Y9.398
X-9.496 Y9.375
X-9.5 Y9.353
Y9.308
Y9.038
Y6.789
X-9.497 Y6.726
X-9.493 Y6.663
X-9.485 Y6.601
X-9.475 Y6.539
X-9.461 Y6.477
X-9.445 Y6.417
X-9.426 Y6.357
X-9.405 Y6.297
X-9.382 Y6.239
X-9.356 Y6.181
X-9.329 Y6.125
X-9.3 Y6.069
X-9.268 Y6.015
X-9.235 Y5.961
X-9.2 Y5.909
X-9.164 Y5.857
X-9.126 Y5.807
X-9.087 Y5.758
X-9.046 Y5.711
X-9.003 Y5.664
X-8.959 Y5.619
X-8.914 Y5.576
X-8.867 Y5.533
X-8.819 Y5.493
X-8.77 Y5.454
X-8.719 Y5.417
X-8.667 Y5.381
X-8.614 Y5.348
X-8.56 Y5.316
X-8.504 Y5.287
X-8.447 Y5.26
X-8.389 Y5.236
X-8.33 Y5.214
X-8.269 Y5.197
X-8.208 Y5.182
X-8.146 Y5.171
X-8.117 Y5.168
X-8.059 Y5.166
X-8.002 Y5.173
X-7.947 Y5.19
X-7.895 Y5.216
X-7.848 Y5.25
X-7.808 Y5.291
X-7.775 Y5.339
X-7.75 Y5.391
X-7.748 Y5.394
X-7.714 Y5.484
X-7.696 Y5.529
X-7.689 Y5.546
X-7.676 Y5.574
X-7.637 Y5.664
X-7.616 Y5.709
X-7.606 Y5.75
X-7.607 Y5.791
X-7.619 Y5.831
X-7.642 Y5.866
X-7.674 Y5.893
X-8.16 Y6.203
X-8.873 Y6.658
X-9.269 Y6.91
X-9.308 Y6.928
X-9.35 Y6.934
X-9.395 Y6.927
X-9.437 Y6.906
X-9.47 Y6.874
X-9.491 Y6.834
X-9.5 Y6.789
Y5.979
X-9.497 Y5.916
X-9.49 Y5.854
X-9.479 Y5.792
X-9.463 Y5.731
X-9.444 Y5.671
X-9.421 Y5.613
X-9.395 Y5.555
X-9.366 Y5.499
X-9.335 Y5.445
X-9.301 Y5.392
X-9.265 Y5.341
X-9.226 Y5.291
X-9.186 Y5.242
X-9.143 Y5.196
X-9.099 Y5.151
X-9.053 Y5.108
X-9.006 Y5.067
X-8.957 Y5.028
X-8.906 Y4.99
X-8.854 Y4.955
X-8.801 Y4.921
X-8.746 Y4.89
X-8.69 Y4.861
X-8.633 Y4.835
X-8.575 Y4.811
X-8.516 Y4.79
X-8.456 Y4.772
X-8.394 Y4.758
X-8.332 Y4.747
X-8.27 Y4.74
X-8.207 Y4.737
X-8.206
X-8.15 Y4.742
X-8.095 Y4.757
X-8.044 Y4.78
X-7.996 Y4.811
X-7.955 Y4.849
X-7.92 Y4.894
X-7.892 Y4.943
X-7.873 Y4.996
X-7.868 Y5.015
X-7.838 Y5.125
X-7.825 Y5.17
X-7.823 Y5.174
X-7.81 Y5.215
X-7.781 Y5.304
X-7.775 Y5.347
X-7.781 Y5.39
X-7.799 Y5.429
X-7.828 Y5.461
X-7.864 Y5.484
X-8.385 Y5.713
X-8.839 Y5.913
X-9.29 Y6.111
X-9.337 Y6.123
X-9.385 Y6.12
X-9.43 Y6.101
X-9.466 Y6.069
X-9.49 Y6.027
X-9.5 Y5.979
Y5.349
X-9.497 Y5.294
X-9.49 Y5.238
X-9.477 Y5.177
X-9.459 Y5.116
X-9.436 Y5.058
X-9.41 Y5.
X-9.38 Y4.945
X-9.347 Y4.892
X-9.311 Y4.84
X-9.272 Y4.79
X-9.231 Y4.743
X-9.188 Y4.697
X-9.143 Y4.654
X-9.095 Y4.612
X-9.046 Y4.573
X-8.995 Y4.537
X-8.942 Y4.502
X-8.888 Y4.47
X-8.832 Y4.44
X-8.776 Y4.413
X-8.718 Y4.389
X-8.659 Y4.367
X-8.599 Y4.349
X-8.538 Y4.334
X-8.476 Y4.322
X-8.413 Y4.314
X-8.351 Y4.31
X-8.288 Y4.311
X-8.274 Y4.312
X-8.217 Y4.321
X-8.161 Y4.339
X-8.109 Y4.367
X-8.063 Y4.402
X-8.023 Y4.445
X-7.991 Y4.494
X-7.968 Y4.548
X-7.954 Y4.605
X-7.949 Y4.63
X-7.934 Y4.72
X-7.926 Y4.765
X-7.917 Y4.81
X-7.913 Y4.825
X-7.897 Y4.9
X-7.886 Y4.945
X-7.885 Y4.989
X-7.896 Y5.032
X-7.919 Y5.069
X-7.953 Y5.099
X-7.993 Y5.117
X-8.535 Y5.27
X-8.815 Y5.349
X-9.309 Y5.489
X-9.354 Y5.494
X-9.398 Y5.486
X-9.439 Y5.465
X-9.471 Y5.434
X-9.492 Y5.394
X-9.5 Y5.349
Y4.81
X-9.498 Y4.765
X-9.491 Y4.715
X-9.48 Y4.661
X-9.462 Y4.603
X-9.439 Y4.544
X-9.412 Y4.487
X-9.381 Y4.433
X-9.346 Y4.38
X-9.308 Y4.33
X-9.268 Y4.282
X-9.224 Y4.237
X-9.178 Y4.194
X-9.13 Y4.153
X-9.08 Y4.115
X-9.028 Y4.079
X-8.975 Y4.047
X-8.919 Y4.016
X-8.863 Y3.989
X-8.805 Y3.964
X-8.746 Y3.942
X-8.686 Y3.924
X-8.625 Y3.908
X-8.563 Y3.897
X-8.501 Y3.889
X-8.438 Y3.885
X-8.375
X-8.312 Y3.89
X-8.295 Y3.892
X-8.236 Y3.905
X-8.181 Y3.929
X-8.13 Y3.961
X-8.085 Y4.002
X-8.049 Y4.049
X-8.021 Y4.103
X-8.002 Y4.16
X-7.994 Y4.219
X-7.993 Y4.225
X-7.983 Y4.36
X-7.979 Y4.405
X-7.974 Y4.45
X-7.963 Y4.54
X-7.965 Y4.583
X-7.98 Y4.624
X-8.006 Y4.659
X-8.041 Y4.685
X-8.082 Y4.7
X-8.638 Y4.813
X-8.806 Y4.847
X-9.32 Y4.951
X-9.363 Y4.954
X-9.405 Y4.944
X-9.443 Y4.922
X-9.473 Y4.891
X-9.492 Y4.852
X-9.5 Y4.81
Y4.315
X-9.498 Y4.279
X-9.492 Y4.233
X-9.482 Y4.183
X-9.466 Y4.13
X-9.444 Y4.074
X-9.416 Y4.017
X-9.384 Y3.963
X-9.349 Y3.911
X-9.31 Y3.861
X-9.268 Y3.815
X-9.223 Y3.77
X-9.176 Y3.729
X-9.126 Y3.69
X-9.075 Y3.654
X-9.021 Y3.621
X-8.966 Y3.591
X-8.91 Y3.563
X-8.852 Y3.539
X-8.793 Y3.517
X-8.732 Y3.499
X-8.671 Y3.484
X-8.609 Y3.472
X-8.547 Y3.465
X-8.484 Y3.461
X-8.421
X-8.359 Y3.466
X-8.296 Y3.474
X-8.273 Y3.479
X-8.215 Y3.497
X-8.161 Y3.524
X-8.113 Y3.561
X-8.071 Y3.605
X-8.038 Y3.655
X-8.014 Y3.711
X-8. Y3.77
X-7.996 Y3.83
X-7.997 Y3.865
X-7.999 Y3.955
X-8. Y4.
X-7.999 Y4.045
X-7.997 Y4.135
X-8.003 Y4.177
X-8.021 Y4.215
X-8.049 Y4.247
X-8.085 Y4.27
X-8.125 Y4.282
X-8.692 Y4.365
X-8.801 Y4.381
X-9.328 Y4.458
X-9.37
X-9.411 Y4.447
X-9.446 Y4.425
X-9.474 Y4.394
X-9.493 Y4.356
X-9.5 Y4.315
Y3.865
X-9.498 Y3.82
X-9.492 Y3.776
X-9.482 Y3.729
X-9.467 Y3.679
X-9.446 Y3.626
X-9.419 Y3.571
X-9.387 Y3.517
X-9.352 Y3.465
X-9.312 Y3.416
X-9.27 Y3.37
X-9.224 Y3.326
X-9.176 Y3.286
X-9.126 Y3.248
X-9.073 Y3.213
X-9.019 Y3.181
X-8.963 Y3.152
X-8.906 Y3.127
X-8.847 Y3.104
X-8.787 Y3.084
X-8.727 Y3.067
X-8.665 Y3.054
X-8.603 Y3.044
X-8.541 Y3.038
X-8.478 Y3.036
X-8.415 Y3.037
X-8.352 Y3.043
X-8.29 Y3.053
X-8.229 Y3.067
X-8.206 Y3.074
X-8.149 Y3.097
X-8.097 Y3.13
X-8.052 Y3.171
X-8.015 Y3.22
X-7.986 Y3.274
X-7.967 Y3.332
X-7.959 Y3.393
X-7.962 Y3.454
X-7.963 Y3.46
X-7.974 Y3.55
X-7.979 Y3.595
X-7.983 Y3.64
X-7.993 Y3.775
X-8.003 Y3.815
X-8.024 Y3.851
X-8.053 Y3.88
X-8.09 Y3.899
X-8.13 Y3.908
X-8.706 Y3.957
X-8.797 Y3.964
X-9.338 Y4.009
X-9.386 Y4.006
X-9.43 Y3.987
X-9.466 Y3.954
X-9.491 Y3.912
X-9.5 Y3.865
Y3.415
X-9.498 Y3.379
X-9.493 Y3.337
X-9.483 Y3.292
X-9.468 Y3.243
X-9.448 Y3.191
X-9.422 Y3.137
X-9.39 Y3.083
X-9.354 Y3.032
X-9.315 Y2.983
X-9.272 Y2.937
X-9.226 Y2.894
X-9.177 Y2.854
X-9.127 Y2.816
X-9.074 Y2.782
X-9.019 Y2.751
X-8.963 Y2.723
X-8.906 Y2.697
X-8.847 Y2.675
X-8.787 Y2.656
X-8.726 Y2.64
X-8.664 Y2.627
X-8.602 Y2.617
X-8.54 Y2.611
X-8.477 Y2.608
X-8.414 Y2.609
X-8.351 Y2.614
X-8.289 Y2.622
X-8.227 Y2.635
X-8.167 Y2.652
X-8.107 Y2.673
X-8.093 Y2.68
X-8.04 Y2.708
X-7.992 Y2.746
X-7.952 Y2.791
X-7.921 Y2.842
X-7.898 Y2.898
X-7.885 Y2.957
X-7.883 Y3.018
X-7.891 Y3.077
X-7.897 Y3.1
X-7.913 Y3.175
X-7.917 Y3.19
X-7.926 Y3.235
X-7.934 Y3.28
X-7.949 Y3.37
X-7.962 Y3.407
X-7.985 Y3.439
X-8.014 Y3.465
X-8.049 Y3.482
X-8.088 Y3.489
X-8.676 Y3.522
X-8.796 Y3.529
X-9.342 Y3.56
X-9.389 Y3.555
X-9.432 Y3.535
X-9.468 Y3.503
X-9.491 Y3.462
X-9.5 Y3.415
Y2.986
X-9.498 Y2.946
X-9.493 Y2.905
X-9.483 Y2.861
X-9.469 Y2.813
X-9.449 Y2.762
X-9.423 Y2.709
X-9.391 Y2.654
X-9.355 Y2.603
X-9.315 Y2.554
X-9.272 Y2.508
X-9.226 Y2.465
X-9.178 Y2.425
X-9.127 Y2.388
X-9.074 Y2.354
X-9.019 Y2.323
X-8.963 Y2.295
X-8.906 Y2.269
X-8.847 Y2.247
X-8.787 Y2.228
X-8.726 Y2.211
X-8.665 Y2.198
X-8.603 Y2.188
X-8.54 Y2.18
X-8.478 Y2.176
X-8.415 Y2.175
X-8.352 Y2.178
X-8.289 Y2.183
X-8.227 Y2.193
X-8.165 Y2.206
X-8.105 Y2.224
X-8.046 Y2.245
X-7.988 Y2.27
X-7.956 Y2.287
X-7.904 Y2.32
X-7.858 Y2.361
X-7.821 Y2.41
X-7.793 Y2.465
X-7.774 Y2.524
X-7.767 Y2.585
X-7.77 Y2.647
X-7.784 Y2.707
X-7.81 Y2.785
X-7.823 Y2.826
X-7.825 Y2.83
X-7.838 Y2.875
X-7.868 Y2.985
X-7.875 Y3.01
X-7.896 Y3.053
X-7.929 Y3.087
X-7.971 Y3.109
X-8.017 Y3.116
X-8.613 Y3.123
X-8.795 Y3.125
X-9.349 Y3.13
X-9.394 Y3.124
X-9.436 Y3.104
X-9.469 Y3.072
X-9.491 Y3.031
X-9.5 Y2.986
Y2.561
X-9.498 Y2.518
X-9.492 Y2.477
X-9.483 Y2.432
X-9.469 Y2.385
X-9.449 Y2.334
X-9.423 Y2.28
X-9.391 Y2.226
X-9.355 Y2.175
X-9.315 Y2.126
X-9.272 Y2.08
X-9.226 Y2.037
X-9.178 Y1.997
X-9.127 Y1.96
X-9.074 Y1.925
X-9.02 Y1.894
X-8.964 Y1.865
X-8.907 Y1.839
X-8.848 Y1.816
X-8.789 Y1.796
X-8.728 Y1.779
X-8.667 Y1.765
X-8.605 Y1.753
X-8.543 Y1.744
X-8.48 Y1.738
X-8.417 Y1.735
X-8.354
X-8.291 Y1.738
X-8.229 Y1.744
X-8.167 Y1.753
X-8.105 Y1.765
X-8.044 Y1.781
X-7.984 Y1.8
X-7.926 Y1.823
X-7.868 Y1.85
X-7.813 Y1.88
X-7.76 Y1.914
X-7.752 Y1.92
X-7.707 Y1.959
X-7.67 Y2.005
X-7.641 Y2.056
X-7.621 Y2.112
X-7.611 Y2.17
Y2.229
X-7.621 Y2.287
X-7.64 Y2.343
X-7.676 Y2.426
X-7.689 Y2.454
X-7.696 Y2.471
X-7.714 Y2.516
X-7.748 Y2.606
X-7.765 Y2.651
X-7.789 Y2.689
X-7.822 Y2.718
X-7.863 Y2.737
X-7.908 Y2.742
X-8.513 Y2.727
X-8.795 Y2.72
X-9.354 Y2.705
X-9.398 Y2.697
X-9.438 Y2.677
X-9.47 Y2.645
X-9.492 Y2.605
X-9.5 Y2.561
Y2.131
X-9.498 Y2.089
X-9.493 Y2.048
X-9.483 Y2.003
X-9.468 Y1.955
X-9.449 Y1.904
X-9.422 Y1.85
X-9.39 Y1.796
X-9.354 Y1.744
X-9.315 Y1.695
X-9.272 Y1.649
X-9.226 Y1.606
X-9.178 Y1.565
X-9.128 Y1.528
X-9.075 Y1.493
X-9.021 Y1.461
X-8.965 Y1.432
X-8.908 Y1.405
X-8.85 Y1.381
X-8.791 Y1.36
X-8.731 Y1.342
X-8.67 Y1.326
X-8.609 Y1.313
X-8.547 Y1.302
X-8.484 Y1.294
X-8.421 Y1.289
X-8.359 Y1.286
X-8.296
X-8.233 Y1.289
X-8.17 Y1.294
X-8.108 Y1.303
X-8.046 Y1.313
X-7.984 Y1.327
X-7.924 Y1.343
X-7.864 Y1.363
X-7.805 Y1.385
X-7.748 Y1.411
X-7.692 Y1.44
X-7.638 Y1.473
X-7.587 Y1.509
X-7.537 Y1.548
X-7.526 Y1.558
X-7.486 Y1.602
X-7.454 Y1.651
X-7.43 Y1.705
X-7.416 Y1.762
X-7.412 Y1.821
X-7.417 Y1.879
X-7.433 Y1.936
X-7.457 Y1.99
X-7.5 Y2.066
X-7.509 Y2.08
X-7.526 Y2.111
X-7.549 Y2.156
X-7.599 Y2.255
X-7.616 Y2.291
X-7.641 Y2.325
X-7.675 Y2.351
X-7.715 Y2.366
X-7.757 Y2.37
X-8.371 Y2.334
X-8.796 Y2.309
X-9.359 Y2.276
X-9.402 Y2.266
X-9.441 Y2.245
X-9.472 Y2.214
X-9.492 Y2.174
X-9.5 Y2.131
Y1.706
X-9.498 Y1.657
X-9.492 Y1.615
X-9.482 Y1.57
X-9.468 Y1.521
X-9.448 Y1.469
X-9.421 Y1.414
X-9.389 Y1.36
X-9.353 Y1.308
X-9.314 Y1.259
X-9.271 Y1.213
X-9.226 Y1.17
X-9.178 Y1.129
X-9.128 Y1.091
X-9.076 Y1.055
X-9.022 Y1.023
X-8.967 Y0.993
X-8.91 Y0.965
X-8.852 Y0.94
X-8.794 Y0.918
X-8.734 Y0.898
X-8.673 Y0.881
X-8.612 Y0.866
X-8.551 Y0.853
X-8.489 Y0.843
X-8.426 Y0.836
X-8.363 Y0.831
X-8.301 Y0.828
X-8.238 Y0.827
X-8.175 Y0.829
X-8.112 Y0.834
X-8.05 Y0.841
X-7.987 Y0.85
X-7.925 Y0.862
X-7.864 Y0.876
X-7.804 Y0.892
X-7.744 Y0.911
X-7.684 Y0.933
X-7.626 Y0.957
X-7.57 Y0.984
X-7.514 Y1.014
X-7.461 Y1.047
X-7.409 Y1.082
X-7.359 Y1.121
X-7.312 Y1.163
X-7.268 Y1.208
X-7.258 Y1.219
X-7.224 Y1.266
X-7.198 Y1.318
X-7.18 Y1.374
X-7.173 Y1.432
X-7.175 Y1.49
X-7.186 Y1.547
X-7.208 Y1.601
X-7.237 Y1.652
X-7.244 Y1.661
X-7.307 Y1.751
X-7.338 Y1.796
X-7.395 Y1.886
X-7.419 Y1.924
X-7.445 Y1.953
X-7.478 Y1.975
X-7.515 Y1.987
X-7.554 Y1.989
X-8.18 Y1.941
X-8.797 Y1.894
X-9.362 Y1.85
X-9.404 Y1.841
X-9.442 Y1.819
X-9.472 Y1.788
X-9.492 Y1.749
X-9.5 Y1.706
Y1.256
X-9.498 Y1.22
X-9.493 Y1.177
X-9.483 Y1.131
X-9.468 Y1.082
X-9.447 Y1.028
X-9.42 Y0.972
X-9.388 Y0.918
X-9.352 Y0.867
X-9.313 Y0.818
X-9.271 Y0.771
X-9.225 Y0.727
X-9.178 Y0.686
X-9.128 Y0.647
X-9.077 Y0.611
X-9.023 Y0.578
X-8.969 Y0.547
X-8.913 Y0.518
X-8.855 Y0.492
X-8.797 Y0.469
X-8.738 Y0.448
X-8.678 Y0.429
X-8.617 Y0.412
X-8.556 Y0.398
X-8.494 Y0.386
X-8.432 Y0.376
X-8.37 Y0.369
X-8.307 Y0.363
X-8.244 Y0.36
X-8.181 Y0.359
X-8.118 Y0.36
X-8.055 Y0.363
X-7.993 Y0.369
X-7.93 Y0.376
X-7.868 Y0.386
X-7.806 Y0.398
X-7.745 Y0.412
X-7.684 Y0.428
X-7.624 Y0.446
X-7.565 Y0.467
X-7.506 Y0.49
X-7.448 Y0.514
X-7.391 Y0.542
X-7.336 Y0.571
X-7.282 Y0.603
X-7.229 Y0.637
X-7.178 Y0.674
X-7.129 Y0.713
X-7.082 Y0.755
X-7.038 Y0.8
X-6.996 Y0.847
X-6.958 Y0.897
X-6.952 Y0.905
X-6.924 Y0.955
X-6.905 Y1.009
X-6.894 Y1.065
X-6.893 Y1.122
X-6.901 Y1.179
X-6.919 Y1.234
X-6.945 Y1.285
X-6.979 Y1.331
X-6.992 Y1.346
X-7.07 Y1.436
X-7.104 Y1.477
X-7.149 Y1.535
X-7.177 Y1.571
X-7.194 Y1.592
X-7.212 Y1.616
X-7.237 Y1.652
X-7.266 Y1.68
X-7.3 Y1.7
X-7.339 Y1.709
X-7.379
X-7.997 Y1.613
X-8.802 Y1.488
X-9.373 Y1.399
X-9.413 Y1.387
X-9.447 Y1.365
X-9.475 Y1.334
X-9.493 Y1.297
X-9.5 Y1.256
Y0.806
X-9.499 Y0.776
X-9.493 Y0.733
X-9.483 Y0.685
X-9.468 Y0.635
X-9.446 Y0.581
X-9.419 Y0.524
X-9.387 Y0.47
X-9.351 Y0.418
X-9.312 Y0.369
X-9.27 Y0.322
X-9.225 Y0.278
X-9.178 Y0.236
X-9.129 Y0.197
X-9.078 Y0.16
X-9.025 Y0.126
X-8.971 Y0.094
X-8.915 Y0.065
X-8.859 Y0.038
X-8.801 Y0.013
X-8.742 Y-0.01
X-8.683 Y-0.03
X-8.622 Y-0.048
X-8.562 Y-0.064
X-8.5 Y-0.078
X-8.438 Y-0.09
X-8.376 Y-0.1
X-8.314 Y-0.107
X-8.251 Y-0.113
X-8.188 Y-0.117
X-8.126 Y-0.119
X-8.063 Y-0.118
X-8. Y-0.116
X-7.937 Y-0.112
X-7.874 Y-0.106
X-7.812 Y-0.098
X-7.75 Y-0.088
X-7.688 Y-0.077
X-7.627 Y-0.063
X-7.566 Y-0.048
X-7.505 Y-0.031
X-7.445 Y-0.011
X-7.386 Y0.01
X-7.327 Y0.033
X-7.27 Y0.057
X-7.213 Y0.084
X-7.157 Y0.113
X-7.102 Y0.144
X-7.048 Y0.176
X-6.996 Y0.211
X-6.944 Y0.248
X-6.895 Y0.286
X-6.847 Y0.327
X-6.801 Y0.371
X-6.758 Y0.416
X-6.717 Y0.464
X-6.679 Y0.514
X-6.644 Y0.566
X-6.612 Y0.62
X-6.611 Y0.622
X-6.59 Y0.675
X-6.577 Y0.73
X-6.574 Y0.786
X-6.58 Y0.842
X-6.594 Y0.897
X-6.617 Y0.949
X-6.649 Y0.996
X-6.687 Y1.037
X-6.699 Y1.048
X-6.729 Y1.076
X-6.789 Y1.134
X-6.822 Y1.166
X-6.834 Y1.178
X-6.866 Y1.211
X-6.924 Y1.271
X-6.962 Y1.298
X-7.006 Y1.312
X-7.052
X-7.69 Y1.213
X-8.802 Y1.039
X-9.373 Y0.949
X-9.413 Y0.937
X-9.448 Y0.915
X-9.475 Y0.884
X-9.493 Y0.847
X-9.5 Y0.806
Y0.356
X-9.498 Y0.325
X-9.493 Y0.281
X-9.482 Y0.232
X-9.467 Y0.18
X-9.445 Y0.125
X-9.418 Y0.068
X-9.386 Y0.014
X-9.35 Y-0.038
X-9.312 Y-0.087
X-9.27 Y-0.134
X-9.225 Y-0.179
X-9.179 Y-0.221
X-9.13 Y-0.261
X-9.079 Y-0.298
X-9.027 Y-0.333
X-8.973 Y-0.366
X-8.918 Y-0.396
X-8.862 Y-0.424
X-8.805 Y-0.45
X-8.746 Y-0.474
X-8.687 Y-0.496
X-8.628 Y-0.515
X-8.567 Y-0.533
X-8.506 Y-0.549
X-8.445 Y-0.562
X-8.383 Y-0.574
X-8.321 Y-0.584
X-8.258 Y-0.592
X-8.196 Y-0.598
X-8.133 Y-0.602
X-8.07 Y-0.605
X-8.007
X-7.944 Y-0.604
X-7.882 Y-0.601
X-7.819 Y-0.597
X-7.756 Y-0.591
X-7.694 Y-0.583
X-7.632 Y-0.573
X-7.57 Y-0.562
X-7.508 Y-0.549
X-7.447 Y-0.534
X-7.386 Y-0.518
X-7.326 Y-0.5
X-7.266 Y-0.48
X-7.207 Y-0.459
X-7.149 Y-0.436
X-7.091 Y-0.412
X-7.033 Y-0.386
X-6.977 Y-0.358
X-6.921 Y-0.328
X-6.867 Y-0.297
X-6.813 Y-0.264
X-6.761 Y-0.23
X-6.709 Y-0.194
X-6.659 Y-0.156
X-6.61 Y-0.116
X-6.563 Y-0.075
X-6.517 Y-0.032
X-6.473 Y0.013
X-6.431 Y0.06
X-6.391 Y0.109
X-6.354 Y0.16
X-6.32 Y0.213
X-6.289 Y0.267
X-6.261 Y0.324
X-6.248 Y0.354
X-6.229 Y0.411
X-6.221 Y0.469
X-6.222 Y0.528
X-6.233 Y0.586
X-6.254 Y0.641
X-6.284 Y0.692
X-6.322 Y0.738
X-6.367 Y0.776
X-6.384 Y0.788
X-6.408 Y0.806
X-6.429 Y0.823
X-6.497 Y0.876
X-6.523 Y0.896
X-6.564 Y0.93
X-6.654 Y1.008
X-6.692 Y1.03
X-6.735 Y1.041
X-6.778 Y1.038
X-7.418 Y0.905
X-8.807 Y0.617
X-9.381 Y0.498
X-9.418 Y0.485
X-9.451 Y0.462
X-9.477 Y0.432
X-9.493 Y0.396
X-9.5 Y0.356
Y-0.093
X-9.498 Y-0.134
X-9.492 Y-0.179
X-9.482 Y-0.228
X-9.466 Y-0.281
X-9.443 Y-0.338
X-9.416 Y-0.395
X-9.384 Y-0.449
X-9.349 Y-0.501
X-9.31 Y-0.551
X-9.269 Y-0.598
X-9.225 Y-0.643
X-9.179 Y-0.686
X-9.13 Y-0.726
X-9.08 Y-0.764
X-9.028 Y-0.799
X-8.975 Y-0.833
X-8.92 Y-0.864
X-8.865 Y-0.893
X-8.808 Y-0.92
X-8.75 Y-0.945
X-8.692 Y-0.968
X-8.632 Y-0.989
X-8.572 Y-1.008
X-8.512 Y-1.025
X-8.451 Y-1.041
X-8.389 Y-1.054
X-8.328 Y-1.066
X-8.265 Y-1.076
X-8.203 Y-1.084
X-8.141 Y-1.091
X-8.078 Y-1.095
X-8.015 Y-1.099
X-7.952 Y-1.1
X-7.889
X-7.826 Y-1.098
X-7.764 Y-1.095
X-7.701 Y-1.09
X-7.638 Y-1.084
X-7.576 Y-1.076
X-7.514 Y-1.067
X-7.452 Y-1.056
X-7.39 Y-1.043
X-7.329 Y-1.03
X-7.268 Y-1.014
X-7.207 Y-0.997
X-7.147 Y-0.979
X-7.087 Y-0.96
X-7.028 Y-0.938
X-6.969 Y-0.916
X-6.911 Y-0.892
X-6.854 Y-0.866
X-6.797 Y-0.839
X-6.74 Y-0.811
X-6.685 Y-0.781
X-6.63 Y-0.75
X-6.577 Y-0.718
X-6.524 Y-0.684
X-6.472 Y-0.648
X-6.421 Y-0.611
X-6.371 Y-0.573
X-6.323 Y-0.533
X-6.275 Y-0.491
X-6.229 Y-0.448
X-6.185 Y-0.404
X-6.141 Y-0.358
X-6.1 Y-0.311
X-6.06 Y-0.262
X-6.023 Y-0.212
X-5.987 Y-0.16
X-5.954 Y-0.106
X-5.924 Y-0.051
X-5.897 Y0.006
X-5.873 Y0.064
X-5.853 Y0.123
X-5.847 Y0.145
X-5.836 Y0.202
X-5.835 Y0.26
X-5.843 Y0.318
X-5.861 Y0.373
X-5.887 Y0.424
X-5.922 Y0.471
X-5.964 Y0.511
X-6.012 Y0.543
X-6.024 Y0.551
X-6.069 Y0.577
X-6.114 Y0.605
X-6.204 Y0.662
X-6.249 Y0.693
X-6.317 Y0.74
X-6.353 Y0.758
X-6.393 Y0.765
X-6.434 Y0.76
X-7.078 Y0.605
X-8.811 Y0.186
X-9.385 Y0.047
X-9.43 Y0.028
X-9.466 Y-0.004
X-9.49 Y-0.046
X-9.5 Y-0.093
Y-0.543
X-9.497 Y-0.6
X-9.491 Y-0.646
X-9.48 Y-0.696
X-9.464 Y-0.75
X-9.442 Y-0.808
X-9.414 Y-0.865
X-9.383 Y-0.919
X-9.347 Y-0.972
X-9.309 Y-1.021
X-9.268 Y-1.069
X-9.224 Y-1.114
X-9.178 Y-1.157
X-9.13 Y-1.198
X-9.081 Y-1.237
X-9.029 Y-1.273
X-8.976 Y-1.307
X-8.922 Y-1.339
X-8.867 Y-1.369
X-8.811 Y-1.397
X-8.753 Y-1.423
X-8.695 Y-1.447
X-8.637 Y-1.469
X-8.602 Y-1.481
X-8.565 Y-1.492
X-8.528 Y-1.498
X-8.489 Y-1.5
G3 X-8.344 Y-1.345 I-0.005 J0.15
X-8.392 Y-1.241 I-0.15 J-0.005
G1 X-8.707 Y-0.945
X-8.925 Y-0.741
X-9.248 Y-0.439
G3 X-9.46 Y-0.446 I-0.103 J-0.109
X-9.5 Y-0.543 I0.109 J-0.103
G1 Y-1.038
Y-1.045
Y-1.046
X-9.499 Y-1.072
X-9.493 Y-1.119
X-9.482 Y-1.17
X-9.465 Y-1.225
X-9.442 Y-1.284
X-9.433 Y-1.302
X-9.405 Y-1.351
X-9.369 Y-1.394
X-9.327 Y-1.431
X-9.28 Y-1.46
X-9.228 Y-1.482
X-9.174 Y-1.496
X-9.118 Y-1.5
G3 X-8.974 Y-1.345 I-0.005 J0.15
X-9.004 Y-1.259 I-0.15 J-0.005
G1 X-9.231 Y-0.961
G3 X-9.441 Y-0.932 I-0.12 J-0.091
X-9.5 Y-1.046 I0.091 J-0.12
G1 Y-1.308
Y-1.353
X-9.496 Y-1.375
X-9.489 Y-1.398
X-9.488 Y-1.402
X-9.477 Y-1.422
X-9.461 Y-1.443
X-9.443 Y-1.461
X-9.422 Y-1.477
X-9.402 Y-1.488
X-9.398 Y-1.489
X-9.375 Y-1.496
X-9.353 Y-1.5
X-9.308
X-9.173
X-8.543
X-7.509
X-7.446 Y-1.497
X-7.383 Y-1.494
X-7.32 Y-1.49
X-7.258 Y-1.483
X-7.195 Y-1.475
X-7.133 Y-1.465
X-7.072 Y-1.452
X-7.01 Y-1.439
X-6.949 Y-1.423
X-6.889 Y-1.406
X-6.829 Y-1.387
X-6.769 Y-1.367
X-6.71 Y-1.345
X-6.652 Y-1.322
X-6.594 Y-1.297
X-6.537 Y-1.271
X-6.48 Y-1.243
X-6.425 Y-1.214
X-6.37 Y-1.183
X-6.315 Y-1.151
X-6.262 Y-1.118
X-6.209 Y-1.084
X-6.158 Y-1.048
X-6.107 Y-1.01
X-6.057 Y-0.972
X-6.009 Y-0.932
X-5.961 Y-0.891
X-5.915 Y-0.848
X-5.87 Y-0.804
X-5.826 Y-0.759
X-5.784 Y-0.713
X-5.743 Y-0.665
X-5.703 Y-0.616
X-5.666 Y-0.565
X-5.63 Y-0.514
X-5.596 Y-0.461
X-5.564 Y-0.407
X-5.534 Y-0.351
X-5.507 Y-0.294
X-5.483 Y-0.236
X-5.463 Y-0.177
X-5.445 Y-0.117
X-5.431 Y-0.055
X-5.427 Y-0.029
X-5.422 Y0.028
X-5.426 Y0.085
X-5.441 Y0.141
X-5.464 Y0.194
X-5.495 Y0.243
X-5.534 Y0.285
X-5.579 Y0.321
X-5.63 Y0.348
X-5.664 Y0.363
X-5.709 Y0.384
X-5.745 Y0.401
X-5.844 Y0.451
X-5.889 Y0.474
X-5.92 Y0.491
X-5.934 Y0.5
X-5.979 Y0.525
X-6.017 Y0.539
X-6.058 Y0.542
X-6.098 Y0.534
X-6.134 Y0.516
X-6.164 Y0.488
X-6.537 Y0.041
X-7.33 Y-0.908
X-7.618 Y-1.254
G3 X-7.6 Y-1.465 I0.115 J-0.096
X-7.509 Y-1.5 I0.096 J0.115
G1 X-6.429
X-6.366 Y-1.497
X-6.304 Y-1.491
X-6.241 Y-1.482
X-6.18 Y-1.469
X-6.119 Y-1.453
X-6.059 Y-1.433
X-6. Y-1.411
X-5.943 Y-1.386
X-5.886 Y-1.359
X-5.83 Y-1.329
X-5.776 Y-1.297
X-5.723 Y-1.264
X-5.671 Y-1.228
X-5.621 Y-1.19
X-5.572 Y-1.151
X-5.524 Y-1.11
X-5.478 Y-1.067
X-5.433 Y-1.023
X-5.39 Y-0.977
X-5.348 Y-0.93
X-5.308 Y-0.882
X-5.27 Y-0.832
X-5.234 Y-0.78
X-5.199 Y-0.728
X-5.167 Y-0.674
X-5.136 Y-0.619
X-5.108 Y-0.563
X-5.083 Y-0.505
X-5.06 Y-0.446
X-5.04 Y-0.387
X-5.024 Y-0.326
X-5.01 Y-0.265
X-5.001 Y-0.202
X-4.998 Y-0.167
Y-0.108
X-5.007 Y-0.05
X-5.026 Y0.005
X-5.054 Y0.057
X-5.09 Y0.103
X-5.133 Y0.142
X-5.183 Y0.174
X-5.237 Y0.197
X-5.311 Y0.222
X-5.349 Y0.235
X-5.394 Y0.252
X-5.484 Y0.286
X-5.529 Y0.304
X-5.546 Y0.311
X-5.574 Y0.324
X-5.617 Y0.333
X-5.661 Y0.331
X-5.702 Y0.315
X-5.737 Y0.289
X-5.762 Y0.253
X-6.022 Y-0.249
X-6.335 Y-0.852
X-6.557 Y-1.281
G3 X-6.493 Y-1.483 I0.133 J-0.069
X-6.429 Y-1.5 I0.069 J0.133
G1 X-5.709
X-5.648 Y-1.497
X-5.585 Y-1.489
X-5.524 Y-1.476
X-5.463 Y-1.458
X-5.404 Y-1.437
X-5.346 Y-1.412
X-5.29 Y-1.383
X-5.236 Y-1.352
X-5.183 Y-1.318
X-5.132 Y-1.282
X-5.082 Y-1.243
X-5.034 Y-1.202
X-4.989 Y-1.159
X-4.945 Y-1.113
X-4.903 Y-1.067
X-4.863 Y-1.018
X-4.825 Y-0.968
X-4.789 Y-0.916
X-4.755 Y-0.863
X-4.724 Y-0.809
X-4.695 Y-0.753
X-4.668 Y-0.696
X-4.644 Y-0.638
X-4.623 Y-0.579
X-4.605 Y-0.518
X-4.59 Y-0.457
X-4.579 Y-0.395
X-4.572 Y-0.333
X-4.568 Y-0.27
X-4.569 Y-0.248
X-4.574 Y-0.189
X-4.589 Y-0.133
X-4.614 Y-0.079
X-4.646 Y-0.031
X-4.687 Y0.011
X-4.734 Y0.046
X-4.786 Y0.073
X-4.842 Y0.09
X-4.9 Y0.103
X-4.945 Y0.114
X-4.99 Y0.125
X-5.015 Y0.132
X-5.125 Y0.162
X-5.17 Y0.175
X-5.213 Y0.18
X-5.257 Y0.171
X-5.296 Y0.151
X-5.327 Y0.12
X-5.348 Y0.081
X-5.539 Y-0.45
X-5.675 Y-0.826
X-5.845 Y-1.299
X-5.852 Y-1.324
X-5.854 Y-1.349
Y-1.35
X-5.847 Y-1.395
X-5.827 Y-1.437
X-5.795 Y-1.47
X-5.754 Y-1.491
X-5.709 Y-1.5
X-5.125
X-5.078 Y-1.498
X-5.025 Y-1.491
X-4.967 Y-1.478
X-4.906 Y-1.46
X-4.848 Y-1.438
X-4.791 Y-1.411
X-4.736 Y-1.38
X-4.683 Y-1.346
X-4.632 Y-1.31
X-4.583 Y-1.27
X-4.536 Y-1.228
X-4.492 Y-1.183
X-4.45 Y-1.137
X-4.41 Y-1.088
X-4.372 Y-1.037
X-4.337 Y-0.985
X-4.305 Y-0.931
X-4.275 Y-0.876
X-4.247 Y-0.82
X-4.222 Y-0.762
X-4.201 Y-0.703
X-4.182 Y-0.643
X-4.167 Y-0.582
X-4.155 Y-0.52
X-4.147 Y-0.458
X-4.142 Y-0.395
Y-0.332
X-4.145 Y-0.298
X-4.154 Y-0.238
X-4.173 Y-0.181
X-4.202 Y-0.128
X-4.239 Y-0.081
X-4.284 Y-0.041
X-4.336 Y-0.009
X-4.392 Y0.014
X-4.451 Y0.026
X-4.54 Y0.037
X-4.573 Y0.042
X-4.585 Y0.043
X-4.63 Y0.051
X-4.72 Y0.066
X-4.765 Y0.074
X-4.808
X-4.85 Y0.061
X-4.886 Y0.037
X-4.914 Y0.004
X-4.931 Y-0.036
X-5.074 Y-0.585
X-5.134 Y-0.812
X-5.264 Y-1.312
X-5.269 Y-1.357
X-5.261 Y-1.4
X-5.24 Y-1.44
X-5.208 Y-1.471
X-5.168 Y-1.492
X-5.125 Y-1.5
X-4.63
X-4.567 Y-1.497
X-4.536 Y-1.493
X-4.486 Y-1.483
X-4.431 Y-1.469
X-4.373 Y-1.448
X-4.316 Y-1.422
X-4.26 Y-1.392
X-4.208 Y-1.358
X-4.157 Y-1.321
X-4.109 Y-1.28
X-4.063 Y-1.237
X-4.02 Y-1.191
X-3.979 Y-1.143
X-3.941 Y-1.093
X-3.906 Y-1.041
X-3.873 Y-0.987
X-3.843 Y-0.932
X-3.816 Y-0.875
X-3.792 Y-0.817
X-3.771 Y-0.758
X-3.753 Y-0.697
X-3.739 Y-0.636
X-3.728 Y-0.574
X-3.721 Y-0.512
X-3.717 Y-0.449
X-3.718 Y-0.386
X-3.724 Y-0.323
X-3.728 Y-0.296
X-3.742 Y-0.236
X-3.767 Y-0.181
X-3.8 Y-0.13
X-3.843 Y-0.086
X-3.892 Y-0.05
X-3.946 Y-0.023
X-4.005 Y-0.005
X-4.065 Y0.001
X-4.135 Y0.003
X-4.18 Y0.004
X-4.225 Y0.007
X-4.36 Y0.017
X-4.405 Y0.021
X-4.448 Y0.017
X-4.489 Y0.001
X-4.523 Y-0.026
X-4.548 Y-0.062
X-4.561 Y-0.103
X-4.658 Y-0.662
X-4.682 Y-0.803
X-4.772 Y-1.325
X-4.774 Y-1.367
X-4.763 Y-1.408
X-4.741 Y-1.445
X-4.71 Y-1.474
X-4.672 Y-1.493
X-4.63 Y-1.5
X-4.135
X-4.096 Y-1.498
X-4.051 Y-1.492
X-4.002 Y-1.482
X-3.95 Y-1.466
X-3.895 Y-1.445
X-3.839 Y-1.417
X-3.784 Y-1.385
X-3.733 Y-1.35
X-3.683 Y-1.31
X-3.637 Y-1.268
X-3.593 Y-1.223
X-3.552 Y-1.175
X-3.514 Y-1.125
X-3.478 Y-1.073
X-3.446 Y-1.02
X-3.416 Y-0.964
X-3.39 Y-0.907
X-3.366 Y-0.849
X-3.345 Y-0.789
X-3.328 Y-0.729
X-3.314 Y-0.668
X-3.303 Y-0.606
X-3.296 Y-0.543
X-3.293 Y-0.48
X-3.294 Y-0.417
X-3.3 Y-0.355
X-3.309 Y-0.293
X-3.317 Y-0.258
X-3.333 Y-0.206
X-3.358 Y-0.156
X-3.39 Y-0.111
X-3.429 Y-0.072
X-3.473 Y-0.039
X-3.522 Y-0.013
X-3.574 Y0.004
X-3.629 Y0.013
X-3.684
X-3.775 Y0.007
X-3.82 Y0.004
X-3.865 Y0.003
X-3.955 Y0.001
X-4. Y0.
X-4.041 Y-0.008
X-4.078 Y-0.027
X-4.109 Y-0.056
X-4.13 Y-0.092
X-4.141 Y-0.133
X-4.207 Y-0.704
X-4.217 Y-0.799
X-4.279 Y-1.333
X-4.28 Y-1.35
X-4.273 Y-1.395
X-4.252 Y-1.437
X-4.22 Y-1.47
X-4.18 Y-1.491
X-4.135 Y-1.5
X-3.685
X-3.644 Y-1.498
X-3.601 Y-1.492
X-3.556 Y-1.483
X-3.506 Y-1.468
X-3.454 Y-1.447
X-3.399 Y-1.421
X-3.345 Y-1.389
X-3.293 Y-1.353
X-3.244 Y-1.313
X-3.198 Y-1.271
X-3.155 Y-1.225
X-3.115 Y-1.177
X-3.077 Y-1.126
X-3.043 Y-1.074
X-3.011 Y-1.019
X-2.982 Y-0.963
X-2.957 Y-0.906
X-2.934 Y-0.847
X-2.915 Y-0.787
X-2.899 Y-0.726
X-2.886 Y-0.665
X-2.876 Y-0.603
X-2.87 Y-0.54
X-2.868 Y-0.477
X-2.869 Y-0.414
X-2.875 Y-0.352
X-2.884 Y-0.289
X-2.898 Y-0.228
X-2.916 Y-0.168
X-2.92 Y-0.159
X-2.946 Y-0.104
X-2.981 Y-0.055
X-3.024 Y-0.013
X-3.074 Y0.021
X-3.128 Y0.046
X-3.187 Y0.061
X-3.247 Y0.067
X-3.307 Y0.062
X-3.37 Y0.051
X-3.415 Y0.043
X-3.427 Y0.042
X-3.46 Y0.037
X-3.55 Y0.026
X-3.595 Y0.021
X-3.633 Y0.01
X-3.667 Y-0.011
X-3.694 Y-0.04
X-3.713 Y-0.075
X-3.722 Y-0.114
X-3.773 Y-0.698
X-3.782 Y-0.797
X-3.829 Y-1.337
X-3.826 Y-1.385
X-3.807 Y-1.43
X-3.775 Y-1.466
X-3.733 Y-1.49
X-3.685 Y-1.5
X-3.235
X-3.208 Y-1.499
X-3.166 Y-1.493
X-3.121 Y-1.484
X-3.073 Y-1.469
X-3.022 Y-1.449
X-2.968 Y-1.423
X-2.914 Y-1.391
X-2.862 Y-1.355
X-2.814 Y-1.315
X-2.768 Y-1.272
X-2.725 Y-1.226
X-2.685 Y-1.178
X-2.648 Y-1.127
X-2.613 Y-1.074
X-2.582 Y-1.02
X-2.554 Y-0.964
X-2.529 Y-0.906
X-2.506 Y-0.847
X-2.487 Y-0.787
X-2.471 Y-0.726
X-2.458 Y-0.665
X-2.448 Y-0.603
X-2.442 Y-0.54
X-2.438 Y-0.477
Y-0.415
X-2.442 Y-0.352
X-2.45 Y-0.289
X-2.461 Y-0.227
X-2.477 Y-0.167
X-2.496 Y-0.107
X-2.52 Y-0.049
X-2.526 Y-0.037
X-2.557 Y0.015
X-2.597 Y0.06
X-2.644 Y0.098
X-2.697 Y0.128
X-2.754 Y0.148
X-2.814 Y0.158
X-2.874 Y0.157
X-2.933 Y0.146
X-2.985 Y0.132
X-3.01 Y0.125
X-3.055 Y0.114
X-3.1 Y0.103
X-3.175 Y0.087
X-3.19 Y0.083
X-3.235 Y0.074
X-3.272 Y0.06
X-3.304 Y0.037
X-3.328 Y0.006
X-3.344 Y-0.029
X-3.35 Y-0.068
X-3.364 Y-0.657
X-3.367 Y-0.795
X-3.38 Y-1.347
X-3.374 Y-1.393
X-3.354 Y-1.435
X-3.322 Y-1.469
X-3.281 Y-1.491
X-3.235 Y-1.5
X-2.83
X-2.776 Y-1.497
X-2.736 Y-1.492
X-2.691 Y-1.482
X-2.643 Y-1.468
X-2.593 Y-1.448
X-2.539 Y-1.423
X-2.485 Y-1.391
X-2.434 Y-1.355
X-2.385 Y-1.315
X-2.339 Y-1.272
X-2.296 Y-1.226
X-2.256 Y-1.177
X-2.219 Y-1.126
X-2.185 Y-1.074
X-2.154 Y-1.019
X-2.125 Y-0.963
X-2.1 Y-0.905
X-2.077 Y-0.847
X-2.058 Y-0.787
X-2.041 Y-0.726
X-2.027 Y-0.665
X-2.017 Y-0.603
X-2.009 Y-0.54
X-2.004 Y-0.478
X-2.002 Y-0.415
X-2.004 Y-0.352
X-2.008 Y-0.289
X-2.016 Y-0.227
X-2.028 Y-0.165
X-2.043 Y-0.104
X-2.062 Y-0.044
X-2.085 Y0.015
X-2.112 Y0.071
X-2.142 Y0.126
X-2.146 Y0.132
X-2.183 Y0.179
X-2.227 Y0.219
X-2.277 Y0.251
X-2.332 Y0.274
X-2.389 Y0.287
X-2.449 Y0.291
X-2.508 Y0.284
X-2.565 Y0.267
X-2.606 Y0.252
X-2.651 Y0.235
X-2.689 Y0.222
X-2.785 Y0.19
X-2.826 Y0.177
X-2.83 Y0.175
X-2.875 Y0.162
X-2.917 Y0.14
X-2.95 Y0.107
X-2.971 Y0.065
X-2.978 Y0.019
X-2.977 Y-0.578
X-2.976 Y-0.795
X-2.975 Y-1.35
X-2.968 Y-1.396
X-2.948 Y-1.437
X-2.916 Y-1.47
X-2.875 Y-1.491
X-2.83 Y-1.5
X-2.381
X-2.349 Y-1.498
X-2.308 Y-1.493
X-2.264 Y-1.484
X-2.216 Y-1.469
X-2.165 Y-1.449
X-2.111 Y-1.423
X-2.057 Y-1.391
X-2.005 Y-1.355
X-1.957 Y-1.316
X-1.911 Y-1.273
X-1.868 Y-1.227
X-1.827 Y-1.178
X-1.79 Y-1.128
X-1.755 Y-1.075
X-1.724 Y-1.021
X-1.695 Y-0.965
X-1.669 Y-0.908
X-1.645 Y-0.849
X-1.625 Y-0.79
X-1.607 Y-0.73
X-1.592 Y-0.669
X-1.58 Y-0.607
X-1.57 Y-0.545
X-1.564 Y-0.482
X-1.56 Y-0.419
X-1.559 Y-0.356
X-1.56 Y-0.294
X-1.565 Y-0.231
X-1.572 Y-0.168
X-1.583 Y-0.106
X-1.596 Y-0.045
X-1.613 Y0.016
X-1.633 Y0.075
X-1.657 Y0.134
X-1.684 Y0.19
X-1.714 Y0.245
X-1.749 Y0.298
X-1.768 Y0.323
X-1.808 Y0.369
X-1.856 Y0.407
X-1.91 Y0.435
X-1.968 Y0.454
X-2.028 Y0.463
X-2.089 Y0.461
X-2.149 Y0.449
X-2.205 Y0.426
X-2.255 Y0.401
X-2.291 Y0.384
X-2.336 Y0.363
X-2.426 Y0.324
X-2.454 Y0.311
X-2.471 Y0.304
X-2.516 Y0.286
X-2.554 Y0.262
X-2.583 Y0.228
X-2.601 Y0.186
X-2.605 Y0.141
X-2.573 Y-0.462
X-2.555 Y-0.796
X-2.525 Y-1.358
X-2.516 Y-1.401
X-2.495 Y-1.44
X-2.464 Y-1.471
X-2.424 Y-1.492
X-2.381 Y-1.5
X-1.976
X-1.918 Y-1.497
X-1.877 Y-1.492
X-1.832 Y-1.482
X-1.784 Y-1.468
X-1.732 Y-1.448
X-1.678 Y-1.421
X-1.624 Y-1.389
X-1.572 Y-1.353
X-1.524 Y-1.314
X-1.477 Y-1.271
X-1.434 Y-1.225
X-1.393 Y-1.177
X-1.356 Y-1.127
X-1.321 Y-1.075
X-1.288 Y-1.021
X-1.259 Y-0.965
X-1.232 Y-0.909
X-1.208 Y-0.85
X-1.186 Y-0.791
X-1.167 Y-0.731
X-1.151 Y-0.671
X-1.137 Y-0.609
X-1.125 Y-0.548
X-1.117 Y-0.485
X-1.11 Y-0.423
X-1.107 Y-0.36
X-1.106 Y-0.297
X-1.107 Y-0.234
X-1.111 Y-0.171
X-1.118 Y-0.109
X-1.127 Y-0.047
X-1.139 Y0.015
X-1.153 Y0.076
X-1.17 Y0.137
X-1.19 Y0.197
X-1.213 Y0.255
X-1.239 Y0.313
X-1.268 Y0.368
X-1.301 Y0.422
X-1.336 Y0.474
X-1.375 Y0.524
X-1.416 Y0.571
X-1.424 Y0.578
X-1.469 Y0.616
X-1.52 Y0.645
X-1.575 Y0.665
X-1.632 Y0.676
X-1.691 Y0.678
X-1.749 Y0.669
X-1.804 Y0.651
X-1.856 Y0.624
X-1.886 Y0.605
X-1.931 Y0.577
X-1.976 Y0.551
X-2.066 Y0.5
X-2.08 Y0.491
X-2.111 Y0.474
X-2.156 Y0.451
X-2.187 Y0.428
X-2.212 Y0.396
X-2.227 Y0.36
X-2.232 Y0.321
Y0.32
Y0.31
X-2.191 Y-0.305
X-2.158 Y-0.796
X-2.12 Y-1.36
X-2.111 Y-1.403
X-2.09 Y-1.441
X-2.058 Y-1.472
X-2.019 Y-1.492
X-1.976 Y-1.5
X-1.526
X-1.485 Y-1.498
X-1.443 Y-1.492
X-1.397 Y-1.483
X-1.348 Y-1.468
X-1.296 Y-1.448
X-1.241 Y-1.421
X-1.186 Y-1.389
X-1.135 Y-1.353
X-1.086 Y-1.313
X-1.039 Y-1.271
X-0.996 Y-1.226
X-0.955 Y-1.178
X-0.916 Y-1.128
X-0.881 Y-1.076
X-0.848 Y-1.023
X-0.817 Y-0.968
X-0.789 Y-0.911
X-0.764 Y-0.854
X-0.741 Y-0.795
X-0.721 Y-0.736
X-0.703 Y-0.675
X-0.687 Y-0.614
X-0.674 Y-0.553
X-0.663 Y-0.491
X-0.655 Y-0.429
X-0.649 Y-0.366
X-0.645 Y-0.303
X-0.643 Y-0.24
X-0.644 Y-0.177
X-0.647 Y-0.115
X-0.652 Y-0.052
X-0.66 Y0.01
X-0.67 Y0.073
X-0.682 Y0.134
X-0.697 Y0.195
X-0.714 Y0.256
X-0.733 Y0.316
X-0.755 Y0.375
X-0.779 Y0.433
X-0.805 Y0.49
X-0.835 Y0.546
X-0.866 Y0.6
X-0.901 Y0.653
X-0.939 Y0.703
X-0.979 Y0.751
X-1.022 Y0.797
X-1.068 Y0.84
X-1.087 Y0.855
X-1.135 Y0.888
X-1.189 Y0.913
X-1.246 Y0.928
X-1.305 Y0.934
X-1.363 Y0.93
X-1.42 Y0.915
X-1.475 Y0.892
X-1.524 Y0.86
X-1.571 Y0.823
X-1.592 Y0.806
X-1.616 Y0.788
X-1.654 Y0.761
X-1.661 Y0.756
X-1.751 Y0.693
X-1.783 Y0.671
X-1.811 Y0.645
X-1.831 Y0.612
X-1.842 Y0.575
X-1.844 Y0.536
X-1.786 Y-0.091
X-1.722 Y-0.797
X-1.67 Y-1.364
X-1.66 Y-1.406
X-1.638 Y-1.443
X-1.607 Y-1.473
X-1.568 Y-1.492
X-1.526 Y-1.5
X-1.076
X-1.046 Y-1.498
X-1.003 Y-1.493
X-0.956 Y-1.483
X-0.906 Y-1.468
X-0.852 Y-1.447
X-0.796 Y-1.42
X-0.742 Y-1.388
X-0.69 Y-1.352
X-0.641 Y-1.313
X-0.594 Y-1.27
X-0.55 Y-1.225
X-0.509 Y-1.178
X-0.47 Y-1.128
X-0.434 Y-1.077
X-0.4 Y-1.024
X-0.369 Y-0.969
X-0.34 Y-0.914
X-0.313 Y-0.857
X-0.289 Y-0.798
X-0.268 Y-0.739
X-0.248 Y-0.68
X-0.231 Y-0.619
X-0.216 Y-0.558
X-0.203 Y-0.496
X-0.193 Y-0.434
X-0.184 Y-0.372
X-0.178 Y-0.309
X-0.174 Y-0.247
X-0.172 Y-0.184
X-0.171 Y-0.121
X-0.173 Y-0.058
X-0.178 Y0.005
X-0.184 Y0.067
X-0.192 Y0.13
X-0.202 Y0.192
X-0.214 Y0.253
X-0.228 Y0.315
X-0.245 Y0.375
X-0.263 Y0.436
X-0.283 Y0.495
X-0.306 Y0.554
X-0.33 Y0.612
X-0.357 Y0.669
X-0.386 Y0.725
X-0.417 Y0.779
X-0.45 Y0.833
X-0.485 Y0.885
X-0.523 Y0.935
X-0.563 Y0.983
X-0.606 Y1.03
X-0.651 Y1.073
X-0.699 Y1.114
X-0.749 Y1.152
X-0.777 Y1.171
X-0.829 Y1.199
X-0.885 Y1.218
X-0.943 Y1.228
X-1.001
X-1.059 Y1.218
X-1.115 Y1.198
X-1.166 Y1.169
X-1.212 Y1.133
X-1.271 Y1.076
X-1.301 Y1.048
X-1.319 Y1.031
X-1.346 Y1.008
X-1.436 Y0.93
X-1.457 Y0.913
X-1.487 Y0.876
X-1.504 Y0.83
X-1.505 Y0.782
X-1.421 Y0.148
X-1.295 Y-0.8
X-1.22 Y-1.37
X-1.208 Y-1.41
X-1.186 Y-1.446
X-1.155 Y-1.474
X-1.118 Y-1.493
X-1.076 Y-1.5
X-0.626
X-0.599 Y-1.499
X-0.555 Y-1.493
X-0.507 Y-1.483
X-0.456 Y-1.467
X-0.401 Y-1.446
X-0.345 Y-1.419
X-0.291 Y-1.387
X-0.239 Y-1.351
X-0.189 Y-1.312
X-0.143 Y-1.27
X-0.098 Y-1.226
X-0.056 Y-1.179
X-0.017 Y-1.13
X0.02 Y-1.079
X0.055 Y-1.026
X0.087 Y-0.972
X0.117 Y-0.917
X0.144 Y-0.86
X0.169 Y-0.802
X0.192 Y-0.744
X0.213 Y-0.685
X0.232 Y-0.625
X0.249 Y-0.564
X0.263 Y-0.503
X0.276 Y-0.441
X0.286 Y-0.379
X0.295 Y-0.317
X0.302 Y-0.254
X0.306 Y-0.192
X0.309 Y-0.129
X0.31 Y-0.066
X0.309 Y-0.003
X0.306 Y0.06
X0.302 Y0.123
X0.295 Y0.185
X0.287 Y0.248
X0.277 Y0.31
X0.265 Y0.371
X0.251 Y0.433
X0.236 Y0.494
X0.219 Y0.554
X0.2 Y0.614
X0.179 Y0.674
X0.156 Y0.732
X0.132 Y0.79
X0.106 Y0.847
X0.077 Y0.904
X0.048 Y0.959
X0.016 Y1.013
X-0.018 Y1.067
X-0.053 Y1.118
X-0.091 Y1.169
X-0.13 Y1.218
X-0.171 Y1.266
X-0.214 Y1.311
X-0.26 Y1.355
X-0.307 Y1.396
X-0.357 Y1.435
X-0.409 Y1.47
X-0.463 Y1.503
X-0.518 Y1.532
X-0.519
X-0.573 Y1.551
X-0.628 Y1.561
X-0.685 Y1.562
X-0.741 Y1.553
X-0.795 Y1.536
X-0.845 Y1.51
X-0.891 Y1.477
X-0.93 Y1.436
X-1.008 Y1.346
X-1.031 Y1.319
X-1.048 Y1.301
X-1.076 Y1.271
X-1.134 Y1.211
X-1.166 Y1.178
X-1.191 Y1.14
X-1.204 Y1.096
X-1.203 Y1.051
X-1.088 Y0.412
X-0.871 Y-0.804
X-0.769 Y-1.376
X-0.756 Y-1.415
X-0.734 Y-1.449
X-0.703 Y-1.476
X-0.666 Y-1.493
X-0.626 Y-1.5
X-0.177
X-0.145 Y-1.498
X-0.1 Y-1.493
X-0.051 Y-1.482
X0.001 Y-1.466
X0.057 Y-1.445
X0.114 Y-1.417
X0.168 Y-1.385
X0.22 Y-1.35
X0.27 Y-1.311
X0.317 Y-1.27
X0.362 Y-1.225
X0.404 Y-1.179
X0.444 Y-1.13
X0.481 Y-1.08
X0.517 Y-1.028
X0.55 Y-0.974
X0.58 Y-0.919
X0.609 Y-0.863
X0.635 Y-0.806
X0.66 Y-0.748
X0.682 Y-0.689
X0.702 Y-0.63
X0.72 Y-0.569
X0.736 Y-0.509
X0.751 Y-0.447
X0.763 Y-0.386
X0.774 Y-0.324
X0.783 Y-0.261
X0.79 Y-0.199
X0.795 Y-0.136
X0.798 Y-0.073
X0.8 Y-0.011
Y0.052
X0.798 Y0.115
X0.795 Y0.178
X0.79 Y0.241
X0.783 Y0.303
X0.775 Y0.366
X0.765 Y0.428
X0.754 Y0.49
X0.741 Y0.551
X0.726 Y0.612
X0.71 Y0.673
X0.692 Y0.733
X0.673 Y0.793
X0.652 Y0.853
X0.629 Y0.911
X0.605 Y0.969
X0.58 Y1.027
X0.553 Y1.084
X0.524 Y1.14
X0.494 Y1.195
X0.462 Y1.249
X0.428 Y1.302
X0.393 Y1.355
X0.356 Y1.406
X0.318 Y1.456
X0.278 Y1.504
X0.237 Y1.551
X0.194 Y1.597
X0.149 Y1.642
X0.103 Y1.684
X0.054 Y1.724
X0.004 Y1.762
X-0.047 Y1.798
X-0.101 Y1.831
X-0.156 Y1.861
X-0.213 Y1.887
X-0.272 Y1.911
X-0.278 Y1.912
X-0.333 Y1.925
X-0.389 Y1.93
X-0.445 Y1.925
X-0.5 Y1.911
X-0.552 Y1.888
X-0.599 Y1.857
X-0.641 Y1.82
X-0.676 Y1.776
X-0.693 Y1.751
X-0.756 Y1.661
X-0.761 Y1.654
X-0.788 Y1.616
X-0.806 Y1.592
X-0.823 Y1.571
X-0.876 Y1.503
X-0.895 Y1.467
X-0.904 Y1.426
X-0.901 Y1.384
X-0.765 Y0.739
X-0.439 Y-0.807
X-0.318 Y-1.381
X-0.305 Y-1.418
X-0.282 Y-1.451
X-0.252 Y-1.477
X-0.216 Y-1.493
X-0.177 Y-1.5
X0.273
X0.317 Y-1.498
X0.363 Y-1.492
X0.412 Y-1.481
X0.466 Y-1.465
X0.523 Y-1.443
X0.58 Y-1.415
X0.634 Y-1.384
X0.686 Y-1.349
X0.736 Y-1.31
X0.784 Y-1.269
X0.829 Y-1.225
X0.871 Y-1.179
X0.912 Y-1.13
X0.95 Y-1.08
X0.986 Y-1.029
X1.02 Y-0.976
X1.051 Y-0.921
X1.081 Y-0.866
X1.108 Y-0.809
X1.133 Y-0.752
X1.157 Y-0.693
X1.178 Y-0.634
X1.198 Y-0.574
X1.216 Y-0.514
X1.232 Y-0.453
X1.246 Y-0.392
X1.258 Y-0.33
X1.269 Y-0.268
X1.278 Y-0.206
X1.285 Y-0.144
X1.291 Y-0.081
X1.295 Y-0.018
X1.297 Y0.045
X1.298 Y0.108
Y0.171
X1.295 Y0.233
X1.292 Y0.296
X1.286 Y0.359
X1.28 Y0.421
X1.272 Y0.484
X1.262 Y0.546
X1.251 Y0.608
X1.239 Y0.67
X1.225 Y0.731
X1.21 Y0.792
X1.193 Y0.853
X1.175 Y0.913
X1.155 Y0.973
X1.135 Y1.032
X1.112 Y1.091
X1.089 Y1.149
X1.064 Y1.207
X1.038 Y1.264
X1.01 Y1.321
X0.981 Y1.376
X0.951 Y1.431
X0.919 Y1.486
X0.886 Y1.539
X0.851 Y1.592
X0.816 Y1.644
X0.779 Y1.694
X0.74 Y1.744
X0.7 Y1.793
X0.659 Y1.84
X0.616 Y1.887
X0.572 Y1.931
X0.527 Y1.975
X0.48 Y2.017
X0.432 Y2.057
X0.382 Y2.096
X0.331 Y2.133
X0.279 Y2.168
X0.225 Y2.2
X0.169 Y2.23
X0.112 Y2.256
X0.054 Y2.28
X-0.005 Y2.3
X-0.066 Y2.317
X-0.077 Y2.319
X-0.134 Y2.327
X-0.19 Y2.325
X-0.246 Y2.313
X-0.3 Y2.293
X-0.349 Y2.265
X-0.393 Y2.229
X-0.431 Y2.186
X-0.461 Y2.137
X-0.474 Y2.111
X-0.491 Y2.08
X-0.5 Y2.066
X-0.551 Y1.976
X-0.577 Y1.931
X-0.605 Y1.886
X-0.634 Y1.841
X-0.649 Y1.804
X-0.654 Y1.765
X-0.65 Y1.729
X-0.487 Y1.08
X-0.011 Y-0.813
X0.133 Y-1.387
X0.152 Y-1.431
X0.184 Y-1.467
X0.226 Y-1.491
X0.273 Y-1.5
X0.723
X0.786 Y-1.497
X0.832 Y-1.491
X0.882 Y-1.48
X0.937 Y-1.464
X0.995 Y-1.441
X1.052 Y-1.414
X1.106 Y-1.383
X1.159 Y-1.348
X1.209 Y-1.309
X1.256 Y-1.268
X1.302 Y-1.225
X1.345 Y-1.179
X1.386 Y-1.131
X1.425 Y-1.082
X1.435 Y-1.068
X1.463 Y-1.021
X1.483 Y-0.971
X1.496 Y-0.918
X1.5 Y-0.864
G3 X1.345 Y-0.72 I-0.15 J-0.005
X1.258 Y-0.751 I0.005 J-0.15
G1 X0.967 Y-0.976
X0.637 Y-1.231
G3 X0.61 Y-1.442 I0.092 J-0.119
X0.723 Y-1.5 I0.119 J0.092
G1 X1.218
X1.232
X1.234
X1.261 Y-1.499
X1.316 Y-1.486
X1.367 Y-1.462
X1.412 Y-1.428
X1.449 Y-1.385
X1.477 Y-1.336
X1.494 Y-1.282
X1.5 Y-1.226
G3 X1.233 Y-0.978 I-0.258 J-0.009
X1.17 Y-0.988 I0.009 J-0.258
X0.993 Y-1.313 I0.074 J-0.251
X1.234 Y-1.5 I0.251 J0.074
G1 X1.308
X1.353
X1.375 Y-1.496
X1.398 Y-1.489
X1.402 Y-1.488
X1.422 Y-1.477
X1.443 Y-1.461
X1.461 Y-1.443
X1.477 Y-1.422
X1.488 Y-1.402
X1.489 Y-1.398
X1.496 Y-1.375
X1.5 Y-1.353
Y-1.308
Y0.986
X1.497 Y1.049
X1.494 Y1.112
X1.487 Y1.174
X1.478 Y1.237
X1.467 Y1.298
X1.453 Y1.36
X1.436 Y1.42
X1.417 Y1.481
X1.397 Y1.54
X1.374 Y1.599
X1.349 Y1.656
X1.323 Y1.714
X1.295 Y1.77
X1.265 Y1.825
X1.233 Y1.879
X1.2 Y1.933
X1.165 Y1.985
X1.129 Y2.037
X1.091 Y2.087
X1.052 Y2.136
X1.011 Y2.184
X0.969 Y2.231
X0.926 Y2.276
X0.881 Y2.32
X0.835 Y2.363
X0.787 Y2.404
X0.738 Y2.444
X0.688 Y2.482
X0.637 Y2.518
X0.584 Y2.553
X0.53 Y2.585
X0.475 Y2.616
X0.419 Y2.644
X0.361 Y2.669
X0.302 Y2.691
X0.243 Y2.71
X0.182 Y2.726
X0.12 Y2.738
X0.089 Y2.742
X0.031 Y2.745
X-0.027 Y2.739
X-0.083 Y2.722
X-0.136 Y2.697
X-0.183 Y2.663
X-0.225 Y2.622
X-0.259 Y2.574
X-0.284 Y2.522
X-0.286 Y2.516
X-0.304 Y2.471
X-0.311 Y2.454
X-0.324 Y2.426
X-0.363 Y2.336
X-0.384 Y2.291
X-0.401 Y2.255
X-0.446 Y2.165
X-0.459 Y2.125
Y2.083
X-0.447 Y2.042
X-0.425 Y2.006
X-0.394 Y1.978
X0.083 Y1.659
X0.879 Y1.126
X1.267 Y0.867
G3 X1.475 Y0.908 I0.083 J0.125
X1.5 Y0.986 I-0.125 J0.083
G1 Y1.886
X1.497 Y1.949
X1.489 Y2.011
X1.478 Y2.073
X1.462 Y2.134
X1.443 Y2.194
X1.421 Y2.253
X1.395 Y2.31
X1.367 Y2.366
X1.336 Y2.421
X1.303 Y2.475
X1.268 Y2.527
X1.231 Y2.577
X1.191 Y2.627
X1.15 Y2.674
X1.107 Y2.72
X1.062 Y2.764
X1.016 Y2.807
X0.968 Y2.848
X0.919 Y2.887
X0.868 Y2.924
X0.816 Y2.959
X0.762 Y2.992
X0.708 Y3.023
X0.652 Y3.052
X0.595 Y3.078
X0.536 Y3.102
X0.477 Y3.122
X0.416 Y3.14
X0.355 Y3.154
X0.293 Y3.164
X0.231 Y3.171
X0.203 Y3.172
X0.144 Y3.17
X0.086 Y3.158
X0.031 Y3.136
X-0.019 Y3.106
X-0.063 Y3.068
X-0.101 Y3.022
X-0.13 Y2.971
X-0.151 Y2.916
X-0.162 Y2.875
X-0.175 Y2.83
X-0.177 Y2.826
X-0.19 Y2.785
X-0.222 Y2.689
X-0.235 Y2.651
X-0.252 Y2.606
X-0.266 Y2.567
X-0.275 Y2.523
X-0.269 Y2.478
X-0.251 Y2.437
X-0.222 Y2.404
X-0.183 Y2.38
X0.332 Y2.161
X0.836 Y1.947
X1.291 Y1.753
X1.338 Y1.742
X1.386 Y1.746
X1.431 Y1.765
X1.467 Y1.797
X1.491 Y1.839
X1.5 Y1.886
Y2.516
X1.497 Y2.578
X1.49 Y2.636
X1.478 Y2.698
X1.461 Y2.758
X1.439 Y2.817
X1.414 Y2.875
X1.385 Y2.931
X1.353 Y2.985
X1.318 Y3.037
X1.28 Y3.088
X1.24 Y3.136
X1.198 Y3.183
X1.154 Y3.227
X1.107 Y3.27
X1.059 Y3.31
X1.009 Y3.348
X0.957 Y3.384
X0.904 Y3.418
X0.85 Y3.449
X0.794 Y3.478
X0.737 Y3.504
X0.678 Y3.528
X0.619 Y3.549
X0.559 Y3.566
X0.497 Y3.58
X0.435 Y3.591
X0.373 Y3.598
X0.31 Y3.6
X0.276
X0.216 Y3.593
X0.159 Y3.576
X0.104 Y3.55
X0.056 Y3.515
X0.014 Y3.472
X-0.021 Y3.422
X-0.046 Y3.368
X-0.061 Y3.309
X-0.066 Y3.28
X-0.074 Y3.235
X-0.083 Y3.19
X-0.087 Y3.175
X-0.103 Y3.1
X-0.114 Y3.055
X-0.125 Y3.01
X-0.132 Y2.985
X-0.137 Y2.965
X-0.141 Y2.92
X-0.131 Y2.876
X-0.109 Y2.837
X-0.076 Y2.807
X-0.035 Y2.787
X0.5 Y2.624
X0.818 Y2.527
X1.306 Y2.377
X1.351 Y2.371
X1.396 Y2.378
X1.437 Y2.399
X1.47 Y2.431
X1.491 Y2.471
X1.5 Y2.516
Y3.055
X1.497 Y3.118
X1.491 Y3.168
X1.481 Y3.222
X1.464 Y3.281
X1.443 Y3.34
X1.417 Y3.397
X1.387 Y3.452
X1.353 Y3.505
X1.316 Y3.556
X1.276 Y3.605
X1.234 Y3.651
X1.189 Y3.695
X1.142 Y3.737
X1.093 Y3.776
X1.041 Y3.813
X0.989 Y3.847
X0.934 Y3.879
X0.878 Y3.908
X0.821 Y3.934
X0.763 Y3.957
X0.703 Y3.977
X0.643 Y3.994
X0.581 Y4.008
X0.519 Y4.018
X0.456 Y4.024
X0.394 Y4.026
X0.331 Y4.024
X0.301 Y4.021
X0.241 Y4.009
X0.184 Y3.988
X0.132 Y3.956
X0.086 Y3.917
X0.047 Y3.869
X0.017 Y3.816
X-0.003 Y3.758
X-0.012 Y3.698
X-0.017 Y3.64
X-0.021 Y3.595
X-0.026 Y3.55
X-0.037 Y3.46
X-0.042 Y3.427
X-0.043 Y3.415
X-0.051 Y3.37
X-0.05 Y3.326
X-0.036 Y3.285
X-0.011 Y3.249
X0.024 Y3.221
X0.064 Y3.205
X0.615 Y3.077
X0.809 Y3.032
X1.316 Y2.915
X1.35 Y2.911
X1.395 Y2.918
X1.437 Y2.938
X1.47 Y2.97
X1.491 Y3.01
X1.5 Y3.055
Y3.575
X1.498 Y3.622
X1.492 Y3.668
X1.481 Y3.718
X1.465 Y3.772
X1.442 Y3.83
X1.415 Y3.886
X1.383 Y3.941
X1.348 Y3.993
X1.309 Y4.042
X1.267 Y4.089
X1.223 Y4.134
X1.176 Y4.175
X1.126 Y4.214
X1.075 Y4.251
X1.022 Y4.284
X0.967 Y4.315
X0.911 Y4.343
X0.853 Y4.368
X0.794 Y4.39
X0.734 Y4.409
X0.673 Y4.425
X0.611 Y4.437
X0.549 Y4.445
X0.486 Y4.449
X0.423 Y4.45
X0.361 Y4.446
X0.298 Y4.438
X0.279 Y4.434
X0.22 Y4.417
X0.166 Y4.39
X0.117 Y4.353
X0.075 Y4.309
X0.041 Y4.258
X0.016 Y4.202
X0.002 Y4.143
X-0.002 Y4.082
X-0.001 Y4.045
X0. Y4.
X-0.001 Y3.955
X-0.003 Y3.865
X-0.004 Y3.82
X-0.007 Y3.775
X-0.01 Y3.73
Y3.724
X-0.004 Y3.681
X0.014 Y3.642
X0.043 Y3.61
X0.08 Y3.587
X0.122 Y3.575
X0.68 Y3.509
X0.799 Y3.495
X1.332 Y3.431
X1.349 Y3.43
X1.35
X1.395 Y3.437
X1.437 Y3.458
X1.47 Y3.489
X1.491 Y3.53
X1.5 Y3.575
Y4.045
X1.498 Y4.085
X1.492 Y4.129
X1.482 Y4.176
X1.467 Y4.227
X1.446 Y4.28
X1.419 Y4.336
X1.387 Y4.391
X1.351 Y4.442
X1.312 Y4.491
X1.269 Y4.538
X1.224 Y4.581
X1.176 Y4.622
X1.126 Y4.66
X1.073 Y4.695
X1.019 Y4.727
X0.963 Y4.756
X0.906 Y4.782
X0.848 Y4.805
X0.788 Y4.825
X0.728 Y4.842
X0.666 Y4.856
X0.604 Y4.866
X0.541 Y4.872
X0.479 Y4.875
X0.416 Y4.873
X0.353 Y4.867
X0.291 Y4.858
X0.23 Y4.843
X0.217 Y4.839
X0.16 Y4.816
X0.109 Y4.784
X0.063 Y4.743
X0.026 Y4.695
X-0.003 Y4.641
X-0.021 Y4.583
X-0.03 Y4.523
X-0.028 Y4.462
X-0.026 Y4.45
X-0.021 Y4.405
X-0.017 Y4.36
X-0.007 Y4.225
X-0.004 Y4.18
X-0.003 Y4.135
X0.006 Y4.093
X0.026 Y4.055
X0.056 Y4.025
X0.093 Y4.004
X0.135 Y3.994
X0.704 Y3.95
X0.797 Y3.943
X1.338 Y3.901
X1.35 Y3.9
X1.395 Y3.907
X1.437 Y3.928
X1.47 Y3.96
X1.491 Y4.
X1.5 Y4.045
Y4.495
X1.498 Y4.529
Y4.533
Y4.536
Y4.54
X1.497 Y4.543
Y4.547
Y4.551
X1.496 Y4.555
Y4.558
X1.495 Y4.562
Y4.566
X1.494 Y4.57
Y4.575
X1.493 Y4.579
Y4.583
X1.492 Y4.586
X1.491 Y4.59
Y4.594
X1.49 Y4.598
X1.489 Y4.602
X1.488 Y4.607
X1.487 Y4.611
X1.486 Y4.615
X1.485 Y4.619
X1.484 Y4.624
X1.483 Y4.628
X1.482 Y4.633
X1.481 Y4.637
X1.48 Y4.642
X1.479 Y4.646
X1.478 Y4.65
X1.476 Y4.654
X1.475 Y4.659
X1.474 Y4.663
X1.472 Y4.668
X1.471 Y4.672
X1.469 Y4.677
X1.468 Y4.682
X1.466 Y4.687
X1.465 Y4.691
X1.463 Y4.696
X1.461 Y4.701
X1.459 Y4.705
X1.458 Y4.71
X1.456 Y4.715
X1.454 Y4.719
X1.452 Y4.724
X1.45 Y4.729
X1.448 Y4.734
X1.446 Y4.739
X1.444 Y4.744
X1.441 Y4.749
X1.439 Y4.754
X1.437 Y4.759
X1.434 Y4.764
X1.432 Y4.769
X1.43 Y4.773
X1.427 Y4.778
X1.425 Y4.783
X1.422 Y4.788
X1.419 Y4.793
X1.416 Y4.798
X1.414 Y4.804
X1.411 Y4.809
X1.408 Y4.814
X1.405 Y4.819
X1.402 Y4.825
X1.398 Y4.83
X1.395 Y4.835
X1.392 Y4.84
X1.389 Y4.845
X1.386 Y4.85
X1.382 Y4.855
X1.379 Y4.86
X1.375 Y4.866
X1.372 Y4.871
X1.368 Y4.876
X1.364 Y4.882
X1.36 Y4.887
X1.357 Y4.892
X1.353 Y4.897
X1.349 Y4.902
X1.345 Y4.907
X1.341 Y4.913
X1.337 Y4.918
X1.332 Y4.923
X1.328 Y4.929
X1.324 Y4.934
X1.319 Y4.94
X1.315 Y4.945
X1.31 Y4.95
X1.306 Y4.955
X1.301 Y4.96
X1.297 Y4.965
X1.292 Y4.971
X1.287 Y4.976
X1.282 Y4.981
X1.277 Y4.986
X1.272 Y4.992
X1.267 Y4.997
X1.262 Y5.002
X1.256 Y5.007
X1.251 Y5.012
X1.246 Y5.017
X1.241 Y5.022
X1.235 Y5.027
X1.23 Y5.033
X1.224 Y5.038
X1.218 Y5.043
X1.212 Y5.048
X1.206 Y5.053
X1.2 Y5.058
X1.195 Y5.063
X1.189 Y5.068
X1.183 Y5.073
X1.177 Y5.078
X1.171 Y5.082
X1.165 Y5.087
X1.158 Y5.092
X1.15 Y5.098
X1.143 Y5.103
X1.137 Y5.108
X1.13 Y5.113
X1.124 Y5.117
X1.118 Y5.122
X1.111 Y5.126
X1.104 Y5.131
X1.097 Y5.135
X1.09 Y5.14
X1.083 Y5.145
X1.076 Y5.149
X1.069 Y5.154
X1.062 Y5.158
X1.055 Y5.162
X1.048 Y5.166
X1.041 Y5.17
X1.034 Y5.175
X1.026 Y5.179
X1.019 Y5.183
X1.011 Y5.187
X1.003 Y5.191
X0.995 Y5.195
X0.988 Y5.199
X0.98 Y5.203
X0.973 Y5.207
X0.965 Y5.21
X0.958 Y5.214
X0.95 Y5.218
X0.942 Y5.221
X0.934 Y5.225
X0.926 Y5.229
X0.917 Y5.232
X0.909 Y5.236
X0.901 Y5.239
X0.893 Y5.242
X0.886 Y5.246
X0.878 Y5.249
X0.869 Y5.252
X0.861 Y5.255
X0.852 Y5.258
X0.844 Y5.261
X0.835 Y5.264
X0.826 Y5.267
X0.818 Y5.27
X0.81 Y5.273
X0.801 Y5.275
X0.793 Y5.278
X0.785 Y5.281
X0.776 Y5.283
X0.767 Y5.286
X0.759 Y5.288
X0.749 Y5.291
X0.74 Y5.293
X0.732 Y5.295
X0.723 Y5.297
X0.714 Y5.299
X0.706 Y5.301
X0.697 Y5.303
X0.689 Y5.305
X0.68 Y5.307
X0.672 Y5.309
X0.664 Y5.31
X0.656 Y5.312
X0.648 Y5.313
X0.64 Y5.314
X0.632 Y5.316
X0.624 Y5.317
X0.615 Y5.318
X0.606 Y5.319
X0.598 Y5.321
X0.589 Y5.322
X0.581 Y5.323
X0.572 Y5.324
X0.564
X0.556 Y5.325
X0.548 Y5.326
X0.54 Y5.327
X0.532
X0.525 Y5.328
X0.517
X0.51 Y5.329
X0.502
X0.495
X0.488
X0.48 Y5.33
X0.472
X0.464
X0.456
X0.448
X0.44
X0.432 Y5.329
X0.425
X0.417
X0.41
X0.402 Y5.328
X0.395
X0.388 Y5.327
X0.381
X0.374 Y5.326
X0.367
X0.36 Y5.325
X0.353 Y5.324
X0.346 Y5.323
X0.339
X0.332 Y5.322
X0.325 Y5.321
X0.318 Y5.32
X0.31 Y5.319
X0.303 Y5.317
X0.295 Y5.316
X0.288 Y5.315
X0.281 Y5.314
X0.274 Y5.313
X0.267 Y5.311
X0.26 Y5.31
X0.254 Y5.308
X0.247 Y5.307
X0.241 Y5.306
X0.234 Y5.304
X0.228 Y5.302
X0.221 Y5.301
X0.215 Y5.299
X0.209 Y5.298
X0.203 Y5.296
X0.196 Y5.294
X0.19 Y5.292
X0.183 Y5.29
X0.176 Y5.288
X0.169 Y5.286
X0.163 Y5.284
X0.156 Y5.282
X0.149 Y5.28
X0.143 Y5.278
X0.137 Y5.275
X0.13 Y5.273
X0.123 Y5.27
X0.072 Y5.247
X0.026 Y5.215
X-0.014 Y5.177
X-0.048 Y5.133
X-0.075 Y5.084
X-0.093 Y5.031
X-0.103 Y4.977
X-0.104 Y4.921
X-0.096 Y4.866
X-0.087 Y4.825
X-0.083 Y4.81
X-0.074 Y4.765
X-0.066 Y4.72
X-0.051 Y4.63
X-0.043 Y4.585
X-0.042 Y4.573
X-0.037 Y4.54
X-0.032 Y4.495
X-0.019 Y4.455
X0.003 Y4.42
X0.035 Y4.392
X0.073 Y4.375
X0.114 Y4.368
X0.69 Y4.36
X0.795 Y4.358
X1.348 Y4.35
X1.394 Y4.357
X1.435 Y4.377
X1.469 Y4.409
X1.491 Y4.449
X1.5 Y4.495
Y4.945
X1.498 Y4.986
X1.492 Y5.028
X1.483 Y5.073
X1.468 Y5.122
X1.448 Y5.173
X1.422 Y5.227
X1.39 Y5.281
X1.368 Y5.34
X1.357 Y5.402
X1.352 Y5.465
X1.353 Y5.528
X1.358 Y5.59
X1.368 Y5.652
X1.38 Y5.714
X1.395 Y5.775
X1.413 Y5.835
X1.433 Y5.895
X1.455 Y5.954
X1.475 Y6.006
X1.489 Y6.048
X1.497 Y6.091
X1.5 Y6.135
G3 X1.345 Y6.28 I-0.15 J-0.005
X1.2 Y6.13 I0.005 J-0.15
G1 Y5.81
Y5.269
Y4.95
G3 X1.35 Y4.8 I0.15 J0.
X1.5 Y4.945 I0. J0.15
G1 Y7.464
X1.492 Y7.507
X1.472 Y7.546
X1.441 Y7.578
X1.402 Y7.599
X1.359 Y7.608
X1.315 Y7.604
X0.81 Y7.483
X-0.593 Y7.146
X-1.056 Y7.034
G3 X-1.167 Y6.853 I0.035 J-0.146
X-1.134 Y6.789 I0.146 J0.035
G1 X-1.076 Y6.729
X-1.048 Y6.699
X-1.031 Y6.681
X-1.008 Y6.654
X-0.93 Y6.564
X-0.896 Y6.523
X-0.851 Y6.465
X-0.823 Y6.429
X-0.806 Y6.408
X-0.788 Y6.384
X-0.761 Y6.346
X-0.756 Y6.339
X-0.693 Y6.249
X-0.662 Y6.204
X-0.605 Y6.114
X-0.577 Y6.069
X-0.551 Y6.024
X-0.5 Y5.934
X-0.491 Y5.92
X-0.474 Y5.889
X-0.451 Y5.844
X-0.401 Y5.745
X-0.384 Y5.709
X-0.363 Y5.664
X-0.324 Y5.574
X-0.311 Y5.546
X-0.304 Y5.529
X-0.286 Y5.484
X-0.252 Y5.394
X-0.235 Y5.349
X-0.222 Y5.311
X-0.19 Y5.215
X-0.177 Y5.174
X-0.175 Y5.17
X-0.162 Y5.125
X-0.132 Y5.015
X-0.125 Y4.99
X-0.114 Y4.945
X-0.103 Y4.9
G3 X0.08 Y4.793 I0.145 J0.038
X0.187 Y4.976 I-0.038 J0.145
X0.004 Y5.083 I-0.145 J-0.038
X-0.064 Y5.044 I0.038 J-0.145
G0 Z15.

(2D Contour (cutout))
G64
X-9.2 Y3.85
Z15.
Z-0.15
G1 Z-3.35 F80
Z-5.8
X-9.193 Z-5.846
X-9.171 Z-5.888
X-9.138 Z-5.921
X-9.096 Z-5.943
X-9.05 Z-5.95
X-8.9 F800
X-8.854 Y3.857
X-8.812 Y3.879
X-8.779 Y3.912
X-8.757 Y3.954
X-8.75 Y4.
G2 X-4. Y8.75 I4.75 J0.
X0.75 Y4. I0. J-4.75
X-4. Y-0.75 I-4.75 J0.
X-8.75 Y4. I0. J4.75
G1 X-8.757 Y4.046
X-8.779 Y4.088
X-8.812 Y4.121
X-8.854 Y4.143
X-8.9 Y4.15
X-9.05
X-9.096 Z-5.943
X-9.138 Z-5.921
X-9.171 Z-5.888
X-9.193 Z-5.846
X-9.2 Z-5.8
G0 Z15.
M5
G53 Z0.
M30
