(1001)
(T1  D=1.5 CR=0. - ZMIN=-5.95 - flat end mill)
G90
G0 G53 Z0.

(2D Adaptive (pocket))
T1 M6 (flat end mill D=1.5 1.5 mm Fishtail Upcut Endmill - Acrylic Max Pass Depth 0.8 mm)
S18000 M3
G64
G54
G43 H1
G0 X-23.764 Y23.539
Z15.
Z5.
Z2.501
G3 X-23.511 Y22.564 Z2.462 I0.614 J-0.361 F800
X-22.536 Y22.817 Z2.423 I0.361 J0.614
X-22.789 Y23.793 Z2.384 I-0.614 J0.361
X-23.764 Y23.539 Z2.345 I-0.361 J-0.614
X-23.511 Y22.564 Z2.306 I0.614 J-0.361
X-22.536 Y22.817 Z2.267 I0.361 J0.614
X-22.789 Y23.793 Z2.227 I-0.614 J0.361
X-23.764 Y23.539 Z2.188 I-0.361 J-0.614
X-23.511 Y22.564 Z2.149 I0.614 J-0.361
X-22.536 Y22.817 Z2.11 I0.361 J0.614
X-22.789 Y23.793 Z2.071 I-0.614 J0.361
X-23.764 Y23.539 Z2.032 I-0.361 J-0.614
X-23.511 Y22.564 Z1.993 I0.614 J-0.361
X-22.536 Y22.817 Z1.954 I0.361 J0.614
X-22.789 Y23.793 Z1.915 I-0.614 J0.361
X-23.764 Y23.539 Z1.876 I-0.361 J-0.614
X-23.511 Y22.564 Z1.837 I0.614 J-0.361
X-22.536 Y22.817 Z1.798 I0.361 J0.614
X-22.789 Y23.793 Z1.758 I-0.614 J0.361
X-23.764 Y23.539 Z1.719 I-0.361 J-0.614
X-23.511 Y22.564 Z1.68 I0.614 J-0.361
X-22.536 Y22.817 Z1.641 I0.361 J0.614
X-22.789 Y23.793 Z1.602 I-0.614 J0.361
X-23.764 Y23.539 Z1.563 I-0.361 J-0.614
X-23.511 Y22.564 Z1.524 I0.614 J-0.361
X-22.536 Y22.817 Z1.485 I0.361 J0.614
X-22.789 Y23.793 Z1.446 I-0.614 J0.361
X-23.764 Y23.539 Z1.407 I-0.361 J-0.614
X-23.511 Y22.564 Z1.368 I0.614 J-0.361
X-22.536 Y22.817 Z1.329 I0.361 J0.614
X-22.789 Y23.793 Z1.289 I-0.614 J0.361
X-23.764 Y23.539 Z1.25 I-0.361 J-0.614
X-23.511 Y22.564 Z1.211 I0.614 J-0.361
X-22.536 Y22.817 Z1.172 I0.361 J0.614
X-22.789 Y23.793 Z1.133 I-0.614 J0.361
X-23.764 Y23.539 Z1.094 I-0.361 J-0.614
X-23.511 Y22.564 Z1.055 I0.614 J-0.361
X-22.536 Y22.817 Z1.016 I0.361 J0.614
X-22.789 Y23.793 Z0.977 I-0.614 J0.361
X-23.764 Y23.539 Z0.938 I-0.361 J-0.614
X-23.511 Y22.564 Z0.899 I0.614 J-0.361
X-22.536 Y22.817 Z0.86 I0.361 J0.614
X-22.789 Y23.793 Z0.82 I-0.614 J0.361
X-23.764 Y23.539 Z0.781 I-0.361 J-0.614
X-23.511 Y22.564 Z0.742 I0.614 J-0.361
X-22.536 Y22.817 Z0.703 I0.361 J0.614
X-22.789 Y23.793 Z0.664 I-0.614 J0.361
X-23.764 Y23.539 Z0.625 I-0.361 J-0.614
X-23.511 Y22.564 Z0.586 I0.614 J-0.361
X-22.536 Y22.817 Z0.547 I0.361 J0.614
X-22.789 Y23.793 Z0.508 I-0.614 J0.361
X-23.764 Y23.539 Z0.469 I-0.361 J-0.614
X-23.511 Y22.564 Z0.43 I0.614 J-0.361
X-22.536 Y22.817 Z0.391 I0.361 J0.614
X-22.789 Y23.793 Z0.351 I-0.614 J0.361
X-23.764 Y23.539 Z0.312 I-0.361 J-0.614
X-23.511 Y22.564 Z0.273 I0.614 J-0.361
X-22.536 Y22.817 Z0.234 I0.361 J0.614
X-22.789 Y23.793 Z0.195 I-0.614 J0.361
X-23.764 Y23.539 Z0.156 I-0.361 J-0.614
X-23.511 Y22.564 Z0.117 I0.614 J-0.361
X-22.536 Y22.817 Z0.078 I0.361 J0.614
X-22.789 Y23.793 Z0.039 I-0.614 J0.361
X-23.764 Y23.539 Z0. I-0.361 J-0.614
X-23.511 Y22.564 Z-0.039 I0.614 J-0.361
X-22.536 Y22.817 Z-0.078 I0.361 J0.614
X-22.789 Y23.793 Z-0.118 I-0.614 J0.361
X-23.764 Y23.539 Z-0.157 I-0.361 J-0.614
X-23.511 Y22.564 Z-0.196 I0.614 J-0.361
X-22.536 Y22.817 Z-0.235 I0.361 J0.614
X-22.789 Y23.793 Z-0.274 I-0.614 J0.361
X-23.764 Y23.539 Z-0.313 I-0.361 J-0.614
X-23.511 Y22.564 Z-0.352 I0.614 J-0.361
X-22.536 Y22.817 Z-0.391 I0.361 J0.614
X-22.789 Y23.793 Z-0.43 I-0.614 J0.361
X-23.764 Y23.539 Z-0.469 I-0.361 J-0.614
X-23.511 Y22.564 Z-0.508 I0.614 J-0.361
X-22.536 Y22.817 Z-0.547 I0.361 J0.614
X-22.789 Y23.793 Z-0.587 I-0.614 J0.361
X-23.764 Y23.539 Z-0.626 I-0.361 J-0.614
X-23.511 Y22.564 Z-0.665 I0.614 J-0.361
X-22.536 Y22.817 Z-0.704 I0.361 J0.614
X-22.789 Y23.793 Z-0.743 I-0.614 J0.361
X-23.764 Y23.539 Z-0.782 I-0.361 J-0.614
X-23.511 Y22.564 Z-0.821 I0.614 J-0.361
X-22.536 Y22.817 Z-0.86 I0.361 J0.614
X-22.789 Y23.793 Z-0.899 I-0.614 J0.361
X-23.764 Y23.539 Z-0.938 I-0.361 J-0.614
X-23.511 Y22.564 Z-0.977 I0.614 J-0.361
X-22.536 Y22.817 Z-1.016 I0.361 J0.614
X-22.789 Y23.793 Z-1.056 I-0.614 J0.361
X-23.764 Y23.539 Z-1.095 I-0.361 J-0.614
X-23.511 Y22.564 Z-1.134 I0.614 J-0.361
X-22.536 Y22.817 Z-1.173 I0.361 J0.614
X-22.789 Y23.793 Z-1.212 I-0.614 J0.361
X-23.764 Y23.539 Z-1.251 I-0.361 J-0.614
X-23.511 Y22.564 Z-1.29 I0.614 J-0.361
X-22.536 Y22.817 Z-1.329 I0.361 J0.614
X-22.789 Y23.793 Z-1.368 I-0.614 J0.361
X-23.764 Y23.539 Z-1.407 I-0.361 J-0.614
X-23.511 Y22.564 Z-1.446 I0.614 J-0.361
X-22.536 Y22.817 Z-1.485 I0.361 J0.614
X-22.789 Y23.793 Z-1.525 I-0.614 J0.361
X-23.764 Y23.539 Z-1.564 I-0.361 J-0.614
X-23.511 Y22.564 Z-1.603 I0.614 J-0.361
X-22.536 Y22.817 Z-1.642 I0.361 J0.614
X-22.789 Y23.793 Z-1.681 I-0.614 J0.361
X-23.764 Y23.539 Z-1.72 I-0.361 J-0.614
X-23.511 Y22.564 Z-1.759 I0.614 J-0.361
X-22.536 Y22.817 Z-1.798 I0.361 J0.614
X-22.789 Y23.793 Z-1.837 I-0.614 J0.361
X-23.764 Y23.539 Z-1.876 I-0.361 J-0.614
X-23.511 Y22.564 Z-1.915 I0.614 J-0.361
X-22.536 Y22.817 Z-1.954 I0.361 J0.614
X-22.789 Y23.793 Z-1.994 I-0.614 J0.361
X-23.764 Y23.539 Z-2.033 I-0.361 J-0.614
X-23.511 Y22.564 Z-2.072 I0.614 J-0.361
X-22.536 Y22.817 Z-2.111 I0.361 J0.614
X-22.789 Y23.793 Z-2.15 I-0.614 J0.361
X-23.764 Y23.539 Z-2.189 I-0.361 J-0.614
X-23.511 Y22.564 Z-2.228 I0.614 J-0.361
X-22.536 Y22.817 Z-2.267 I0.361 J0.614
X-22.789 Y23.793 Z-2.306 I-0.614 J0.361
X-23.764 Y23.539 Z-2.345 I-0.361 J-0.614
X-23.511 Y22.564 Z-2.384 I0.614 J-0.361
X-22.536 Y22.817 Z-2.423 I0.361 J0.614
X-22.789 Y23.793 Z-2.463 I-0.614 J0.361
X-23.764 Y23.539 Z-2.502 I-0.361 J-0.614
X-23.511 Y22.564 Z-2.541 I0.614 J-0.361
X-22.536 Y22.817 Z-2.58 I0.361 J0.614
X-22.789 Y23.793 Z-2.619 I-0.614 J0.361
X-23.764 Y23.539 Z-2.658 I-0.361 J-0.614
X-23.511 Y22.564 Z-2.697 I0.614 J-0.361
X-22.536 Y22.817 Z-2.736 I0.361 J0.614
X-22.789 Y23.793 Z-2.775 I-0.614 J0.361
X-23.764 Y23.539 Z-2.814 I-0.361 J-0.614
X-23.511 Y22.564 Z-2.853 I0.614 J-0.361
X-22.536 Y22.817 Z-2.892 I0.361 J0.614
X-22.789 Y23.793 Z-2.932 I-0.614 J0.361
X-23.764 Y23.539 Z-2.971 I-0.361 J-0.614
X-23.511 Y22.564 Z-3.01 I0.614 J-0.361
X-22.536 Y22.817 Z-3.049 I0.361 J0.614
X-22.789 Y23.793 Z-3.088 I-0.614 J0.361
X-23.764 Y23.539 Z-3.127 I-0.361 J-0.614
X-23.511 Y22.564 Z-3.166 I0.614 J-0.361
X-22.536 Y22.817 Z-3.205 I0.361 J0.614
X-22.789 Y23.793 Z-3.244 I-0.614 J0.361
X-23.764 Y23.539 Z-3.283 I-0.361 J-0.614
X-23.511 Y22.564 Z-3.322 I0.614 J-0.361
X-22.536 Y22.817 Z-3.361 I0.361 J0.614
X-22.789 Y23.793 Z-3.401 I-0.614 J0.361
X-23.764 Y23.539 Z-3.44 I-0.361 J-0.614
X-23.511 Y22.564 Z-3.479 I0.614 J-0.361
X-22.536 Y22.817 Z-3.518 I0.361 J0.614
X-22.789 Y23.793 Z-3.557 I-0.614 J0.361
X-23.764 Y23.539 Z-3.596 I-0.361 J-0.614
X-23.511 Y22.564 Z-3.635 I0.614 J-0.361
X-22.536 Y22.817 Z-3.674 I0.361 J0.614
X-22.789 Y23.793 Z-3.713 I-0.614 J0.361
X-23.764 Y23.539 Z-3.752 I-0.361 J-0.614
X-23.511 Y22.564 Z-3.791 I0.614 J-0.361
X-22.536 Y22.817 Z-3.83 I0.361 J0.614
X-22.789 Y23.793 Z-3.87 I-0.614 J0.361
X-23.764 Y23.539 Z-3.909 I-0.361 J-0.614
X-23.511 Y22.564 Z-3.948 I0.614 J-0.361
X-22.536 Y22.817 Z-3.987 I0.361 J0.614
X-22.438 Y23.178 Z-4. I-0.614 J0.361
X-23.15 Y23.891 I-0.712 J0.
X-23.862 Y23.178 I0. J-0.712
X-23.15 Y22.466 I0.712 J0.
X-22.438 Y23.178 I0. J0.712
G1 X-22.437 Y23.241
X-22.426 Y23.303
X-22.404 Y23.362
X-22.388 Y23.389
X-22.377 Y23.41
X-22.368 Y23.434
X-22.359 Y23.461
X-22.352 Y23.492
X-22.348 Y23.526
X-22.346 Y23.563
X-22.347 Y23.602
X-22.351 Y23.645
X-22.359 Y23.689
X-22.372 Y23.735
X-22.389 Y23.783
X-22.411 Y23.831
X-22.438 Y23.88
X-22.47 Y23.929
X-22.508 Y23.977
X-22.551 Y24.023
X-22.597 Y24.066
X-22.646 Y24.105
X-22.698 Y24.14
X-22.753 Y24.172
X-22.809 Y24.199
X-22.868 Y24.222
X-22.928 Y24.242
X-22.988 Y24.258
X-23.05 Y24.269
X-23.113 Y24.277
X-23.176 Y24.28
X-23.238
X-23.301 Y24.276
X-23.364 Y24.268
X-23.425 Y24.256
X-23.486 Y24.241
X-23.546 Y24.222
X-23.605 Y24.199
X-23.662 Y24.173
X-23.718 Y24.144
X-23.772 Y24.112
X-23.824 Y24.076
X-23.874 Y24.038
X-23.921 Y23.997
X-23.966 Y23.953
X-24.009 Y23.907
X-24.049 Y23.858
X-24.086 Y23.807
X-24.12 Y23.754
X-24.151 Y23.699
X-24.179 Y23.643
X-24.203 Y23.585
X-24.225 Y23.526
X-24.243 Y23.466
X-24.257 Y23.404
X-24.268 Y23.343
X-24.276 Y23.28
X-24.28 Y23.217
X-24.281 Y23.154
X-24.278 Y23.092
X-24.271 Y23.029
X-24.261 Y22.967
X-24.248 Y22.905
X-24.231 Y22.845
X-24.211 Y22.785
X-24.188 Y22.727
X-24.161 Y22.67
X-24.132 Y22.614
X-24.099 Y22.561
X-24.063 Y22.509
X-24.025 Y22.459
X-23.983 Y22.412
X-23.939 Y22.367
X-23.893 Y22.324
X-23.845 Y22.284
X-23.794 Y22.247
X-23.741 Y22.212
X-23.687 Y22.181
X-23.631 Y22.153
X-23.573 Y22.128
X-23.514 Y22.106
X-23.454 Y22.087
X-23.393 Y22.072
X-23.331 Y22.06
X-23.269 Y22.052
X-23.206 Y22.047
X-23.143 Y22.046
X-23.08 Y22.048
X-23.018 Y22.053
X-22.955 Y22.062
X-22.894 Y22.075
X-22.833 Y22.091
X-22.773 Y22.11
X-22.714 Y22.133
X-22.657 Y22.159
X-22.601 Y22.188
X-22.547 Y22.22
X-22.495 Y22.254
X-22.444 Y22.292
X-22.396 Y22.333
X-22.35 Y22.376
X-22.307 Y22.422
X-22.266 Y22.47
X-22.228 Y22.52
X-22.193 Y22.572
X-22.161 Y22.626
X-22.129 Y22.68
X-22.098 Y22.735
X-22.069 Y22.791
X-22.041 Y22.847
X-22.015 Y22.904
X-21.991 Y22.962
X-21.97 Y23.021
X-21.95 Y23.081
X-21.933 Y23.142
X-21.919 Y23.203
X-21.908 Y23.265
X-21.899 Y23.327
X-21.894 Y23.39
X-21.892 Y23.453
X-21.893 Y23.516
X-21.897 Y23.579
X-21.904 Y23.641
X-21.914 Y23.703
X-21.928 Y23.764
X-21.945 Y23.825
X-21.965 Y23.885
X-21.988 Y23.943
X-22.014 Y24.
X-22.043 Y24.056
X-22.075 Y24.11
X-22.11 Y24.163
X-22.147 Y24.214
X-22.186 Y24.263
X-22.228 Y24.309
X-22.273 Y24.354
X-22.319 Y24.397
X-22.367 Y24.437
X-22.418 Y24.474
X-22.47 Y24.51
X-22.524 Y24.543
X-22.579 Y24.573
X-22.635 Y24.6
X-22.693 Y24.625
X-22.752 Y24.648
X-22.812 Y24.667
X-22.872 Y24.684
X-22.933 Y24.698
X-22.995 Y24.71
X-23.058 Y24.718
X-23.12 Y24.724
X-23.183 Y24.727
X-23.246 Y24.728
X-23.309 Y24.725
X-23.371 Y24.72
X-23.434 Y24.712
X-23.496 Y24.702
X-23.557 Y24.689
X-23.618 Y24.673
X-23.679 Y24.655
X-23.738 Y24.634
X-23.796 Y24.611
X-23.854 Y24.586
X-23.91 Y24.558
X-23.965 Y24.527
X-24.019 Y24.495
X-24.072 Y24.46
X-24.123 Y24.423
X-24.172 Y24.385
X-24.22 Y24.344
X-24.266 Y24.301
X-24.311 Y24.256
X-24.353 Y24.21
X-24.394 Y24.162
X-24.432 Y24.112
X-24.469 Y24.061
X-24.503 Y24.008
X-24.536 Y23.955
X-24.566 Y23.899
X-24.594 Y23.843
X-24.619 Y23.785
X-24.642 Y23.727
X-24.663 Y23.668
X-24.682 Y23.608
X-24.698 Y23.547
X-24.712 Y23.485
X-24.723 Y23.424
X-24.732 Y23.361
X-24.738 Y23.299
X-24.742 Y23.236
X-24.743 Y23.173
X-24.742 Y23.11
X-24.738 Y23.047
X-24.732 Y22.985
X-24.723 Y22.922
X-24.712 Y22.861
X-24.698 Y22.799
X-24.682 Y22.738
X-24.664 Y22.678
X-24.643 Y22.619
X-24.62 Y22.56
X-24.595 Y22.503
X-24.567 Y22.446
X-24.537 Y22.391
X-24.505 Y22.337
X-24.471 Y22.284
X-24.435 Y22.233
X-24.397 Y22.183
X-24.356 Y22.134
X-24.314 Y22.087
X-24.27 Y22.042
X-24.225 Y21.999
X-24.178 Y21.957
X-24.129 Y21.918
X-24.078 Y21.88
X-24.026 Y21.845
X-23.973 Y21.811
X-23.919 Y21.78
X-23.863 Y21.75
X-23.806 Y21.723
X-23.748 Y21.699
X-23.69 Y21.676
X-23.63 Y21.656
X-23.57 Y21.638
X-23.509 Y21.623
X-23.447 Y21.61
X-23.385 Y21.6
X-23.323 Y21.591
X-23.26 Y21.586
X-23.197 Y21.583
X-23.134 Y21.582
X-23.072 Y21.584
X-23.009 Y21.588
X-22.946 Y21.595
X-22.884 Y21.604
X-22.822 Y21.616
X-22.761 Y21.63
X-22.7 Y21.647
X-22.64 Y21.666
X-22.581 Y21.687
X-22.523 Y21.71
X-22.465 Y21.736
X-22.409 Y21.764
X-22.354 Y21.795
X-22.3 Y21.827
X-22.248 Y21.861
X-22.196 Y21.898
X-22.147 Y21.937
X-22.098 Y21.977
X-22.052 Y22.019
X-22.006 Y22.062
X-21.962 Y22.107
X-21.92 Y22.154
X-21.878 Y22.201
X-21.839 Y22.25
X-21.8 Y22.3
X-21.764 Y22.351
X-21.729 Y22.403
X-21.695 Y22.456
X-21.663 Y22.511
X-21.633 Y22.566
X-21.604 Y22.622
X-21.578 Y22.679
X-21.553 Y22.737
X-21.53 Y22.795
X-21.509 Y22.854
X-21.49 Y22.914
X-21.472 Y22.975
X-21.457 Y23.036
X-21.444 Y23.097
X-21.433 Y23.159
X-21.425 Y23.222
X-21.418 Y23.284
X-21.414 Y23.347
X-21.411 Y23.41
Y23.473
X-21.414 Y23.536
X-21.418 Y23.598
X-21.425 Y23.661
X-21.434 Y23.723
X-21.445 Y23.785
X-21.459 Y23.846
X-21.474 Y23.907
X-21.492 Y23.968
X-21.512 Y24.027
X-21.535 Y24.086
X-21.559 Y24.144
X-21.585 Y24.201
X-21.614 Y24.257
X-21.644 Y24.312
X-21.677 Y24.366
X-21.711 Y24.419
X-21.748 Y24.47
X-21.786 Y24.52
X-21.825 Y24.569
X-21.867 Y24.616
X-21.91 Y24.662
X-21.955 Y24.706
X-22.001 Y24.749
X-22.049 Y24.789
X-22.098 Y24.829
X-22.149 Y24.866
X-22.201 Y24.902
X-22.254 Y24.936
X-22.308 Y24.967
X-22.363 Y24.998
X-22.419 Y25.026
X-22.477 Y25.052
X-22.535 Y25.076
X-22.593 Y25.099
X-22.653 Y25.119
X-22.713 Y25.137
X-22.774 Y25.153
X-22.835 Y25.167
X-22.897 Y25.18
X-22.959 Y25.19
X-23.021 Y25.198
X-23.084 Y25.204
X-23.147 Y25.208
X-23.21 Y25.209
X-23.273
X-23.335 Y25.207
X-23.398 Y25.203
X-23.461 Y25.196
X-23.523 Y25.188
X-23.585 Y25.177
X-23.647 Y25.165
X-23.708 Y25.151
X-23.769 Y25.134
X-23.829 Y25.116
X-23.889 Y25.096
X-23.947 Y25.074
X-24.006 Y25.05
X-24.063 Y25.024
X-24.12 Y24.997
X-24.175 Y24.968
X-24.23 Y24.937
X-24.284 Y24.904
X-24.336 Y24.869
X-24.388 Y24.833
X-24.438 Y24.796
X-24.488 Y24.757
X-24.536 Y24.716
X-24.582 Y24.674
X-24.628 Y24.63
X-24.672 Y24.585
X-24.714 Y24.539
X-24.755 Y24.492
X-24.795 Y24.443
X-24.833 Y24.393
X-24.87 Y24.341
X-24.905 Y24.289
X-24.938 Y24.236
X-24.97 Y24.181
X-25. Y24.126
X-25.028 Y24.07
X-25.055 Y24.013
X-25.079 Y23.955
X-25.102 Y23.897
X-25.124 Y23.837
X-25.143 Y23.778
X-25.161 Y23.717
X-25.176 Y23.656
X-25.19 Y23.595
X-25.202 Y23.533
X-25.212 Y23.471
X-25.22 Y23.409
X-25.227 Y23.346
X-25.231 Y23.283
X-25.233 Y23.221
X-25.234 Y23.158
X-25.233 Y23.095
X-25.229 Y23.032
X-25.224 Y22.969
X-25.217 Y22.907
X-25.208 Y22.844
X-25.197 Y22.783
X-25.185 Y22.721
X-25.17 Y22.66
X-25.154 Y22.599
X-25.136 Y22.539
X-25.115 Y22.479
X-25.094 Y22.42
X-25.07 Y22.362
X-25.045 Y22.304
X-25.018 Y22.248
X-24.989 Y22.192
X-24.958 Y22.137
X-24.926 Y22.083
X-24.892 Y22.03
X-24.857 Y21.977
X-24.82 Y21.927
X-24.782 Y21.877
X-24.742 Y21.828
X-24.7 Y21.781
X-24.658 Y21.735
X-24.614 Y21.69
X-24.568 Y21.646
X-24.521 Y21.604
X-24.473 Y21.564
X-24.424 Y21.524
X-24.374 Y21.487
X-24.322 Y21.451
X-24.27 Y21.416
X-24.216 Y21.383
X-24.162 Y21.352
X-24.106 Y21.322
X-24.05 Y21.294
X-23.993 Y21.268
X-23.935 Y21.243
X-23.876 Y21.221
X-23.817 Y21.199
X-23.757 Y21.18
X-23.696 Y21.163
X-23.635 Y21.147
X-23.574 Y21.134
X-23.512 Y21.122
X-23.45 Y21.112
X-23.388 Y21.104
X-23.325 Y21.097
X-23.263 Y21.093
X-23.2 Y21.091
X-23.137 Y21.09
X-23.074 Y21.091
X-23.011 Y21.095
X-22.948 Y21.1
X-22.886 Y21.107
X-22.824 Y21.116
X-22.762 Y21.126
X-22.7 Y21.139
X-22.639 Y21.153
X-22.578 Y21.17
X-22.518 Y21.188
X-22.458 Y21.208
X-22.399 Y21.229
X-22.341 Y21.253
X-22.283 Y21.278
X-22.226 Y21.305
X-22.17 Y21.334
X-22.115 Y21.364
X-22.061 Y21.396
X-22.007 Y21.429
X-21.955 Y21.464
X-21.903 Y21.5
X-21.853 Y21.537
X-21.804 Y21.576
X-21.755 Y21.616
X-21.708 Y21.658
X-21.662 Y21.701
X-21.617 Y21.745
X-21.573 Y21.79
X-21.53 Y21.836
X-21.489 Y21.883
X-21.448 Y21.931
X-21.409 Y21.981
X-21.372 Y22.031
X-21.335 Y22.082
X-21.3 Y22.134
X-21.266 Y22.188
X-21.234 Y22.241
X-21.203 Y22.296
X-21.173 Y22.352
X-21.145 Y22.408
X-21.119 Y22.465
X-21.093 Y22.523
X-21.07 Y22.581
X-21.048 Y22.64
X-21.027 Y22.699
X-21.008 Y22.759
X-20.991 Y22.82
X-20.975 Y22.881
X-20.961 Y22.942
X-20.949 Y23.004
X-20.938 Y23.066
X-20.929 Y23.128
X-20.921 Y23.19
X-20.916 Y23.253
X-20.912 Y23.316
X-20.909 Y23.378
Y23.441
X-20.91 Y23.504
X-20.913 Y23.567
X-20.918 Y23.63
X-20.924 Y23.692
X-20.932 Y23.755
X-20.942 Y23.817
X-20.954 Y23.879
X-20.967 Y23.94
X-20.982 Y24.001
X-20.999 Y24.062
X-21.017 Y24.122
X-21.037 Y24.182
X-21.059 Y24.241
X-21.082 Y24.299
X-21.107 Y24.357
X-21.134 Y24.414
X-21.162 Y24.47
X-21.191 Y24.526
X-21.223 Y24.58
X-21.255 Y24.634
X-21.29 Y24.687
X-21.325 Y24.738
X-21.362 Y24.789
X-21.401 Y24.839
X-21.441 Y24.888
X-21.482 Y24.935
X-21.524 Y24.982
X-21.568 Y25.027
X-21.613 Y25.071
X-21.659 Y25.113
X-21.707 Y25.155
X-21.755 Y25.195
X-21.805 Y25.234
X-21.855 Y25.271
X-21.907 Y25.307
X-21.959 Y25.342
X-22.013 Y25.375
X-22.067 Y25.407
X-22.122 Y25.437
X-22.178 Y25.466
X-22.235 Y25.493
X-22.292 Y25.519
X-22.35 Y25.543
X-22.409 Y25.566
X-22.468 Y25.587
X-22.528 Y25.606
X-22.588 Y25.624
X-22.649 Y25.64
X-22.71 Y25.655
X-22.772 Y25.668
X-22.834 Y25.68
X-22.896 Y25.689
X-22.958 Y25.698
X-23.021 Y25.704
X-23.083 Y25.709
X-23.146 Y25.712
X-23.209 Y25.714
X-23.272
X-23.335 Y25.712
X-23.398 Y25.709
X-23.46 Y25.704
X-23.523 Y25.698
X-23.585 Y25.69
X-23.647 Y25.68
X-23.709 Y25.669
X-23.771 Y25.656
X-23.832 Y25.641
X-23.893 Y25.625
X-23.953 Y25.608
X-24.013 Y25.589
X-24.073 Y25.568
X-24.132 Y25.546
X-24.19 Y25.523
X-24.248 Y25.498
X-24.305 Y25.471
X-24.361 Y25.443
X-24.417 Y25.414
X-24.472 Y25.383
X-24.526 Y25.351
X-24.579 Y25.318
X-24.632 Y25.283
X-24.683 Y25.247
X-24.734 Y25.21
X-24.783 Y25.171
X-24.832 Y25.132
X-24.88 Y25.091
X-24.927 Y25.048
X-24.972 Y25.005
X-25.017 Y24.961
X-25.06 Y24.915
X-25.102 Y24.869
X-25.144 Y24.821
X-25.183 Y24.772
X-25.222 Y24.723
X-25.26 Y24.672
X-25.296 Y24.621
X-25.331 Y24.569
X-25.364 Y24.515
X-25.397 Y24.461
X-25.428 Y24.407
X-25.457 Y24.351
X-25.486 Y24.295
X-25.512 Y24.238
X-25.538 Y24.181
X-25.562 Y24.122
X-25.584 Y24.064
X-25.606 Y24.004
X-25.625 Y23.945
X-25.643 Y23.885
X-25.66 Y23.824
X-25.675 Y23.763
X-25.689 Y23.701
X-25.701 Y23.64
X-25.712 Y23.578
X-25.721 Y23.516
X-25.729 Y23.453
X-25.735 Y23.391
X-25.74 Y23.328
X-25.743 Y23.265
X-25.745 Y23.202
Y23.139
X-25.743 Y23.076
X-25.74 Y23.014
X-25.735 Y22.951
X-25.729 Y22.888
X-25.722 Y22.826
X-25.713 Y22.764
X-25.702 Y22.702
X-25.69 Y22.64
X-25.676 Y22.578
X-25.661 Y22.517
X-25.645 Y22.457
X-25.626 Y22.396
X-25.607 Y22.337
X-25.586 Y22.277
X-25.563 Y22.219
X-25.54 Y22.16
X-25.514 Y22.103
X-25.488 Y22.046
X-25.46 Y21.989
X-25.43 Y21.934
X-25.4 Y21.879
X-25.368 Y21.825
X-25.334 Y21.771
X-25.3 Y21.719
X-25.264 Y21.667
X-25.227 Y21.617
X-25.188 Y21.567
X-25.149 Y21.518
X-25.108 Y21.47
X-25.066 Y21.423
X-25.023 Y21.377
X-24.979 Y21.332
X-24.934 Y21.288
X-24.888 Y21.246
X-24.84 Y21.204
X-24.792 Y21.164
X-24.743 Y21.125
X-24.693 Y21.087
X-24.642 Y21.05
X-24.59 Y21.014
X-24.537 Y20.98
X-24.484 Y20.947
X-24.429 Y20.916
X-24.374 Y20.885
X-24.318 Y20.856
X-24.262 Y20.829
X-24.205 Y20.802
X-24.147 Y20.778
X-24.088 Y20.754
X-24.029 Y20.732
X-23.97 Y20.711
X-23.91 Y20.692
X-23.85 Y20.675
X-23.789 Y20.658
X-23.728 Y20.644
X-23.666 Y20.63
X-23.605 Y20.619
X-23.542 Y20.608
X-23.48 Y20.6
X-23.418 Y20.592
X-23.355 Y20.587
X-23.292 Y20.582
X-23.229 Y20.58
X-23.167 Y20.579
X-23.104
X-23.041 Y20.581
X-22.978 Y20.584
X-22.915 Y20.589
X-22.853 Y20.595
X-22.79 Y20.603
X-22.728 Y20.613
X-22.666 Y20.624
X-22.605 Y20.636
X-22.543 Y20.65
X-22.482 Y20.666
X-22.422 Y20.682
X-22.361 Y20.701
X-22.302 Y20.72
X-22.242 Y20.742
X-22.184 Y20.764
X-22.126 Y20.788
X-22.068 Y20.813
X-22.011 Y20.84
X-21.955 Y20.868
X-21.899 Y20.897
X-21.844 Y20.927
X-21.789 Y20.959
X-21.736 Y20.992
X-21.683 Y21.026
X-21.631 Y21.061
X-21.58 Y21.098
X-21.529 Y21.135
X-21.48 Y21.174
X-21.431 Y21.214
X-21.383 Y21.255
X-21.336 Y21.297
X-21.29 Y21.34
X-21.245 Y21.383
X-21.201 Y21.428
X-21.158 Y21.474
X-21.116 Y21.521
X-21.075 Y21.568
X-21.035 Y21.617
X-20.996 Y21.666
X-20.958 Y21.716
X-20.921 Y21.767
X-20.885 Y21.819
X-20.85 Y21.872
X-20.817 Y21.925
X-20.785 Y21.979
X-20.753 Y22.033
X-20.723 Y22.089
X-20.695 Y22.145
X-20.667 Y22.201
X-20.641 Y22.258
X-20.616 Y22.316
X-20.592 Y22.374
X-20.569 Y22.433
X-20.548 Y22.492
X-20.528 Y22.552
X-20.509 Y22.612
X-20.492 Y22.672
X-20.476 Y22.733
X-20.461 Y22.794
X-20.448 Y22.856
X-20.436 Y22.918
X-20.426 Y22.98
X-20.416 Y23.042
X-20.409 Y23.104
X-20.402 Y23.167
X-20.397 Y23.229
X-20.393 Y23.292
X-20.391 Y23.355
X-20.39 Y23.418
X-20.391 Y23.481
X-20.393 Y23.544
X-20.396 Y23.607
X-20.401 Y23.669
X-20.407 Y23.732
X-20.415 Y23.794
X-20.424 Y23.857
X-20.434 Y23.919
X-20.446 Y23.98
X-20.459 Y24.042
X-20.474 Y24.103
X-20.49 Y24.164
X-20.507 Y24.224
X-20.526 Y24.284
X-20.546 Y24.344
X-20.567 Y24.403
X-20.59 Y24.462
X-20.614 Y24.52
X-20.639 Y24.578
X-20.666 Y24.635
X-20.694 Y24.691
X-20.723 Y24.747
X-20.754 Y24.802
X-20.785 Y24.856
X-20.818 Y24.91
X-20.852 Y24.962
X-20.888 Y25.015
X-20.924 Y25.066
X-20.962 Y25.116
X-21. Y25.166
X-21.04 Y25.215
X-21.081 Y25.262
X-21.123 Y25.309
X-21.166 Y25.355
X-21.21 Y25.4
X-21.255 Y25.444
X-21.301 Y25.487
X-21.348 Y25.529
X-21.396 Y25.57
X-21.445 Y25.609
X-21.494 Y25.648
X-21.545 Y25.686
X-21.596 Y25.722
X-21.648 Y25.757
X-21.701 Y25.791
X-21.754 Y25.824
X-21.809 Y25.856
X-21.864 Y25.887
X-21.919 Y25.916
X-21.976 Y25.944
X-22.032 Y25.971
X-22.09 Y25.997
X-22.148 Y26.021
X-22.206 Y26.044
X-22.265 Y26.066
X-22.325 Y26.086
X-22.385 Y26.105
X-22.445 Y26.123
X-22.506 Y26.14
X-22.567 Y26.155
X-22.628 Y26.169
X-22.69 Y26.182
X-22.752 Y26.193
X-22.814 Y26.203
X-22.876 Y26.211
X-22.939 Y26.219
X-23.001 Y26.224
X-23.064 Y26.229
X-23.127 Y26.232
X-23.19 Y26.234
X-23.253 Y26.235
X-23.315 Y26.234
X-23.378 Y26.232
X-23.441 Y26.228
X-23.504 Y26.223
X-23.566 Y26.217
X-23.629 Y26.21
X-23.691 Y26.201
X-23.753 Y26.191
X-23.815 Y26.179
X-23.877 Y26.166
X-23.938 Y26.152
X-23.999 Y26.137
X-24.06 Y26.12
X-24.12 Y26.103
X-24.18 Y26.083
X-24.239 Y26.063
X-24.298 Y26.041
X-24.357 Y26.019
X-24.415 Y25.994
X-24.473 Y25.969
X-24.53 Y25.943
X-24.586 Y25.915
X-24.642 Y25.886
X-24.697 Y25.856
X-24.752 Y25.825
X-24.806 Y25.793
X-24.859 Y25.759
X-24.912 Y25.725
X-24.964 Y25.689
X-25.015 Y25.653
X-25.065 Y25.615
X-25.115 Y25.576
X-25.164 Y25.536
X-25.212 Y25.496
X-25.259 Y25.454
X-25.305 Y25.411
X-25.35 Y25.368
X-25.395 Y25.323
X-25.438 Y25.278
X-25.481 Y25.231
X-25.522 Y25.184
X-25.563 Y25.136
X-25.602 Y25.087
X-25.641 Y25.037
X-25.678 Y24.987
X-25.715 Y24.936
X-25.75 Y24.884
X-25.785 Y24.831
X-25.818 Y24.778
X-25.85 Y24.724
X-25.881 Y24.669
X-25.911 Y24.614
X-25.94 Y24.558
X-25.968 Y24.501
X-25.994 Y24.444
X-26.02 Y24.387
X-26.044 Y24.329
X-26.067 Y24.27
X-26.089 Y24.211
X-26.109 Y24.152
X-26.129 Y24.092
X-26.147 Y24.032
X-26.164 Y23.971
X-26.179 Y23.91
X-26.194 Y23.849
X-26.207 Y23.787
X-26.219 Y23.726
X-26.23 Y23.664
X-26.239 Y23.602
X-26.247 Y23.539
X-26.254 Y23.477
X-26.26 Y23.414
X-26.264 Y23.351
X-26.267 Y23.288
X-26.269 Y23.226
Y23.163
Y23.1
X-26.267 Y23.037
X-26.263 Y22.974
X-26.259 Y22.911
X-26.253 Y22.849
X-26.246 Y22.786
X-26.238 Y22.724
X-26.228 Y22.662
X-26.217 Y22.6
X-26.205 Y22.538
X-26.191 Y22.477
X-26.177 Y22.415
X-26.161 Y22.355
X-26.144 Y22.294
X-26.126 Y22.234
X-26.106 Y22.174
X-26.085 Y22.115
X-26.063 Y22.056
X-26.04 Y21.997
X-26.016 Y21.939
X-25.991 Y21.882
X-25.964 Y21.825
X-25.936 Y21.768
X-25.907 Y21.712
X-25.877 Y21.657
X-25.846 Y21.602
X-25.814 Y21.548
X-25.781 Y21.495
X-25.746 Y21.442
X-25.711 Y21.39
X-25.675 Y21.339
X-25.637 Y21.289
X-25.599 Y21.239
X-25.559 Y21.19
X-25.519 Y21.142
X-25.477 Y21.094
X-25.435 Y21.048
X-25.391 Y21.002
X-25.347 Y20.958
X-25.302 Y20.914
X-25.256 Y20.871
X-25.209 Y20.829
X-25.162 Y20.788
X-25.113 Y20.748
X-25.064 Y20.709
X-25.014 Y20.671
X-24.963 Y20.634
X-24.911 Y20.598
X-24.859 Y20.563
X-24.806 Y20.529
X-24.752 Y20.496
X-24.698 Y20.464
X-24.643 Y20.434
X-24.588 Y20.404
X-24.531 Y20.376
X-24.475 Y20.348
X-24.418 Y20.322
X-24.36 Y20.297
X-24.302 Y20.273
X-24.243 Y20.251
X-24.184 Y20.229
X-24.124 Y20.209
X-24.064 Y20.19
X-24.004 Y20.172
X-23.943 Y20.156
X-23.882 Y20.14
X-23.821 Y20.126
X-23.759 Y20.113
X-23.698 Y20.102
X-23.636 Y20.091
X-23.573 Y20.082
X-23.511 Y20.074
X-23.448 Y20.068
X-23.386 Y20.062
X-23.323 Y20.058
X-23.26 Y20.055
X-23.197 Y20.054
X-23.134 Y20.053
X-23.071 Y20.054
X-23.009 Y20.056
X-22.946 Y20.06
X-22.883 Y20.065
X-22.82 Y20.071
X-22.758 Y20.078
X-22.696 Y20.086
X-22.633 Y20.096
X-22.572 Y20.107
X-22.51 Y20.119
X-22.448 Y20.133
X-22.387 Y20.147
X-22.326 Y20.163
X-22.266 Y20.18
X-22.206 Y20.198
X-22.146 Y20.218
X-22.086 Y20.238
X-22.027 Y20.26
X-21.969 Y20.283
X-21.911 Y20.307
X-21.853 Y20.332
X-21.796 Y20.359
X-21.739 Y20.386
X-21.683 Y20.414
X-21.628 Y20.444
X-21.573 Y20.475
X-21.518 Y20.506
X-21.464 Y20.539
X-21.411 Y20.573
X-21.359 Y20.607
X-21.307 Y20.643
X-21.256 Y20.68
X-21.205 Y20.717
X-21.156 Y20.756
X-21.107 Y20.795
X-21.058 Y20.835
X-21.011 Y20.877
X-20.964 Y20.919
X-20.918 Y20.962
X-20.873 Y21.005
X-20.829 Y21.05
X-20.785 Y21.096
X-20.743 Y21.142
X-20.701 Y21.189
X-20.66 Y21.237
X-20.62 Y21.285
X-20.581 Y21.334
X-20.543 Y21.384
X-20.505 Y21.435
X-20.469 Y21.486
X-20.434 Y21.538
X-20.399 Y21.591
X-20.366 Y21.644
X-20.333 Y21.698
X-20.302 Y21.752
X-20.271 Y21.807
X-20.242 Y21.863
X-20.213 Y21.919
X-20.186 Y21.976
X-20.159 Y22.033
X-20.134 Y22.09
X-20.11 Y22.148
X-20.087 Y22.207
X-20.065 Y22.266
X-20.044 Y22.325
X-20.024 Y22.385
X-20.005 Y22.445
X-19.987 Y22.505
X-19.971 Y22.566
X-19.955 Y22.627
X-19.941 Y22.688
X-19.928 Y22.75
X-19.916 Y22.811
X-19.905 Y22.873
X-19.895 Y22.935
X-19.887 Y22.998
X-19.879 Y23.06
X-19.873 Y23.123
X-19.868 Y23.186
X-19.864 Y23.248
X-19.862 Y23.311
X-19.86 Y23.374
Y23.437
X-19.861 Y23.5
X-19.863 Y23.563
X-19.866 Y23.626
X-19.871 Y23.688
X-19.876 Y23.751
X-19.883 Y23.813
X-19.891 Y23.876
X-19.9 Y23.938
X-19.911 Y24.
X-19.922 Y24.062
X-19.935 Y24.124
X-19.949 Y24.185
X-19.964 Y24.246
X-19.98 Y24.307
X-19.997 Y24.367
X-20.016 Y24.427
X-20.035 Y24.487
X-20.056 Y24.547
X-20.078 Y24.606
X-20.101 Y24.664
X-20.125 Y24.722
X-20.15 Y24.78
X-20.176 Y24.837
X-20.203 Y24.894
X-20.232 Y24.95
X-20.261 Y25.005
X-20.292 Y25.06
X-20.323 Y25.115
X-20.356 Y25.169
X-20.389 Y25.222
X-20.424 Y25.274
X-20.46 Y25.326
X-20.496 Y25.378
X-20.534 Y25.428
X-20.572 Y25.478
X-20.611 Y25.527
X-20.652 Y25.575
X-20.693 Y25.623
X-20.735 Y25.67
X-20.778 Y25.716
X-20.822 Y25.761
X-20.866 Y25.805
X-20.912 Y25.848
X-20.958 Y25.891
X-21.005 Y25.933
X-21.053 Y25.974
X-21.101 Y26.014
X-21.151 Y26.053
X-21.201 Y26.091
X-21.252 Y26.128
X-21.303 Y26.164
X-21.355 Y26.199
X-21.408 Y26.234
X-21.461 Y26.267
X-21.515 Y26.299
X-21.57 Y26.33
X-21.625 Y26.361
X-21.681 Y26.39
X-21.737 Y26.418
X-21.794 Y26.445
X-21.851 Y26.471
X-21.909 Y26.496
X-21.967 Y26.52
X-22.025 Y26.543
X-22.084 Y26.565
X-22.144 Y26.585
X-22.204 Y26.605
X-22.264 Y26.624
X-22.324 Y26.641
X-22.385 Y26.657
X-22.446 Y26.672
X-22.507 Y26.686
X-22.569 Y26.699
X-22.631 Y26.711
X-22.693 Y26.722
X-22.755 Y26.731
X-22.817 Y26.74
X-22.88 Y26.747
X-22.942 Y26.753
X-23.005 Y26.758
X-23.068 Y26.762
X-23.131 Y26.765
X-23.193 Y26.766
X-23.256 Y26.767
X-23.319 Y26.766
X-23.382 Y26.764
X-23.445 Y26.761
X-23.508 Y26.757
X-23.57 Y26.752
X-23.633 Y26.745
X-23.695 Y26.738
X-23.758 Y26.729
X-23.82 Y26.72
X-23.882 Y26.709
X-23.944 Y26.697
X-24.005 Y26.684
X-24.066 Y26.67
X-24.127 Y26.654
X-24.188 Y26.638
X-24.249 Y26.621
X-24.309 Y26.602
X-24.368 Y26.582
X-24.428 Y26.562
X-24.487 Y26.54
X-24.546 Y26.517
X-24.604 Y26.494
X-24.662 Y26.469
X-24.719 Y26.443
X-24.776 Y26.416
X-24.832 Y26.388
X-24.888 Y26.36
X-24.944 Y26.33
X-24.998 Y26.299
X-25.053 Y26.267
X-25.106 Y26.234
X-25.16 Y26.201
X-25.212 Y26.166
X-25.264 Y26.131
X-25.315 Y26.094
X-25.366 Y26.057
X-25.416 Y26.019
X-25.465 Y25.98
X-25.514 Y25.94
X-25.562 Y25.899
X-25.609 Y25.857
X-25.655 Y25.815
X-25.701 Y25.772
X-25.746 Y25.728
X-25.79 Y25.683
X-25.833 Y25.637
X-25.876 Y25.591
X-25.917 Y25.544
X-25.958 Y25.496
X-25.998 Y25.447
X-26.038 Y25.398
X-26.076 Y25.348
X-26.113 Y25.298
X-26.15 Y25.247
X-26.185 Y25.195
X-26.22 Y25.142
X-26.254 Y25.089
X-26.287 Y25.036
X-26.319 Y24.981
X-26.35 Y24.927
X-26.38 Y24.871
X-26.409 Y24.816
X-26.437 Y24.759
X-26.464 Y24.703
X-26.49 Y24.645
X-26.515 Y24.588
X-26.54 Y24.53
X-26.563 Y24.471
X-26.585 Y24.412
X-26.606 Y24.353
X-26.626 Y24.293
X-26.645 Y24.233
X-26.663 Y24.173
X-26.68 Y24.113
X-26.695 Y24.052
X-26.71 Y23.991
X-26.724 Y23.929
X-26.737 Y23.868
X-26.748 Y23.806
X-26.759 Y23.744
X-26.768 Y23.681
X-26.777 Y23.619
X-26.784 Y23.557
X-26.79 Y23.494
X-26.795 Y23.431
X-26.799 Y23.369
X-26.802 Y23.306
X-26.804 Y23.243
X-26.805 Y23.18
X-26.804 Y23.117
X-26.803 Y23.054
X-26.8 Y22.991
X-26.797 Y22.929
X-26.792 Y22.866
X-26.786 Y22.803
X-26.78 Y22.741
X-26.772 Y22.678
X-26.763 Y22.616
X-26.753 Y22.554
X-26.741 Y22.492
X-26.729 Y22.43
X-26.716 Y22.369
X-26.702 Y22.308
X-26.686 Y22.247
X-26.67 Y22.186
X-26.652 Y22.125
X-26.634 Y22.065
X-26.614 Y22.006
X-26.594 Y21.946
X-26.572 Y21.887
X-26.55 Y21.828
X-26.526 Y21.77
X-26.501 Y21.712
X-26.476 Y21.655
X-26.449 Y21.598
X-26.421 Y21.541
X-26.393 Y21.485
X-26.363 Y21.43
X-26.333 Y21.375
X-26.302 Y21.32
X-26.269 Y21.266
X-26.236 Y21.213
X-26.202 Y21.16
X-26.167 Y21.108
X-26.131 Y21.056
X-26.094 Y21.005
X-26.056 Y20.955
X-26.017 Y20.905
X-25.978 Y20.856
X-25.938 Y20.808
X-25.897 Y20.76
X-25.855 Y20.713
X-25.812 Y20.667
X-25.768 Y20.622
X-25.724 Y20.577
X-25.679 Y20.533
X-25.633 Y20.49
X-25.587 Y20.448
X-25.539 Y20.406
X-25.492 Y20.366
X-25.443 Y20.326
X-25.394 Y20.287
X-25.344 Y20.249
X-25.293 Y20.211
X-25.242 Y20.175
X-25.19 Y20.139
X-25.137 Y20.105
X-25.084 Y20.071
X-25.03 Y20.038
X-24.976 Y20.006
X-24.921 Y19.975
X-24.866 Y19.945
X-24.81 Y19.916
X-24.754 Y19.888
X-24.697 Y19.861
X-24.64 Y19.835
X-24.582 Y19.81
X-24.524 Y19.786
X-24.466 Y19.763
X-24.407 Y19.74
X-24.348 Y19.719
X-24.288 Y19.699
X-24.228 Y19.68
X-24.168 Y19.662
X-24.107 Y19.645
X-24.047 Y19.629
X-23.985 Y19.614
X-23.924 Y19.601
X-23.862 Y19.588
X-23.801 Y19.576
X-23.739 Y19.565
X-23.677 Y19.556
X-23.614 Y19.547
X-23.552 Y19.54
X-23.489 Y19.533
X-23.426 Y19.528
X-23.364 Y19.524
X-23.301 Y19.521
X-23.238 Y19.519
X-23.175 Y19.518
X-23.112
X-23.049 Y19.519
X-22.986 Y19.521
X-22.924 Y19.524
X-22.861 Y19.529
X-22.798 Y19.534
X-22.736 Y19.541
X-22.673 Y19.548
X-22.611 Y19.557
X-22.549 Y19.567
X-22.487 Y19.578
X-22.425 Y19.589
X-22.364 Y19.602
X-22.302 Y19.616
X-22.241 Y19.631
X-22.18 Y19.647
X-22.12 Y19.664
X-22.059 Y19.682
X-21.999 Y19.701
X-21.94 Y19.721
X-21.881 Y19.742
X-21.822 Y19.764
X-21.763 Y19.787
X-21.705 Y19.811
X-21.647 Y19.836
X-21.59 Y19.862
X-21.533 Y19.889
X-21.476 Y19.917
X-21.421 Y19.945
X-21.365 Y19.975
X-21.31 Y20.005
X-21.256 Y20.037
X-21.202 Y20.069
X-21.148 Y20.102
X-21.095 Y20.136
X-21.043 Y20.171
X-20.991 Y20.207
X-20.94 Y20.243
X-20.889 Y20.281
X-20.839 Y20.319
X-20.79 Y20.358
X-20.741 Y20.398
X-20.693 Y20.438
X-20.646 Y20.48
X-20.599 Y20.522
X-20.553 Y20.565
X-20.508 Y20.608
X-20.463 Y20.653
X-20.419 Y20.698
X-20.376 Y20.743
X-20.333 Y20.79
X-20.292 Y20.837
X-20.251 Y20.885
X-20.211 Y20.933
X-20.171 Y20.982
X-20.133 Y21.032
X-20.095 Y21.082
X-20.058 Y21.133
X-20.021 Y21.184
X-19.986 Y21.236
X-19.951 Y21.289
X-19.918 Y21.342
X-19.885 Y21.395
X-19.853 Y21.449
X-19.822 Y21.504
X-19.791 Y21.559
X-19.762 Y21.615
X-19.733 Y21.671
X-19.706 Y21.727
X-19.679 Y21.784
X-19.653 Y21.842
X-19.628 Y21.899
X-19.604 Y21.958
X-19.581 Y22.016
X-19.559 Y22.075
X-19.538 Y22.134
X-19.518 Y22.194
X-19.499 Y22.254
X-19.48 Y22.314
X-19.463 Y22.374
X-19.447 Y22.435
X-19.431 Y22.496
X-19.417 Y22.557
X-19.404 Y22.619
X-19.391 Y22.681
X-19.38 Y22.742
X-19.369 Y22.804
X-19.36 Y22.867
X-19.352 Y22.929
X-19.344 Y22.991
X-19.338 Y23.054
X-19.332 Y23.117
X-19.328 Y23.179
X-19.325 Y23.242
X-19.322 Y23.305
X-19.321 Y23.368
Y23.431
Y23.494
X-19.323 Y23.557
X-19.326 Y23.619
X-19.33 Y23.682
X-19.334 Y23.745
X-19.34 Y23.808
X-19.347 Y23.87
X-19.355 Y23.933
X-19.364 Y23.995
X-19.373 Y24.057
X-19.384 Y24.119
X-19.396 Y24.181
X-19.409 Y24.242
X-19.423 Y24.304
X-19.438 Y24.365
X-19.454 Y24.426
X-19.47 Y24.486
X-19.488 Y24.546
X-19.507 Y24.607
X-19.527 Y24.666
X-19.548 Y24.726
X-19.569 Y24.785
X-19.592 Y24.843
X-19.616 Y24.902
X-19.64 Y24.96
X-19.666 Y25.017
X-19.692 Y25.074
X-19.719 Y25.131
X-19.748 Y25.187
X-19.777 Y25.243
X-19.807 Y25.298
X-19.838 Y25.353
X-19.87 Y25.407
X-19.903 Y25.461
X-19.936 Y25.514
X-19.971 Y25.566
X-20.006 Y25.618
X-20.042 Y25.67
X-20.079 Y25.721
X-20.117 Y25.771
X-20.156 Y25.821
X-20.195 Y25.87
X-20.235 Y25.918
X-20.276 Y25.966
X-20.318 Y26.013
X-20.361 Y26.059
X-20.404 Y26.105
X-20.448 Y26.15
X-20.493 Y26.194
X-20.538 Y26.237
X-20.584 Y26.28
X-20.631 Y26.322
X-20.679 Y26.363
X-20.727 Y26.404
X-20.776 Y26.443
X-20.825 Y26.482
X-20.875 Y26.52
X-20.926 Y26.558
X-20.977 Y26.594
X-21.029 Y26.63
X-21.081 Y26.665
X-21.134 Y26.699
X-21.188 Y26.732
X-21.242 Y26.764
X-21.296 Y26.795
X-21.351 Y26.826
X-21.407 Y26.856
X-21.463 Y26.884
X-21.519 Y26.912
X-21.576 Y26.939
X-21.633 Y26.965
X-21.691 Y26.99
X-21.749 Y27.014
X-21.807 Y27.038
X-21.866 Y27.06
X-21.925 Y27.081
X-21.985 Y27.102
X-22.044 Y27.121
X-22.105 Y27.14
X-22.165 Y27.157
X-22.226 Y27.174
X-22.287 Y27.19
X-22.348 Y27.204
X-22.409 Y27.218
X-22.471 Y27.231
X-22.532 Y27.243
X-22.594 Y27.253
X-22.657 Y27.263
X-22.719 Y27.272
X-22.781 Y27.28
X-22.844 Y27.287
X-22.906 Y27.293
X-22.969 Y27.298
X-23.032 Y27.302
X-23.095 Y27.304
X-23.158 Y27.306
X-23.22 Y27.307
X-23.283
X-23.346 Y27.306
X-23.409 Y27.304
X-23.472 Y27.301
X-23.535 Y27.297
X-23.597 Y27.293
X-23.66 Y27.287
X-23.723 Y27.28
X-23.785 Y27.272
X-23.847 Y27.263
X-23.909 Y27.253
X-23.971 Y27.243
X-24.033 Y27.231
X-24.095 Y27.218
X-24.156 Y27.205
X-24.217 Y27.19
X-24.278 Y27.174
X-24.339 Y27.158
X-24.4 Y27.141
X-24.46 Y27.122
X-24.52 Y27.103
X-24.579 Y27.083
X-24.638 Y27.062
X-24.697 Y27.04
X-24.756 Y27.017
X-24.814 Y26.993
X-24.872 Y26.968
X-24.929 Y26.943
X-24.986 Y26.916
X-25.043 Y26.889
X-25.099 Y26.861
X-25.155 Y26.831
X-25.21 Y26.801
X-25.265 Y26.771
X-25.32 Y26.739
X-25.373 Y26.707
X-25.427 Y26.673
X-25.48 Y26.639
X-25.532 Y26.604
X-25.584 Y26.569
X-25.635 Y26.532
X-25.686 Y26.495
X-25.736 Y26.457
X-25.785 Y26.418
X-25.834 Y26.378
X-25.882 Y26.338
X-25.93 Y26.297
X-25.977 Y26.255
X-26.024 Y26.213
X-26.069 Y26.17
X-26.114 Y26.126
X-26.159 Y26.081
X-26.203 Y26.036
X-26.246 Y25.99
X-26.288 Y25.944
X-26.33 Y25.897
X-26.37 Y25.849
X-26.411 Y25.8
X-26.45 Y25.751
X-26.489 Y25.702
X-26.527 Y25.652
X-26.564 Y25.601
X-26.6 Y25.549
X-26.636 Y25.498
X-26.671 Y25.445
X-26.705 Y25.392
X-26.738 Y25.339
X-26.77 Y25.285
X-26.802 Y25.231
X-26.832 Y25.176
X-26.862 Y25.12
X-26.891 Y25.065
X-26.92 Y25.008
X-26.947 Y24.952
X-26.973 Y24.895
X-26.999 Y24.837
X-27.024 Y24.779
X-27.048 Y24.721
X-27.071 Y24.663
X-27.093 Y24.604
X-27.114 Y24.545
X-27.134 Y24.485
X-27.154 Y24.425
X-27.172 Y24.365
X-27.19 Y24.305
X-27.207 Y24.244
X-27.222 Y24.183
X-27.237 Y24.122
X-27.251 Y24.061
X-27.264 Y23.999
X-27.276 Y23.937
X-27.287 Y23.876
X-27.298 Y23.813
X-27.307 Y23.751
X-27.315 Y23.689
X-27.323 Y23.626
X-27.329 Y23.564
X-27.334 Y23.501
X-27.339 Y23.438
X-27.343 Y23.376
X-27.345 Y23.313
X-27.347 Y23.25
X-27.348 Y23.187
Y23.124
X-27.347 Y23.061
X-27.344 Y22.998
X-27.341 Y22.936
X-27.338 Y22.873
X-27.333 Y22.81
X-27.327 Y22.747
X-27.32 Y22.685
X-27.312 Y22.622
X-27.304 Y22.56
X-27.294 Y22.498
X-27.284 Y22.436
X-27.272 Y22.374
X-27.26 Y22.312
X-27.246 Y22.251
X-27.232 Y22.19
X-27.217 Y22.129
X-27.201 Y22.068
X-27.184 Y22.007
X-27.166 Y21.947
X-27.147 Y21.887
X-27.128 Y21.827
X-27.107 Y21.768
X-27.086 Y21.709
X-27.063 Y21.65
X-27.04 Y21.591
X-27.016 Y21.533
X-26.991 Y21.476
X-26.965 Y21.418
X-26.938 Y21.361
X-26.911 Y21.305
X-26.882 Y21.249
X-26.853 Y21.193
X-26.823 Y21.138
X-26.792 Y21.083
X-26.76 Y21.029
X-26.728 Y20.975
X-26.695 Y20.921
X-26.66 Y20.869
X-26.626 Y20.816
X-26.59 Y20.764
X-26.553 Y20.713
X-26.516 Y20.663
X-26.478 Y20.612
X-26.439 Y20.563
X-26.4 Y20.514
X-26.36 Y20.465
X-26.319 Y20.418
X-26.277 Y20.371
X-26.235 Y20.324
X-26.192 Y20.278
X-26.148 Y20.233
X-26.104 Y20.188
X-26.059 Y20.144
X-26.013 Y20.101
X-25.967 Y20.059
X-25.92 Y20.017
X-25.872 Y19.976
X-25.824 Y19.935
X-25.775 Y19.896
X-25.726 Y19.857
X-25.676 Y19.818
X-25.625 Y19.781
X-25.574 Y19.744
X-25.523 Y19.708
X-25.47 Y19.673
X-25.418 Y19.639
X-25.364 Y19.605
X-25.311 Y19.573
X-25.257 Y19.541
X-25.202 Y19.509
X-25.147 Y19.479
X-25.091 Y19.45
X-25.035 Y19.421
X-24.979 Y19.393
X-24.922 Y19.366
X-24.865 Y19.34
X-24.807 Y19.315
X-24.749 Y19.291
X-24.691 Y19.267
X-24.632 Y19.244
X-24.573 Y19.223
X-24.514 Y19.202
X-24.454 Y19.182
X-24.394 Y19.163
X-24.334 Y19.144
X-24.274 Y19.127
X-24.213 Y19.111
X-24.152 Y19.095
X-24.091 Y19.081
X-24.029 Y19.067
X-23.968 Y19.054
X-23.906 Y19.043
X-23.844 Y19.032
X-23.782 Y19.022
X-23.72 Y19.013
X-23.657 Y19.005
X-23.595 Y18.998
X-23.532 Y18.991
X-23.469 Y18.986
X-23.407 Y18.982
X-23.344 Y18.978
X-23.281 Y18.976
X-23.218 Y18.974
X-23.155
X-23.092
X-23.029 Y18.976
X-22.967 Y18.978
X-22.904 Y18.981
X-22.841 Y18.985
X-22.778 Y18.99
X-22.716 Y18.996
X-22.653 Y19.003
X-22.591 Y19.011
X-22.528 Y19.019
X-22.466 Y19.029
X-22.404 Y19.04
X-22.342 Y19.051
X-22.281 Y19.064
X-22.219 Y19.077
X-22.158 Y19.091
X-22.097 Y19.106
X-22.036 Y19.122
X-21.976 Y19.139
X-21.915 Y19.157
X-21.855 Y19.176
X-21.795 Y19.195
X-21.736 Y19.216
X-21.677 Y19.237
X-21.618 Y19.259
X-21.559 Y19.282
X-21.501 Y19.306
X-21.443 Y19.331
X-21.386 Y19.356
X-21.329 Y19.383
X-21.272 Y19.41
X-21.216 Y19.438
X-21.16 Y19.466
X-21.104 Y19.496
X-21.049 Y19.526
X-20.994 Y19.558
X-20.94 Y19.59
X-20.887 Y19.622
X-20.833 Y19.656
X-20.781 Y19.69
X-20.728 Y19.725
X-20.677 Y19.761
X-20.625 Y19.797
X-20.575 Y19.835
X-20.524 Y19.872
X-20.475 Y19.911
X-20.426 Y19.95
X-20.377 Y19.99
X-20.329 Y20.031
X-20.282 Y20.073
X-20.235 Y20.115
X-20.189 Y20.157
X-20.143 Y20.201
X-20.098 Y20.245
X-20.054 Y20.289
X-20.01 Y20.334
X-19.967 Y20.38
X-19.925 Y20.427
X-19.883 Y20.474
X-19.842 Y20.521
X-19.802 Y20.57
X-19.762 Y20.618
X-19.723 Y20.668
X-19.684 Y20.717
X-19.647 Y20.768
X-19.61 Y20.819
X-19.574 Y20.87
X-19.538 Y20.922
X-19.503 Y20.975
X-19.469 Y21.027
X-19.436 Y21.081
X-19.403 Y21.135
X-19.372 Y21.189
X-19.341 Y21.244
X-19.31 Y21.299
X-19.281 Y21.354
X-19.252 Y21.41
X-19.224 Y21.467
X-19.197 Y21.523
X-19.171 Y21.581
X-19.145 Y21.638
X-19.121 Y21.696
X-19.097 Y21.754
X-19.074 Y21.813
X-19.051 Y21.871
X-19.03 Y21.931
X-19.009 Y21.99
X-18.99 Y22.05
X-18.971 Y22.11
X-18.953 Y22.17
X-18.936 Y22.23
X-18.919 Y22.291
X-18.904 Y22.352
X-18.889 Y22.413
X-18.875 Y22.475
X-18.862 Y22.536
X-18.85 Y22.598
X-18.839 Y22.66
X-18.829 Y22.722
X-18.819 Y22.784
X-18.811 Y22.847
X-18.803 Y22.909
X-18.797 Y22.971
X-18.791 Y23.034
X-18.786 Y23.097
X-18.782 Y23.16
X-18.778 Y23.222
X-18.776 Y23.285
X-18.775 Y23.348
X-18.774 Y23.411
Y23.474
X-18.776 Y23.537
X-18.778 Y23.6
X-18.781 Y23.663
X-18.785 Y23.725
X-18.79 Y23.788
X-18.795 Y23.851
X-18.802 Y23.913
X-18.809 Y23.976
X-18.818 Y24.038
X-18.827 Y24.1
X-18.837 Y24.162
X-18.848 Y24.224
X-18.86 Y24.286
X-18.873 Y24.348
X-18.887 Y24.409
X-18.901 Y24.47
X-18.917 Y24.531
X-18.933 Y24.592
X-18.95 Y24.652
X-18.968 Y24.713
X-18.987 Y24.773
X-19.006 Y24.832
X-19.027 Y24.892
X-19.048 Y24.951
X-19.071 Y25.01
X-19.094 Y25.068
X-19.118 Y25.127
X-19.142 Y25.184
X-19.168 Y25.242
X-19.194 Y25.299
X-19.222 Y25.356
X-19.25 Y25.412
X-19.278 Y25.468
X-19.308 Y25.523
X-19.338 Y25.579
X-19.369 Y25.633
X-19.401 Y25.687
X-19.434 Y25.741
X-19.468 Y25.794
X-19.502 Y25.847
X-19.537 Y25.899
X-19.572 Y25.951
X-19.609 Y26.002
X-19.646 Y26.053
X-19.684 Y26.103
X-19.722 Y26.153
X-19.762 Y26.202
X-19.802 Y26.251
X-19.842 Y26.299
X-19.884 Y26.346
X-19.926 Y26.393
X-19.968 Y26.439
X-20.012 Y26.485
X-20.056 Y26.53
X-20.1 Y26.574
X-20.146 Y26.618
X-20.191 Y26.661
X-20.238 Y26.703
X-20.285 Y26.745
X-20.332 Y26.786
X-20.381 Y26.827
X-20.429 Y26.866
X-20.479 Y26.905
X-20.529 Y26.944
X-20.579 Y26.981
X-20.63 Y27.018
X-20.681 Y27.054
X-20.733 Y27.09
X-20.786 Y27.125
X-20.839 Y27.159
X-20.892 Y27.192
X-20.946 Y27.224
X-21. Y27.256
X-21.055 Y27.287
X-21.11 Y27.317
X-21.166 Y27.347
X-21.222 Y27.375
X-21.278 Y27.403
X-21.335 Y27.43
X-21.392 Y27.456
X-21.45 Y27.482
X-21.508 Y27.506
X-21.566 Y27.53
X-21.624 Y27.553
X-21.683 Y27.575
X-21.742 Y27.597
X-21.802 Y27.617
X-21.862 Y27.637
X-21.922 Y27.656
X-21.982 Y27.674
X-22.042 Y27.691
X-22.103 Y27.707
X-22.164 Y27.723
X-22.225 Y27.738
X-22.287 Y27.751
X-22.348 Y27.764
X-22.41 Y27.776
X-22.472 Y27.788
X-22.534 Y27.798
X-22.596 Y27.808
X-22.658 Y27.816
X-22.721 Y27.824
X-22.783 Y27.831
X-22.846 Y27.837
X-22.909 Y27.842
X-22.971 Y27.846
X-23.034 Y27.85
X-23.097 Y27.852
X-23.16 Y27.854
X-23.223 Y27.855
X-23.286
X-23.348 Y27.854
X-23.411 Y27.852
X-23.474 Y27.85
X-23.537 Y27.846
X-23.6 Y27.842
X-23.662 Y27.837
X-23.725 Y27.831
X-23.788 Y27.824
X-23.85 Y27.816
X-23.912 Y27.807
X-23.974 Y27.798
X-24.037 Y27.788
X-24.098 Y27.776
X-24.16 Y27.764
X-24.222 Y27.751
X-24.283 Y27.738
X-24.344 Y27.723
X-24.405 Y27.708
X-24.466 Y27.692
X-24.527 Y27.675
X-24.587 Y27.657
X-24.647 Y27.638
X-24.707 Y27.619
X-24.766 Y27.598
X-24.826 Y27.577
X-24.885 Y27.555
X-24.943 Y27.532
X-25.001 Y27.509
X-25.059 Y27.485
X-25.117 Y27.459
X-25.174 Y27.434
X-25.231 Y27.407
X-25.288 Y27.379
X-25.344 Y27.351
X-25.4 Y27.322
X-25.456 Y27.293
X-25.511 Y27.262
X-25.565 Y27.231
X-25.619 Y27.199
X-25.673 Y27.166
X-25.726 Y27.133
X-25.779 Y27.099
X-25.832 Y27.064
X-25.884 Y27.028
X-25.935 Y26.992
X-25.986 Y26.955
X-26.036 Y26.918
X-26.086 Y26.879
X-26.136 Y26.84
X-26.185 Y26.801
X-26.233 Y26.761
X-26.281 Y26.72
X-26.328 Y26.678
X-26.375 Y26.636
X-26.421 Y26.593
X-26.466 Y26.55
X-26.511 Y26.506
X-26.555 Y26.461
X-26.599 Y26.416
X-26.642 Y26.37
X-26.685 Y26.324
X-26.726 Y26.277
X-26.768 Y26.229
X-26.808 Y26.181
X-26.848 Y26.133
X-26.887 Y26.083
X-26.926 Y26.034
X-26.964 Y25.984
X-27.001 Y25.933
X-27.038 Y25.882
X-27.074 Y25.83
X-27.109 Y25.778
X-27.143 Y25.725
X-27.177 Y25.672
X-27.21 Y25.619
X-27.243 Y25.565
X-27.274 Y25.51
X-27.305 Y25.456
X-27.335 Y25.4
X-27.365 Y25.345
X-27.393 Y25.289
X-27.421 Y25.233
X-27.449 Y25.176
X-27.475 Y25.119
X-27.501 Y25.061
X-27.525 Y25.004
X-27.55 Y24.945
X-27.573 Y24.887
X-27.595 Y24.828
X-27.617 Y24.769
X-27.638 Y24.71
X-27.658 Y24.65
X-27.678 Y24.591
X-27.696 Y24.53
X-27.714 Y24.47
X-27.731 Y24.41
X-27.747 Y24.349
X-27.762 Y24.288
X-27.777 Y24.227
X-27.791 Y24.165
X-27.804 Y24.104
X-27.816 Y24.042
X-27.827 Y23.98
X-27.837 Y23.918
X-27.847 Y23.856
X-27.856 Y23.793
X-27.864 Y23.731
X-27.871 Y23.669
X-27.877 Y23.606
X-27.882 Y23.543
X-27.887 Y23.481
X-27.891 Y23.418
X-27.894 Y23.355
X-27.896 Y23.292
X-27.897 Y23.229
Y23.166
Y23.103
X-27.896 Y23.041
X-27.894 Y22.978
X-27.891 Y22.915
X-27.887 Y22.852
X-27.882 Y22.789
X-27.877 Y22.727
X-27.871 Y22.664
X-27.864 Y22.602
X-27.856 Y22.539
X-27.847 Y22.477
X-27.837 Y22.415
X-27.827 Y22.353
X-27.816 Y22.291
X-27.804 Y22.229
X-27.791 Y22.167
X-27.777 Y22.106
X-27.763 Y22.045
X-27.747 Y21.984
X-27.731 Y21.923
X-27.714 Y21.862
X-27.697 Y21.802
X-27.678 Y21.742
X-27.659 Y21.682
X-27.639 Y21.623
X-27.618 Y21.563
X-27.596 Y21.504
X-27.573 Y21.445
X-27.55 Y21.387
X-27.526 Y21.329
X-27.501 Y21.271
X-27.476 Y21.214
X-27.45 Y21.156
X-27.422 Y21.1
X-27.395 Y21.043
X-27.366 Y20.987
X-27.337 Y20.932
X-27.307 Y20.876
X-27.276 Y20.821
X-27.244 Y20.767
X-27.212 Y20.713
X-27.179 Y20.659
X-27.146 Y20.606
X-27.111 Y20.554
X-27.076 Y20.501
X-27.041 Y20.45
X-27.004 Y20.398
X-26.967 Y20.347
X-26.929 Y20.297
X-26.891 Y20.247
X-26.852 Y20.198
X-26.812 Y20.149
X-26.772 Y20.101
X-26.731 Y20.053
X-26.689 Y20.006
X-26.647 Y19.96
X-26.604 Y19.914
X-26.56 Y19.868
X-26.516 Y19.823
X-26.472 Y19.779
X-26.426 Y19.735
X-26.381 Y19.692
X-26.334 Y19.65
X-26.287 Y19.608
X-26.24 Y19.567
X-26.192 Y19.526
X-26.143 Y19.486
X-26.094 Y19.447
X-26.044 Y19.408
X-25.994 Y19.37
X-25.944 Y19.333
X-25.893 Y19.296
X-25.841 Y19.26
X-25.789 Y19.225
X-25.736 Y19.19
X-25.683 Y19.156
X-25.63 Y19.123
X-25.576 Y19.091
X-25.522 Y19.059
X-25.467 Y19.028
X-25.412 Y18.998
X-25.357 Y18.968
X-25.301 Y18.939
X-25.244 Y18.911
X-25.188 Y18.884
X-25.131 Y18.857
X-25.073 Y18.831
X-25.016 Y18.806
X-24.958 Y18.782
X-24.899 Y18.758
X-24.841 Y18.735
X-24.782 Y18.713
X-24.723 Y18.692
X-24.663 Y18.672
X-24.603 Y18.652
X-24.543 Y18.633
X-24.483 Y18.615
X-24.423 Y18.598
X-24.362 Y18.581
X-24.301 Y18.566
X-24.24 Y18.551
X-24.179 Y18.537
X-24.117 Y18.524
X-24.055 Y18.511
X-23.994 Y18.5
X-23.932 Y18.489
X-23.869 Y18.479
X-23.807 Y18.47
X-23.745 Y18.462
X-23.682 Y18.454
X-23.62 Y18.447
X-23.557 Y18.442
X-23.495 Y18.437
X-23.432 Y18.432
X-23.369 Y18.429
X-23.306 Y18.427
X-23.243 Y18.425
X-23.18 Y18.424
X-23.117
X-23.055 Y18.425
X-22.992 Y18.426
X-22.929 Y18.429
X-22.866 Y18.432
X-22.803 Y18.436
X-22.741 Y18.441
X-22.678 Y18.447
X-22.615 Y18.454
X-22.553 Y18.461
X-22.491 Y18.469
X-22.428 Y18.478
X-22.366 Y18.488
X-22.304 Y18.499
X-22.242 Y18.51
X-22.181 Y18.522
X-22.119 Y18.536
X-22.058 Y18.549
X-21.997 Y18.564
X-21.936 Y18.58
X-21.875 Y18.596
X-21.814 Y18.613
X-21.754 Y18.631
X-21.694 Y18.649
X-21.634 Y18.669
X-21.574 Y18.689
X-21.515 Y18.71
X-21.456 Y18.731
X-21.397 Y18.754
X-21.339 Y18.777
X-21.281 Y18.801
X-21.223 Y18.826
X-21.165 Y18.851
X-21.108 Y18.877
X-21.051 Y18.904
X-20.995 Y18.932
X-20.939 Y18.96
X-20.883 Y18.989
X-20.827 Y19.019
X-20.772 Y19.05
X-20.718 Y19.081
X-20.664 Y19.113
X-20.61 Y19.145
X-20.556 Y19.178
X-20.503 Y19.212
X-20.451 Y19.247
X-20.399 Y19.282
X-20.347 Y19.318
X-20.296 Y19.355
X-20.245 Y19.392
X-20.195 Y19.43
X-20.145 Y19.468
X-20.096 Y19.507
X-20.047 Y19.547
X-19.999 Y19.587
X-19.951 Y19.628
X-19.904 Y19.67
X-19.857 Y19.712
X-19.811 Y19.755
X-19.765 Y19.798
X-19.72 Y19.842
X-19.676 Y19.886
X-19.632 Y19.931
X-19.588 Y19.977
X-19.546 Y20.023
X-19.503 Y20.069
X-19.462 Y20.117
X-19.421 Y20.164
X-19.38 Y20.212
X-19.34 Y20.261
X-19.301 Y20.31
X-19.262 Y20.36
X-19.224 Y20.41
X-19.187 Y20.461
X-19.15 Y20.512
X-19.114 Y20.563
X-19.079 Y20.615
X-19.044 Y20.667
X-19.01 Y20.72
X-18.976 Y20.774
X-18.943 Y20.827
X-18.911 Y20.881
X-18.88 Y20.936
X-18.849 Y20.991
X-18.819 Y21.046
X-18.79 Y21.101
X-18.761 Y21.157
X-18.733 Y21.214
X-18.706 Y21.27
X-18.679 Y21.327
X-18.653 Y21.385
X-18.628 Y21.442
X-18.604 Y21.5
X-18.58 Y21.559
X-18.557 Y21.617
X-18.535 Y21.676
X-18.513 Y21.735
X-18.492 Y21.794
X-18.472 Y21.854
X-18.453 Y21.914
X-18.435 Y21.974
X-18.417 Y22.034
X-18.4 Y22.095
X-18.384 Y22.156
X-18.368 Y22.217
X-18.353 Y22.278
X-18.339 Y22.339
X-18.326 Y22.401
X-18.314 Y22.462
X-18.302 Y22.524
X-18.291 Y22.586
X-18.281 Y22.648
X-18.272 Y22.71
X-18.264 Y22.773
X-18.256 Y22.835
X-18.249 Y22.898
X-18.243 Y22.96
X-18.237 Y23.023
X-18.233 Y23.086
X-18.229 Y23.149
X-18.226 Y23.211
X-18.224 Y23.274
X-18.223 Y23.337
X-18.222 Y23.4
Y23.463
X-18.223 Y23.526
X-18.225 Y23.589
X-18.227 Y23.651
X-18.231 Y23.714
X-18.235 Y23.777
X-18.24 Y23.84
X-18.246 Y23.902
X-18.252 Y23.965
X-18.26 Y24.027
X-18.268 Y24.09
X-18.277 Y24.152
X-18.286 Y24.214
X-18.297 Y24.276
X-18.308 Y24.338
X-18.32 Y24.4
X-18.333 Y24.461
X-18.346 Y24.523
X-18.361 Y24.584
X-18.376 Y24.645
X-18.392 Y24.706
X-18.409 Y24.767
X-18.426 Y24.827
X-18.444 Y24.887
X-18.463 Y24.947
X-18.483 Y25.007
X-18.503 Y25.066
X-18.525 Y25.126
X-18.547 Y25.185
X-18.569 Y25.243
X-18.593 Y25.302
X-18.617 Y25.36
X-18.642 Y25.417
X-18.668 Y25.475
X-18.694 Y25.532
X-18.721 Y25.589
X-18.749 Y25.645
X-18.777 Y25.701
X-18.807 Y25.757
X-18.837 Y25.812
X-18.867 Y25.867
X-18.899 Y25.922
X-18.931 Y25.976
X-18.963 Y26.029
X-18.997 Y26.083
X-19.031 Y26.136
X-19.066 Y26.188
X-19.101 Y26.24
X-19.137 Y26.292
X-19.174 Y26.343
X-19.211 Y26.393
X-19.249 Y26.444
X-19.288 Y26.493
X-19.327 Y26.542
X-19.367 Y26.591
X-19.407 Y26.639
X-19.448 Y26.687
X-19.49 Y26.734
X-19.532 Y26.781
X-19.575 Y26.827
X-19.618 Y26.872
X-19.662 Y26.917
X-19.707 Y26.962
X-19.752 Y27.005
X-19.798 Y27.049
X-19.844 Y27.091
X-19.89 Y27.133
X-19.938 Y27.175
X-19.986 Y27.216
X-20.034 Y27.256
X-20.083 Y27.296
X-20.132 Y27.335
X-20.182 Y27.374
X-20.232 Y27.411
X-20.283 Y27.449
X-20.334 Y27.485
X-20.385 Y27.521
X-20.437 Y27.556
X-20.49 Y27.591
X-20.543 Y27.625
X-20.596 Y27.658
X-20.65 Y27.691
X-20.704 Y27.723
X-20.759 Y27.754
X-20.814 Y27.785
X-20.869 Y27.815
X-20.925 Y27.844
X-20.981 Y27.872
X-21.037 Y27.9
X-21.094 Y27.927
X-21.151 Y27.954
X-21.208 Y27.979
X-21.266 Y28.004
X-21.324 Y28.029
X-21.383 Y28.052
X-21.441 Y28.075
X-21.5 Y28.097
X-21.559 Y28.118
X-21.619 Y28.139
X-21.678 Y28.159
X-21.738 Y28.178
X-21.799 Y28.196
X-21.859 Y28.214
X-21.92 Y28.231
X-21.98 Y28.247
X-22.041 Y28.262
X-22.103 Y28.277
X-22.164 Y28.29
X-22.225 Y28.304
X-22.287 Y28.316
X-22.349 Y28.327
X-22.411 Y28.338
X-22.473 Y28.348
X-22.535 Y28.357
X-22.598 Y28.366
X-22.66 Y28.374
X-22.722 Y28.381
X-22.785 Y28.387
X-22.848 Y28.392
X-22.91 Y28.397
X-22.973 Y28.401
X-23.036 Y28.404
X-23.099 Y28.406
X-23.162 Y28.407
X-23.225 Y28.408
X-23.288
X-23.351 Y28.407
X-23.413 Y28.406
X-23.476 Y28.404
X-23.539 Y28.4
X-23.602 Y28.397
X-23.665 Y28.392
X-23.727 Y28.386
X-23.79 Y28.38
X-23.852 Y28.373
X-23.915 Y28.366
X-23.977 Y28.357
X-24.039 Y28.348
X-24.101 Y28.338
X-24.163 Y28.327
X-24.225 Y28.316
X-24.287 Y28.303
X-24.348 Y28.29
X-24.41 Y28.277
X-24.471 Y28.262
X-24.532 Y28.247
X-24.593 Y28.231
X-24.654 Y28.214
X-24.714 Y28.197
X-24.774 Y28.178
X-24.834 Y28.159
X-24.894 Y28.14
X-24.953 Y28.119
X-25.013 Y28.098
X-25.072 Y28.076
X-25.13 Y28.054
X-25.189 Y28.031
X-25.247 Y28.007
X-25.305 Y27.982
X-25.362 Y27.956
X-25.42 Y27.93
X-25.476 Y27.904
X-25.533 Y27.876
X-25.589 Y27.848
X-25.645 Y27.819
X-25.701 Y27.79
X-25.756 Y27.76
X-25.811 Y27.729
X-25.865 Y27.697
X-25.919 Y27.665
X-25.973 Y27.632
X-26.026 Y27.599
X-26.079 Y27.565
X-26.132 Y27.53
X-26.184 Y27.495
X-26.235 Y27.459
X-26.286 Y27.422
X-26.337 Y27.385
X-26.387 Y27.347
X-26.437 Y27.308
X-26.486 Y27.269
X-26.535 Y27.23
X-26.584 Y27.19
X-26.631 Y27.149
X-26.679 Y27.107
X-26.726 Y27.066
X-26.772 Y27.023
X-26.818 Y26.98
X-26.863 Y26.936
X-26.908 Y26.892
X-26.952 Y26.848
X-26.996 Y26.802
X-27.039 Y26.757
X-27.082 Y26.71
X-27.124 Y26.664
X-27.166 Y26.616
X-27.207 Y26.569
X-27.247 Y26.52
X-27.287 Y26.472
X-27.326 Y26.423
X-27.364 Y26.373
X-27.402 Y26.323
X-27.44 Y26.272
X-27.477 Y26.221
X-27.513 Y26.17
X-27.548 Y26.118
X-27.583 Y26.066
X-27.618 Y26.013
X-27.651 Y25.96
X-27.684 Y25.906
X-27.717 Y25.852
X-27.749 Y25.798
X-27.78 Y25.743
X-27.81 Y25.688
X-27.84 Y25.633
X-27.869 Y25.577
X-27.897 Y25.521
X-27.925 Y25.464
X-27.952 Y25.408
X-27.979 Y25.351
X-28.004 Y25.293
X-28.029 Y25.236
X-28.054 Y25.178
X-28.077 Y25.119
X-28.1 Y25.061
X-28.122 Y25.002
X-28.144 Y24.943
X-28.165 Y24.883
X-28.185 Y24.824
X-28.204 Y24.764
X-28.223 Y24.704
X-28.241 Y24.644
X-28.258 Y24.583
X-28.275 Y24.522
X-28.291 Y24.462
X-28.306 Y24.4
X-28.32 Y24.339
X-28.334 Y24.278
X-28.347 Y24.216
X-28.359 Y24.155
X-28.37 Y24.093
X-28.381 Y24.031
X-28.391 Y23.969
X-28.4 Y23.906
X-28.408 Y23.844
X-28.416 Y23.782
X-28.423 Y23.719
X-28.429 Y23.657
X-28.435 Y23.594
X-28.439 Y23.531
X-28.443 Y23.468
X-28.447 Y23.406
X-28.449 Y23.343
X-28.451 Y23.28
X-28.452 Y23.217
Y23.154
Y23.091
X-28.45 Y23.028
X-28.448 Y22.965
X-28.446 Y22.903
X-28.442 Y22.84
X-28.438 Y22.777
X-28.433 Y22.714
X-28.427 Y22.652
X-28.42 Y22.589
X-28.413 Y22.527
X-28.405 Y22.464
X-28.397 Y22.402
X-28.387 Y22.34
X-28.377 Y22.278
X-28.366 Y22.216
X-28.354 Y22.154
X-28.342 Y22.092
X-28.329 Y22.031
X-28.315 Y21.969
X-28.3 Y21.908
X-28.285 Y21.847
X-28.269 Y21.786
X-28.252 Y21.726
X-28.235 Y21.665
X-28.216 Y21.605
X-28.197 Y21.545
X-28.178 Y21.485
X-28.157 Y21.426
X-28.136 Y21.367
X-28.115 Y21.308
X-28.092 Y21.249
X-28.069 Y21.19
X-28.045 Y21.132
X-28.021 Y21.074
X-27.995 Y21.017
X-27.97 Y20.959
X-27.943 Y20.902
X-27.916 Y20.846
X-27.888 Y20.789
X-27.859 Y20.733
X-27.83 Y20.677
X-27.8 Y20.622
X-27.77 Y20.567
X-27.738 Y20.513
X-27.706 Y20.458
X-27.674 Y20.405
X-27.641 Y20.351
X-27.607 Y20.298
X-27.573 Y20.245
X-27.538 Y20.193
X-27.502 Y20.141
X-27.466 Y20.09
X-27.429 Y20.039
X-27.391 Y19.988
X-27.353 Y19.938
X-27.315 Y19.889
X-27.275 Y19.84
X-27.236 Y19.791
X-27.195 Y19.743
X-27.154 Y19.695
X-27.113 Y19.648
X-27.071 Y19.601
X-27.028 Y19.555
X-26.985 Y19.509
X-26.941 Y19.464
X-26.897 Y19.419
X-26.852 Y19.375
X-26.807 Y19.331
X-26.761 Y19.288
X-26.714 Y19.246
X-26.668 Y19.204
X-26.62 Y19.162
X-26.573 Y19.121
X-26.524 Y19.081
X-26.475 Y19.041
X-26.426 Y19.002
X-26.377 Y18.964
X-26.326 Y18.926
X-26.276 Y18.888
X-26.225 Y18.851
X-26.173 Y18.815
X-26.121 Y18.78
X-26.069 Y18.745
X-26.016 Y18.711
X-25.963 Y18.677
X-25.91 Y18.644
X-25.856 Y18.611
X-25.801 Y18.58
X-25.747 Y18.549
X-25.692 Y18.518
X-25.636 Y18.488
X-25.581 Y18.459
X-25.525 Y18.431
X-25.468 Y18.403
X-25.411 Y18.376
X-25.354 Y18.349
X-25.297 Y18.323
X-25.239 Y18.298
X-25.181 Y18.274
X-25.123 Y18.25
X-25.065 Y18.227
X-25.006 Y18.205
X-24.947 Y18.183
X-24.887 Y18.162
X-24.828 Y18.142
X-24.768 Y18.122
X-24.708 Y18.103
X-24.648 Y18.085
X-24.587 Y18.068
X-24.527 Y18.051
X-24.466 Y18.035
X-24.405 Y18.02
X-24.344 Y18.005
X-24.282 Y17.992
X-24.221 Y17.979
X-24.159 Y17.966
X-24.097 Y17.955
X-24.035 Y17.944
X-23.973 Y17.934
X-23.911 Y17.924
X-23.849 Y17.916
X-23.786 Y17.908
X-23.724 Y17.9
X-23.661 Y17.894
X-23.599 Y17.888
X-23.536 Y17.883
X-23.473 Y17.879
X-23.41 Y17.876
X-23.348 Y17.873
X-23.285 Y17.871
X-23.222 Y17.869
X-23.159
X-23.096
X-23.033 Y17.87
X-22.97 Y17.872
X-22.907 Y17.874
X-22.845 Y17.877
X-22.782 Y17.881
X-22.719 Y17.886
X-22.656 Y17.891
X-22.594 Y17.898
X-22.531 Y17.904
X-22.469 Y17.912
X-22.407 Y17.92
X-22.344 Y17.929
X-22.282 Y17.939
X-22.22 Y17.95
X-22.158 Y17.961
X-22.097 Y17.973
X-22.035 Y17.986
X-21.973 Y17.999
X-21.912 Y18.013
X-21.851 Y18.028
X-21.79 Y18.043
X-21.729 Y18.06
X-21.669 Y18.077
X-21.608 Y18.094
X-21.548 Y18.113
X-21.488 Y18.132
X-21.429 Y18.152
X-21.369 Y18.172
X-21.31 Y18.193
X-21.251 Y18.215
X-21.192 Y18.237
X-21.134 Y18.261
X-21.075 Y18.284
X-21.017 Y18.309
X-20.96 Y18.334
X-20.903 Y18.36
X-20.845 Y18.387
X-20.789 Y18.414
X-20.732 Y18.442
X-20.676 Y18.47
X-20.62 Y18.499
X-20.565 Y18.529
X-20.51 Y18.559
X-20.455 Y18.59
X-20.401 Y18.622
X-20.347 Y18.654
X-20.293 Y18.687
X-20.24 Y18.72
X-20.187 Y18.755
X-20.135 Y18.789
X-20.083 Y18.825
X-20.031 Y18.86
X-19.98 Y18.897
X-19.929 Y18.934
X-19.878 Y18.972
X-19.828 Y19.01
X-19.779 Y19.048
X-19.73 Y19.088
X-19.681 Y19.128
X-19.633 Y19.168
X-19.585 Y19.209
X-19.538 Y19.251
X-19.491 Y19.293
X-19.445 Y19.335
X-19.399 Y19.378
X-19.354 Y19.422
X-19.309 Y19.466
X-19.264 Y19.511
X-19.221 Y19.556
X-19.177 Y19.601
X-19.135 Y19.647
X-19.092 Y19.694
X-19.051 Y19.741
X-19.009 Y19.788
X-18.969 Y19.836
X-18.928 Y19.885
X-18.889 Y19.934
X-18.85 Y19.983
X-18.811 Y20.033
X-18.773 Y20.083
X-18.736 Y20.134
X-18.699 Y20.185
X-18.663 Y20.236
X-18.628 Y20.288
X-18.593 Y20.34
X-18.558 Y20.393
X-18.524 Y20.446
X-18.491 Y20.499
X-18.458 Y20.553
X-18.426 Y20.607
X-18.395 Y20.662
X-18.364 Y20.717
X-18.334 Y20.772
X-18.304 Y20.827
X-18.275 Y20.883
X-18.247 Y20.939
X-18.219 Y20.996
X-18.192 Y21.053
X-18.166 Y21.11
X-18.14 Y21.167
X-18.115 Y21.225
X-18.091 Y21.283
X-18.067 Y21.341
X-18.044 Y21.399
X-18.021 Y21.458
X-18. Y21.517
X-17.978 Y21.576
X-17.958 Y21.636
X-17.938 Y21.696
X-17.919 Y21.755
X-17.901 Y21.816
X-17.883 Y21.876
X-17.866 Y21.936
X-17.849 Y21.997
X-17.834 Y22.058
X-17.819 Y22.119
X-17.804 Y22.18
X-17.791 Y22.242
X-17.778 Y22.303
X-17.765 Y22.365
X-17.754 Y22.427
X-17.743 Y22.489
X-17.733 Y22.551
X-17.723 Y22.613
X-17.715 Y22.675
X-17.707 Y22.738
X-17.699 Y22.8
X-17.693 Y22.863
X-17.687 Y22.925
X-17.682 Y22.988
X-17.677 Y23.051
X-17.673 Y23.114
X-17.67 Y23.176
X-17.668 Y23.239
X-17.666 Y23.302
X-17.665 Y23.365
Y23.428
X-17.666 Y23.491
X-17.667 Y23.554
X-17.669 Y23.617
X-17.671 Y23.68
X-17.675 Y23.742
X-17.679 Y23.805
X-17.684 Y23.868
X-17.689 Y23.93
X-17.695 Y23.993
X-17.702 Y24.056
X-17.71 Y24.118
X-17.718 Y24.18
X-17.727 Y24.243
X-17.737 Y24.305
X-17.747 Y24.367
X-17.759 Y24.429
X-17.77 Y24.49
X-17.783 Y24.552
X-17.796 Y24.614
X-17.81 Y24.675
X-17.825 Y24.736
X-17.84 Y24.797
X-17.856 Y24.858
X-17.873 Y24.919
X-17.89 Y24.979
X-17.909 Y25.039
X-17.927 Y25.099
X-17.947 Y25.159
X-17.967 Y25.219
X-17.988 Y25.278
X-18.009 Y25.337
X-18.031 Y25.396
X-18.054 Y25.455
X-18.078 Y25.513
X-18.102 Y25.571
X-18.127 Y25.629
X-18.152 Y25.686
X-18.178 Y25.743
X-18.205 Y25.8
X-18.233 Y25.857
X-18.261 Y25.913
X-18.29 Y25.969
X-18.319 Y26.025
X-18.349 Y26.08
X-18.379 Y26.135
X-18.411 Y26.19
X-18.443 Y26.244
X-18.475 Y26.298
X-18.508 Y26.351
X-18.542 Y26.404
X-18.576 Y26.457
X-18.611 Y26.509
X-18.646 Y26.561
X-18.682 Y26.613
X-18.719 Y26.664
X-18.756 Y26.715
X-18.794 Y26.765
X-18.833 Y26.815
X-18.871 Y26.864
X-18.911 Y26.913
X-18.951 Y26.962
X-18.992 Y27.01
X-19.033 Y27.057
X-19.074 Y27.105
X-19.117 Y27.151
X-19.159 Y27.197
X-19.203 Y27.243
X-19.246 Y27.288
X-19.291 Y27.333
X-19.335 Y27.377
X-19.381 Y27.421
X-19.426 Y27.464
X-19.473 Y27.506
X-19.519 Y27.549
X-19.567 Y27.59
X-19.614 Y27.631
X-19.662 Y27.672
X-19.711 Y27.712
X-19.76 Y27.751
X-19.809 Y27.79
X-19.859 Y27.828
X-19.91 Y27.866
X-19.961 Y27.903
X-20.012 Y27.94
X-20.063 Y27.976
X-20.115 Y28.011
X-20.168 Y28.046
X-20.22 Y28.08
X-20.274 Y28.114
X-20.327 Y28.147
X-20.381 Y28.179
X-20.435 Y28.211
X-20.49 Y28.242
X-20.545 Y28.273
X-20.6 Y28.303
X-20.656 Y28.332
X-20.712 Y28.361
X-20.768 Y28.389
X-20.825 Y28.416
X-20.882 Y28.443
X-20.939 Y28.469
X-20.996 Y28.495
X-21.054 Y28.519
X-21.112 Y28.544
X-21.17 Y28.567
X-21.229 Y28.59
X-21.288 Y28.612
X-21.347 Y28.634
X-21.406 Y28.655
X-21.466 Y28.675
X-21.526 Y28.695
X-21.586 Y28.714
X-21.646 Y28.732
X-21.706 Y28.75
X-21.767 Y28.767
X-21.827 Y28.783
X-21.888 Y28.798
X-21.95 Y28.813
X-22.011 Y28.827
X-22.072 Y28.841
X-22.134 Y28.854
X-22.196 Y28.866
X-22.257 Y28.877
X-22.319 Y28.888
X-22.381 Y28.898
X-22.444 Y28.907
X-22.506 Y28.916
X-22.568 Y28.924
X-22.631 Y28.931
X-22.693 Y28.938
X-22.756 Y28.944
X-22.819 Y28.949
X-22.881 Y28.954
X-22.944 Y28.957
X-23.007 Y28.96
X-23.07 Y28.963
X-23.133 Y28.965
X-23.196 Y28.966
X-23.259
X-23.321
X-23.384 Y28.964
X-23.447 Y28.963
X-23.51 Y28.96
X-23.573 Y28.957
X-23.636 Y28.953
X-23.698 Y28.949
X-23.761 Y28.943
X-23.824 Y28.937
X-23.886 Y28.931
X-23.949 Y28.924
X-24.011 Y28.916
X-24.073 Y28.907
X-24.136 Y28.897
X-24.198 Y28.887
X-24.26 Y28.877
X-24.322 Y28.865
X-24.383 Y28.853
X-24.445 Y28.84
X-24.506 Y28.827
X-24.568 Y28.813
X-24.629 Y28.798
X-24.69 Y28.782
X-24.75 Y28.766
X-24.811 Y28.749
X-24.871 Y28.732
X-24.932 Y28.714
X-24.992 Y28.695
X-25.051 Y28.675
X-25.111 Y28.655
X-25.17 Y28.634
X-25.23 Y28.613
X-25.288 Y28.591
X-25.347 Y28.568
X-25.406 Y28.545
X-25.464 Y28.521
X-25.522 Y28.496
X-25.579 Y28.471
X-25.636 Y28.445
X-25.693 Y28.418
X-25.75 Y28.391
X-25.807 Y28.363
X-25.863 Y28.335
X-25.919 Y28.306
X-25.974 Y28.276
X-26.029 Y28.246
X-26.084 Y28.215
X-26.139 Y28.184
X-26.193 Y28.152
X-26.246 Y28.119
X-26.3 Y28.086
X-26.353 Y28.052
X-26.406 Y28.018
X-26.458 Y27.983
X-26.51 Y27.948
X-26.561 Y27.912
X-26.613 Y27.875
X-26.663 Y27.838
X-26.714 Y27.8
X-26.764 Y27.762
X-26.813 Y27.723
X-26.862 Y27.684
X-26.911 Y27.644
X-26.959 Y27.603
X-27.007 Y27.562
X-27.054 Y27.521
X-27.101 Y27.479
X-27.147 Y27.437
X-27.193 Y27.394
X-27.239 Y27.35
X-27.284 Y27.306
X-27.328 Y27.262
X-27.372 Y27.217
X-27.416 Y27.171
X-27.459 Y27.126
X-27.501 Y27.079
X-27.543 Y27.032
X-27.585 Y26.985
X-27.626 Y26.938
X-27.667 Y26.889
X-27.706 Y26.841
X-27.746 Y26.792
X-27.785 Y26.742
X-27.823 Y26.693
X-27.861 Y26.642
X-27.898 Y26.592
X-27.935 Y26.541
X-27.971 Y26.489
X-28.007 Y26.437
X-28.042 Y26.385
X-28.076 Y26.332
X-28.11 Y26.279
X-28.143 Y26.226
X-28.176 Y26.172
X-28.208 Y26.118
X-28.24 Y26.064
X-28.271 Y26.009
X-28.301 Y25.954
X-28.331 Y25.899
X-28.36 Y25.843
X-28.389 Y25.787
X-28.417 Y25.731
X-28.444 Y25.674
X-28.471 Y25.617
X-28.497 Y25.56
X-28.523 Y25.502
X-28.548 Y25.445
X-28.572 Y25.387
X-28.595 Y25.328
X-28.618 Y25.27
X-28.641 Y25.211
X-28.663 Y25.152
X-28.684 Y25.093
X-28.704 Y25.033
X-28.724 Y24.973
X-28.743 Y24.914
X-28.762 Y24.853
X-28.779 Y24.793
X-28.797 Y24.733
X-28.813 Y24.672
X-28.829 Y24.611
X-28.844 Y24.55
X-28.859 Y24.489
X-28.873 Y24.428
X-28.886 Y24.366
X-28.899 Y24.304
X-28.911 Y24.243
X-28.922 Y24.181
X-28.933 Y24.119
X-28.943 Y24.057
X-28.952 Y23.994
X-28.96 Y23.932
X-28.968 Y23.87
X-28.976 Y23.807
X-28.982 Y23.745
X-28.988 Y23.682
X-28.993 Y23.619
X-28.998 Y23.557
X-29.002 Y23.494
X-29.005 Y23.431
X-29.007 Y23.368
X-29.009 Y23.305
X-29.01 Y23.242
X-29.011 Y23.18
Y23.117
X-29.01 Y23.054
X-29.008 Y22.991
X-29.006 Y22.928
X-29.003 Y22.865
X-29. Y22.802
X-28.995 Y22.74
X-28.99 Y22.677
X-28.985 Y22.614
X-28.979 Y22.552
X-28.972 Y22.489
X-28.964 Y22.427
X-28.956 Y22.364
X-28.947 Y22.302
X-28.937 Y22.24
X-28.927 Y22.178
X-28.916 Y22.116
X-28.904 Y22.054
X-28.892 Y21.993
X-28.879 Y21.931
X-28.865 Y21.87
X-28.851 Y21.808
X-28.836 Y21.747
X-28.821 Y21.686
X-28.804 Y21.625
X-28.787 Y21.565
X-28.77 Y21.504
X-28.752 Y21.444
X-28.733 Y21.384
X-28.713 Y21.324
X-28.693 Y21.265
X-28.672 Y21.205
X-28.651 Y21.146
X-28.629 Y21.087
X-28.606 Y21.029
X-28.583 Y20.97
X-28.559 Y20.912
X-28.535 Y20.854
X-28.509 Y20.797
X-28.484 Y20.739
X-28.457 Y20.682
X-28.43 Y20.625
X-28.403 Y20.569
X-28.374 Y20.513
X-28.346 Y20.457
X-28.316 Y20.401
X-28.286 Y20.346
X-28.255 Y20.291
X-28.224 Y20.236
X-28.192 Y20.182
X-28.16 Y20.128
X-28.127 Y20.075
X-28.094 Y20.021
X-28.059 Y19.968
X-28.025 Y19.916
X-27.99 Y19.864
X-27.954 Y19.812
X-27.917 Y19.761
X-27.881 Y19.71
X-27.843 Y19.659
X-27.805 Y19.609
X-27.767 Y19.559
X-27.728 Y19.51
X-27.688 Y19.461
X-27.648 Y19.413
X-27.607 Y19.365
X-27.566 Y19.317
X-27.525 Y19.27
X-27.483 Y19.223
X-27.44 Y19.177
X-27.397 Y19.131
X-27.353 Y19.086
X-27.309 Y19.041
X-27.265 Y18.997
X-27.22 Y18.953
X-27.174 Y18.909
X-27.128 Y18.866
X-27.082 Y18.824
X-27.035 Y18.782
X-26.987 Y18.741
X-26.94 Y18.7
X-26.891 Y18.659
X-26.843 Y18.619
X-26.794 Y18.58
X-26.744 Y18.541
X-26.694 Y18.503
X-26.644 Y18.465
X-26.593 Y18.428
X-26.542 Y18.391
X-26.491 Y18.355
X-26.439 Y18.32
X-26.386 Y18.285
X-26.334 Y18.25
X-26.281 Y18.216
X-26.227 Y18.183
X-26.174 Y18.15
X-26.12 Y18.118
X-26.065 Y18.087
X-26.011 Y18.056
X-25.955 Y18.025
X-25.9 Y17.995
X-25.844 Y17.966
X-25.788 Y17.938
X-25.732 Y17.91
X-25.675 Y17.882
X-25.619 Y17.855
X-25.561 Y17.829
X-25.504 Y17.804
X-25.446 Y17.779
X-25.388 Y17.754
X-25.33 Y17.731
X-25.271 Y17.708
X-25.213 Y17.685
X-25.154 Y17.663
X-25.094 Y17.642
X-25.035 Y17.622
X-24.975 Y17.602
X-24.915 Y17.582
X-24.855 Y17.564
X-24.795 Y17.546
X-24.735 Y17.529
X-24.674 Y17.512
X-24.613 Y17.496
X-24.552 Y17.48
X-24.491 Y17.466
X-24.43 Y17.452
X-24.368 Y17.438
X-24.307 Y17.425
X-24.245 Y17.413
X-24.183 Y17.402
X-24.121 Y17.391
X-24.059 Y17.381
X-23.997 Y17.372
X-23.934 Y17.363
X-23.872 Y17.355
X-23.81 Y17.347
X-23.747 Y17.341
X-23.684 Y17.335
X-23.622 Y17.329
X-23.559 Y17.324
X-23.496 Y17.32
X-23.433 Y17.317
X-23.371 Y17.314
X-23.308 Y17.312
X-23.245 Y17.311
X-23.182 Y17.31
X-23.119
X-23.056
X-22.993 Y17.312
X-22.93 Y17.314
X-22.868 Y17.316
X-22.805 Y17.32
X-22.742 Y17.324
X-22.679 Y17.328
X-22.617 Y17.333
X-22.554 Y17.339
X-22.491 Y17.346
X-22.429 Y17.353
X-22.367 Y17.361
X-22.304 Y17.37
X-22.242 Y17.379
X-22.18 Y17.389
X-22.118 Y17.4
X-22.056 Y17.411
X-21.994 Y17.423
X-21.933 Y17.435
X-21.871 Y17.449
X-21.81 Y17.462
X-21.749 Y17.477
X-21.688 Y17.492
X-21.627 Y17.508
X-21.566 Y17.524
X-21.505 Y17.541
X-21.445 Y17.559
X-21.385 Y17.577
X-21.325 Y17.596
X-21.265 Y17.616
X-21.206 Y17.636
X-21.146 Y17.657
X-21.087 Y17.679
X-21.028 Y17.701
X-20.97 Y17.723
X-20.911 Y17.747
X-20.853 Y17.771
X-20.795 Y17.795
X-20.737 Y17.82
X-20.68 Y17.846
X-20.623 Y17.872
X-20.566 Y17.899
X-20.51 Y17.927
X-20.453 Y17.955
X-20.397 Y17.984
X-20.342 Y18.013
X-20.286 Y18.043
X-20.231 Y18.073
X-20.177 Y18.104
X-20.122 Y18.136
X-20.068 Y18.168
X-20.014 Y18.201
X-19.961 Y18.234
X-19.908 Y18.268
X-19.855 Y18.302
X-19.803 Y18.337
X-19.751 Y18.373
X-19.699 Y18.409
X-19.648 Y18.445
X-19.597 Y18.482
X-19.547 Y18.52
X-19.497 Y18.558
X-19.447 Y18.596
X-19.398 Y18.636
X-19.349 Y18.675
X-19.301 Y18.715
X-19.253 Y18.756
X-19.205 Y18.797
X-19.158 Y18.839
X-19.111 Y18.881
X-19.065 Y18.923
X-19.019 Y18.966
X-18.973 Y19.01
X-18.928 Y19.054
X-18.884 Y19.098
X-18.84 Y19.143
X-18.796 Y19.188
X-18.753 Y19.234
X-18.71 Y19.28
X-18.668 Y19.327
X-18.626 Y19.374
X-18.585 Y19.422
X-18.545 Y19.47
X-18.504 Y19.518
X-18.465 Y19.567
X-18.425 Y19.616
X-18.387 Y19.665
X-18.348 Y19.715
X-18.311 Y19.766
X-18.273 Y19.816
X-18.237 Y19.868
X-18.201 Y19.919
X-18.165 Y19.971
X-18.13 Y20.023
X-18.095 Y20.076
X-18.061 Y20.129
X-18.028 Y20.182
X-17.995 Y20.235
X-17.963 Y20.289
X-17.931 Y20.344
X-17.9 Y20.398
X-17.869 Y20.453
X-17.839 Y20.508
X-17.809 Y20.564
X-17.78 Y20.62
X-17.752 Y20.676
X-17.724 Y20.732
X-17.697 Y20.789
X-17.67 Y20.846
X-17.644 Y20.903
X-17.618 Y20.961
X-17.594 Y21.018
X-17.569 Y21.076
X-17.545 Y21.135
X-17.522 Y21.193
X-17.5 Y21.252
X-17.478 Y21.311
X-17.457 Y21.37
X-17.436 Y21.429
X-17.416 Y21.489
X-17.396 Y21.549
X-17.377 Y21.609
X-17.359 Y21.669
X-17.341 Y21.729
X-17.324 Y21.79
X-17.308 Y21.851
X-17.292 Y21.911
X-17.277 Y21.972
X-17.263 Y22.034
X-17.249 Y22.095
X-17.235 Y22.157
X-17.223 Y22.218
X-17.211 Y22.28
X-17.199 Y22.342
X-17.189 Y22.404
X-17.179 Y22.466
X-17.169 Y22.528
X-17.16 Y22.59
X-17.152 Y22.653
X-17.145 Y22.715
X-17.138 Y22.778
X-17.132 Y22.84
X-17.126 Y22.903
X-17.121 Y22.966
X-17.117 Y23.028
X-17.113 Y23.091
X-17.11 Y23.154
X-17.108 Y23.217
X-17.106 Y23.28
X-17.105 Y23.343
X-17.104 Y23.405
X-17.105 Y23.468
X-17.106 Y23.531
X-17.107 Y23.594
X-17.109 Y23.657
X-17.112 Y23.72
X-17.116 Y23.783
X-17.12 Y23.845
X-17.124 Y23.908
X-17.13 Y23.971
X-17.136 Y24.033
X-17.143 Y24.096
X-17.15 Y24.158
X-17.158 Y24.221
X-17.167 Y24.283
X-17.176 Y24.345
X-17.186 Y24.407
X-17.196 Y24.469
X-17.207 Y24.531
X-17.219 Y24.593
X-17.232 Y24.655
X-17.245 Y24.716
X-17.259 Y24.778
X-17.273 Y24.839
X-17.288 Y24.9
X-17.304 Y24.961
X-17.32 Y25.022
X-17.337 Y25.082
X-17.354 Y25.143
X-17.372 Y25.203
X-17.391 Y25.263
X-17.411 Y25.323
X-17.431 Y25.382
X-17.451 Y25.442
X-17.472 Y25.501
X-17.494 Y25.56
X-17.517 Y25.619
X-17.54 Y25.677
X-17.563 Y25.736
X-17.588 Y25.794
X-17.612 Y25.851
X-17.638 Y25.909
X-17.664 Y25.966
X-17.691 Y26.023
X-17.718 Y26.08
X-17.746 Y26.136
X-17.774 Y26.192
X-17.803 Y26.248
X-17.832 Y26.304
X-17.863 Y26.359
X-17.893 Y26.414
X-17.924 Y26.469
X-17.956 Y26.523
X-17.989 Y26.577
X-18.022 Y26.63
X-18.055 Y26.684
X-18.089 Y26.737
X-18.124 Y26.789
X-18.159 Y26.841
X-18.194 Y26.893
X-18.231 Y26.945
X-18.267 Y26.996
X-18.304 Y27.046
X-18.342 Y27.097
X-18.38 Y27.147
X-18.419 Y27.196
X-18.458 Y27.245
X-18.498 Y27.294
X-18.539 Y27.342
X-18.579 Y27.39
X-18.621 Y27.438
X-18.662 Y27.485
X-18.705 Y27.531
X-18.747 Y27.577
X-18.791 Y27.623
X-18.834 Y27.668
X-18.878 Y27.713
X-18.923 Y27.758
X-18.968 Y27.802
X-19.013 Y27.845
X-19.059 Y27.888
X-19.106 Y27.931
X-19.152 Y27.973
X-19.2 Y28.014
X-19.247 Y28.055
X-19.295 Y28.096
X-19.344 Y28.136
X-19.393 Y28.175
X-19.442 Y28.214
X-19.492 Y28.253
X-19.542 Y28.291
X-19.592 Y28.329
X-19.643 Y28.366
X-19.695 Y28.402
X-19.746 Y28.438
X-19.798 Y28.473
X-19.85 Y28.508
X-19.903 Y28.543
X-19.956 Y28.576
X-20.01 Y28.61
X-20.063 Y28.642
X-20.117 Y28.675
X-20.172 Y28.706
X-20.226 Y28.737
X-20.281 Y28.768
X-20.337 Y28.798
X-20.392 Y28.827
X-20.448 Y28.856
X-20.505 Y28.884
X-20.561 Y28.912
X-20.618 Y28.939
X-20.675 Y28.965
X-20.732 Y28.991
X-20.79 Y29.016
X-20.848 Y29.041
X-20.906 Y29.065
X-20.964 Y29.089
X-21.023 Y29.112
X-21.081 Y29.134
X-21.14 Y29.156
X-21.2 Y29.177
X-21.259 Y29.198
X-21.319 Y29.218
X-21.379 Y29.237
X-21.439 Y29.256
X-21.499 Y29.274
X-21.559 Y29.291
X-21.62 Y29.308
X-21.681 Y29.324
X-21.742 Y29.34
X-21.803 Y29.355
X-21.864 Y29.369
X-21.925 Y29.383
X-21.987 Y29.396
X-22.048 Y29.409
X-22.11 Y29.421
X-22.172 Y29.432
X-22.234 Y29.443
X-22.296 Y29.453
X-22.358 Y29.462
X-22.421 Y29.471
X-22.483 Y29.479
X-22.545 Y29.487
X-22.608 Y29.493
X-22.671 Y29.5
X-22.733 Y29.505
X-22.796 Y29.51
X-22.859 Y29.515
X-22.921 Y29.518
X-22.984 Y29.521
X-23.047 Y29.524
X-23.11 Y29.526
X-23.173 Y29.527
X-23.236
X-23.299
X-23.362 Y29.526
X-23.424 Y29.525
X-23.487 Y29.523
X-23.55 Y29.52
X-23.613 Y29.517
X-23.676 Y29.513
X-23.738 Y29.509
X-23.801 Y29.503
X-23.864 Y29.498
X-23.926 Y29.491
X-23.989 Y29.484
X-24.051 Y29.477
X-24.114 Y29.468
X-24.176 Y29.459
X-24.238 Y29.45
X-24.3 Y29.44
X-24.362 Y29.429
X-24.424 Y29.417
X-24.486 Y29.405
X-24.547 Y29.393
X-24.609 Y29.379
X-24.67 Y29.365
X-24.731 Y29.351
X-24.792 Y29.336
X-24.853 Y29.32
X-24.914 Y29.304
X-24.975 Y29.287
X-25.035 Y29.269
X-25.095 Y29.251
X-25.155 Y29.232
X-25.215 Y29.213
X-25.275 Y29.193
X-25.334 Y29.172
X-25.393 Y29.151
X-25.452 Y29.129
X-25.511 Y29.107
X-25.57 Y29.084
X-25.628 Y29.061
X-25.686 Y29.037
X-25.744 Y29.012
X-25.802 Y28.987
X-25.859 Y28.961
X-25.916 Y28.934
X-25.973 Y28.907
X-26.03 Y28.88
X-26.086 Y28.852
X-26.142 Y28.823
X-26.198 Y28.794
X-26.253 Y28.764
X-26.308 Y28.734
X-26.363 Y28.703
X-26.417 Y28.672
X-26.472 Y28.64
X-26.526 Y28.607
X-26.579 Y28.574
X-26.632 Y28.541
X-26.685 Y28.507
X-26.738 Y28.472
X-26.79 Y28.437
X-26.842 Y28.401
X-26.893 Y28.365
X-26.944 Y28.329
X-26.995 Y28.291
X-27.045 Y28.254
X-27.095 Y28.216
X-27.145 Y28.177
X-27.194 Y28.138
X-27.243 Y28.098
X-27.292 Y28.058
X-27.34 Y28.017
X-27.387 Y27.976
X-27.435 Y27.935
X-27.481 Y27.893
X-27.528 Y27.85
X-27.574 Y27.807
X-27.619 Y27.764
X-27.664 Y27.72
X-27.709 Y27.676
X-27.753 Y27.631
X-27.797 Y27.586
X-27.84 Y27.541
X-27.883 Y27.494
X-27.926 Y27.448
X-27.968 Y27.401
X-28.009 Y27.354
X-28.05 Y27.306
X-28.091 Y27.258
X-28.131 Y27.21
X-28.171 Y27.161
X-28.21 Y27.112
X-28.248 Y27.062
X-28.286 Y27.012
X-28.324 Y26.962
X-28.361 Y26.911
X-28.398 Y26.86
X-28.434 Y26.808
X-28.47 Y26.756
X-28.505 Y26.704
X-28.539 Y26.652
X-28.573 Y26.599
X-28.607 Y26.545
X-28.64 Y26.492
X-28.672 Y26.438
X-28.704 Y26.384
X-28.736 Y26.329
X-28.767 Y26.275
X-28.797 Y26.22
X-28.827 Y26.164
X-28.856 Y26.108
X-28.885 Y26.052
X-28.913 Y25.996
X-28.94 Y25.94
X-28.967 Y25.883
X-28.994 Y25.826
X-29.02 Y25.768
X-29.045 Y25.711
X-29.07 Y25.653
X-29.094 Y25.595
X-29.118 Y25.537
X-29.141 Y25.478
X-29.163 Y25.419
X-29.185 Y25.36
X-29.206 Y25.301
X-29.227 Y25.242
X-29.247 Y25.182
X-29.267 Y25.123
X-29.286 Y25.063
X-29.304 Y25.002
X-29.322 Y24.942
X-29.339 Y24.882
X-29.355 Y24.821
X-29.371 Y24.76
X-29.387 Y24.699
X-29.402 Y24.638
X-29.416 Y24.577
X-29.429 Y24.515
X-29.442 Y24.454
X-29.455 Y24.392
X-29.466 Y24.33
X-29.478 Y24.268
X-29.488 Y24.206
X-29.498 Y24.144
X-29.507 Y24.082
X-29.516 Y24.02
X-29.524 Y23.957
X-29.532 Y23.895
X-29.538 Y23.832
X-29.545 Y23.77
X-29.55 Y23.707
X-29.555 Y23.644
X-29.56 Y23.582
X-29.564 Y23.519
X-29.567 Y23.456
X-29.569 Y23.393
X-29.571 Y23.33
X-29.572 Y23.267
X-29.573 Y23.204
Y23.142
Y23.079
X-29.572 Y23.016
X-29.57 Y22.953
X-29.567 Y22.89
X-29.564 Y22.827
X-29.561 Y22.764
X-29.556 Y22.702
X-29.552 Y22.639
X-29.546 Y22.576
X-29.54 Y22.514
X-29.533 Y22.451
X-29.526 Y22.389
X-29.518 Y22.326
X-29.51 Y22.264
X-29.5 Y22.202
X-29.491 Y22.14
X-29.48 Y22.078
X-29.469 Y22.016
X-29.458 Y21.954
X-29.445 Y21.892
X-29.433 Y21.831
X-29.419 Y21.769
X-29.405 Y21.708
X-29.391 Y21.647
X-29.375 Y21.586
X-29.36 Y21.525
X-29.343 Y21.464
X-29.326 Y21.403
X-29.309 Y21.343
X-29.29 Y21.283
X-29.272 Y21.223
X-29.252 Y21.163
X-29.232 Y21.103
X-29.212 Y21.044
X-29.191 Y20.985
X-29.169 Y20.925
X-29.147 Y20.867
X-29.124 Y20.808
X-29.1 Y20.75
X-29.076 Y20.692
X-29.052 Y20.634
X-29.027 Y20.576
X-29.001 Y20.519
X-28.975 Y20.461
X-28.948 Y20.404
X-28.921 Y20.348
X-28.893 Y20.291
X-28.864 Y20.235
X-28.835 Y20.18
X-28.806 Y20.124
X-28.776 Y20.069
X-28.745 Y20.014
X-28.714 Y19.959
X-28.682 Y19.905
X-28.65 Y19.851
X-28.617 Y19.797
X-28.584 Y19.744
X-28.55 Y19.691
X-28.516 Y19.638
X-28.481 Y19.586
X-28.445 Y19.534
X-28.409 Y19.482
X-28.373 Y19.431
X-28.336 Y19.38
X-28.299 Y19.329
X-28.261 Y19.279
X-28.223 Y19.229
X-28.184 Y19.18
X-28.144 Y19.131
X-28.105 Y19.082
X-28.064 Y19.034
X-28.024 Y18.986
X-27.982 Y18.938
X-27.941 Y18.891
X-27.898 Y18.844
X-27.856 Y18.798
X-27.813 Y18.752
X-27.769 Y18.707
X-27.725 Y18.662
X-27.681 Y18.617
X-27.636 Y18.573
X-27.591 Y18.529
X-27.545 Y18.486
X-27.499 Y18.443
X-27.453 Y18.401
X-27.406 Y18.359
X-27.358 Y18.318
X-27.311 Y18.277
X-27.263 Y18.236
X-27.214 Y18.196
X-27.165 Y18.157
X-27.116 Y18.118
X-27.066 Y18.079
X-27.016 Y18.041
X-26.966 Y18.003
X-26.915 Y17.966
X-26.864 Y17.93
X-26.812 Y17.894
X-26.76 Y17.858
X-26.708 Y17.823
X-26.656 Y17.788
X-26.603 Y17.754
X-26.549 Y17.721
X-26.496 Y17.688
X-26.442 Y17.655
X-26.388 Y17.623
X-26.333 Y17.592
X-26.279 Y17.561
X-26.224 Y17.531
X-26.168 Y17.501
X-26.112 Y17.472
X-26.057 Y17.443
X-26. Y17.415
X-25.944 Y17.387
X-25.887 Y17.36
X-25.83 Y17.333
X-25.773 Y17.307
X-25.715 Y17.282
X-25.657 Y17.257
X-25.599 Y17.233
X-25.541 Y17.209
X-25.483 Y17.186
X-25.424 Y17.164
X-25.365 Y17.142
X-25.306 Y17.12
X-25.246 Y17.099
X-25.187 Y17.079
X-25.127 Y17.06
X-25.067 Y17.04
X-25.007 Y17.022
X-24.947 Y17.004
X-24.886 Y16.987
X-24.826 Y16.97
X-24.765 Y16.954
X-24.704 Y16.939
X-24.643 Y16.924
X-24.581 Y16.909
X-24.52 Y16.896
X-24.459 Y16.882
X-24.397 Y16.87
X-24.335 Y16.858
X-24.273 Y16.847
X-24.211 Y16.836
X-24.149 Y16.826
X-24.087 Y16.816
X-24.025 Y16.807
X-23.962 Y16.799
X-23.9 Y16.792
X-23.838 Y16.784
X-23.775 Y16.778
X-23.712 Y16.772
X-23.65 Y16.767
X-23.587 Y16.762
X-23.524 Y16.758
X-23.461 Y16.755
X-23.398 Y16.752
X-23.336 Y16.75
X-23.273 Y16.748
X-23.21 Y16.747
X-23.147
X-23.084
X-23.021 Y16.748
X-22.958 Y16.75
X-22.895 Y16.752
X-22.833 Y16.755
X-22.77 Y16.758
X-22.707 Y16.762
X-22.644 Y16.766
X-22.582 Y16.772
X-22.519 Y16.777
X-22.456 Y16.784
X-22.394 Y16.791
X-22.331 Y16.798
X-22.269 Y16.807
X-22.207 Y16.815
X-22.145 Y16.825
X-22.082 Y16.835
X-22.02 Y16.845
X-21.959 Y16.857
X-21.897 Y16.868
X-21.835 Y16.881
X-21.774 Y16.894
X-21.712 Y16.907
X-21.651 Y16.922
X-21.59 Y16.936
X-21.529 Y16.952
X-21.468 Y16.968
X-21.407 Y16.984
X-21.347 Y17.001
X-21.286 Y17.019
X-21.226 Y17.037
X-21.166 Y17.056
X-21.106 Y17.075
X-21.047 Y17.095
X-20.987 Y17.116
X-20.928 Y17.137
X-20.869 Y17.159
X-20.81 Y17.181
X-20.752 Y17.204
X-20.693 Y17.227
X-20.635 Y17.251
X-20.577 Y17.276
X-20.519 Y17.301
X-20.462 Y17.327
X-20.405 Y17.353
X-20.348 Y17.379
X-20.291 Y17.407
X-20.235 Y17.435
X-20.178 Y17.463
X-20.123 Y17.492
X-20.067 Y17.521
X-20.012 Y17.551
X-19.957 Y17.581
X-19.902 Y17.612
X-19.847 Y17.644
X-19.793 Y17.676
X-19.739 Y17.708
X-19.686 Y17.741
X-19.633 Y17.775
X-19.58 Y17.809
X-19.527 Y17.844
X-19.475 Y17.879
X-19.423 Y17.914
X-19.372 Y17.95
X-19.32 Y17.987
X-19.269 Y18.024
X-19.219 Y18.061
X-19.169 Y18.099
X-19.119 Y18.138
X-19.069 Y18.176
X-19.02 Y18.216
X-18.972 Y18.256
X-18.923 Y18.296
X-18.875 Y18.337
X-18.828 Y18.378
X-18.781 Y18.419
X-18.734 Y18.461
X-18.688 Y18.504
X-18.642 Y18.547
X-18.596 Y18.59
X-18.551 Y18.634
X-18.506 Y18.678
X-18.462 Y18.723
X-18.418 Y18.768
X-18.375 Y18.813
X-18.332 Y18.859
X-18.289 Y18.906
X-18.247 Y18.952
X-18.205 Y18.999
X-18.164 Y19.047
X-18.123 Y19.095
X-18.083 Y19.143
X-18.043 Y19.192
X-18.003 Y19.241
X-17.964 Y19.29
X-17.926 Y19.34
X-17.888 Y19.39
X-17.85 Y19.44
X-17.813 Y19.491
X-17.776 Y19.542
X-17.74 Y19.593
X-17.704 Y19.645
X-17.669 Y19.697
X-17.635 Y19.75
X-17.6 Y19.803
X-17.567 Y19.856
X-17.533 Y19.909
X-17.501 Y19.963
X-17.469 Y20.017
X-17.437 Y20.071
X-17.406 Y20.126
X-17.375 Y20.181
X-17.345 Y20.236
X-17.315 Y20.291
X-17.286 Y20.347
X-17.258 Y20.403
X-17.229 Y20.46
X-17.202 Y20.516
X-17.175 Y20.573
X-17.148 Y20.63
X-17.123 Y20.687
X-17.097 Y20.745
X-17.072 Y20.803
X-17.048 Y20.861
X-17.024 Y20.919
X-17.001 Y20.977
X-16.978 Y21.036
X-16.956 Y21.095
X-16.935 Y21.154
X-16.914 Y21.213
X-16.893 Y21.273
X-16.873 Y21.332
X-16.854 Y21.392
X-16.835 Y21.452
X-16.817 Y21.513
X-16.8 Y21.573
X-16.783 Y21.634
X-16.766 Y21.694
X-16.75 Y21.755
X-16.735 Y21.816
X-16.72 Y21.877
X-16.706 Y21.939
X-16.692 Y22.
X-16.679 Y22.061
X-16.667 Y22.123
X-16.655 Y22.185
X-16.644 Y22.247
X-16.633 Y22.309
X-16.623 Y22.371
X-16.613 Y22.433
X-16.604 Y22.495
X-16.596 Y22.558
X-16.588 Y22.62
X-16.581 Y22.682
X-16.574 Y22.745
X-16.568 Y22.808
X-16.563 Y22.87
X-16.558 Y22.933
X-16.554 Y22.996
X-16.55 Y23.059
X-16.547 Y23.121
X-16.545 Y23.184
X-16.543 Y23.247
X-16.541 Y23.31
Y23.373
Y23.436
Y23.499
X-16.542 Y23.562
X-16.544 Y23.624
X-16.546 Y23.687
X-16.549 Y23.75
X-16.553 Y23.813
X-16.557 Y23.876
X-16.561 Y23.938
X-16.566 Y24.001
X-16.572 Y24.064
X-16.579 Y24.126
X-16.586 Y24.189
X-16.593 Y24.251
X-16.602 Y24.314
X-16.61 Y24.376
X-16.62 Y24.438
X-16.63 Y24.5
X-16.64 Y24.562
X-16.651 Y24.624
X-16.663 Y24.686
X-16.675 Y24.748
X-16.688 Y24.809
X-16.702 Y24.871
X-16.716 Y24.932
X-16.73 Y24.993
X-16.745 Y25.054
X-16.761 Y25.115
X-16.778 Y25.176
X-16.795 Y25.236
X-16.812 Y25.297
X-16.83 Y25.357
X-16.849 Y25.417
X-16.868 Y25.477
X-16.888 Y25.537
X-16.908 Y25.596
X-16.929 Y25.656
X-16.95 Y25.715
X-16.972 Y25.774
X-16.995 Y25.832
X-17.018 Y25.891
X-17.042 Y25.949
X-17.066 Y26.007
X-17.091 Y26.065
X-17.116 Y26.123
X-17.142 Y26.18
X-17.168 Y26.237
X-17.195 Y26.294
X-17.223 Y26.351
X-17.251 Y26.407
X-17.279 Y26.463
X-17.308 Y26.519
X-17.338 Y26.574
X-17.368 Y26.629
X-17.398 Y26.684
X-17.43 Y26.739
X-17.461 Y26.793
X-17.493 Y26.847
X-17.526 Y26.901
X-17.559 Y26.955
X-17.593 Y27.008
X-17.627 Y27.06
X-17.662 Y27.113
X-17.697 Y27.165
X-17.733 Y27.217
X-17.769 Y27.268
X-17.806 Y27.319
X-17.843 Y27.37
X-17.88 Y27.421
X-17.918 Y27.471
X-17.957 Y27.52
X-17.996 Y27.57
X-18.035 Y27.619
X-18.075 Y27.667
X-18.116 Y27.716
X-18.157 Y27.763
X-18.198 Y27.811
X-18.24 Y27.858
X-18.282 Y27.905
X-18.324 Y27.951
X-18.368 Y27.997
X-18.411 Y28.042
X-18.455 Y28.087
X-18.499 Y28.132
X-18.544 Y28.176
X-18.589 Y28.22
X-18.635 Y28.263
X-18.681 Y28.306
X-18.727 Y28.348
X-18.774 Y28.391
X-18.821 Y28.432
X-18.869 Y28.473
X-18.917 Y28.514
X-18.965 Y28.554
X-19.014 Y28.594
X-19.063 Y28.633
X-19.112 Y28.672
X-19.162 Y28.711
X-19.212 Y28.749
X-19.263 Y28.786
X-19.314 Y28.823
X-19.365 Y28.86
X-19.416 Y28.896
X-19.468 Y28.931
X-19.52 Y28.966
X-19.573 Y29.001
X-19.626 Y29.035
X-19.679 Y29.068
X-19.733 Y29.101
X-19.786 Y29.134
X-19.84 Y29.166
X-19.895 Y29.198
X-19.95 Y29.229
X-20.005 Y29.259
X-20.06 Y29.289
X-20.115 Y29.319
X-20.171 Y29.348
X-20.227 Y29.376
X-20.284 Y29.404
X-20.34 Y29.432
X-20.397 Y29.458
X-20.454 Y29.485
X-20.512 Y29.51
X-20.569 Y29.536
X-20.627 Y29.56
X-20.685 Y29.585
X-20.744 Y29.608
X-20.802 Y29.631
X-20.861 Y29.654
X-20.92 Y29.676
X-20.979 Y29.697
X-21.038 Y29.718
X-21.098 Y29.739
X-21.157 Y29.758
X-21.217 Y29.778
X-21.277 Y29.796
X-21.338 Y29.814
X-21.398 Y29.832
X-21.459 Y29.849
X-21.519 Y29.865
X-21.58 Y29.881
X-21.641 Y29.896
X-21.702 Y29.911
X-21.764 Y29.925
X-21.825 Y29.939
X-21.887 Y29.952
X-21.948 Y29.964
X-22.01 Y29.976
X-22.072 Y29.987
X-22.134 Y29.998
X-22.196 Y30.008
X-22.258 Y30.018
X-22.32 Y30.027
X-22.383 Y30.035
X-22.445 Y30.043
X-22.508 Y30.05
X-22.57 Y30.057
X-22.633 Y30.063
X-22.695 Y30.068
X-22.758 Y30.073
X-22.821 Y30.078
X-22.884 Y30.081
X-22.946 Y30.085
X-23.009 Y30.087
X-23.072 Y30.089
X-23.135 Y30.091
X-23.198
X-23.261 Y30.092
X-23.324 Y30.091
X-23.387
X-23.45 Y30.089
X-23.512 Y30.087
X-23.575 Y30.084
X-23.638 Y30.081
X-23.701 Y30.077
X-23.764 Y30.073
X-23.826 Y30.068
X-23.889 Y30.062
X-23.952 Y30.056
X-24.014 Y30.05
X-24.077 Y30.042
X-24.139 Y30.034
X-24.201 Y30.026
X-24.264 Y30.017
X-24.326 Y30.007
X-24.388 Y29.997
X-24.45 Y29.987
X-24.512 Y29.975
X-24.573 Y29.963
X-24.635 Y29.951
X-24.697 Y29.938
X-24.758 Y29.924
X-24.819 Y29.91
X-24.881 Y29.896
X-24.942 Y29.88
X-25.002 Y29.865
X-25.063 Y29.848
X-25.124 Y29.831
X-25.184 Y29.814
X-25.244 Y29.796
X-25.305 Y29.777
X-25.364 Y29.758
X-25.424 Y29.738
X-25.484 Y29.718
X-25.543 Y29.697
X-25.602 Y29.676
X-25.661 Y29.654
X-25.72 Y29.632
X-25.779 Y29.609
X-25.837 Y29.585
X-25.895 Y29.561
X-25.953 Y29.537
X-26.011 Y29.512
X-26.068 Y29.486
X-26.125 Y29.46
X-26.182 Y29.433
X-26.239 Y29.406
X-26.296 Y29.379
X-26.352 Y29.35
X-26.408 Y29.322
X-26.463 Y29.292
X-26.519 Y29.263
X-26.574 Y29.232
X-26.629 Y29.202
X-26.683 Y29.17
X-26.738 Y29.139
X-26.792 Y29.106
X-26.846 Y29.074
X-26.899 Y29.041
X-26.952 Y29.007
X-27.005 Y28.973
X-27.057 Y28.938
X-27.109 Y28.903
X-27.161 Y28.867
X-27.213 Y28.831
X-27.264 Y28.795
X-27.315 Y28.758
X-27.365 Y28.72
X-27.416 Y28.682
X-27.465 Y28.644
X-27.515 Y28.605
X-27.564 Y28.566
X-27.613 Y28.526
X-27.661 Y28.486
X-27.709 Y28.445
X-27.757 Y28.404
X-27.804 Y28.362
X-27.851 Y28.32
X-27.897 Y28.278
X-27.943 Y28.235
X-27.989 Y28.192
X-28.035 Y28.148
X-28.079 Y28.104
X-28.124 Y28.06
X-28.168 Y28.015
X-28.212 Y27.97
X-28.255 Y27.924
X-28.298 Y27.878
X-28.34 Y27.832
X-28.382 Y27.785
X-28.424 Y27.738
X-28.465 Y27.69
X-28.506 Y27.642
X-28.546 Y27.594
X-28.586 Y27.546
X-28.626 Y27.497
X-28.665 Y27.447
X-28.703 Y27.397
X-28.741 Y27.347
X-28.779 Y27.297
X-28.816 Y27.246
X-28.853 Y27.195
X-28.889 Y27.144
X-28.925 Y27.092
X-28.96 Y27.04
X-28.995 Y26.988
X-29.029 Y26.935
X-29.063 Y26.882
X-29.096 Y26.829
X-29.129 Y26.775
X-29.162 Y26.721
X-29.194 Y26.667
X-29.225 Y26.612
X-29.256 Y26.558
X-29.286 Y26.502
X-29.316 Y26.447
X-29.346 Y26.392
X-29.375 Y26.336
X-29.403 Y26.28
X-29.431 Y26.223
X-29.458 Y26.167
X-29.485 Y26.11
X-29.512 Y26.053
X-29.537 Y25.995
X-29.563 Y25.938
X-29.588 Y25.88
X-29.612 Y25.822
X-29.636 Y25.764
X-29.659 Y25.705
X-29.682 Y25.646
X-29.704 Y25.588
X-29.725 Y25.529
X-29.746 Y25.469
X-29.767 Y25.41
X-29.787 Y25.35
X-29.806 Y25.29
X-29.825 Y25.23
X-29.844 Y25.17
X-29.862 Y25.11
X-29.879 Y25.049
X-29.896 Y24.989
X-29.912 Y24.928
X-29.927 Y24.867
X-29.943 Y24.806
X-29.957 Y24.745
X-29.971 Y24.684
X-29.985 Y24.622
X-29.997 Y24.561
X-30.01 Y24.499
X-30.022 Y24.437
X-30.033 Y24.375
X-30.043 Y24.313
X-30.053 Y24.251
X-30.063 Y24.189
X-30.072 Y24.127
X-30.08 Y24.064
X-30.088 Y24.002
X-30.095 Y23.939
X-30.102 Y23.877
X-30.108 Y23.814
X-30.114 Y23.752
X-30.119 Y23.689
X-30.123 Y23.626
X-30.127 Y23.563
X-30.131 Y23.501
X-30.133 Y23.438
X-30.135 Y23.375
X-30.137 Y23.312
X-30.138 Y23.249
X-30.139 Y23.186
Y23.123
X-30.138 Y23.06
X-30.137 Y22.998
X-30.135 Y22.935
X-30.132 Y22.872
X-30.13 Y22.809
X-30.126 Y22.746
X-30.122 Y22.683
X-30.117 Y22.621
X-30.112 Y22.558
X-30.106 Y22.495
X-30.1 Y22.433
X-30.093 Y22.37
X-30.086 Y22.308
X-30.078 Y22.245
X-30.069 Y22.183
X-30.06 Y22.121
X-30.05 Y22.059
X-30.04 Y21.997
X-30.029 Y21.935
X-30.018 Y21.873
X-30.006 Y21.811
X-29.993 Y21.749
X-29.98 Y21.688
X-29.967 Y21.627
X-29.953 Y21.565
X-29.938 Y21.504
X-29.923 Y21.443
X-29.907 Y21.382
X-29.89 Y21.321
X-29.874 Y21.261
X-29.856 Y21.2
X-29.838 Y21.14
X-29.82 Y21.08
X-29.8 Y21.02
X-29.781 Y20.96
X-29.761 Y20.901
X-29.74 Y20.841
X-29.719 Y20.782
X-29.697 Y20.723
X-29.675 Y20.664
X-29.652 Y20.606
X-29.629 Y20.547
X-29.605 Y20.489
X-29.58 Y20.431
X-29.555 Y20.373
X-29.53 Y20.316
X-29.504 Y20.259
X-29.478 Y20.201
X-29.451 Y20.145
X-29.423 Y20.088
X-29.395 Y20.032
X-29.367 Y19.976
X-29.338 Y19.92
X-29.308 Y19.864
X-29.278 Y19.809
X-29.248 Y19.754
X-29.217 Y19.699
X-29.185 Y19.645
X-29.153 Y19.591
X-29.121 Y19.537
X-29.088 Y19.483
X-29.054 Y19.43
X-29.02 Y19.377
X-28.986 Y19.324
X-28.951 Y19.272
X-28.916 Y19.22
X-28.88 Y19.168
X-28.844 Y19.117
X-28.807 Y19.066
X-28.77 Y19.015
X-28.732 Y18.965
X-28.694 Y18.915
X-28.655 Y18.865
X-28.616 Y18.815
X-28.577 Y18.766
X-28.537 Y18.718
X-28.497 Y18.67
X-28.456 Y18.622
X-28.415 Y18.574
X-28.373 Y18.527
X-28.331 Y18.48
X-28.289 Y18.434
X-28.246 Y18.388
X-28.203 Y18.342
X-28.159 Y18.297
X-28.115 Y18.252
X-28.071 Y18.207
X-28.026 Y18.163
X-27.98 Y18.12
X-27.935 Y18.076
X-27.889 Y18.033
X-27.842 Y17.991
X-27.795 Y17.949
X-27.748 Y17.907
X-27.701 Y17.866
X-27.653 Y17.826
X-27.604 Y17.785
X-27.556 Y17.745
X-27.507 Y17.706
X-27.457 Y17.667
X-27.408 Y17.628
X-27.358 Y17.59
X-27.307 Y17.553
X-27.257 Y17.516
X-27.205 Y17.479
X-27.154 Y17.443
X-27.102 Y17.407
X-27.05 Y17.372
X-26.998 Y17.337
X-26.945 Y17.302
X-26.892 Y17.268
X-26.839 Y17.235
X-26.785 Y17.202
X-26.732 Y17.17
X-26.677 Y17.138
X-26.623 Y17.106
X-26.568 Y17.075
X-26.513 Y17.045
X-26.458 Y17.015
X-26.402 Y16.985
X-26.347 Y16.956
X-26.291 Y16.927
X-26.234 Y16.899
X-26.178 Y16.872
X-26.121 Y16.845
X-26.064 Y16.819
X-26.006 Y16.793
X-25.949 Y16.767
X-25.891 Y16.742
X-25.833 Y16.718
X-25.775 Y16.694
X-25.717 Y16.671
X-25.658 Y16.648
X-25.599 Y16.625
X-25.54 Y16.604
X-25.481 Y16.582
X-25.422 Y16.562
X-25.362 Y16.542
X-25.302 Y16.522
X-25.242 Y16.503
X-25.182 Y16.484
X-25.122 Y16.466
X-25.062 Y16.449
X-25.001 Y16.432
X-24.94 Y16.415
X-24.879 Y16.4
X-24.818 Y16.384
X-24.757 Y16.37
X-24.696 Y16.355
X-24.634 Y16.342
X-24.573 Y16.329
X-24.511 Y16.316
X-24.45 Y16.304
X-24.388 Y16.293
X-24.326 Y16.282
X-24.264 Y16.271
X-24.202 Y16.262
X-24.139 Y16.252
X-24.077 Y16.244
X-24.015 Y16.236
X-23.952 Y16.228
X-23.89 Y16.221
X-23.827 Y16.215
X-23.765 Y16.209
X-23.702 Y16.204
X-23.639 Y16.199
X-23.576 Y16.195
X-23.514 Y16.191
X-23.451 Y16.188
X-23.388 Y16.186
X-23.325 Y16.184
X-23.262 Y16.183
X-23.199 Y16.182
X-23.136
X-23.073
X-23.011 Y16.183
X-22.948 Y16.184
X-22.885 Y16.186
X-22.822 Y16.189
X-22.759 Y16.192
X-22.696 Y16.196
X-22.634 Y16.2
X-22.571 Y16.205
X-22.508 Y16.21
X-22.446 Y16.216
X-22.383 Y16.223
X-22.321 Y16.23
X-22.258 Y16.237
X-22.196 Y16.246
X-22.133 Y16.254
X-22.071 Y16.264
X-22.009 Y16.273
X-21.947 Y16.284
X-21.885 Y16.295
X-21.823 Y16.306
X-21.762 Y16.318
X-21.7 Y16.331
X-21.638 Y16.344
X-21.577 Y16.358
X-21.516 Y16.372
X-21.455 Y16.387
X-21.394 Y16.402
X-21.333 Y16.418
X-21.272 Y16.434
X-21.211 Y16.451
X-21.151 Y16.469
X-21.091 Y16.487
X-21.031 Y16.505
X-20.971 Y16.524
X-20.911 Y16.544
X-20.851 Y16.564
X-20.792 Y16.585
X-20.733 Y16.606
X-20.674 Y16.628
X-20.615 Y16.65
X-20.556 Y16.673
X-20.498 Y16.696
X-20.439 Y16.72
X-20.381 Y16.744
X-20.324 Y16.769
X-20.266 Y16.794
X-20.209 Y16.82
X-20.152 Y16.846
X-20.095 Y16.873
X-20.038 Y16.9
X-19.982 Y16.928
X-19.925 Y16.956
X-19.869 Y16.985
X-19.814 Y17.014
X-19.758 Y17.044
X-19.703 Y17.074
X-19.648 Y17.105
X-19.594 Y17.136
X-19.539 Y17.168
X-19.485 Y17.2
X-19.432 Y17.233
X-19.378 Y17.266
X-19.325 Y17.3
X-19.272 Y17.334
X-19.219 Y17.368
X-19.167 Y17.403
X-19.115 Y17.439
X-19.064 Y17.474
X-19.012 Y17.511
X-18.961 Y17.547
X-18.91 Y17.585
X-18.86 Y17.622
X-18.81 Y17.66
X-18.76 Y17.699
X-18.711 Y17.738
X-18.662 Y17.777
X-18.613 Y17.817
X-18.565 Y17.857
X-18.517 Y17.898
X-18.469 Y17.939
X-18.422 Y17.98
X-18.375 Y18.022
X-18.328 Y18.065
X-18.282 Y18.107
X-18.236 Y18.15
X-18.191 Y18.194
X-18.146 Y18.238
X-18.101 Y18.282
X-18.057 Y18.327
X-18.013 Y18.372
X-17.969 Y18.417
X-17.926 Y18.463
X-17.884 Y18.509
X-17.841 Y18.556
X-17.799 Y18.603
X-17.758 Y18.65
X-17.717 Y18.698
X-17.676 Y18.746
X-17.636 Y18.794
X-17.596 Y18.843
X-17.557 Y18.892
X-17.518 Y18.941
X-17.479 Y18.991
X-17.441 Y19.041
X-17.403 Y19.091
X-17.366 Y19.142
X-17.329 Y19.193
X-17.293 Y19.244
X-17.257 Y19.296
X-17.221 Y19.348
X-17.186 Y19.4
X-17.152 Y19.452
X-17.118 Y19.505
X-17.084 Y19.558
X-17.051 Y19.612
X-17.018 Y19.666
X-16.986 Y19.72
X-16.954 Y19.774
X-16.923 Y19.828
X-16.892 Y19.883
X-16.862 Y19.938
X-16.832 Y19.994
X-16.802 Y20.049
X-16.773 Y20.105
X-16.745 Y20.161
X-16.717 Y20.217
X-16.689 Y20.274
X-16.662 Y20.331
X-16.636 Y20.388
X-16.61 Y20.445
X-16.584 Y20.503
X-16.559 Y20.56
X-16.535 Y20.618
X-16.511 Y20.677
X-16.487 Y20.735
X-16.464 Y20.793
X-16.442 Y20.852
X-16.42 Y20.911
X-16.399 Y20.97
X-16.378 Y21.03
X-16.357 Y21.089
X-16.337 Y21.149
X-16.318 Y21.209
X-16.299 Y21.269
X-16.281 Y21.329
X-16.263 Y21.389
X-16.246 Y21.449
X-16.229 Y21.51
X-16.212 Y21.571
X-16.197 Y21.632
X-16.182 Y21.693
X-16.167 Y21.754
X-16.153 Y21.815
X-16.139 Y21.877
X-16.126 Y21.938
X-16.113 Y22.
X-16.101 Y22.062
X-16.09 Y22.123
X-16.079 Y22.185
X-16.069 Y22.247
X-16.059 Y22.309
X-16.049 Y22.372
X-16.041 Y22.434
X-16.032 Y22.496
X-16.025 Y22.559
X-16.018 Y22.621
X-16.011 Y22.684
X-16.005 Y22.746
X-15.999 Y22.809
X-15.994 Y22.872
X-15.99 Y22.934
X-15.986 Y22.997
X-15.983 Y23.06
X-15.98 Y23.123
X-15.978 Y23.186
X-15.976 Y23.249
X-15.975 Y23.312
X-15.974 Y23.374
Y23.437
Y23.5
X-15.976 Y23.563
X-15.977 Y23.626
X-15.979 Y23.689
X-15.982 Y23.752
X-15.985 Y23.815
X-15.989 Y23.877
X-15.993 Y23.94
X-15.998 Y24.003
X-16.003 Y24.065
X-16.009 Y24.128
X-16.016 Y24.191
X-16.023 Y24.253
X-16.03 Y24.316
X-16.038 Y24.378
X-16.047 Y24.44
X-16.056 Y24.503
X-16.066 Y24.565
X-16.076 Y24.627
X-16.087 Y24.689
X-16.098 Y24.751
X-16.11 Y24.812
X-16.123 Y24.874
X-16.136 Y24.936
X-16.149 Y24.997
X-16.163 Y25.058
X-16.178 Y25.119
X-16.193 Y25.18
X-16.209 Y25.241
X-16.225 Y25.302
X-16.242 Y25.363
X-16.259 Y25.423
X-16.276 Y25.484
X-16.295 Y25.544
X-16.314 Y25.604
X-16.333 Y25.664
X-16.353 Y25.723
X-16.373 Y25.783
X-16.394 Y25.842
X-16.415 Y25.901
X-16.437 Y25.96
X-16.46 Y26.019
X-16.483 Y26.078
X-16.506 Y26.136
X-16.53 Y26.194
X-16.554 Y26.252
X-16.579 Y26.31
X-16.605 Y26.368
X-16.631 Y26.425
X-16.657 Y26.482
X-16.684 Y26.539
X-16.712 Y26.595
X-16.74 Y26.652
X-16.768 Y26.708
X-16.797 Y26.764
X-16.826 Y26.819
X-16.856 Y26.875
X-16.887 Y26.93
X-16.917 Y26.985
X-16.949 Y27.039
X-16.98 Y27.093
X-17.013 Y27.147
X-17.045 Y27.201
X-17.079 Y27.254
X-17.112 Y27.308
X-17.146 Y27.36
X-17.181 Y27.413
X-17.216 Y27.465
X-17.252 Y27.517
X-17.287 Y27.569
X-17.324 Y27.62
X-17.361 Y27.671
X-17.398 Y27.722
X-17.436 Y27.772
X-17.474 Y27.822
X-17.512 Y27.872
X-17.551 Y27.921
X-17.591 Y27.97
X-17.631 Y28.019
X-17.671 Y28.067
X-17.712 Y28.115
X-17.753 Y28.163
X-17.794 Y28.21
X-17.836 Y28.257
X-17.879 Y28.303
X-17.921 Y28.349
X-17.965 Y28.395
X-18.008 Y28.441
X-18.052 Y28.486
X-18.096 Y28.53
X-18.141 Y28.574
X-18.186 Y28.618
X-18.232 Y28.662
X-18.277 Y28.705
X-18.324 Y28.747
X-18.37 Y28.79
X-18.417 Y28.832
X-18.465 Y28.873
X-18.512 Y28.914
X-18.56 Y28.955
X-18.609 Y28.995
X-18.657 Y29.035
X-18.706 Y29.074
X-18.756 Y29.113
X-18.806 Y29.151
X-18.856 Y29.19
X-18.906 Y29.227
X-18.957 Y29.264
X-19.008 Y29.301
X-19.059 Y29.337
X-19.111 Y29.373
X-19.163 Y29.409
X-19.215 Y29.444
X-19.268 Y29.478
X-19.321 Y29.512
X-19.374 Y29.546
X-19.427 Y29.579
X-19.481 Y29.612
X-19.535 Y29.644
X-19.589 Y29.676
X-19.644 Y29.707
X-19.699 Y29.738
X-19.754 Y29.768
X-19.809 Y29.798
X-19.865 Y29.827
X-19.921 Y29.856
X-19.977 Y29.885
X-20.033 Y29.912
X-20.09 Y29.94
X-20.147 Y29.967
X-20.204 Y29.993
X-20.261 Y30.019
X-20.318 Y30.045
X-20.376 Y30.07
X-20.434 Y30.094
X-20.492 Y30.118
X-20.551 Y30.142
X-20.609 Y30.165
X-20.668 Y30.187
X-20.727 Y30.209
X-20.786 Y30.23
X-20.845 Y30.251
X-20.905 Y30.272
X-20.964 Y30.292
X-21.024 Y30.311
X-21.084 Y30.33
X-21.144 Y30.348
X-21.205 Y30.366
X-21.265 Y30.384
X-21.326 Y30.4
X-21.387 Y30.417
X-21.448 Y30.432
X-21.509 Y30.448
X-21.57 Y30.462
X-21.631 Y30.477
X-21.692 Y30.49
X-21.754 Y30.503
X-21.816 Y30.516
X-21.877 Y30.528
X-21.939 Y30.54
X-22.001 Y30.551
X-22.063 Y30.561
X-22.125 Y30.571
X-22.187 Y30.581
X-22.25 Y30.589
X-22.312 Y30.598
X-22.374 Y30.606
X-22.437 Y30.613
X-22.499 Y30.62
X-22.562 Y30.626
X-22.625 Y30.632
X-22.687 Y30.637
X-22.75 Y30.641
X-22.813 Y30.645
X-22.876 Y30.649
X-22.938 Y30.652
X-23.001 Y30.654
X-23.064 Y30.656
X-23.127 Y30.658
X-23.19 Y30.659
X-23.253
X-23.316
X-23.379 Y30.658
X-23.441 Y30.657
X-23.504 Y30.655
X-23.567 Y30.652
X-23.63 Y30.65
X-23.693 Y30.646
X-23.756 Y30.642
X-23.818 Y30.638
X-23.881 Y30.633
X-23.944 Y30.627
X-24.006 Y30.621
X-24.069 Y30.614
X-24.131 Y30.607
X-24.194 Y30.599
X-24.256 Y30.591
X-24.318 Y30.582
X-24.381 Y30.573
X-24.443 Y30.563
X-24.505 Y30.553
X-24.567 Y30.542
X-24.629 Y30.531
X-24.69 Y30.519
X-24.752 Y30.506
X-24.814 Y30.493
X-24.875 Y30.48
X-24.936 Y30.466
X-24.998 Y30.451
X-25.059 Y30.436
X-25.12 Y30.42
X-25.18 Y30.404
X-25.241 Y30.388
X-25.302 Y30.371
X-25.362 Y30.353
X-25.422 Y30.335
X-25.482 Y30.316
X-25.542 Y30.297
X-25.602 Y30.277
X-25.661 Y30.257
X-25.721 Y30.236
X-25.78 Y30.215
X-25.839 Y30.194
X-25.898 Y30.171
X-25.957 Y30.149
X-26.015 Y30.125
X-26.073 Y30.102
X-26.131 Y30.078
X-26.189 Y30.053
X-26.247 Y30.028
X-26.304 Y30.002
X-26.362 Y29.976
X-26.419 Y29.949
X-26.475 Y29.922
X-26.532 Y29.895
X-26.588 Y29.867
X-26.644 Y29.838
X-26.7 Y29.809
X-26.756 Y29.78
X-26.811 Y29.75
X-26.866 Y29.719
X-26.921 Y29.689
X-26.975 Y29.657
X-27.03 Y29.625
X-27.084 Y29.593
X-27.137 Y29.561
X-27.191 Y29.527
X-27.244 Y29.494
X-27.297 Y29.46
X-27.35 Y29.425
X-27.402 Y29.39
X-27.454 Y29.355
X-27.506 Y29.319
X-27.557 Y29.283
X-27.608 Y29.246
X-27.659 Y29.209
X-27.709 Y29.172
X-27.759 Y29.134
X-27.809 Y29.095
X-27.859 Y29.056
X-27.908 Y29.017
X-27.957 Y28.978
X-28.005 Y28.938
X-28.054 Y28.897
X-28.101 Y28.856
X-28.149 Y28.815
X-28.196 Y28.773
X-28.243 Y28.731
X-28.289 Y28.689
X-28.335 Y28.646
X-28.381 Y28.603
X-28.426 Y28.559
X-28.471 Y28.515
X-28.516 Y28.471
X-28.56 Y28.426
X-28.604 Y28.381
X-28.647 Y28.336
X-28.691 Y28.29
X-28.733 Y28.244
X-28.776 Y28.197
X-28.817 Y28.15
X-28.859 Y28.103
X-28.9 Y28.055
X-28.941 Y28.007
X-28.981 Y27.959
X-29.021 Y27.911
X-29.061 Y27.862
X-29.1 Y27.812
X-29.138 Y27.763
X-29.177 Y27.713
X-29.214 Y27.663
X-29.252 Y27.612
X-29.289 Y27.561
X-29.325 Y27.51
X-29.362 Y27.458
X-29.397 Y27.407
X-29.433 Y27.355
X-29.467 Y27.302
X-29.502 Y27.25
X-29.536 Y27.197
X-29.569 Y27.143
X-29.602 Y27.09
X-29.635 Y27.036
X-29.667 Y26.982
X-29.699 Y26.928
X-29.73 Y26.873
X-29.761 Y26.818
X-29.791 Y26.763
X-29.821 Y26.708
X-29.85 Y26.652
X-29.879 Y26.596
X-29.908 Y26.54
X-29.936 Y26.484
X-29.963 Y26.427
X-29.99 Y26.37
X-30.017 Y26.313
X-30.043 Y26.256
X-30.068 Y26.199
X-30.093 Y26.141
X-30.118 Y26.083
X-30.142 Y26.025
X-30.166 Y25.967
X-30.189 Y25.908
X-30.212 Y25.85
X-30.234 Y25.791
X-30.256 Y25.732
X-30.277 Y25.673
X-30.298 Y25.613
X-30.318 Y25.554
X-30.337 Y25.494
X-30.357 Y25.434
X-30.375 Y25.374
X-30.394 Y25.314
X-30.411 Y25.253
X-30.428 Y25.193
X-30.445 Y25.132
X-30.461 Y25.071
X-30.477 Y25.01
X-30.492 Y24.949
X-30.507 Y24.888
X-30.521 Y24.827
X-30.535 Y24.766
X-30.548 Y24.704
X-30.56 Y24.642
X-30.572 Y24.581
X-30.584 Y24.519
X-30.595 Y24.457
X-30.605 Y24.395
X-30.615 Y24.333
X-30.625 Y24.271
X-30.634 Y24.208
X-30.642 Y24.146
X-30.65 Y24.084
X-30.658 Y24.021
X-30.665 Y23.959
X-30.671 Y23.896
X-30.677 Y23.833
X-30.682 Y23.771
X-30.687 Y23.708
X-30.691 Y23.645
X-30.695 Y23.583
X-30.698 Y23.52
X-30.701 Y23.457
X-30.703 Y23.394
X-30.705 Y23.331
X-30.706 Y23.268
Y23.205
Y23.142
Y23.08
X-30.705 Y23.017
X-30.704 Y22.954
X-30.702 Y22.891
X-30.699 Y22.828
X-30.696 Y22.765
X-30.692 Y22.702
X-30.688 Y22.64
X-30.684 Y22.577
X-30.678 Y22.514
X-30.673 Y22.452
X-30.666 Y22.389
X-30.66 Y22.326
X-30.652 Y22.264
X-30.645 Y22.202
X-30.636 Y22.139
X-30.628 Y22.077
X-30.618 Y22.015
X-30.608 Y21.953
X-30.598 Y21.891
X-30.587 Y21.829
X-30.576 Y21.767
X-30.564 Y21.705
X-30.551 Y21.643
X-30.538 Y21.582
X-30.525 Y21.52
X-30.511 Y21.459
X-30.496 Y21.398
X-30.481 Y21.337
X-30.466 Y21.276
X-30.45 Y21.215
X-30.433 Y21.154
X-30.416 Y21.094
X-30.399 Y21.033
X-30.381 Y20.973
X-30.362 Y20.913
X-30.343 Y20.853
X-30.324 Y20.793
X-30.304 Y20.734
X-30.283 Y20.674
X-30.262 Y20.615
X-30.241 Y20.556
X-30.219 Y20.497
X-30.196 Y20.438
X-30.173 Y20.379
X-30.15 Y20.321
X-30.126 Y20.263
X-30.101 Y20.205
X-30.076 Y20.147
X-30.051 Y20.09
X-30.025 Y20.032
X-29.999 Y19.975
X-29.972 Y19.918
X-29.945 Y19.862
X-29.917 Y19.805
X-29.889 Y19.749
X-29.86 Y19.693
X-29.831 Y19.637
X-29.801 Y19.582
X-29.771 Y19.527
X-29.74 Y19.472
X-29.709 Y19.417
X-29.678 Y19.363
X-29.646 Y19.308
X-29.614 Y19.254
X-29.581 Y19.201
X-29.547 Y19.147
X-29.514 Y19.094
X-29.48 Y19.041
X-29.445 Y18.989
X-29.41 Y18.937
X-29.375 Y18.885
X-29.339 Y18.833
X-29.302 Y18.782
X-29.266 Y18.731
X-29.228 Y18.68
X-29.191 Y18.63
X-29.153 Y18.579
X-29.114 Y18.53
X-29.075 Y18.48
X-29.036 Y18.431
X-28.997 Y18.382
X-28.956 Y18.334
X-28.916 Y18.286
X-28.875 Y18.238
X-28.834 Y18.19
X-28.792 Y18.143
X-28.75 Y18.096
X-28.708 Y18.05
X-28.665 Y18.004
X-28.622 Y17.958
X-28.578 Y17.913
X-28.534 Y17.868
X-28.49 Y17.823
X-28.445 Y17.779
X-28.4 Y17.735
X-28.355 Y17.692
X-28.309 Y17.648
X-28.263 Y17.606
X-28.216 Y17.563
X-28.169 Y17.521
X-28.122 Y17.48
X-28.075 Y17.439
X-28.027 Y17.398
X-27.978 Y17.357
X-27.93 Y17.318
X-27.881 Y17.278
X-27.832 Y17.239
X-27.782 Y17.2
X-27.732 Y17.162
X-27.682 Y17.124
X-27.632 Y17.086
X-27.581 Y17.049
X-27.53 Y17.013
X-27.478 Y16.976
X-27.427 Y16.94
X-27.375 Y16.905
X-27.322 Y16.87
X-27.27 Y16.836
X-27.217 Y16.802
X-27.164 Y16.768
X-27.11 Y16.735
X-27.057 Y16.702
X-27.003 Y16.67
X-26.948 Y16.638
X-26.894 Y16.607
X-26.839 Y16.576
X-26.784 Y16.545
X-26.729 Y16.515
X-26.673 Y16.486
X-26.617 Y16.457
X-26.561 Y16.428
X-26.505 Y16.4
X-26.449 Y16.372
X-26.392 Y16.345
X-26.335 Y16.318
X-26.278 Y16.292
X-26.22 Y16.266
X-26.163 Y16.241
X-26.105 Y16.216
X-26.047 Y16.192
X-25.989 Y16.168
X-25.931 Y16.144
X-25.872 Y16.121
X-25.813 Y16.099
X-25.754 Y16.077
X-25.695 Y16.056
X-25.636 Y16.035
X-25.576 Y16.014
