(G-CODE GENERATED BY FLATCAM v8.91 - www.flatcam.org - Version Date: 2019/02/23)

(Name: kroneum-Edge.Cuts.gbr_cutout_cnc)
(Type: G-code from Geometry)
(Units: MM)

(Created on Wednesday, 27 February 2019 at 23:57)

(TOOL DIAMETER: 1.5 mm)
(Feedrate: 300.0 mm/min)
(Feedrate_Z: 80.0 mm/min)
(Feedrate rapids 80.0 mm/min)

(Z_Cut: -1.8 mm)
(Z_Move: 4.0 mm)
(Z Toolchange: 1.0 mm)
(X,Y Toolchange: 0.0000, 0.0000 mm)
(Z Start: None mm)
(Z End: 2.0 mm)
(Steps per circle: 64)
(Postprocessor Geometry: default)

(X range:  -44.4750 ...    0.8250  mm)
(Y range:   -0.8250 ...   40.8250  mm)

(Spindle Speed: 12000 RPM)

G21
G90
G94

G01 F300.00
G00 Z4.0000

M03 S12000
G4 P3.0
G00 X-21.0000 Y-0.8250
G01 F80.00
G01 Z-1.8000
G01 F300.00
G01 X0.8250 Y-0.8250
G01 X0.8250 Y40.8250
G01 X-21.0000 Y40.8250
G00 Z4.0000
G00 X-22.6500 Y40.8250
G01 F80.00
G01 Z-1.8000
G01 F300.00
G01 X-44.4750 Y40.8250
G01 X-44.4750 Y-0.8250
G01 X-22.6500 Y-0.8250
G00 Z4.0000
M05
G00 Z4.0000
G00 Z2.00
G00 X0.0 Y0.0

