(G-CODE GENERATED BY FLATCAM v8.91 - www.flatcam.org - Version Date: 2019/02/23)

(Name: kroneum-F.Cu.gbr_iso_cnc)
(Type: G-code from Geometry)
(Units: MM)

(Created on Wednesday, 27 February 2019 at 23:18)

(TOOL DIAMETER: 0.24 mm)
(Feedrate: 350.0 mm/min)
(Feedrate_Z: 80.0 mm/min)
(Feedrate rapids 80.0 mm/min)

(Z_Cut: -0.065 mm)
(Z_Move: 4.0 mm)
(Z Toolchange: 1.0 mm)
(X,Y Toolchange: 0.0000, 0.0000 mm)
(Z Start: None mm)
(Z End: 2.0 mm)
(Steps per circle: 64)
(Postprocessor Geometry: default)

(X range:  -43.2950 ...   -0.4549  mm)
(Y range:    0.3600 ...   39.5451  mm)

(Spindle Speed: 20000 RPM)

G21
G90
G94

G01 F350.00
G00 Z4.0000

M03 S20000
G4 P3.0
G00 X-14.3763 Y1.4903
G01 F80.00
G01 Z-0.0650
G01 F350.00
G01 X-14.3880 Y1.4859
G01 X-14.4001 Y1.4826
G01 X-14.4125 Y1.4807
G01 X-14.4299 Y1.4800
G01 X-14.4299 Y1.1494
G01 X-14.4006 Y1.1201
G01 X-14.3777 Y1.1201
G01 X-14.2850 Y1.1385
G01 X-14.1977 Y1.1747
G01 X-14.1191 Y1.2272
G01 X-14.0522 Y1.2941
G01 X-13.9997 Y1.3727
G01 X-13.9635 Y1.4600
G01 X-13.9451 Y1.5527
G01 X-13.9451 Y1.6506
G01 X-13.9744 Y1.6799
G01 X-14.3050 Y1.6799
G01 X-14.3050 Y1.6000
G01 X-14.3057 Y1.5875
G01 X-14.3076 Y1.5751
G01 X-14.3109 Y1.5630
G01 X-14.3153 Y1.5513
G01 X-14.3210 Y1.5400
G01 X-14.3279 Y1.5295
G01 X-14.3358 Y1.5197
G01 X-14.3447 Y1.5108
G01 X-14.3545 Y1.5029
G01 X-14.3650 Y1.4960
G01 X-14.3763 Y1.4903
G01 X-14.3880 Y1.4859
G00 Z4.0000
G00 X-14.3153 Y2.6487
G01 F80.00
G01 Z-0.0650
G01 F350.00
G01 X-14.3109 Y2.6370
G01 X-14.3076 Y2.6249
G01 X-14.3057 Y2.6125
G01 X-14.3050 Y2.6000
G01 X-14.3050 Y2.5201
G01 X-13.9744 Y2.5201
G01 X-13.9451 Y2.5494
G01 X-13.9451 Y2.6473
G01 X-13.9635 Y2.7400
G01 X-13.9997 Y2.8273
G01 X-14.0522 Y2.9059
G01 X-14.1191 Y2.9728
G01 X-14.1977 Y3.0253
G01 X-14.2850 Y3.0615
G01 X-14.3777 Y3.0799
G01 X-14.4006 Y3.0799
G01 X-14.4299 Y3.0506
G01 X-14.4299 Y2.7200
G01 X-14.4125 Y2.7193
G01 X-14.4001 Y2.7174
G01 X-14.3880 Y2.7141
G01 X-14.3763 Y2.7097
G01 X-14.3650 Y2.7040
G01 X-14.3545 Y2.6971
G01 X-14.3447 Y2.6892
G01 X-14.3358 Y2.6803
G01 X-14.3279 Y2.6705
G01 X-14.3210 Y2.6600
G01 X-14.3153 Y2.6487
G01 X-14.3109 Y2.6370
G00 Z4.0000
G00 X-15.7549 Y2.6012
G01 F80.00
G01 Z-0.0650
G01 F350.00
G01 X-15.3949 Y2.6012
G01 X-15.3943 Y2.6125
G01 X-15.3924 Y2.6249
G01 X-15.3891 Y2.6370
G01 X-15.3847 Y2.6487
G01 X-15.3790 Y2.6600
G01 X-15.3721 Y2.6705
G01 X-15.3642 Y2.6803
G01 X-15.3553 Y2.6892
G01 X-15.3455 Y2.6971
G01 X-15.3350 Y2.7040
G01 X-15.3237 Y2.7097
G01 X-15.3120 Y2.7141
G01 X-15.2999 Y2.7174
G01 X-15.2875 Y2.7193
G01 X-15.2701 Y2.7200
G01 X-15.2701 Y3.0506
G01 X-15.2994 Y3.0799
G01 X-15.3223 Y3.0799
G01 X-15.4150 Y3.0615
G01 X-15.5023 Y3.0253
G01 X-15.5809 Y2.9728
G01 X-15.6478 Y2.9059
G01 X-15.7003 Y2.8273
G01 X-15.7365 Y2.7400
G01 X-15.7549 Y2.6473
G01 X-15.7549 Y2.6012
G01 X-15.3949 Y2.6012
G00 Z4.0000
G00 X-15.7549 Y1.5988
G01 F80.00
G01 Z-0.0650
G01 F350.00
G01 X-15.7549 Y1.5527
G01 X-15.7365 Y1.4600
G01 X-15.7003 Y1.3727
G01 X-15.6478 Y1.2941
G01 X-15.5809 Y1.2272
G01 X-15.5023 Y1.1747
G01 X-15.4150 Y1.1385
G01 X-15.3223 Y1.1201
G01 X-15.2994 Y1.1201
G01 X-15.2701 Y1.1494
G01 X-15.2701 Y1.4800
G01 X-15.2875 Y1.4807
G01 X-15.2999 Y1.4826
G01 X-15.3120 Y1.4859
G01 X-15.3237 Y1.4903
G01 X-15.3350 Y1.4960
G01 X-15.3455 Y1.5029
G01 X-15.3553 Y1.5108
G01 X-15.3642 Y1.5197
G01 X-15.3721 Y1.5295
G01 X-15.3790 Y1.5400
G01 X-15.3847 Y1.5513
G01 X-15.3891 Y1.5630
G01 X-15.3924 Y1.5751
G01 X-15.3943 Y1.5875
G01 X-15.3949 Y1.5988
G01 X-15.7549 Y1.5988
G01 X-15.7549 Y1.5527
G00 Z4.0000
G00 X-20.6763 Y1.4903
G01 F80.00
G01 Z-0.0650
G01 F350.00
G01 X-20.6880 Y1.4859
G01 X-20.7001 Y1.4826
G01 X-20.7125 Y1.4807
G01 X-20.7299 Y1.4800
G01 X-20.7299 Y1.1494
G01 X-20.7006 Y1.1201
G01 X-20.6777 Y1.1201
G01 X-20.5850 Y1.1385
G01 X-20.4977 Y1.1747
G01 X-20.4191 Y1.2272
G01 X-20.3522 Y1.2941
G01 X-20.2997 Y1.3727
G01 X-20.2635 Y1.4600
G01 X-20.2451 Y1.5527
G01 X-20.2451 Y1.5988
G01 X-20.6051 Y1.5988
G01 X-20.6057 Y1.5875
G01 X-20.6076 Y1.5751
G01 X-20.6109 Y1.5630
G01 X-20.6153 Y1.5513
G01 X-20.6210 Y1.5400
G01 X-20.6279 Y1.5295
G01 X-20.6358 Y1.5197
G01 X-20.6447 Y1.5108
G01 X-20.6545 Y1.5029
G01 X-20.6650 Y1.4960
G01 X-20.6763 Y1.4903
G01 X-20.6880 Y1.4859
G00 Z4.0000
G00 X-20.6153 Y2.6487
G01 F80.00
G01 Z-0.0650
G01 F350.00
G01 X-20.6109 Y2.6370
G01 X-20.6076 Y2.6249
G01 X-20.6057 Y2.6125
G01 X-20.6051 Y2.6012
G01 X-20.2451 Y2.6012
G01 X-20.2451 Y2.6473
G01 X-20.2635 Y2.7400
G01 X-20.2997 Y2.8273
G01 X-20.3522 Y2.9059
G01 X-20.4191 Y2.9728
G01 X-20.4977 Y3.0253
G01 X-20.5850 Y3.0615
G01 X-20.6777 Y3.0799
G01 X-20.7006 Y3.0799
G01 X-20.7299 Y3.0506
G01 X-20.7299 Y2.7200
G01 X-20.7125 Y2.7193
G01 X-20.7001 Y2.7174
G01 X-20.6880 Y2.7141
G01 X-20.6763 Y2.7097
G01 X-20.6650 Y2.7040
G01 X-20.6545 Y2.6971
G01 X-20.6447 Y2.6892
G01 X-20.6358 Y2.6803
G01 X-20.6279 Y2.6705
G01 X-20.6210 Y2.6600
G01 X-20.6153 Y2.6487
G01 X-20.6109 Y2.6370
G00 Z4.0000
G00 X-22.7248 Y2.4738
G01 F80.00
G01 Z-0.0650
G01 F350.00
G01 X-22.7423 Y2.4445
G01 X-22.7604 Y2.4199
G01 X-22.7884 Y2.3884
G01 X-22.8133 Y2.3656
G01 X-22.8396 Y2.3457
G01 X-22.8494 Y2.3392
G01 X-22.8785 Y2.3222
G01 X-22.9056 Y2.3094
G01 X-22.9370 Y2.2978
G01 X-22.9752 Y2.2877
G01 X-23.0079 Y2.2825
G01 X-23.0196 Y2.2813
G01 X-23.0500 Y2.2800
G01 X-23.0799 Y2.2800
G01 X-23.0799 Y1.9494
G01 X-23.0506 Y1.9201
G01 X-22.7527 Y1.9201
G01 X-22.6600 Y1.9385
G01 X-22.5727 Y1.9747
G01 X-22.4941 Y2.0272
G01 X-22.4272 Y2.0941
G01 X-22.4039 Y2.1255
G01 X-22.3806 Y2.1495
G01 X-22.3637 Y2.1638
G01 X-22.3348 Y2.1832
G01 X-22.3158 Y2.1933
G01 X-22.2916 Y2.2035
G01 X-22.2627 Y2.2123
G01 X-22.2507 Y2.2149
G01 X-22.2259 Y2.2187
G01 X-22.1987 Y2.2201
G01 X-22.1375 Y2.2201
G01 X-22.1140 Y2.2189
G01 X-22.0840 Y2.2146
G01 X-22.0547 Y2.2070
G01 X-22.0265 Y2.1961
G01 X-21.9996 Y2.1821
G01 X-21.9882 Y2.1749
G01 X-21.9703 Y2.1621
G01 X-21.9514 Y2.1456
G01 X-21.9419 Y2.1361
G01 X-21.9223 Y2.1130
G01 X-21.9075 Y2.0916
G01 X-21.8973 Y2.0732
G01 X-21.8844 Y2.0441
G01 X-21.8754 Y2.0150
G01 X-21.8729 Y2.0035
G01 X-21.8689 Y1.9777
G01 X-21.8676 Y1.9433
G01 X-21.8701 Y1.9131
G01 X-21.8754 Y1.8850
G01 X-21.8805 Y1.8672
G01 X-21.8914 Y1.8390
G01 X-21.9075 Y1.8084
G01 X-21.9254 Y1.7828
G01 X-21.9419 Y1.7639
G01 X-22.0549 Y1.6506
G01 X-22.0549 Y1.5527
G01 X-22.0365 Y1.4600
G01 X-22.0003 Y1.3727
G01 X-21.9478 Y1.2941
G01 X-21.8809 Y1.2272
G01 X-21.8023 Y1.1747
G01 X-21.7150 Y1.1385
G01 X-21.6223 Y1.1201
G01 X-21.5994 Y1.1201
G01 X-21.5701 Y1.1494
G01 X-21.5701 Y1.4800
G01 X-21.5875 Y1.4807
G01 X-21.5999 Y1.4826
G01 X-21.6120 Y1.4859
G01 X-21.6237 Y1.4903
G01 X-21.6350 Y1.4960
G01 X-21.6455 Y1.5029
G01 X-21.6553 Y1.5108
G01 X-21.6642 Y1.5197
G01 X-21.6721 Y1.5295
G01 X-21.6790 Y1.5400
G01 X-21.6847 Y1.5513
G01 X-21.6891 Y1.5630
G01 X-21.6924 Y1.5751
G01 X-21.6943 Y1.5875
G01 X-21.6950 Y1.6000
G01 X-21.6950 Y1.9362
G01 X-22.2326 Y2.4738
G01 X-22.7248 Y2.4738
G01 X-22.7423 Y2.4445
G00 Z4.0000
G00 X-24.6799 Y2.4738
G01 F80.00
G01 Z-0.0650
G01 F350.00
G01 X-24.6799 Y2.3527
G01 X-24.6615 Y2.2600
G01 X-24.6253 Y2.1727
G01 X-24.5728 Y2.0941
G01 X-24.5059 Y2.0272
G01 X-24.4273 Y1.9747
G01 X-24.3400 Y1.9385
G01 X-24.2473 Y1.9201
G01 X-23.9494 Y1.9201
G01 X-23.9201 Y1.9494
G01 X-23.9201 Y2.2800
G01 X-23.9500 Y2.2800
G01 X-23.9804 Y2.2813
G01 X-23.9921 Y2.2825
G01 X-24.0248 Y2.2877
G01 X-24.0630 Y2.2978
G01 X-24.0944 Y2.3094
G01 X-24.1215 Y2.3222
G01 X-24.1506 Y2.3392
G01 X-24.1604 Y2.3457
G01 X-24.1867 Y2.3656
G01 X-24.2116 Y2.3884
G01 X-24.2396 Y2.4199
G01 X-24.2577 Y2.4445
G01 X-24.2752 Y2.4738
G01 X-24.6799 Y2.4738
G01 X-24.6799 Y2.3527
G00 Z4.0000
G00 X-23.9500 Y4.3300
G01 F80.00
G01 Z-0.0650
G01 F350.00
G01 X-23.0500 Y4.3300
G01 X-23.0136 Y4.3318
G01 X-22.9721 Y4.3384
G01 X-22.9429 Y4.3458
G01 X-22.9139 Y4.3560
G01 X-22.8785 Y4.3722
G01 X-22.8445 Y4.3923
G01 X-22.8133 Y4.4156
G01 X-22.7843 Y4.4426
G01 X-22.7656 Y4.4633
G01 X-22.7457 Y4.4896
G01 X-22.7248 Y4.5238
G01 X-22.0183 Y4.5240
G01 X-21.9715 Y4.5267
G01 X-21.9201 Y4.5351
G01 X-21.9086 Y4.5376
G01 X-21.8659 Y4.5499
G01 X-21.8545 Y4.5538
G01 X-21.8137 Y4.5707
G01 X-21.8016 Y4.5765
G01 X-21.7605 Y4.5993
G01 X-21.7137 Y4.6323
G01 X-21.6755 Y4.6660
G01 X-21.0612 Y5.2800
G01 X-20.7250 Y5.2800
G01 X-20.7125 Y5.2807
G01 X-20.7001 Y5.2826
G01 X-20.6880 Y5.2859
G01 X-20.6763 Y5.2903
G01 X-20.6650 Y5.2960
G01 X-20.6545 Y5.3029
G01 X-20.6447 Y5.3108
G01 X-20.6358 Y5.3197
G01 X-20.6279 Y5.3295
G01 X-20.6210 Y5.3400
G01 X-20.6153 Y5.3513
G01 X-20.6109 Y5.3630
G01 X-20.6076 Y5.3751
G01 X-20.6057 Y5.3875
G01 X-20.6051 Y5.3988
G01 X-15.3949 Y5.3988
G01 X-15.3943 Y5.3875
G01 X-15.3924 Y5.3751
G01 X-15.3891 Y5.3630
G01 X-15.3847 Y5.3513
G01 X-15.3790 Y5.3400
G01 X-15.3721 Y5.3295
G01 X-15.3642 Y5.3197
G01 X-15.3553 Y5.3108
G01 X-15.3455 Y5.3029
G01 X-15.3350 Y5.2960
G01 X-15.3237 Y5.2903
G01 X-15.3120 Y5.2859
G01 X-15.2999 Y5.2826
G01 X-15.2875 Y5.2807
G01 X-15.2750 Y5.2800
G01 X-14.4250 Y5.2800
G01 X-14.4125 Y5.2807
G01 X-14.4001 Y5.2826
G01 X-14.3880 Y5.2859
G01 X-14.3763 Y5.2903
G01 X-14.3650 Y5.2960
G01 X-14.3545 Y5.3029
G01 X-14.3447 Y5.3108
G01 X-14.3358 Y5.3197
G01 X-14.3279 Y5.3295
G01 X-14.3210 Y5.3400
G01 X-14.3153 Y5.3513
G01 X-14.3109 Y5.3630
G01 X-14.3076 Y5.3751
G01 X-14.3057 Y5.3875
G01 X-14.3050 Y5.4000
G01 X-14.3050 Y5.8112
G01 X-8.5956 Y11.5206
G01 X-8.5573 Y11.5637
G01 X-8.5243 Y11.6105
G01 X-8.5015 Y11.6516
G01 X-8.4957 Y11.6637
G01 X-8.4788 Y11.7045
G01 X-8.4631 Y11.7570
G01 X-8.4601 Y11.7701
G01 X-8.4517 Y11.8215
G01 X-8.4488 Y11.8750
G01 X-8.4488 Y17.9614
G01 X-8.4517 Y18.0149
G01 X-8.4601 Y18.0663
G01 X-8.4631 Y18.0794
G01 X-8.4788 Y18.1319
G01 X-8.4957 Y18.1727
G01 X-8.5015 Y18.1848
G01 X-8.5243 Y18.2259
G01 X-8.5573 Y18.2727
G01 X-8.5910 Y18.3109
G01 X-9.0842 Y18.8044
G01 X-9.1273 Y18.8427
G01 X-9.1741 Y18.8757
G01 X-9.2152 Y18.8985
G01 X-9.2273 Y18.9043
G01 X-9.2668 Y18.9207
G01 X-9.2795 Y18.9251
G01 X-9.3222 Y18.9374
G01 X-9.3337 Y18.9399
G01 X-9.3851 Y18.9483
G01 X-9.4386 Y18.9512
G01 X-9.4804 Y18.9490
G01 X-12.6900 Y22.1586
G01 X-12.7182 Y22.1837
G01 X-12.7487 Y22.2050
G01 X-12.7723 Y22.2182
G01 X-12.7845 Y22.2240
G01 X-12.8069 Y22.2333
G01 X-12.8401 Y22.2435
G01 X-12.8533 Y22.2465
G01 X-12.8850 Y22.2515
G01 X-12.9186 Y22.2533
G01 X-14.0500 Y22.2533
G01 X-14.0836 Y22.2515
G01 X-14.0948 Y22.2500
G01 X-14.7750 Y22.2500
G01 X-14.7875 Y22.2493
G01 X-14.7999 Y22.2474
G01 X-14.8120 Y22.2441
G01 X-14.8237 Y22.2397
G01 X-14.8350 Y22.2340
G01 X-14.8455 Y22.2271
G01 X-14.8553 Y22.2192
G01 X-14.8642 Y22.2103
G01 X-14.8721 Y22.2005
G01 X-14.8790 Y22.1900
G01 X-14.8847 Y22.1787
G01 X-14.8891 Y22.1670
G01 X-14.8924 Y22.1549
G01 X-14.8943 Y22.1425
G01 X-14.8950 Y22.1300
G01 X-14.8950 Y21.7300
G01 X-14.8943 Y21.7175
G01 X-14.8924 Y21.7051
G01 X-14.8891 Y21.6930
G01 X-14.8847 Y21.6813
G01 X-14.8790 Y21.6700
G01 X-14.8721 Y21.6595
G01 X-14.8642 Y21.6497
G01 X-14.8553 Y21.6408
G01 X-14.8455 Y21.6329
G01 X-14.8350 Y21.6260
G01 X-14.8237 Y21.6203
G01 X-14.8120 Y21.6159
G01 X-14.7999 Y21.6126
G01 X-14.7875 Y21.6107
G01 X-14.7750 Y21.6100
G01 X-14.0948 Y21.6100
G01 X-14.0836 Y21.6085
G01 X-14.0500 Y21.6067
G01 X-13.0525 Y21.6067
G01 X-9.9376 Y18.4918
G01 X-9.9398 Y18.4500
G01 X-9.9372 Y18.4006
G01 X-9.9357 Y18.3872
G01 X-9.9260 Y18.3336
G01 X-9.9098 Y18.2795
G01 X-9.8929 Y18.2387
G01 X-9.8871 Y18.2266
G01 X-9.8664 Y18.1891
G01 X-9.8592 Y18.1778
G01 X-9.8313 Y18.1387
G01 X-9.7930 Y18.0956
G01 X-9.4512 Y17.7538
G01 X-9.4512 Y12.0826
G01 X-15.0138 Y6.5200
G01 X-15.2750 Y6.5200
G01 X-15.2875 Y6.5193
G01 X-15.2999 Y6.5174
G01 X-15.3120 Y6.5141
G01 X-15.3237 Y6.5097
G01 X-15.3350 Y6.5040
G01 X-15.3455 Y6.4971
G01 X-15.3553 Y6.4892
G01 X-15.3642 Y6.4803
G01 X-15.3721 Y6.4705
G01 X-15.3790 Y6.4600
G01 X-15.3847 Y6.4487
G01 X-15.3891 Y6.4370
G01 X-15.3924 Y6.4249
G01 X-15.3943 Y6.4125
G01 X-15.3949 Y6.4012
G01 X-20.6051 Y6.4012
G01 X-20.6057 Y6.4125
G01 X-20.6076 Y6.4249
G01 X-20.6109 Y6.4370
G01 X-20.6153 Y6.4487
G01 X-20.6210 Y6.4600
G01 X-20.6279 Y6.4705
G01 X-20.6358 Y6.4803
G01 X-20.6447 Y6.4892
G01 X-20.6545 Y6.4971
G01 X-20.6650 Y6.5040
G01 X-20.6763 Y6.5097
G01 X-20.6880 Y6.5141
G01 X-20.7001 Y6.5174
G01 X-20.7125 Y6.5193
G01 X-20.7250 Y6.5200
G01 X-21.5750 Y6.5200
G01 X-21.5875 Y6.5193
G01 X-21.5999 Y6.5174
G01 X-21.6120 Y6.5141
G01 X-21.6237 Y6.5097
G01 X-21.6350 Y6.5040
G01 X-21.6455 Y6.4971
G01 X-21.6553 Y6.4892
G01 X-21.6642 Y6.4803
G01 X-21.6721 Y6.4705
G01 X-21.6790 Y6.4600
G01 X-21.6847 Y6.4487
G01 X-21.6891 Y6.4370
G01 X-21.6924 Y6.4249
G01 X-21.6943 Y6.4125
G01 X-21.6950 Y6.4000
G01 X-21.6950 Y6.0638
G01 X-22.2326 Y5.5262
G01 X-22.7248 Y5.5262
G01 X-22.7457 Y5.5604
G01 X-22.7656 Y5.5867
G01 X-22.7843 Y5.6074
G01 X-22.8133 Y5.6344
G01 X-22.8396 Y5.6543
G01 X-22.8494 Y5.6608
G01 X-22.8785 Y5.6778
G01 X-22.9030 Y5.6894
G01 X-22.9429 Y5.7042
G01 X-22.9836 Y5.7139
G01 X-23.0136 Y5.7182
G01 X-23.0441 Y5.7199
G01 X-23.9500 Y5.7200
G01 X-23.9864 Y5.7182
G01 X-24.0248 Y5.7123
G01 X-24.0517 Y5.7056
G01 X-24.0630 Y5.7022
G01 X-24.0970 Y5.6894
G01 X-24.1215 Y5.6778
G01 X-24.1555 Y5.6577
G01 X-24.1867 Y5.6344
G01 X-24.2074 Y5.6157
G01 X-24.2344 Y5.5867
G01 X-24.2543 Y5.5604
G01 X-24.2608 Y5.5506
G01 X-24.2790 Y5.5192
G01 X-24.2906 Y5.4944
G01 X-24.3042 Y5.4571
G01 X-24.3123 Y5.4248
G01 X-24.3182 Y5.3864
G01 X-24.3200 Y5.3500
G01 X-24.3200 Y4.7000
G01 X-24.3182 Y4.6636
G01 X-24.3123 Y4.6252
G01 X-24.3042 Y4.5929
G01 X-24.2906 Y4.5556
G01 X-24.2778 Y4.5285
G01 X-24.2608 Y4.4994
G01 X-24.2543 Y4.4896
G01 X-24.2322 Y4.4608
G01 X-24.2116 Y4.4384
G01 X-24.1867 Y4.4156
G01 X-24.1555 Y4.3923
G01 X-24.1295 Y4.3766
G01 X-24.0970 Y4.3606
G01 X-24.0861 Y4.3560
G01 X-24.0571 Y4.3458
G01 X-24.0248 Y4.3377
G01 X-23.9864 Y4.3318
G01 X-23.9500 Y4.3300
G01 X-23.0500 Y4.3300
G00 Z4.0000
G00 X-23.9500 Y8.7800
G01 F80.00
G01 Z-0.0650
G01 F350.00
G01 X-23.0500 Y8.7800
G01 X-23.0136 Y8.7818
G01 X-22.9721 Y8.7884
G01 X-22.9429 Y8.7958
G01 X-22.9139 Y8.8060
G01 X-22.8785 Y8.8222
G01 X-22.8445 Y8.8423
G01 X-22.8133 Y8.8656
G01 X-22.7843 Y8.8926
G01 X-22.7656 Y8.9133
G01 X-22.7457 Y8.9396
G01 X-22.7248 Y8.9738
G01 X-22.2326 Y8.9738
G01 X-21.6950 Y8.4362
G01 X-21.6950 Y8.1000
G01 X-21.6943 Y8.0875
G01 X-21.6924 Y8.0751
G01 X-21.6891 Y8.0630
G01 X-21.6847 Y8.0513
G01 X-21.6790 Y8.0400
G01 X-21.6721 Y8.0295
G01 X-21.6642 Y8.0197
G01 X-21.6553 Y8.0108
G01 X-21.6455 Y8.0029
G01 X-21.6350 Y7.9960
G01 X-21.6237 Y7.9903
G01 X-21.6120 Y7.9859
G01 X-21.5999 Y7.9826
G01 X-21.5875 Y7.9807
G01 X-21.5750 Y7.9800
G01 X-20.7250 Y7.9800
G01 X-20.7125 Y7.9807
G01 X-20.7001 Y7.9826
G01 X-20.6880 Y7.9859
G01 X-20.6763 Y7.9903
G01 X-20.6650 Y7.9960
G01 X-20.6545 Y8.0029
G01 X-20.6447 Y8.0108
G01 X-20.6358 Y8.0197
G01 X-20.6279 Y8.0295
G01 X-20.6210 Y8.0400
G01 X-20.6153 Y8.0513
G01 X-20.6109 Y8.0630
G01 X-20.6076 Y8.0751
G01 X-20.6057 Y8.0875
G01 X-20.6051 Y8.0988
G01 X-15.3949 Y8.0988
G01 X-15.3943 Y8.0875
G01 X-15.3924 Y8.0751
G01 X-15.3891 Y8.0630
G01 X-15.3847 Y8.0513
G01 X-15.3790 Y8.0400
G01 X-15.3721 Y8.0295
G01 X-15.3642 Y8.0197
G01 X-15.3553 Y8.0108
G01 X-15.3455 Y8.0029
G01 X-15.3350 Y7.9960
G01 X-15.3237 Y7.9903
G01 X-15.3120 Y7.9859
G01 X-15.2999 Y7.9826
G01 X-15.2875 Y7.9807
G01 X-15.2750 Y7.9800
G01 X-14.4250 Y7.9800
G01 X-14.4125 Y7.9807
G01 X-14.4001 Y7.9826
G01 X-14.3880 Y7.9859
G01 X-14.3763 Y7.9903
G01 X-14.3650 Y7.9960
G01 X-14.3545 Y8.0029
G01 X-14.3447 Y8.0108
G01 X-14.3358 Y8.0197
G01 X-14.3279 Y8.0295
G01 X-14.3210 Y8.0400
G01 X-14.3153 Y8.0513
G01 X-14.3109 Y8.0630
G01 X-14.3076 Y8.0751
G01 X-14.3057 Y8.0875
G01 X-14.3050 Y8.1000
G01 X-14.3050 Y8.3112
G01 X-9.8706 Y12.7456
G01 X-9.8323 Y12.7887
G01 X-9.8044 Y12.8278
G01 X-9.7972 Y12.8391
G01 X-9.7765 Y12.8766
G01 X-9.7707 Y12.8887
G01 X-9.7538 Y12.9295
G01 X-9.7376 Y12.9836
G01 X-9.7351 Y12.9951
G01 X-9.7267 Y13.0465
G01 X-9.7238 Y13.1000
G01 X-9.7238 Y17.4750
G01 X-9.7267 Y17.5285
G01 X-9.7351 Y17.5799
G01 X-9.7381 Y17.5930
G01 X-9.7538 Y17.6455
G01 X-9.7707 Y17.6863
G01 X-9.7765 Y17.6984
G01 X-9.7993 Y17.7395
G01 X-9.8323 Y17.7863
G01 X-9.8660 Y17.8245
G01 X-9.8755 Y17.8340
G01 X-9.9137 Y17.8677
G01 X-9.9528 Y17.8956
G01 X-9.9641 Y17.9028
G01 X-10.0016 Y17.9235
G01 X-10.0137 Y17.9293
G01 X-10.0545 Y17.9462
G01 X-10.1070 Y17.9619
G01 X-10.1201 Y17.9649
G01 X-10.1622 Y17.9721
G01 X-10.1756 Y17.9736
G01 X-10.2250 Y17.9762
G01 X-10.2668 Y17.9740
G01 X-12.5014 Y20.2086
G01 X-12.5233 Y20.2284
G01 X-12.5338 Y20.2368
G01 X-12.5601 Y20.2550
G01 X-12.5837 Y20.2682
G01 X-12.6183 Y20.2833
G01 X-12.6532 Y20.2940
G01 X-12.6647 Y20.2965
G01 X-12.6964 Y20.3015
G01 X-12.7300 Y20.3033
G01 X-14.3550 Y20.3033
G01 X-14.3886 Y20.3015
G01 X-14.3998 Y20.3000
G01 X-14.7750 Y20.3000
G01 X-14.7875 Y20.2993
G01 X-14.7999 Y20.2974
G01 X-14.8120 Y20.2941
G01 X-14.8237 Y20.2897
G01 X-14.8350 Y20.2840
G01 X-14.8455 Y20.2771
G01 X-14.8553 Y20.2692
G01 X-14.8642 Y20.2603
G01 X-14.8721 Y20.2505
G01 X-14.8790 Y20.2400
G01 X-14.8847 Y20.2287
G01 X-14.8891 Y20.2170
G01 X-14.8924 Y20.2049
G01 X-14.8943 Y20.1925
G01 X-14.8950 Y20.1800
G01 X-14.8950 Y19.7800
G01 X-14.8943 Y19.7675
G01 X-14.8924 Y19.7551
G01 X-14.8891 Y19.7430
G01 X-14.8847 Y19.7313
G01 X-14.8790 Y19.7200
G01 X-14.8721 Y19.7095
G01 X-14.8642 Y19.6997
G01 X-14.8553 Y19.6908
G01 X-14.8455 Y19.6829
G01 X-14.8350 Y19.6760
G01 X-14.8237 Y19.6703
G01 X-14.8120 Y19.6659
G01 X-14.7999 Y19.6626
G01 X-14.7875 Y19.6607
G01 X-14.7750 Y19.6600
G01 X-14.3998 Y19.6600
G01 X-14.3886 Y19.6585
G01 X-14.3550 Y19.6567
G01 X-12.8639 Y19.6567
G01 X-10.7240 Y17.5168
G01 X-10.7262 Y17.4750
G01 X-10.7262 Y13.3076
G01 X-14.8138 Y9.2200
G01 X-15.2750 Y9.2200
G01 X-15.2875 Y9.2193
G01 X-15.2999 Y9.2174
G01 X-15.3120 Y9.2141
G01 X-15.3237 Y9.2097
G01 X-15.3350 Y9.2040
G01 X-15.3455 Y9.1971
G01 X-15.3553 Y9.1892
G01 X-15.3642 Y9.1803
G01 X-15.3721 Y9.1705
G01 X-15.3790 Y9.1600
G01 X-15.3847 Y9.1487
G01 X-15.3891 Y9.1370
G01 X-15.3924 Y9.1249
G01 X-15.3943 Y9.1125
G01 X-15.3949 Y9.1012
G01 X-20.6051 Y9.1012
G01 X-20.6057 Y9.1125
G01 X-20.6076 Y9.1249
G01 X-20.6109 Y9.1370
G01 X-20.6153 Y9.1487
G01 X-20.6210 Y9.1600
G01 X-20.6279 Y9.1705
G01 X-20.6358 Y9.1803
G01 X-20.6447 Y9.1892
G01 X-20.6545 Y9.1971
G01 X-20.6650 Y9.2040
G01 X-20.6763 Y9.2097
G01 X-20.6880 Y9.2141
G01 X-20.7001 Y9.2174
G01 X-20.7125 Y9.2193
G01 X-20.7250 Y9.2200
G01 X-21.0612 Y9.2200
G01 X-21.6755 Y9.8340
G01 X-21.7137 Y9.8677
G01 X-21.7605 Y9.9007
G01 X-21.8016 Y9.9235
G01 X-21.8137 Y9.9293
G01 X-21.8545 Y9.9462
G01 X-21.8659 Y9.9501
G01 X-21.9086 Y9.9624
G01 X-21.9201 Y9.9649
G01 X-21.9715 Y9.9733
G01 X-22.0183 Y9.9760
G01 X-22.7248 Y9.9762
G01 X-22.7457 Y10.0104
G01 X-22.7656 Y10.0367
G01 X-22.7843 Y10.0574
G01 X-22.8133 Y10.0844
G01 X-22.8445 Y10.1077
G01 X-22.8785 Y10.1278
G01 X-22.9139 Y10.1440
G01 X-22.9429 Y10.1542
G01 X-22.9721 Y10.1616
G01 X-23.0136 Y10.1682
G01 X-23.0500 Y10.1700
G01 X-23.9559 Y10.1699
G01 X-23.9864 Y10.1682
G01 X-24.0164 Y10.1639
G01 X-24.0571 Y10.1542
G01 X-24.0944 Y10.1406
G01 X-24.1192 Y10.1290
G01 X-24.1506 Y10.1108
G01 X-24.1604 Y10.1043
G01 X-24.1867 Y10.0844
G01 X-24.2116 Y10.0616
G01 X-24.2344 Y10.0367
G01 X-24.2543 Y10.0104
G01 X-24.2608 Y10.0006
G01 X-24.2778 Y9.9715
G01 X-24.2906 Y9.9444
G01 X-24.3022 Y9.9130
G01 X-24.3056 Y9.9017
G01 X-24.3139 Y9.8664
G01 X-24.3182 Y9.8364
G01 X-24.3200 Y9.8000
G01 X-24.3200 Y9.1500
G01 X-24.3182 Y9.1136
G01 X-24.3123 Y9.0752
G01 X-24.3042 Y9.0429
G01 X-24.2906 Y9.0056
G01 X-24.2778 Y8.9785
G01 X-24.2577 Y8.9445
G01 X-24.2344 Y8.9133
G01 X-24.2116 Y8.8884
G01 X-24.1867 Y8.8656
G01 X-24.1555 Y8.8423
G01 X-24.1215 Y8.8222
G01 X-24.0944 Y8.8094
G01 X-24.0571 Y8.7958
G01 X-24.0248 Y8.7877
G01 X-23.9864 Y8.7818
G01 X-23.9500 Y8.7800
G01 X-23.0500 Y8.7800
G00 Z4.0000
G00 X-24.5355 Y12.4693
G01 F80.00
G01 Z-0.0650
G01 F350.00
G01 X-24.1940 Y12.1278
G01 X-24.1801 Y12.1396
G01 X-24.1604 Y12.1543
G01 X-24.1295 Y12.1734
G01 X-24.0944 Y12.1906
G01 X-24.0630 Y12.2022
G01 X-24.0248 Y12.2123
G01 X-23.9921 Y12.2175
G01 X-23.9559 Y12.2199
G01 X-23.9201 Y12.2200
G01 X-23.9201 Y12.5506
G01 X-23.9494 Y12.5799
G01 X-24.2473 Y12.5799
G01 X-24.3400 Y12.5615
G01 X-24.4273 Y12.5253
G01 X-24.4629 Y12.5017
G01 X-24.4857 Y12.4886
G01 X-24.5140 Y12.4762
G01 X-24.5355 Y12.4693
G01 X-24.1940 Y12.1278
G00 Z4.0000
G00 X-24.5000 Y14.8800
G01 F80.00
G01 Z-0.0650
G01 F350.00
G01 X-22.5000 Y14.8800
G01 X-22.4875 Y14.8807
G01 X-22.4751 Y14.8826
G01 X-22.4630 Y14.8859
G01 X-22.4513 Y14.8903
G01 X-22.4400 Y14.8960
G01 X-22.4295 Y14.9029
G01 X-22.4197 Y14.9108
G01 X-22.4108 Y14.9197
G01 X-22.4029 Y14.9295
G01 X-22.3960 Y14.9400
G01 X-22.3903 Y14.9513
G01 X-22.3859 Y14.9630
G01 X-22.3826 Y14.9751
G01 X-22.3807 Y14.9875
G01 X-22.3800 Y15.0000
G01 X-22.3800 Y17.0000
G01 X-22.3807 Y17.0125
G01 X-22.3826 Y17.0249
G01 X-22.3859 Y17.0370
G01 X-22.3903 Y17.0487
G01 X-22.3960 Y17.0600
G01 X-22.4029 Y17.0705
G01 X-22.4108 Y17.0803
G01 X-22.4197 Y17.0892
G01 X-22.4295 Y17.0971
G01 X-22.4400 Y17.1040
G01 X-22.4513 Y17.1097
G01 X-22.4630 Y17.1141
G01 X-22.4751 Y17.1174
G01 X-22.4875 Y17.1193
G01 X-22.5000 Y17.1200
G01 X-23.1767 Y17.1200
G01 X-23.1767 Y18.0775
G01 X-20.9475 Y20.3067
G01 X-19.9500 Y20.3067
G01 X-19.9164 Y20.3085
G01 X-19.9052 Y20.3100
G01 X-19.2250 Y20.3100
G01 X-19.2125 Y20.3107
G01 X-19.2001 Y20.3126
G01 X-19.1880 Y20.3159
G01 X-19.1763 Y20.3203
G01 X-19.1650 Y20.3260
G01 X-19.1545 Y20.3329
G01 X-19.1447 Y20.3408
G01 X-19.1358 Y20.3497
G01 X-19.1279 Y20.3595
G01 X-19.1210 Y20.3700
G01 X-19.1153 Y20.3813
G01 X-19.1109 Y20.3930
G01 X-19.1076 Y20.4051
G01 X-19.1057 Y20.4175
G01 X-19.1050 Y20.4300
G01 X-19.1050 Y20.8300
G01 X-19.1057 Y20.8425
G01 X-19.1076 Y20.8549
G01 X-19.1109 Y20.8670
G01 X-19.1153 Y20.8787
G01 X-19.1210 Y20.8900
G01 X-19.1279 Y20.9005
G01 X-19.1358 Y20.9103
G01 X-19.1447 Y20.9192
G01 X-19.1545 Y20.9271
G01 X-19.1650 Y20.9340
G01 X-19.1763 Y20.9397
G01 X-19.1880 Y20.9441
G01 X-19.2001 Y20.9474
G01 X-19.2125 Y20.9493
G01 X-19.2250 Y20.9500
G01 X-19.9052 Y20.9500
G01 X-19.9164 Y20.9515
G01 X-19.9500 Y20.9533
G01 X-21.0814 Y20.9533
G01 X-21.1150 Y20.9515
G01 X-21.1467 Y20.9465
G01 X-21.1582 Y20.9440
G01 X-21.1931 Y20.9333
G01 X-21.2277 Y20.9182
G01 X-21.2513 Y20.9050
G01 X-21.2776 Y20.8868
G01 X-21.2881 Y20.8784
G01 X-21.3100 Y20.8586
G01 X-23.7286 Y18.4400
G01 X-23.7484 Y18.4181
G01 X-23.7568 Y18.4076
G01 X-23.7750 Y18.3813
G01 X-23.7882 Y18.3577
G01 X-23.7940 Y18.3455
G01 X-23.8033 Y18.3231
G01 X-23.8140 Y18.2882
G01 X-23.8203 Y18.2543
G01 X-23.8218 Y18.2409
G01 X-23.8233 Y18.2114
G01 X-23.8233 Y17.1200
G01 X-24.5000 Y17.1200
G01 X-24.5125 Y17.1193
G01 X-24.5249 Y17.1174
G01 X-24.5370 Y17.1141
G01 X-24.5487 Y17.1097
G01 X-24.5600 Y17.1040
G01 X-24.5705 Y17.0971
G01 X-24.5803 Y17.0892
G01 X-24.5892 Y17.0803
G01 X-24.5971 Y17.0705
G01 X-24.6040 Y17.0600
G01 X-24.6097 Y17.0487
G01 X-24.6141 Y17.0370
G01 X-24.6174 Y17.0249
G01 X-24.6193 Y17.0125
G01 X-24.6200 Y17.0000
G01 X-24.6200 Y15.0000
G01 X-24.6193 Y14.9875
G01 X-24.6174 Y14.9751
G01 X-24.6141 Y14.9630
G01 X-24.6097 Y14.9513
G01 X-24.6040 Y14.9400
G01 X-24.5971 Y14.9295
G01 X-24.5892 Y14.9197
G01 X-24.5803 Y14.9108
G01 X-24.5705 Y14.9029
G01 X-24.5600 Y14.8960
G01 X-24.5487 Y14.8903
G01 X-24.5370 Y14.8859
G01 X-24.5249 Y14.8826
G01 X-24.5125 Y14.8807
G01 X-24.5000 Y14.8800
G01 X-22.5000 Y14.8800
G00 Z4.0000
G00 X-21.5000 Y14.8800
G01 F80.00
G01 Z-0.0650
G01 F350.00
G01 X-19.5000 Y14.8800
G01 X-19.4875 Y14.8807
G01 X-19.4751 Y14.8826
G01 X-19.4630 Y14.8859
G01 X-19.4513 Y14.8903
G01 X-19.4400 Y14.8960
G01 X-19.4295 Y14.9029
G01 X-19.4197 Y14.9108
G01 X-19.4108 Y14.9197
G01 X-19.4029 Y14.9295
G01 X-19.3960 Y14.9400
G01 X-19.3903 Y14.9513
G01 X-19.3859 Y14.9630
G01 X-19.3826 Y14.9751
G01 X-19.3807 Y14.9875
G01 X-19.3800 Y15.0000
G01 X-19.3800 Y17.0000
G01 X-19.3807 Y17.0125
G01 X-19.3826 Y17.0249
G01 X-19.3859 Y17.0370
G01 X-19.3903 Y17.0487
G01 X-19.3960 Y17.0600
G01 X-19.4029 Y17.0705
G01 X-19.4108 Y17.0803
G01 X-19.4197 Y17.0892
G01 X-19.4295 Y17.0971
G01 X-19.4400 Y17.1040
G01 X-19.4513 Y17.1097
G01 X-19.4630 Y17.1141
G01 X-19.4751 Y17.1174
G01 X-19.4875 Y17.1193
G01 X-19.5000 Y17.1200
G01 X-19.6267 Y17.1200
G01 X-19.6267 Y19.6600
G01 X-19.2250 Y19.6600
G01 X-19.2125 Y19.6607
G01 X-19.2001 Y19.6626
G01 X-19.1880 Y19.6659
G01 X-19.1763 Y19.6703
G01 X-19.1650 Y19.6760
G01 X-19.1545 Y19.6829
G01 X-19.1447 Y19.6908
G01 X-19.1358 Y19.6997
G01 X-19.1279 Y19.7095
G01 X-19.1210 Y19.7200
G01 X-19.1153 Y19.7313
G01 X-19.1109 Y19.7430
G01 X-19.1076 Y19.7551
G01 X-19.1057 Y19.7675
G01 X-19.1050 Y19.7800
G01 X-19.1050 Y20.1800
G01 X-19.1057 Y20.1925
G01 X-19.1076 Y20.2049
G01 X-19.1109 Y20.2170
G01 X-19.1153 Y20.2287
G01 X-19.1210 Y20.2399
G01 X-19.1279 Y20.2505
G01 X-19.1358 Y20.2603
G01 X-19.1447 Y20.2692
G01 X-19.1545 Y20.2771
G01 X-19.1651 Y20.2840
G01 X-19.1763 Y20.2897
G01 X-19.1880 Y20.2941
G01 X-19.2001 Y20.2974
G01 X-19.2125 Y20.2993
G01 X-19.2250 Y20.3000
G01 X-19.9052 Y20.3000
G01 X-19.9164 Y20.3015
G01 X-19.9500 Y20.3033
G01 X-19.9836 Y20.3015
G01 X-19.9948 Y20.3000
G01 X-20.6750 Y20.3000
G01 X-20.6875 Y20.2993
G01 X-20.6999 Y20.2974
G01 X-20.7120 Y20.2941
G01 X-20.7237 Y20.2897
G01 X-20.7349 Y20.2840
G01 X-20.7455 Y20.2771
G01 X-20.7553 Y20.2692
G01 X-20.7642 Y20.2603
G01 X-20.7721 Y20.2505
G01 X-20.7790 Y20.2399
G01 X-20.7847 Y20.2287
G01 X-20.7891 Y20.2170
G01 X-20.7924 Y20.2049
G01 X-20.7943 Y20.1925
G01 X-20.7950 Y20.1800
G01 X-20.7950 Y19.7800
G01 X-20.7943 Y19.7675
G01 X-20.7924 Y19.7551
G01 X-20.7891 Y19.7430
G01 X-20.7847 Y19.7313
G01 X-20.7790 Y19.7200
G01 X-20.7721 Y19.7095
G01 X-20.7642 Y19.6997
G01 X-20.7553 Y19.6908
G01 X-20.7455 Y19.6829
G01 X-20.7350 Y19.6760
G01 X-20.7237 Y19.6703
G01 X-20.7120 Y19.6659
G01 X-20.6999 Y19.6626
G01 X-20.6875 Y19.6607
G01 X-20.6750 Y19.6600
G01 X-20.2733 Y19.6600
G01 X-20.2733 Y17.1200
G01 X-21.5000 Y17.1200
G01 X-21.5125 Y17.1193
G01 X-21.5249 Y17.1174
G01 X-21.5370 Y17.1141
G01 X-21.5487 Y17.1097
G01 X-21.5600 Y17.1040
G01 X-21.5705 Y17.0971
G01 X-21.5803 Y17.0892
G01 X-21.5892 Y17.0803
G01 X-21.5971 Y17.0705
G01 X-21.6040 Y17.0600
G01 X-21.6097 Y17.0487
G01 X-21.6141 Y17.0370
G01 X-21.6174 Y17.0249
G01 X-21.6193 Y17.0125
G01 X-21.6200 Y17.0000
G01 X-21.6200 Y15.0000
G01 X-21.6193 Y14.9875
G01 X-21.6174 Y14.9751
G01 X-21.6141 Y14.9630
G01 X-21.6097 Y14.9513
G01 X-21.6040 Y14.9400
G01 X-21.5971 Y14.9295
G01 X-21.5892 Y14.9197
G01 X-21.5803 Y14.9108
G01 X-21.5705 Y14.9029
G01 X-21.5600 Y14.8960
G01 X-21.5487 Y14.8903
G01 X-21.5370 Y14.8859
G01 X-21.5249 Y14.8826
G01 X-21.5125 Y14.8807
G01 X-21.5000 Y14.8800
G01 X-19.5000 Y14.8800
G00 Z4.0000
G00 X-17.2731 Y17.9683
G01 F80.00
G01 Z-0.0650
G01 F350.00
G01 X-17.2715 Y17.9414
G01 X-17.2665 Y17.9097
G01 X-17.2635 Y17.8965
G01 X-17.2533 Y17.8633
G01 X-17.2382 Y17.8287
G01 X-17.2250 Y17.8051
G01 X-17.2068 Y17.7788
G01 X-17.1984 Y17.7683
G01 X-17.1786 Y17.7464
G01 X-16.5522 Y17.1200
G01 X-16.5875 Y17.1193
G01 X-16.5999 Y17.1174
G01 X-16.6120 Y17.1141
G01 X-16.6237 Y17.1097
G01 X-16.6350 Y17.1040
G01 X-16.6455 Y17.0971
G01 X-16.6553 Y17.0892
G01 X-16.6642 Y17.0803
G01 X-16.6721 Y17.0705
G01 X-16.6790 Y17.0600
G01 X-16.6847 Y17.0487
G01 X-16.6891 Y17.0370
G01 X-16.6924 Y17.0249
G01 X-16.6943 Y17.0125
G01 X-16.6950 Y17.0000
G01 X-16.6950 Y15.0000
G01 X-16.6943 Y14.9875
G01 X-16.6924 Y14.9751
G01 X-16.6891 Y14.9630
G01 X-16.6847 Y14.9513
G01 X-16.6790 Y14.9400
G01 X-16.6721 Y14.9295
G01 X-16.6642 Y14.9197
G01 X-16.6553 Y14.9108
G01 X-16.6455 Y14.9029
G01 X-16.6350 Y14.8960
G01 X-16.6237 Y14.8903
G01 X-16.6120 Y14.8859
G01 X-16.5999 Y14.8826
G01 X-16.5875 Y14.8807
G01 X-16.5750 Y14.8800
G01 X-14.5750 Y14.8800
G01 X-14.5625 Y14.8807
G01 X-14.5501 Y14.8826
G01 X-14.5380 Y14.8859
G01 X-14.5263 Y14.8903
G01 X-14.5150 Y14.8960
G01 X-14.5045 Y14.9029
G01 X-14.4947 Y14.9108
G01 X-14.4858 Y14.9197
G01 X-14.4779 Y14.9295
G01 X-14.4710 Y14.9400
G01 X-14.4653 Y14.9513
G01 X-14.4609 Y14.9630
G01 X-14.4576 Y14.9751
G01 X-14.4557 Y14.9875
G01 X-14.4550 Y15.0000
G01 X-14.4550 Y17.0000
G01 X-14.4557 Y17.0125
G01 X-14.4576 Y17.0249
G01 X-14.4609 Y17.0370
G01 X-14.4653 Y17.0487
G01 X-14.4710 Y17.0600
G01 X-14.4779 Y17.0705
G01 X-14.4858 Y17.0803
G01 X-14.4947 Y17.0892
G01 X-14.5045 Y17.0971
G01 X-14.5150 Y17.1040
G01 X-14.5263 Y17.1097
G01 X-14.5380 Y17.1141
G01 X-14.5501 Y17.1174
G01 X-14.5625 Y17.1193
G01 X-14.5750 Y17.1200
G01 X-15.6378 Y17.1200
G01 X-16.6267 Y18.1089
G01 X-16.6267 Y20.7411
G01 X-16.4111 Y20.9567
G01 X-14.3550 Y20.9567
G01 X-14.3214 Y20.9585
G01 X-14.3102 Y20.9600
G01 X-13.3250 Y20.9600
G01 X-13.3125 Y20.9607
G01 X-13.3001 Y20.9626
G01 X-13.2880 Y20.9659
G01 X-13.2763 Y20.9703
G01 X-13.2650 Y20.9760
G01 X-13.2545 Y20.9829
G01 X-13.2447 Y20.9908
G01 X-13.2358 Y20.9997
G01 X-13.2279 Y21.0095
G01 X-13.2210 Y21.0200
G01 X-13.2153 Y21.0313
G01 X-13.2109 Y21.0430
G01 X-13.2076 Y21.0551
G01 X-13.2057 Y21.0675
G01 X-13.2050 Y21.0800
G01 X-13.2050 Y21.4800
G01 X-13.2057 Y21.4925
G01 X-13.2076 Y21.5049
G01 X-13.2109 Y21.5170
G01 X-13.2153 Y21.5287
G01 X-13.2210 Y21.5400
G01 X-13.2279 Y21.5505
G01 X-13.2358 Y21.5603
G01 X-13.2447 Y21.5692
G01 X-13.2545 Y21.5771
G01 X-13.2650 Y21.5840
G01 X-13.2763 Y21.5897
G01 X-13.2880 Y21.5941
G01 X-13.3001 Y21.5974
G01 X-13.3125 Y21.5993
G01 X-13.3250 Y21.6000
G01 X-14.3102 Y21.6000
G01 X-14.3214 Y21.6015
G01 X-14.3550 Y21.6033
G01 X-16.5450 Y21.6033
G01 X-16.5786 Y21.6015
G01 X-16.6103 Y21.5965
G01 X-16.6235 Y21.5935
G01 X-16.6567 Y21.5833
G01 X-16.6913 Y21.5682
G01 X-16.7149 Y21.5550
G01 X-16.7412 Y21.5368
G01 X-16.7517 Y21.5284
G01 X-16.7736 Y21.5086
G01 X-17.1786 Y21.1036
G01 X-17.1984 Y21.0817
G01 X-17.2068 Y21.0712
G01 X-17.2250 Y21.0449
G01 X-17.2382 Y21.0213
G01 X-17.2440 Y21.0091
G01 X-17.2533 Y20.9867
G01 X-17.2635 Y20.9535
G01 X-17.2703 Y20.9179
G01 X-17.2718 Y20.9045
G01 X-17.2733 Y20.8750
G01 X-17.2731 Y17.9683
G01 X-17.2715 Y17.9414
G00 Z4.0000
G00 X-16.2481 Y19.5433
G01 F80.00
G01 Z-0.0650
G01 F350.00
G01 X-16.2453 Y19.5071
G01 X-16.2390 Y19.4732
G01 X-16.2283 Y19.4383
G01 X-16.2190 Y19.4159
G01 X-16.2132 Y19.4037
G01 X-16.1950 Y19.3724
G01 X-16.1787 Y19.3496
G01 X-16.1536 Y19.3214
G01 X-13.6950 Y16.8628
G01 X-13.6950 Y15.0000
G01 X-13.6943 Y14.9875
G01 X-13.6924 Y14.9751
G01 X-13.6891 Y14.9630
G01 X-13.6847 Y14.9513
G01 X-13.6790 Y14.9400
G01 X-13.6721 Y14.9295
G01 X-13.6642 Y14.9197
G01 X-13.6553 Y14.9108
G01 X-13.6455 Y14.9029
G01 X-13.6350 Y14.8960
G01 X-13.6237 Y14.8903
G01 X-13.6120 Y14.8859
G01 X-13.5999 Y14.8826
G01 X-13.5875 Y14.8807
G01 X-13.5750 Y14.8800
G01 X-11.5750 Y14.8800
G01 X-11.5625 Y14.8807
G01 X-11.5501 Y14.8826
G01 X-11.5380 Y14.8859
G01 X-11.5263 Y14.8903
G01 X-11.5150 Y14.8960
G01 X-11.5045 Y14.9029
G01 X-11.4947 Y14.9108
G01 X-11.4858 Y14.9197
G01 X-11.4779 Y14.9295
G01 X-11.4710 Y14.9400
G01 X-11.4653 Y14.9513
G01 X-11.4609 Y14.9630
G01 X-11.4576 Y14.9751
G01 X-11.4557 Y14.9875
G01 X-11.4550 Y15.0000
G01 X-11.4550 Y17.0000
G01 X-11.4557 Y17.0125
G01 X-11.4576 Y17.0249
G01 X-11.4609 Y17.0370
G01 X-11.4653 Y17.0487
G01 X-11.4710 Y17.0600
G01 X-11.4779 Y17.0705
G01 X-11.4858 Y17.0803
G01 X-11.4947 Y17.0892
G01 X-11.5045 Y17.0971
G01 X-11.5150 Y17.1040
G01 X-11.5263 Y17.1097
G01 X-11.5380 Y17.1141
G01 X-11.5501 Y17.1174
G01 X-11.5625 Y17.1193
G01 X-11.5750 Y17.1200
G01 X-13.0378 Y17.1200
G01 X-15.6017 Y19.6839
G01 X-15.6017 Y20.1161
G01 X-15.4111 Y20.3067
G01 X-14.3550 Y20.3067
G01 X-14.3214 Y20.3085
G01 X-14.3102 Y20.3100
G01 X-13.3250 Y20.3100
G01 X-13.3125 Y20.3107
G01 X-13.3001 Y20.3126
G01 X-13.2880 Y20.3159
G01 X-13.2763 Y20.3203
G01 X-13.2650 Y20.3260
G01 X-13.2545 Y20.3329
G01 X-13.2447 Y20.3408
G01 X-13.2358 Y20.3497
G01 X-13.2279 Y20.3595
G01 X-13.2210 Y20.3700
G01 X-13.2153 Y20.3813
G01 X-13.2109 Y20.3930
G01 X-13.2076 Y20.4051
G01 X-13.2057 Y20.4175
G01 X-13.2050 Y20.4300
G01 X-13.2050 Y20.8300
G01 X-13.2057 Y20.8425
G01 X-13.2076 Y20.8549
G01 X-13.2109 Y20.8670
G01 X-13.2153 Y20.8787
G01 X-13.2210 Y20.8900
G01 X-13.2279 Y20.9005
G01 X-13.2358 Y20.9103
G01 X-13.2447 Y20.9192
G01 X-13.2545 Y20.9271
G01 X-13.2650 Y20.9340
G01 X-13.2763 Y20.9397
G01 X-13.2880 Y20.9441
G01 X-13.3001 Y20.9474
G01 X-13.3125 Y20.9493
G01 X-13.3250 Y20.9500
G01 X-14.3102 Y20.9500
G01 X-14.3214 Y20.9515
G01 X-14.3550 Y20.9533
G01 X-15.5450 Y20.9533
G01 X-15.5786 Y20.9515
G01 X-15.6103 Y20.9465
G01 X-15.6454 Y20.9372
G01 X-15.6791 Y20.9240
G01 X-15.6913 Y20.9182
G01 X-15.7226 Y20.9000
G01 X-15.7454 Y20.8837
G01 X-15.7687 Y20.8632
G01 X-16.1536 Y20.4786
G01 X-16.1787 Y20.4504
G01 X-16.2000 Y20.4199
G01 X-16.2132 Y20.3963
G01 X-16.2278 Y20.3631
G01 X-16.2385 Y20.3285
G01 X-16.2415 Y20.3153
G01 X-16.2465 Y20.2836
G01 X-16.2483 Y20.2500
G01 X-16.2481 Y19.5433
G01 X-16.2453 Y19.5071
G00 Z4.0000
G00 X-14.7750 Y22.9100
G01 F80.00
G01 Z-0.0650
G01 F350.00
G01 X-14.0948 Y22.9100
G01 X-14.0836 Y22.9085
G01 X-14.0500 Y22.9067
G01 X-10.1074 Y22.9067
G01 X-10.0794 Y22.8756
G01 X-10.0426 Y22.8425
G01 X-10.0321 Y22.8341
G01 X-9.9895 Y22.8043
G01 X-9.9484 Y22.7815
G01 X-9.9363 Y22.7757
G01 X-9.8955 Y22.7588
G01 X-9.8414 Y22.7426
G01 X-9.8299 Y22.7401
G01 X-9.7785 Y22.7317
G01 X-9.7317 Y22.7290
G01 X-9.3876 Y22.7288
G01 X-3.6012 Y16.9424
G01 X-3.6012 Y15.6949
G01 X-3.6125 Y15.6943
G01 X-3.6249 Y15.6924
G01 X-3.6370 Y15.6891
G01 X-3.6487 Y15.6847
G01 X-3.6600 Y15.6790
G01 X-3.6705 Y15.6721
G01 X-3.6803 Y15.6642
G01 X-3.6892 Y15.6553
G01 X-3.6971 Y15.6455
G01 X-3.7040 Y15.6350
G01 X-3.7097 Y15.6237
G01 X-3.7141 Y15.6120
G01 X-3.7174 Y15.5999
G01 X-3.7193 Y15.5875
G01 X-3.7200 Y15.5750
G01 X-3.7200 Y14.7250
G01 X-3.7193 Y14.7125
G01 X-3.7174 Y14.7001
G01 X-3.7141 Y14.6880
G01 X-3.7097 Y14.6763
G01 X-3.7040 Y14.6650
G01 X-3.6971 Y14.6545
G01 X-3.6892 Y14.6447
G01 X-3.6803 Y14.6358
G01 X-3.6705 Y14.6279
G01 X-3.6600 Y14.6210
G01 X-3.6487 Y14.6153
G01 X-3.6370 Y14.6109
G01 X-3.6249 Y14.6076
G01 X-3.6125 Y14.6057
G01 X-3.6012 Y14.6051
G01 X-3.6012 Y9.3949
G01 X-3.6125 Y9.3943
G01 X-3.6249 Y9.3924
G01 X-3.6370 Y9.3891
G01 X-3.6487 Y9.3847
G01 X-3.6600 Y9.3790
G01 X-3.6705 Y9.3721
G01 X-3.6803 Y9.3642
G01 X-3.6892 Y9.3553
G01 X-3.6971 Y9.3455
G01 X-3.7040 Y9.3350
G01 X-3.7097 Y9.3237
G01 X-3.7141 Y9.3120
G01 X-3.7174 Y9.2999
G01 X-3.7193 Y9.2875
G01 X-3.7200 Y9.2750
G01 X-3.7200 Y8.4250
G01 X-3.7193 Y8.4125
G01 X-3.7174 Y8.4001
G01 X-3.7141 Y8.3880
G01 X-3.7097 Y8.3763
G01 X-3.7040 Y8.3650
G01 X-3.6971 Y8.3545
G01 X-3.6892 Y8.3447
G01 X-3.6803 Y8.3358
G01 X-3.6705 Y8.3279
G01 X-3.6600 Y8.3210
G01 X-3.6487 Y8.3153
G01 X-3.6370 Y8.3109
G01 X-3.6249 Y8.3076
G01 X-3.6125 Y8.3057
G01 X-3.6012 Y8.3051
G01 X-3.6012 Y8.0826
G01 X-3.8638 Y7.8200
G01 X-4.3000 Y7.8200
G01 X-4.3364 Y7.8182
G01 X-4.3748 Y7.8123
G01 X-4.4071 Y7.8042
G01 X-4.4444 Y7.7906
G01 X-4.4715 Y7.7778
G01 X-4.5055 Y7.7577
G01 X-4.5367 Y7.7344
G01 X-4.5616 Y7.7116
G01 X-4.5844 Y7.6867
G01 X-4.6077 Y7.6555
G01 X-4.6290 Y7.6192
G01 X-4.6406 Y7.5944
G01 X-4.6522 Y7.5630
G01 X-4.6623 Y7.5248
G01 X-4.6675 Y7.4921
G01 X-4.6687 Y7.4804
G01 X-4.6700 Y7.4500
G01 X-4.6700 Y6.5500
G01 X-4.6682 Y6.5136
G01 X-4.6639 Y6.4836
G01 X-4.6556 Y6.4483
G01 X-4.6522 Y6.4370
G01 X-4.6406 Y6.4056
G01 X-4.6278 Y6.3785
G01 X-4.6077 Y6.3445
G01 X-4.5896 Y6.3199
G01 X-4.5822 Y6.3108
G01 X-4.5574 Y6.2843
G01 X-4.5367 Y6.2656
G01 X-4.5055 Y6.2423
G01 X-4.4715 Y6.2222
G01 X-4.4470 Y6.2106
G01 X-4.4130 Y6.1978
G01 X-4.4017 Y6.1944
G01 X-4.3748 Y6.1877
G01 X-4.3421 Y6.1825
G01 X-4.3000 Y6.1800
G01 X-3.6500 Y6.1800
G01 X-3.6196 Y6.1813
G01 X-3.6079 Y6.1825
G01 X-3.5752 Y6.1877
G01 X-3.5370 Y6.1978
G01 X-3.5056 Y6.2094
G01 X-3.4808 Y6.2210
G01 X-3.4445 Y6.2423
G01 X-3.4133 Y6.2656
G01 X-3.3884 Y6.2884
G01 X-3.3656 Y6.3133
G01 X-3.3423 Y6.3445
G01 X-3.3222 Y6.3785
G01 X-3.3094 Y6.4056
G01 X-3.2958 Y6.4429
G01 X-3.2877 Y6.4752
G01 X-3.2818 Y6.5136
G01 X-3.2800 Y6.5500
G01 X-3.2800 Y6.9862
G01 X-2.7410 Y7.5255
G01 X-2.7073 Y7.5637
G01 X-2.6794 Y7.6028
G01 X-2.6722 Y7.6141
G01 X-2.6515 Y7.6516
G01 X-2.6457 Y7.6637
G01 X-2.6288 Y7.7045
G01 X-2.6126 Y7.7586
G01 X-2.6029 Y7.8122
G01 X-2.6014 Y7.8256
G01 X-2.5988 Y7.8750
G01 X-2.5988 Y8.3051
G01 X-2.5875 Y8.3057
G01 X-2.5751 Y8.3076
G01 X-2.5630 Y8.3109
G01 X-2.5513 Y8.3153
G01 X-2.5400 Y8.3210
G01 X-2.5295 Y8.3279
G01 X-2.5197 Y8.3358
G01 X-2.5108 Y8.3447
G01 X-2.5029 Y8.3545
G01 X-2.4960 Y8.3650
G01 X-2.4903 Y8.3763
G01 X-2.4859 Y8.3880
G01 X-2.4826 Y8.4001
G01 X-2.4807 Y8.4125
G01 X-2.4800 Y8.4250
G01 X-2.4800 Y9.2750
G01 X-2.4807 Y9.2875
G01 X-2.4826 Y9.2999
G01 X-2.4859 Y9.3120
G01 X-2.4903 Y9.3237
G01 X-2.4960 Y9.3350
G01 X-2.5029 Y9.3455
G01 X-2.5108 Y9.3553
G01 X-2.5197 Y9.3642
G01 X-2.5295 Y9.3721
G01 X-2.5400 Y9.3790
G01 X-2.5513 Y9.3847
G01 X-2.5630 Y9.3891
G01 X-2.5751 Y9.3924
G01 X-2.5875 Y9.3943
G01 X-2.5988 Y9.3949
G01 X-2.5988 Y14.6051
G01 X-2.5875 Y14.6057
G01 X-2.5751 Y14.6076
G01 X-2.5630 Y14.6109
G01 X-2.5513 Y14.6153
G01 X-2.5400 Y14.6210
G01 X-2.5295 Y14.6279
G01 X-2.5197 Y14.6358
G01 X-2.5108 Y14.6447
G01 X-2.5029 Y14.6545
G01 X-2.4960 Y14.6650
G01 X-2.4903 Y14.6763
G01 X-2.4859 Y14.6880
G01 X-2.4826 Y14.7001
G01 X-2.4807 Y14.7125
G01 X-2.4800 Y14.7250
G01 X-2.4800 Y15.5750
G01 X-2.4807 Y15.5875
G01 X-2.4826 Y15.5999
G01 X-2.4859 Y15.6120
G01 X-2.4903 Y15.6237
G01 X-2.4960 Y15.6350
G01 X-2.5029 Y15.6455
G01 X-2.5108 Y15.6553
G01 X-2.5197 Y15.6642
G01 X-2.5295 Y15.6721
G01 X-2.5400 Y15.6790
G01 X-2.5513 Y15.6847
G01 X-2.5630 Y15.6891
G01 X-2.5751 Y15.6924
G01 X-2.5875 Y15.6943
G01 X-2.5988 Y15.6949
G01 X-2.5990 Y17.1567
G01 X-2.6017 Y17.2035
G01 X-2.6101 Y17.2549
G01 X-2.6126 Y17.2664
G01 X-2.6249 Y17.3091
G01 X-2.6293 Y17.3218
G01 X-2.6457 Y17.3613
G01 X-2.6515 Y17.3734
G01 X-2.6722 Y17.4109
G01 X-2.6794 Y17.4222
G01 X-2.7073 Y17.4613
G01 X-2.7456 Y17.5044
G01 X-8.8256 Y23.5844
G01 X-8.8687 Y23.6227
G01 X-8.9078 Y23.6506
G01 X-8.9191 Y23.6578
G01 X-8.9566 Y23.6785
G01 X-8.9687 Y23.6843
G01 X-9.0095 Y23.7012
G01 X-9.0636 Y23.7174
G01 X-9.0751 Y23.7199
G01 X-9.1265 Y23.7283
G01 X-9.1733 Y23.7310
G01 X-9.7250 Y23.7312
G01 X-9.7785 Y23.7283
G01 X-9.8299 Y23.7199
G01 X-9.8414 Y23.7174
G01 X-9.8841 Y23.7051
G01 X-9.8968 Y23.7007
G01 X-9.9363 Y23.6843
G01 X-9.9484 Y23.6785
G01 X-9.9895 Y23.6557
G01 X-10.0363 Y23.6227
G01 X-10.0794 Y23.5844
G01 X-10.1074 Y23.5533
G01 X-14.0500 Y23.5533
G01 X-14.0836 Y23.5515
G01 X-14.0948 Y23.5500
G01 X-14.7750 Y23.5500
G01 X-14.7875 Y23.5493
G01 X-14.7999 Y23.5474
G01 X-14.8120 Y23.5441
G01 X-14.8237 Y23.5397
G01 X-14.8350 Y23.5340
G01 X-14.8455 Y23.5271
G01 X-14.8553 Y23.5192
G01 X-14.8642 Y23.5103
G01 X-14.8721 Y23.5005
G01 X-14.8790 Y23.4900
G01 X-14.8847 Y23.4787
G01 X-14.8891 Y23.4670
G01 X-14.8924 Y23.4549
G01 X-14.8943 Y23.4425
G01 X-14.8950 Y23.4300
G01 X-14.8950 Y23.0300
G01 X-14.8943 Y23.0175
G01 X-14.8924 Y23.0051
G01 X-14.8891 Y22.9930
G01 X-14.8847 Y22.9813
G01 X-14.8790 Y22.9700
G01 X-14.8721 Y22.9595
G01 X-14.8642 Y22.9497
G01 X-14.8553 Y22.9408
G01 X-14.8455 Y22.9329
G01 X-14.8350 Y22.9260
G01 X-14.8237 Y22.9203
G01 X-14.8120 Y22.9159
G01 X-14.7999 Y22.9126
G01 X-14.7875 Y22.9107
G01 X-14.7750 Y22.9100
G01 X-14.0948 Y22.9100
G00 Z4.0000
G00 X-14.8950 Y24.0800
G01 F80.00
G01 Z-0.0650
G01 F350.00
G01 X-14.8950 Y23.6800
G01 X-14.8943 Y23.6675
G01 X-14.8924 Y23.6551
G01 X-14.8891 Y23.6430
G01 X-14.8847 Y23.6313
G01 X-14.8790 Y23.6200
G01 X-14.8721 Y23.6095
G01 X-14.8642 Y23.5997
G01 X-14.8553 Y23.5908
G01 X-14.8455 Y23.5829
G01 X-14.8350 Y23.5760
G01 X-14.8237 Y23.5703
G01 X-14.8120 Y23.5659
G01 X-14.7999 Y23.5626
G01 X-14.7875 Y23.5607
G01 X-14.7750 Y23.5600
G01 X-13.3250 Y23.5600
G01 X-13.3125 Y23.5607
G01 X-13.3001 Y23.5626
G01 X-13.2880 Y23.5659
G01 X-13.2763 Y23.5703
G01 X-13.2650 Y23.5760
G01 X-13.2545 Y23.5829
G01 X-13.2447 Y23.5908
G01 X-13.2358 Y23.5997
G01 X-13.2279 Y23.6095
G01 X-13.2210 Y23.6200
G01 X-13.2153 Y23.6313
G01 X-13.2109 Y23.6430
G01 X-13.2076 Y23.6551
G01 X-13.2057 Y23.6675
G01 X-13.2050 Y23.6800
G01 X-13.2050 Y24.0800
G01 X-13.2057 Y24.0925
G01 X-13.2076 Y24.1049
G01 X-13.2109 Y24.1170
G01 X-13.2153 Y24.1287
G01 X-13.2210 Y24.1400
G01 X-13.2279 Y24.1505
G01 X-13.2358 Y24.1603
G01 X-13.2447 Y24.1692
G01 X-13.2545 Y24.1771
G01 X-13.2650 Y24.1840
G01 X-13.2763 Y24.1897
G01 X-13.2880 Y24.1941
G01 X-13.3001 Y24.1974
G01 X-13.3125 Y24.1993
G01 X-13.3250 Y24.2000
G01 X-14.7750 Y24.2000
G01 X-14.7875 Y24.1993
G01 X-14.7999 Y24.1974
G01 X-14.8120 Y24.1941
G01 X-14.8237 Y24.1897
G01 X-14.8350 Y24.1840
G01 X-14.8455 Y24.1771
G01 X-14.8553 Y24.1692
G01 X-14.8642 Y24.1603
G01 X-14.8721 Y24.1505
G01 X-14.8790 Y24.1400
G01 X-14.8847 Y24.1287
G01 X-14.8891 Y24.1170
G01 X-14.8924 Y24.1049
G01 X-14.8943 Y24.0925
G01 X-14.8950 Y24.0800
G01 X-14.8950 Y23.6800
G00 Z4.0000
G00 X-14.7750 Y24.2100
G01 F80.00
G01 Z-0.0650
G01 F350.00
G01 X-14.0948 Y24.2100
G01 X-14.0836 Y24.2085
G01 X-14.0500 Y24.2067
G01 X-12.7200 Y24.2067
G01 X-12.6864 Y24.2085
G01 X-12.6547 Y24.2135
G01 X-12.6432 Y24.2160
G01 X-12.6083 Y24.2267
G01 X-12.5737 Y24.2418
G01 X-12.5501 Y24.2550
G01 X-12.5238 Y24.2732
G01 X-12.5133 Y24.2816
G01 X-12.4914 Y24.3014
G01 X-12.3125 Y24.4803
G01 X-12.2863 Y24.4573
G01 X-12.2395 Y24.4243
G01 X-12.1984 Y24.4015
G01 X-12.1863 Y24.3957
G01 X-12.1455 Y24.3788
G01 X-12.0930 Y24.3631
G01 X-12.0799 Y24.3601
G01 X-12.0285 Y24.3517
G01 X-11.9750 Y24.3488
G01 X-7.4925 Y24.3488
G01 X-7.4803 Y24.3358
G01 X-7.4705 Y24.3279
G01 X-7.4600 Y24.3210
G01 X-7.4487 Y24.3153
G01 X-7.4370 Y24.3109
G01 X-7.4249 Y24.3076
G01 X-7.4125 Y24.3057
G01 X-7.4000 Y24.3050
G01 X-6.4000 Y24.3050
G01 X-6.3875 Y24.3057
G01 X-6.3751 Y24.3076
G01 X-6.3630 Y24.3109
G01 X-6.3513 Y24.3153
G01 X-6.3400 Y24.3210
G01 X-6.3295 Y24.3279
G01 X-6.3197 Y24.3358
G01 X-6.3108 Y24.3447
G01 X-6.3029 Y24.3545
G01 X-6.2960 Y24.3650
G01 X-6.2903 Y24.3763
G01 X-6.2859 Y24.3880
G01 X-6.2826 Y24.4001
G01 X-6.2807 Y24.4125
G01 X-6.2800 Y24.4250
G01 X-6.2800 Y25.2750
G01 X-6.2807 Y25.2875
G01 X-6.2826 Y25.2999
G01 X-6.2859 Y25.3120
G01 X-6.2903 Y25.3237
G01 X-6.2960 Y25.3350
G01 X-6.3029 Y25.3455
G01 X-6.3108 Y25.3553
G01 X-6.3197 Y25.3642
G01 X-6.3295 Y25.3721
G01 X-6.3400 Y25.3790
G01 X-6.3513 Y25.3847
G01 X-6.3630 Y25.3891
G01 X-6.3751 Y25.3924
G01 X-6.3875 Y25.3943
G01 X-6.3988 Y25.3949
G01 X-6.3988 Y30.6051
G01 X-6.3875 Y30.6057
G01 X-6.3751 Y30.6076
G01 X-6.3630 Y30.6109
G01 X-6.3513 Y30.6153
G01 X-6.3400 Y30.6210
G01 X-6.3295 Y30.6279
G01 X-6.3197 Y30.6358
G01 X-6.3108 Y30.6447
G01 X-6.3029 Y30.6545
G01 X-6.2960 Y30.6650
G01 X-6.2903 Y30.6763
G01 X-6.2859 Y30.6880
G01 X-6.2826 Y30.7001
G01 X-6.2807 Y30.7125
G01 X-6.2800 Y30.7250
G01 X-6.2800 Y31.5750
G01 X-6.2807 Y31.5875
G01 X-6.2826 Y31.5999
G01 X-6.2859 Y31.6120
G01 X-6.2903 Y31.6237
G01 X-6.2960 Y31.6350
G01 X-6.3029 Y31.6455
G01 X-6.3108 Y31.6553
G01 X-6.3197 Y31.6642
G01 X-6.3295 Y31.6721
G01 X-6.3400 Y31.6790
G01 X-6.3513 Y31.6847
G01 X-6.3630 Y31.6891
G01 X-6.3751 Y31.6924
G01 X-6.3875 Y31.6943
G01 X-6.3988 Y31.6949
G01 X-6.3988 Y31.9174
G01 X-6.1362 Y32.1800
G01 X-5.6941 Y32.1801
G01 X-5.6579 Y32.1825
G01 X-5.6252 Y32.1877
G01 X-5.5983 Y32.1944
G01 X-5.5639 Y32.2060
G01 X-5.5285 Y32.2222
G01 X-5.4945 Y32.2423
G01 X-5.4633 Y32.2656
G01 X-5.4384 Y32.2884
G01 X-5.4156 Y32.3133
G01 X-5.3923 Y32.3445
G01 X-5.3722 Y32.3785
G01 X-5.3560 Y32.4139
G01 X-5.3444 Y32.4483
G01 X-5.3377 Y32.4752
G01 X-5.3325 Y32.5079
G01 X-5.3301 Y32.5441
G01 X-5.3300 Y33.4500
G01 X-5.3313 Y33.4804
G01 X-5.3361 Y33.5164
G01 X-5.3444 Y33.5517
G01 X-5.3478 Y33.5630
G01 X-5.3606 Y33.5970
G01 X-5.3722 Y33.6215
G01 X-5.3923 Y33.6555
G01 X-5.4156 Y33.6867
G01 X-5.4384 Y33.7116
G01 X-5.4633 Y33.7344
G01 X-5.4945 Y33.7577
G01 X-5.5285 Y33.7778
G01 X-5.5556 Y33.7906
G01 X-5.5929 Y33.8042
G01 X-5.6252 Y33.8123
G01 X-5.6636 Y33.8182
G01 X-5.7000 Y33.8200
G01 X-6.3500 Y33.8200
G01 X-6.3864 Y33.8182
G01 X-6.4248 Y33.8123
G01 X-6.4517 Y33.8056
G01 X-6.4630 Y33.8022
G01 X-6.4944 Y33.7906
G01 X-6.5295 Y33.7734
G01 X-6.5555 Y33.7577
G01 X-6.5801 Y33.7396
G01 X-6.6116 Y33.7116
G01 X-6.6322 Y33.6892
G01 X-6.6543 Y33.6604
G01 X-6.6608 Y33.6506
G01 X-6.6778 Y33.6215
G01 X-6.6906 Y33.5944
G01 X-6.7042 Y33.5571
G01 X-6.7123 Y33.5248
G01 X-6.7182 Y33.4864
G01 X-6.7200 Y33.4500
G01 X-6.7200 Y33.0138
G01 X-7.2544 Y32.4794
G01 X-7.2875 Y32.4426
G01 X-7.2959 Y32.4321
G01 X-7.3257 Y32.3895
G01 X-7.3485 Y32.3484
G01 X-7.3543 Y32.3363
G01 X-7.3712 Y32.2955
G01 X-7.3874 Y32.2414
G01 X-7.3899 Y32.2299
G01 X-7.3983 Y32.1785
G01 X-7.4012 Y32.1250
G01 X-7.4012 Y31.6949
G01 X-7.4125 Y31.6943
G01 X-7.4249 Y31.6924
G01 X-7.4370 Y31.6891
G01 X-7.4487 Y31.6847
G01 X-7.4600 Y31.6790
G01 X-7.4705 Y31.6721
G01 X-7.4803 Y31.6642
G01 X-7.4892 Y31.6553
G01 X-7.4971 Y31.6455
G01 X-7.5040 Y31.6350
G01 X-7.5097 Y31.6237
G01 X-7.5141 Y31.6120
G01 X-7.5174 Y31.5999
G01 X-7.5193 Y31.5875
G01 X-7.5200 Y31.5750
G01 X-7.5200 Y30.7250
G01 X-7.5193 Y30.7125
G01 X-7.5174 Y30.7001
G01 X-7.5141 Y30.6880
G01 X-7.5097 Y30.6763
G01 X-7.5040 Y30.6650
G01 X-7.4971 Y30.6545
G01 X-7.4892 Y30.6447
G01 X-7.4803 Y30.6358
G01 X-7.4705 Y30.6279
G01 X-7.4600 Y30.6210
G01 X-7.4487 Y30.6153
G01 X-7.4370 Y30.6109
G01 X-7.4249 Y30.6076
G01 X-7.4125 Y30.6057
G01 X-7.4012 Y30.6051
G01 X-7.4012 Y25.3949
G01 X-7.4125 Y25.3943
G01 X-7.4249 Y25.3924
G01 X-7.4370 Y25.3891
G01 X-7.4487 Y25.3847
G01 X-7.4600 Y25.3790
G01 X-7.4705 Y25.3721
G01 X-7.4803 Y25.3642
G01 X-7.4925 Y25.3512
G01 X-11.9750 Y25.3512
G01 X-12.0244 Y25.3486
G01 X-12.0378 Y25.3471
G01 X-12.0914 Y25.3374
G01 X-12.1341 Y25.3251
G01 X-12.1468 Y25.3207
G01 X-12.1863 Y25.3043
G01 X-12.1984 Y25.2985
G01 X-12.2395 Y25.2757
G01 X-12.2863 Y25.2427
G01 X-12.3294 Y25.2044
G01 X-12.3574 Y25.1733
G01 X-12.4000 Y25.1733
G01 X-12.4336 Y25.1715
G01 X-12.4653 Y25.1665
G01 X-12.4768 Y25.1640
G01 X-12.5117 Y25.1533
G01 X-12.5341 Y25.1440
G01 X-12.5463 Y25.1382
G01 X-12.5699 Y25.1250
G01 X-12.6004 Y25.1037
G01 X-12.6286 Y25.0786
G01 X-12.8539 Y24.8533
G01 X-14.0500 Y24.8533
G01 X-14.0836 Y24.8515
G01 X-14.0948 Y24.8500
G01 X-14.7750 Y24.8500
G01 X-14.7875 Y24.8493
G01 X-14.7999 Y24.8474
G01 X-14.8120 Y24.8441
G01 X-14.8237 Y24.8397
G01 X-14.8350 Y24.8340
G01 X-14.8455 Y24.8271
G01 X-14.8553 Y24.8192
G01 X-14.8642 Y24.8103
G01 X-14.8721 Y24.8005
G01 X-14.8790 Y24.7900
G01 X-14.8847 Y24.7787
G01 X-14.8891 Y24.7670
G01 X-14.8924 Y24.7549
G01 X-14.8943 Y24.7425
G01 X-14.8950 Y24.7300
G01 X-14.8950 Y24.3300
G01 X-14.8943 Y24.3175
G01 X-14.8924 Y24.3051
G01 X-14.8891 Y24.2930
G01 X-14.8847 Y24.2813
G01 X-14.8790 Y24.2700
G01 X-14.8721 Y24.2595
G01 X-14.8642 Y24.2497
G01 X-14.8553 Y24.2408
G01 X-14.8455 Y24.2329
G01 X-14.8350 Y24.2260
G01 X-14.8237 Y24.2203
G01 X-14.8120 Y24.2159
G01 X-14.7999 Y24.2126
G01 X-14.7875 Y24.2107
G01 X-14.7750 Y24.2100
G01 X-14.0948 Y24.2100
G00 Z4.0000
G00 X-14.8950 Y25.3800
G01 F80.00
G01 Z-0.0650
G01 F350.00
G01 X-14.8950 Y24.9800
G01 X-14.8943 Y24.9675
G01 X-14.8924 Y24.9551
G01 X-14.8891 Y24.9430
G01 X-14.8847 Y24.9313
G01 X-14.8790 Y24.9200
G01 X-14.8721 Y24.9095
G01 X-14.8642 Y24.8997
G01 X-14.8553 Y24.8908
G01 X-14.8455 Y24.8829
G01 X-14.8350 Y24.8760
G01 X-14.8237 Y24.8703
G01 X-14.8120 Y24.8659
G01 X-14.7999 Y24.8626
G01 X-14.7875 Y24.8607
G01 X-14.7750 Y24.8600
G01 X-13.3250 Y24.8600
G01 X-13.3125 Y24.8607
G01 X-13.3001 Y24.8626
G01 X-13.2880 Y24.8659
G01 X-13.2763 Y24.8703
G01 X-13.2650 Y24.8760
G01 X-13.2545 Y24.8829
G01 X-13.2447 Y24.8908
G01 X-13.2358 Y24.8997
G01 X-13.2279 Y24.9095
G01 X-13.2210 Y24.9200
G01 X-13.2153 Y24.9313
G01 X-13.2109 Y24.9430
G01 X-13.2076 Y24.9551
G01 X-13.2057 Y24.9675
G01 X-13.2050 Y24.9800
G01 X-13.2050 Y25.3800
G01 X-13.2057 Y25.3925
G01 X-13.2076 Y25.4049
G01 X-13.2109 Y25.4170
G01 X-13.2153 Y25.4287
G01 X-13.2210 Y25.4400
G01 X-13.2279 Y25.4505
G01 X-13.2358 Y25.4603
G01 X-13.2447 Y25.4692
G01 X-13.2545 Y25.4771
G01 X-13.2650 Y25.4840
G01 X-13.2763 Y25.4897
G01 X-13.2880 Y25.4941
G01 X-13.3001 Y25.4974
G01 X-13.3125 Y25.4993
G01 X-13.3250 Y25.5000
G01 X-14.7750 Y25.5000
G01 X-14.7875 Y25.4993
G01 X-14.7999 Y25.4974
G01 X-14.8120 Y25.4941
G01 X-14.8237 Y25.4897
G01 X-14.8350 Y25.4840
G01 X-14.8455 Y25.4771
G01 X-14.8553 Y25.4692
G01 X-14.8642 Y25.4603
G01 X-14.8721 Y25.4505
G01 X-14.8790 Y25.4400
G01 X-14.8847 Y25.4287
G01 X-14.8891 Y25.4170
G01 X-14.8924 Y25.4049
G01 X-14.8943 Y25.3925
G01 X-14.8950 Y25.3800
G01 X-14.8950 Y24.9800
G00 Z4.0000
G00 X-14.8950 Y26.0300
G01 F80.00
G01 Z-0.0650
G01 F350.00
G01 X-14.8950 Y25.6300
G01 X-14.8943 Y25.6175
G01 X-14.8924 Y25.6051
G01 X-14.8891 Y25.5930
G01 X-14.8847 Y25.5813
G01 X-14.8790 Y25.5700
G01 X-14.8721 Y25.5595
G01 X-14.8642 Y25.5497
G01 X-14.8553 Y25.5408
G01 X-14.8455 Y25.5329
G01 X-14.8350 Y25.5260
G01 X-14.8237 Y25.5203
G01 X-14.8120 Y25.5159
G01 X-14.7999 Y25.5126
G01 X-14.7875 Y25.5107
G01 X-14.7750 Y25.5100
G01 X-13.3250 Y25.5100
G01 X-13.3125 Y25.5107
G01 X-13.3001 Y25.5126
G01 X-13.2880 Y25.5159
G01 X-13.2763 Y25.5203
G01 X-13.2651 Y25.5260
G01 X-13.2545 Y25.5329
G01 X-13.2447 Y25.5408
G01 X-13.2358 Y25.5497
G01 X-13.2279 Y25.5595
G01 X-13.2210 Y25.5700
G01 X-13.2153 Y25.5813
G01 X-13.2109 Y25.5930
G01 X-13.2076 Y25.6051
G01 X-13.2057 Y25.6175
G01 X-13.2050 Y25.6300
G01 X-13.2050 Y26.0300
G01 X-13.2057 Y26.0425
G01 X-13.2076 Y26.0549
G01 X-13.2109 Y26.0670
G01 X-13.2153 Y26.0787
G01 X-13.2210 Y26.0900
G01 X-13.2279 Y26.1005
G01 X-13.2358 Y26.1103
G01 X-13.2447 Y26.1192
G01 X-13.2545 Y26.1271
G01 X-13.2650 Y26.1340
G01 X-13.2763 Y26.1397
G01 X-13.2880 Y26.1441
G01 X-13.3001 Y26.1474
G01 X-13.3125 Y26.1493
G01 X-13.3250 Y26.1500
G01 X-14.7750 Y26.1500
G01 X-14.7875 Y26.1493
G01 X-14.7999 Y26.1474
G01 X-14.8120 Y26.1441
G01 X-14.8237 Y26.1397
G01 X-14.8350 Y26.1340
G01 X-14.8455 Y26.1271
G01 X-14.8553 Y26.1192
G01 X-14.8642 Y26.1103
G01 X-14.8721 Y26.1005
G01 X-14.8790 Y26.0900
G01 X-14.8847 Y26.0787
G01 X-14.8891 Y26.0670
G01 X-14.8924 Y26.0549
G01 X-14.8943 Y26.0425
G01 X-14.8950 Y26.0300
G01 X-14.8950 Y25.6300
G00 Z4.0000
G00 X-16.6700 Y28.3500
G01 F80.00
G01 Z-0.0650
G01 F350.00
G01 X-16.6700 Y27.4500
G01 X-16.6682 Y27.4136
G01 X-16.6623 Y27.3752
G01 X-16.6542 Y27.3429
G01 X-16.6406 Y27.3056
G01 X-16.6278 Y27.2785
G01 X-16.6077 Y27.2445
G01 X-16.5844 Y27.2133
G01 X-16.5616 Y27.1884
G01 X-16.5367 Y27.1656
G01 X-16.5104 Y27.1457
G01 X-16.5006 Y27.1392
G01 X-16.4715 Y27.1222
G01 X-16.4444 Y27.1094
G01 X-16.4130 Y27.0978
G01 X-16.4017 Y27.0944
G01 X-16.3748 Y27.0877
G01 X-16.3364 Y27.0818
G01 X-16.3000 Y27.0800
G01 X-15.6441 Y27.0801
G01 X-15.6079 Y27.0825
G01 X-15.5752 Y27.0877
G01 X-15.5483 Y27.0944
G01 X-15.5139 Y27.1060
G01 X-15.4808 Y27.1210
G01 X-15.4445 Y27.1423
G01 X-15.4133 Y27.1656
G01 X-15.3884 Y27.1884
G01 X-15.3656 Y27.2133
G01 X-15.3457 Y27.2396
G01 X-15.3392 Y27.2494
G01 X-15.3222 Y27.2785
G01 X-15.3094 Y27.3056
G01 X-15.2978 Y27.3370
G01 X-15.2944 Y27.3483
G01 X-15.2877 Y27.3752
G01 X-15.2818 Y27.4136
G01 X-15.2800 Y27.4500
G01 X-15.2800 Y28.3500
G01 X-15.2825 Y28.3921
G01 X-15.2877 Y28.4248
G01 X-15.2944 Y28.4517
G01 X-15.2978 Y28.4630
G01 X-15.3094 Y28.4944
G01 X-15.3266 Y28.5295
G01 X-15.3423 Y28.5555
G01 X-15.3604 Y28.5801
G01 X-15.3884 Y28.6116
G01 X-15.4199 Y28.6396
G01 X-15.4445 Y28.6577
G01 X-15.4738 Y28.6752
G01 X-15.4738 Y31.7544
G01 X-13.8544 Y33.3738
G01 X-13.4200 Y33.3738
G01 X-13.4200 Y32.1750
G01 X-13.4193 Y32.1625
G01 X-13.4174 Y32.1501
G01 X-13.4141 Y32.1380
G01 X-13.4097 Y32.1263
G01 X-13.4040 Y32.1151
G01 X-13.3971 Y32.1045
G01 X-13.3892 Y32.0947
G01 X-13.3803 Y32.0858
G01 X-13.3705 Y32.0779
G01 X-13.3600 Y32.0710
G01 X-13.3487 Y32.0653
G01 X-13.3370 Y32.0609
G01 X-13.3249 Y32.0576
G01 X-13.3125 Y32.0557
G01 X-13.3000 Y32.0550
G01 X-12.0000 Y32.0550
G01 X-11.9875 Y32.0557
G01 X-11.9751 Y32.0576
G01 X-11.9630 Y32.0609
G01 X-11.9513 Y32.0653
G01 X-11.9400 Y32.0710
G01 X-11.9295 Y32.0779
G01 X-11.9197 Y32.0858
G01 X-11.9108 Y32.0947
G01 X-11.9029 Y32.1045
G01 X-11.8960 Y32.1151
G01 X-11.8903 Y32.1263
G01 X-11.8859 Y32.1380
G01 X-11.8826 Y32.1501
G01 X-11.8807 Y32.1625
G01 X-11.8800 Y32.1750
G01 X-11.8800 Y35.5750
G01 X-11.8807 Y35.5875
G01 X-11.8826 Y35.5999
G01 X-11.8859 Y35.6120
G01 X-11.8903 Y35.6237
G01 X-11.8960 Y35.6349
G01 X-11.9029 Y35.6455
G01 X-11.9108 Y35.6553
G01 X-11.9197 Y35.6642
G01 X-11.9295 Y35.6721
G01 X-11.9400 Y35.6790
G01 X-11.9513 Y35.6847
G01 X-11.9630 Y35.6891
G01 X-11.9751 Y35.6924
G01 X-11.9875 Y35.6943
G01 X-12.0000 Y35.6950
G01 X-13.3000 Y35.6950
G01 X-13.3125 Y35.6943
G01 X-13.3249 Y35.6924
G01 X-13.3370 Y35.6891
G01 X-13.3487 Y35.6847
G01 X-13.3600 Y35.6790
G01 X-13.3705 Y35.6721
G01 X-13.3803 Y35.6642
G01 X-13.3892 Y35.6553
G01 X-13.3971 Y35.6455
G01 X-13.4040 Y35.6349
G01 X-13.4097 Y35.6237
G01 X-13.4141 Y35.6120
G01 X-13.4174 Y35.5999
G01 X-13.4193 Y35.5875
G01 X-13.4200 Y35.5750
G01 X-13.4200 Y34.3762
G01 X-14.0620 Y34.3762
G01 X-14.1155 Y34.3733
G01 X-14.1669 Y34.3649
G01 X-14.1784 Y34.3624
G01 X-14.2325 Y34.3462
G01 X-14.2733 Y34.3293
G01 X-14.2854 Y34.3235
G01 X-14.3265 Y34.3007
G01 X-14.3691 Y34.2709
G01 X-14.3796 Y34.2625
G01 X-14.4164 Y34.2294
G01 X-16.3294 Y32.3164
G01 X-16.3677 Y32.2733
G01 X-16.4007 Y32.2265
G01 X-16.4235 Y32.1854
G01 X-16.4293 Y32.1733
G01 X-16.4462 Y32.1325
G01 X-16.4619 Y32.0800
G01 X-16.4649 Y32.0669
G01 X-16.4733 Y32.0155
G01 X-16.4762 Y31.9620
G01 X-16.4762 Y28.6752
G01 X-16.5055 Y28.6577
G01 X-16.5301 Y28.6396
G01 X-16.5616 Y28.6116
G01 X-16.5896 Y28.5801
G01 X-16.6077 Y28.5555
G01 X-16.6234 Y28.5295
G01 X-16.6406 Y28.4944
G01 X-16.6522 Y28.4630
G01 X-16.6556 Y28.4517
G01 X-16.6623 Y28.4248
G01 X-16.6675 Y28.3921
G01 X-16.6700 Y28.3500
G01 X-16.6700 Y27.4500
G00 Z4.0000
G00 X-20.7950 Y26.0300
G01 F80.00
G01 Z-0.0650
G01 F350.00
G01 X-20.7950 Y25.6300
G01 X-20.7943 Y25.6175
G01 X-20.7924 Y25.6051
G01 X-20.7891 Y25.5930
G01 X-20.7847 Y25.5813
G01 X-20.7790 Y25.5700
G01 X-20.7721 Y25.5595
G01 X-20.7642 Y25.5497
G01 X-20.7553 Y25.5408
G01 X-20.7455 Y25.5329
G01 X-20.7350 Y25.5260
G01 X-20.7237 Y25.5203
G01 X-20.7120 Y25.5159
G01 X-20.6999 Y25.5126
G01 X-20.6875 Y25.5107
G01 X-20.6750 Y25.5100
G01 X-19.2250 Y25.5100
G01 X-19.2125 Y25.5107
G01 X-19.2001 Y25.5126
G01 X-19.1880 Y25.5159
G01 X-19.1763 Y25.5203
G01 X-19.1650 Y25.5260
G01 X-19.1545 Y25.5329
G01 X-19.1447 Y25.5408
G01 X-19.1358 Y25.5497
G01 X-19.1279 Y25.5595
G01 X-19.1210 Y25.5700
G01 X-19.1153 Y25.5813
G01 X-19.1109 Y25.5930
G01 X-19.1076 Y25.6051
G01 X-19.1057 Y25.6175
G01 X-19.1050 Y25.6300
G01 X-19.1050 Y26.0300
G01 X-19.1057 Y26.0425
G01 X-19.1076 Y26.0549
G01 X-19.1109 Y26.0670
G01 X-19.1153 Y26.0787
G01 X-19.1210 Y26.0900
G01 X-19.1279 Y26.1005
G01 X-19.1358 Y26.1103
G01 X-19.1447 Y26.1192
G01 X-19.1545 Y26.1271
G01 X-19.1650 Y26.1340
G01 X-19.1763 Y26.1397
G01 X-19.1880 Y26.1441
G01 X-19.2001 Y26.1474
G01 X-19.2125 Y26.1493
G01 X-19.2250 Y26.1500
G01 X-20.6750 Y26.1500
G01 X-20.6875 Y26.1493
G01 X-20.6999 Y26.1474
G01 X-20.7120 Y26.1441
G01 X-20.7237 Y26.1397
G01 X-20.7349 Y26.1340
G01 X-20.7455 Y26.1271
G01 X-20.7553 Y26.1192
G01 X-20.7642 Y26.1103
G01 X-20.7721 Y26.1005
G01 X-20.7790 Y26.0900
G01 X-20.7847 Y26.0787
G01 X-20.7891 Y26.0670
G01 X-20.7924 Y26.0549
G01 X-20.7943 Y26.0425
G01 X-20.7950 Y26.0300
G01 X-20.7950 Y25.6300
G00 Z4.0000
G00 X-20.7950 Y25.3800
G01 F80.00
G01 Z-0.0650
G01 F350.00
G01 X-20.7950 Y24.9800
G01 X-20.7943 Y24.9675
G01 X-20.7924 Y24.9551
G01 X-20.7891 Y24.9430
G01 X-20.7847 Y24.9313
G01 X-20.7790 Y24.9200
G01 X-20.7721 Y24.9095
G01 X-20.7642 Y24.8997
G01 X-20.7553 Y24.8908
G01 X-20.7455 Y24.8829
G01 X-20.7350 Y24.8760
G01 X-20.7237 Y24.8703
G01 X-20.7120 Y24.8659
G01 X-20.6999 Y24.8626
G01 X-20.6875 Y24.8607
G01 X-20.6750 Y24.8600
G01 X-19.2250 Y24.8600
G01 X-19.2125 Y24.8607
G01 X-19.2001 Y24.8626
G01 X-19.1880 Y24.8659
G01 X-19.1763 Y24.8703
G01 X-19.1650 Y24.8760
G01 X-19.1545 Y24.8829
G01 X-19.1447 Y24.8908
G01 X-19.1358 Y24.8997
G01 X-19.1279 Y24.9095
G01 X-19.1210 Y24.9200
G01 X-19.1153 Y24.9313
G01 X-19.1109 Y24.9430
G01 X-19.1076 Y24.9551
G01 X-19.1057 Y24.9675
G01 X-19.1050 Y24.9800
G01 X-19.1050 Y25.3800
G01 X-19.1057 Y25.3925
G01 X-19.1076 Y25.4049
G01 X-19.1109 Y25.4170
G01 X-19.1153 Y25.4287
G01 X-19.1210 Y25.4400
G01 X-19.1279 Y25.4505
G01 X-19.1358 Y25.4603
G01 X-19.1447 Y25.4692
G01 X-19.1545 Y25.4771
G01 X-19.1650 Y25.4840
G01 X-19.1763 Y25.4897
G01 X-19.1880 Y25.4941
G01 X-19.2001 Y25.4974
G01 X-19.2125 Y25.4993
G01 X-19.2250 Y25.5000
G01 X-20.6750 Y25.5000
G01 X-20.6875 Y25.4993
G01 X-20.6999 Y25.4974
G01 X-20.7120 Y25.4941
G01 X-20.7237 Y25.4897
G01 X-20.7349 Y25.4840
G01 X-20.7455 Y25.4771
G01 X-20.7553 Y25.4692
G01 X-20.7642 Y25.4603
G01 X-20.7721 Y25.4505
G01 X-20.7790 Y25.4399
G01 X-20.7847 Y25.4287
G01 X-20.7891 Y25.4170
G01 X-20.7924 Y25.4049
G01 X-20.7943 Y25.3925
G01 X-20.7950 Y25.3800
G01 X-20.7950 Y24.9800
G00 Z4.0000
G00 X-20.6750 Y24.2100
G01 F80.00
G01 Z-0.0650
G01 F350.00
G01 X-20.2998 Y24.2100
G01 X-20.2886 Y24.2085
G01 X-20.2550 Y24.2067
G01 X-18.3950 Y24.2067
G01 X-18.3655 Y24.2082
G01 X-18.3521 Y24.2097
G01 X-18.3165 Y24.2165
G01 X-18.2833 Y24.2267
G01 X-18.2609 Y24.2360
G01 X-18.2487 Y24.2418
G01 X-18.2251 Y24.2550
G01 X-18.1988 Y24.2732
G01 X-18.1883 Y24.2816
G01 X-18.1664 Y24.3014
G01 X-17.7964 Y24.6714
G01 X-17.7766 Y24.6933
G01 X-17.7682 Y24.7038
G01 X-17.7500 Y24.7301
G01 X-17.7368 Y24.7537
G01 X-17.7310 Y24.7659
G01 X-17.7178 Y24.7996
G01 X-17.7110 Y24.8232
G01 X-17.7047 Y24.8571
G01 X-17.7032 Y24.8705
G01 X-17.7017 Y24.9000
G01 X-17.7017 Y27.0800
G01 X-17.6636 Y27.0818
G01 X-17.6252 Y27.0877
G01 X-17.5929 Y27.0958
G01 X-17.5556 Y27.1094
G01 X-17.5285 Y27.1222
G01 X-17.4945 Y27.1423
G01 X-17.4633 Y27.1656
G01 X-17.4426 Y27.1843
G01 X-17.4156 Y27.2133
G01 X-17.3923 Y27.2445
G01 X-17.3722 Y27.2785
G01 X-17.3606 Y27.3030
G01 X-17.3478 Y27.3370
G01 X-17.3444 Y27.3483
G01 X-17.3361 Y27.3836
G01 X-17.3313 Y27.4196
G01 X-17.3300 Y27.4500
G01 X-17.3300 Y28.3500
G01 X-17.3325 Y28.3921
G01 X-17.3377 Y28.4248
G01 X-17.3478 Y28.4630
G01 X-17.3606 Y28.4970
G01 X-17.3722 Y28.5215
G01 X-17.3892 Y28.5506
G01 X-17.3957 Y28.5604
G01 X-17.4156 Y28.5867
G01 X-17.4384 Y28.6116
G01 X-17.4633 Y28.6344
G01 X-17.4896 Y28.6543
G01 X-17.4994 Y28.6608
G01 X-17.5285 Y28.6778
G01 X-17.5556 Y28.6906
G01 X-17.5870 Y28.7022
G01 X-17.6252 Y28.7123
G01 X-17.6579 Y28.7175
G01 X-17.6696 Y28.7187
G01 X-17.7000 Y28.7200
G01 X-18.3500 Y28.7200
G01 X-18.3864 Y28.7182
G01 X-18.4248 Y28.7123
G01 X-18.4630 Y28.7022
G01 X-18.4944 Y28.6906
G01 X-18.5215 Y28.6778
G01 X-18.5506 Y28.6608
G01 X-18.5604 Y28.6543
G01 X-18.5867 Y28.6344
G01 X-18.6116 Y28.6116
G01 X-18.6344 Y28.5867
G01 X-18.6543 Y28.5604
G01 X-18.6608 Y28.5506
G01 X-18.6778 Y28.5215
G01 X-18.6940 Y28.4861
G01 X-18.7042 Y28.4571
G01 X-18.7116 Y28.4279
G01 X-18.7182 Y28.3864
G01 X-18.7200 Y28.3500
G01 X-18.7200 Y27.4500
G01 X-18.7175 Y27.4079
G01 X-18.7123 Y27.3752
G01 X-18.7056 Y27.3483
G01 X-18.7022 Y27.3370
G01 X-18.6894 Y27.3030
G01 X-18.6778 Y27.2785
G01 X-18.6577 Y27.2445
G01 X-18.6344 Y27.2133
G01 X-18.6157 Y27.1926
G01 X-18.5892 Y27.1678
G01 X-18.5801 Y27.1604
G01 X-18.5555 Y27.1423
G01 X-18.5215 Y27.1222
G01 X-18.4944 Y27.1094
G01 X-18.4630 Y27.0978
G01 X-18.4517 Y27.0944
G01 X-18.4164 Y27.0861
G01 X-18.3864 Y27.0818
G01 X-18.3483 Y27.0800
G01 X-18.3483 Y25.0339
G01 X-18.5289 Y24.8533
G01 X-20.2550 Y24.8533
G01 X-20.2886 Y24.8515
G01 X-20.2998 Y24.8500
G01 X-20.6750 Y24.8500
G01 X-20.6875 Y24.8493
G01 X-20.6999 Y24.8474
G01 X-20.7120 Y24.8441
G01 X-20.7237 Y24.8397
G01 X-20.7350 Y24.8340
G01 X-20.7455 Y24.8271
G01 X-20.7553 Y24.8192
G01 X-20.7642 Y24.8103
G01 X-20.7721 Y24.8005
G01 X-20.7790 Y24.7900
G01 X-20.7847 Y24.7787
G01 X-20.7891 Y24.7670
G01 X-20.7924 Y24.7549
G01 X-20.7943 Y24.7425
G01 X-20.7950 Y24.7300
G01 X-20.7950 Y24.3300
G01 X-20.7943 Y24.3175
G01 X-20.7924 Y24.3051
G01 X-20.7891 Y24.2930
G01 X-20.7847 Y24.2813
G01 X-20.7790 Y24.2700
G01 X-20.7721 Y24.2595
G01 X-20.7642 Y24.2497
G01 X-20.7553 Y24.2408
G01 X-20.7455 Y24.2329
G01 X-20.7350 Y24.2260
G01 X-20.7237 Y24.2203
G01 X-20.7120 Y24.2159
G01 X-20.6999 Y24.2126
G01 X-20.6875 Y24.2107
G01 X-20.6750 Y24.2100
G01 X-20.2998 Y24.2100
G00 Z4.0000
G00 X-20.7950 Y24.0800
G01 F80.00
G01 Z-0.0650
G01 F350.00
G01 X-20.7950 Y23.6800
G01 X-20.7943 Y23.6675
G01 X-20.7924 Y23.6551
G01 X-20.7891 Y23.6430
G01 X-20.7847 Y23.6313
G01 X-20.7790 Y23.6200
G01 X-20.7721 Y23.6095
G01 X-20.7642 Y23.5997
G01 X-20.7553 Y23.5908
G01 X-20.7455 Y23.5829
G01 X-20.7350 Y23.5760
G01 X-20.7237 Y23.5703
G01 X-20.7120 Y23.5659
G01 X-20.6999 Y23.5626
G01 X-20.6875 Y23.5607
G01 X-20.6750 Y23.5600
G01 X-19.2250 Y23.5600
G01 X-19.2125 Y23.5607
G01 X-19.2001 Y23.5626
G01 X-19.1880 Y23.5659
G01 X-19.1763 Y23.5703
G01 X-19.1650 Y23.5760
G01 X-19.1545 Y23.5829
G01 X-19.1447 Y23.5908
G01 X-19.1358 Y23.5997
G01 X-19.1279 Y23.6095
G01 X-19.1210 Y23.6200
G01 X-19.1153 Y23.6313
G01 X-19.1109 Y23.6430
G01 X-19.1076 Y23.6551
G01 X-19.1057 Y23.6675
G01 X-19.1050 Y23.6800
G01 X-19.1050 Y24.0800
G01 X-19.1057 Y24.0925
G01 X-19.1076 Y24.1049
G01 X-19.1109 Y24.1170
G01 X-19.1153 Y24.1287
G01 X-19.1210 Y24.1400
G01 X-19.1279 Y24.1505
G01 X-19.1358 Y24.1603
G01 X-19.1447 Y24.1692
G01 X-19.1545 Y24.1771
G01 X-19.1650 Y24.1840
G01 X-19.1763 Y24.1897
G01 X-19.1880 Y24.1941
G01 X-19.2001 Y24.1974
G01 X-19.2125 Y24.1993
G01 X-19.2250 Y24.2000
G01 X-20.6750 Y24.2000
G01 X-20.6875 Y24.1993
G01 X-20.6999 Y24.1974
G01 X-20.7120 Y24.1941
G01 X-20.7237 Y24.1897
G01 X-20.7349 Y24.1840
G01 X-20.7455 Y24.1771
G01 X-20.7553 Y24.1692
G01 X-20.7642 Y24.1603
G01 X-20.7721 Y24.1505
G01 X-20.7790 Y24.1399
G01 X-20.7847 Y24.1287
G01 X-20.7891 Y24.1170
G01 X-20.7924 Y24.1049
G01 X-20.7943 Y24.0925
G01 X-20.7950 Y24.0800
G01 X-20.7950 Y23.6800
G00 Z4.0000
G00 X-21.5872 Y24.1930
G01 F80.00
G01 Z-0.0650
G01 F350.00
G01 X-20.9475 Y23.5533
G01 X-18.9525 Y23.5533
G01 X-18.7811 Y23.7247
G01 X-18.7753 Y23.7501
G01 X-18.7667 Y23.7758
G01 X-18.7559 Y23.7998
G01 X-18.7401 Y23.8267
G01 X-18.7207 Y23.8523
G01 X-18.7041 Y23.8701
G01 X-18.6805 Y23.8906
G01 X-18.6516 Y23.9100
G01 X-18.6236 Y23.9242
G01 X-18.5982 Y23.9338
G01 X-18.5675 Y23.9417
G01 X-18.5426 Y23.9455
G01 X-18.5154 Y23.9469
G01 X-18.4369 Y23.9469
G01 X-18.4163 Y23.9460
G01 X-18.3950 Y23.9441
G01 X-18.2807 Y23.9553
G01 X-18.1708 Y23.9887
G01 X-18.0695 Y24.0428
G01 X-17.9807 Y24.1157
G01 X-17.9670 Y24.1321
G01 X-17.9530 Y24.1473
G01 X-17.6423 Y24.4580
G01 X-17.6271 Y24.4720
G01 X-17.6107 Y24.4857
G01 X-17.5378 Y24.5745
G01 X-17.4837 Y24.6758
G01 X-17.4503 Y24.7857
G01 X-17.4391 Y24.9000
G01 X-17.4410 Y24.9213
G01 X-17.4419 Y24.9419
G01 X-17.4419 Y26.7208
G01 X-17.4404 Y26.7492
G01 X-17.4340 Y26.7852
G01 X-17.4249 Y26.8148
G01 X-17.4148 Y26.8386
G01 X-17.4050 Y26.8567
G01 X-17.3994 Y26.8661
G01 X-17.3848 Y26.8868
G01 X-17.3695 Y26.9046
G01 X-17.3481 Y26.9252
G01 X-17.2533 Y27.0033
G01 X-17.2088 Y27.0575
G01 X-17.1932 Y27.0747
G01 X-17.1838 Y27.0839
G01 X-17.1608 Y27.1030
G01 X-17.1453 Y27.1138
G01 X-17.1214 Y27.1273
G01 X-17.0941 Y27.1392
G01 X-17.0645 Y27.1484
G01 X-17.0285 Y27.1547
G01 X-17.0066 Y27.1561
G01 X-16.9934 Y27.1561
G01 X-16.9715 Y27.1547
G01 X-16.9473 Y27.1510
G01 X-16.9185 Y27.1435
G01 X-16.9059 Y27.1392
G01 X-16.8786 Y27.1273
G01 X-16.8547 Y27.1138
G01 X-16.8340 Y27.0992
G01 X-16.8162 Y27.0839
G01 X-16.7956 Y27.0625
G01 X-16.7467 Y27.0033
G01 X-16.6510 Y26.9247
G01 X-16.5418 Y26.8663
G01 X-16.4233 Y26.8304
G01 X-16.2867 Y26.8169
G01 X-15.6633 Y26.8169
G01 X-15.5267 Y26.8304
G01 X-15.4082 Y26.8663
G01 X-15.2990 Y26.9247
G01 X-15.2033 Y27.0033
G01 X-15.1247 Y27.0990
G01 X-15.0663 Y27.2082
G01 X-15.0304 Y27.3267
G01 X-15.0169 Y27.4633
G01 X-15.0169 Y28.3367
G01 X-15.0304 Y28.4733
G01 X-15.0663 Y28.5918
G01 X-15.1247 Y28.7010
G01 X-15.1528 Y28.7352
G01 X-15.1671 Y28.7545
G01 X-15.1830 Y28.7810
G01 X-15.1891 Y28.7933
G01 X-15.1981 Y28.8150
G01 X-15.2059 Y28.8409
G01 X-15.2113 Y28.8689
G01 X-15.2139 Y28.8996
G01 X-15.2141 Y31.5349
G01 X-15.2126 Y31.5626
G01 X-15.2086 Y31.5884
G01 X-15.2056 Y31.6016
G01 X-15.1971 Y31.6291
G01 X-15.1842 Y31.6581
G01 X-15.1740 Y31.6765
G01 X-15.1561 Y31.7022
G01 X-15.1350 Y31.7259
G01 X-14.1441 Y32.7168
G01 X-14.1204 Y32.7379
G01 X-14.1024 Y32.7507
G01 X-14.0910 Y32.7579
G01 X-14.0642 Y32.7719
G01 X-14.0473 Y32.7789
G01 X-14.0181 Y32.7879
G01 X-14.0066 Y32.7904
G01 X-13.9808 Y32.7944
G01 X-13.9464 Y32.7957
G01 X-13.9255 Y32.7944
G01 X-13.8996 Y32.7904
G01 X-13.8865 Y32.7874
G01 X-13.8590 Y32.7789
G01 X-13.8300 Y32.7660
G01 X-13.8116 Y32.7558
G01 X-13.7901 Y32.7410
G01 X-13.7796 Y32.7326
G01 X-13.7622 Y32.7168
G01 X-13.7463 Y32.6993
G01 X-13.7379 Y32.6888
G01 X-13.7232 Y32.6674
G01 X-13.7129 Y32.6490
G01 X-13.7006 Y32.6213
G01 X-13.6962 Y32.6086
G01 X-13.6885 Y32.5793
G01 X-13.6845 Y32.5535
G01 X-13.6831 Y32.5258
G01 X-13.6831 Y32.1883
G01 X-13.6744 Y32.1005
G01 X-13.6527 Y32.0289
G01 X-13.6174 Y31.9629
G01 X-13.5699 Y31.9051
G01 X-13.5121 Y31.8576
G01 X-13.4461 Y31.8223
G01 X-13.3745 Y31.8006
G01 X-13.2867 Y31.7919
G01 X-12.0133 Y31.7919
G01 X-11.9255 Y31.8006
G01 X-11.8539 Y31.8223
G01 X-11.7879 Y31.8576
G01 X-11.7301 Y31.9051
G01 X-11.6826 Y31.9629
G01 X-11.6473 Y32.0289
G01 X-11.6256 Y32.1005
G01 X-11.6169 Y32.1883
G01 X-11.6169 Y35.5617
G01 X-11.6256 Y35.6495
G01 X-11.6473 Y35.7211
G01 X-11.6826 Y35.7871
G01 X-11.7301 Y35.8449
G01 X-11.7879 Y35.8924
G01 X-11.8539 Y35.9277
G01 X-11.9255 Y35.9494
G01 X-12.0133 Y35.9581
G01 X-13.2867 Y35.9581
G01 X-13.3745 Y35.9494
G01 X-13.4461 Y35.9277
G01 X-13.5121 Y35.8924
G01 X-13.5699 Y35.8449
G01 X-13.6174 Y35.7871
G01 X-13.6527 Y35.7211
G01 X-13.6744 Y35.6495
G01 X-13.6831 Y35.5617
G01 X-13.6831 Y34.9060
G01 X-13.6845 Y34.8783
G01 X-13.6885 Y34.8525
G01 X-13.6911 Y34.8410
G01 X-13.7001 Y34.8119
G01 X-13.7071 Y34.7950
G01 X-13.7232 Y34.7644
G01 X-13.7379 Y34.7430
G01 X-13.7463 Y34.7325
G01 X-13.7622 Y34.7150
G01 X-13.7796 Y34.6992
G01 X-13.8039 Y34.6811
G01 X-13.8300 Y34.6658
G01 X-13.8421 Y34.6599
G01 X-13.8704 Y34.6490
G01 X-13.8996 Y34.6414
G01 X-13.9296 Y34.6371
G01 X-13.9531 Y34.6359
G01 X-14.0114 Y34.6359
G01 X-14.0320 Y34.6368
G01 X-14.0620 Y34.6396
G01 X-14.2112 Y34.6249
G01 X-14.3546 Y34.5814
G01 X-14.4868 Y34.5107
G01 X-14.6027 Y34.4157
G01 X-14.6219 Y34.3924
G01 X-14.6359 Y34.3772
G01 X-16.4772 Y32.5359
G01 X-16.4924 Y32.5219
G01 X-16.5157 Y32.5027
G01 X-16.6107 Y32.3868
G01 X-16.6814 Y32.2546
G01 X-16.7249 Y32.1112
G01 X-16.7396 Y31.9620
G01 X-16.7368 Y31.9319
G01 X-16.7359 Y31.9114
G01 X-16.7359 Y28.9211
G01 X-16.7374 Y28.8936
G01 X-16.7413 Y28.8679
G01 X-16.7443 Y28.8549
G01 X-16.7528 Y28.8273
G01 X-16.7597 Y28.8107
G01 X-16.7758 Y28.7800
G01 X-16.7902 Y28.7589
G01 X-16.7980 Y28.7490
G01 X-16.8190 Y28.7264
G01 X-16.8382 Y28.7096
G01 X-16.8555 Y28.6970
G01 X-16.8667 Y28.6899
G01 X-16.8864 Y28.6790
G01 X-16.9088 Y28.6693
G01 X-16.9214 Y28.6648
G01 X-16.9480 Y28.6574
G01 X-16.9682 Y28.6538
G01 X-17.0047 Y28.6511
G01 X-17.0270 Y28.6520
G01 X-17.0403 Y28.6534
G01 X-17.0695 Y28.6587
G01 X-17.0987 Y28.6676
G01 X-17.1232 Y28.6779
G01 X-17.1411 Y28.6874
G01 X-17.1663 Y28.7039
G01 X-17.1769 Y28.7121
G01 X-17.1991 Y28.7324
G01 X-17.2148 Y28.7498
G01 X-17.2533 Y28.7967
G01 X-17.3490 Y28.8753
G01 X-17.4582 Y28.9337
G01 X-17.5767 Y28.9696
G01 X-17.7133 Y28.9831
G01 X-18.3367 Y28.9831
G01 X-18.4733 Y28.9696
G01 X-18.5918 Y28.9337
G01 X-18.7010 Y28.8753
G01 X-18.7967 Y28.7967
G01 X-18.8753 Y28.7010
G01 X-18.9337 Y28.5918
G01 X-18.9696 Y28.4733
G01 X-18.9831 Y28.3367
G01 X-18.9831 Y27.4633
G01 X-18.9696 Y27.3267
G01 X-18.9337 Y27.2082
G01 X-18.8753 Y27.0990
G01 X-18.7967 Y27.0033
G01 X-18.7019 Y26.9252
G01 X-18.6805 Y26.9046
G01 X-18.6614 Y26.8816
G01 X-18.6506 Y26.8661
G01 X-18.6352 Y26.8386
G01 X-18.6251 Y26.8148
G01 X-18.6208 Y26.8023
G01 X-18.6134 Y26.7734
G01 X-18.6096 Y26.7492
G01 X-18.6083 Y26.7274
G01 X-18.6081 Y26.5817
G01 X-18.6096 Y26.5536
G01 X-18.6163 Y26.5160
G01 X-18.6264 Y26.4843
G01 X-18.6363 Y26.4616
G01 X-18.6492 Y26.4386
G01 X-18.6675 Y26.4128
G01 X-18.6856 Y26.3925
G01 X-18.6954 Y26.3830
G01 X-18.7194 Y26.3634
G01 X-18.7393 Y26.3500
G01 X-18.7717 Y26.3335
G01 X-18.8022 Y26.3226
G01 X-18.8275 Y26.3164
G01 X-18.8493 Y26.3132
G01 X-18.8831 Y26.3117
G01 X-18.9217 Y26.3151
G01 X-18.9486 Y26.3209
G01 X-18.9744 Y26.3293
G01 X-18.9838 Y26.3332
G01 X-19.0055 Y26.3435
G01 X-19.0789 Y26.3827
G01 X-19.1505 Y26.4044
G01 X-19.2383 Y26.4131
G01 X-20.6617 Y26.4131
G01 X-20.7235 Y26.4070
G01 X-20.7469 Y26.4058
G01 X-20.7602 Y26.4060
G01 X-20.7901 Y26.4088
G01 X-20.8065 Y26.4118
G01 X-20.8355 Y26.4197
G01 X-20.8480 Y26.4242
G01 X-20.8754 Y26.4367
G01 X-20.9011 Y26.4520
G01 X-20.9235 Y26.4688
G01 X-20.9417 Y26.4855
G01 X-20.9578 Y26.5034
G01 X-20.9757 Y26.5276
G01 X-20.9827 Y26.5389
G01 X-20.9928 Y26.5575
G01 X-21.0028 Y26.5810
G01 X-21.0072 Y26.5936
G01 X-21.0147 Y26.6227
G01 X-21.0187 Y26.6482
G01 X-21.0201 Y26.6756
G01 X-21.0494 Y26.7049
G01 X-21.3800 Y26.7049
G01 X-21.3800 Y26.6750
G01 X-21.3813 Y26.6446
G01 X-21.3825 Y26.6329
G01 X-21.3877 Y26.6002
G01 X-21.3978 Y26.5620
G01 X-21.4094 Y26.5306
G01 X-21.4222 Y26.5035
G01 X-21.4392 Y26.4744
G01 X-21.4457 Y26.4646
G01 X-21.4656 Y26.4383
G01 X-21.4884 Y26.4134
G01 X-21.5199 Y26.3854
G01 X-21.5445 Y26.3673
G01 X-21.5738 Y26.3498
G01 X-21.5738 Y25.7502
G01 X-21.5396 Y25.7293
G01 X-21.5133 Y25.7094
G01 X-21.4926 Y25.6907
G01 X-21.4656 Y25.6617
G01 X-21.4423 Y25.6305
G01 X-21.4222 Y25.5965
G01 X-21.4060 Y25.5611
G01 X-21.3958 Y25.5321
G01 X-21.3884 Y25.5029
G01 X-21.3818 Y25.4614
G01 X-21.3800 Y25.4250
G01 X-21.3800 Y24.5250
G01 X-21.3818 Y24.4886
G01 X-21.3884 Y24.4471
G01 X-21.3958 Y24.4179
G01 X-21.4060 Y24.3889
G01 X-21.4222 Y24.3535
G01 X-21.4423 Y24.3195
G01 X-21.4678 Y24.2858
G01 X-21.4884 Y24.2634
G01 X-21.5133 Y24.2406
G01 X-21.5445 Y24.2173
G01 X-21.5705 Y24.2016
G01 X-21.5872 Y24.1930
G01 X-20.9475 Y23.5533
G00 Z4.0000
G00 X-21.6549 Y27.9323
G01 F80.00
G01 Z-0.0650
G01 F350.00
G01 X-21.6370 Y27.9272
G01 X-21.6056 Y27.9156
G01 X-21.5785 Y27.9028
G01 X-21.5445 Y27.8827
G01 X-21.5133 Y27.8594
G01 X-21.4884 Y27.8366
G01 X-21.4656 Y27.8117
G01 X-21.4457 Y27.7854
G01 X-21.4266 Y27.7545
G01 X-21.4106 Y27.7220
G01 X-21.3978 Y27.6880
G01 X-21.3944 Y27.6767
G01 X-21.3877 Y27.6498
G01 X-21.3818 Y27.6114
G01 X-21.3801 Y27.5809
G01 X-21.3800 Y27.5451
G01 X-21.0494 Y27.5451
G01 X-21.0201 Y27.5744
G01 X-21.0201 Y27.8723
G01 X-21.0385 Y27.9650
G01 X-21.0747 Y28.0523
G01 X-21.1272 Y28.1309
G01 X-21.1941 Y28.1978
G01 X-21.2727 Y28.2503
G01 X-21.3600 Y28.2865
G01 X-21.4527 Y28.3049
G01 X-21.6256 Y28.3049
G01 X-21.6549 Y28.2756
G01 X-21.6549 Y27.9323
G01 X-21.6370 Y27.9272
G00 Z4.0000
G00 X-22.0000 Y32.0550
G01 F80.00
G01 Z-0.0650
G01 F350.00
G01 X-22.0125 Y32.0557
G01 X-22.0249 Y32.0576
G01 X-22.0370 Y32.0609
G01 X-22.0487 Y32.0653
G01 X-22.0600 Y32.0711
G01 X-22.0705 Y32.0779
G01 X-22.0803 Y32.0858
G01 X-22.0892 Y32.0947
G01 X-22.0971 Y32.1045
G01 X-22.1040 Y32.1150
G01 X-22.1097 Y32.1263
G01 X-22.1141 Y32.1380
G01 X-22.1174 Y32.1501
G01 X-22.1193 Y32.1625
G01 X-22.1200 Y32.1750
G01 X-22.1200 Y33.4549
G01 X-22.4506 Y33.4549
G01 X-22.4799 Y33.4256
G01 X-22.4799 Y32.1277
G01 X-22.4615 Y32.0350
G01 X-22.4253 Y31.9477
G01 X-22.3728 Y31.8691
G01 X-22.3059 Y31.8022
G01 X-22.2273 Y31.7497
G01 X-22.1400 Y31.7135
G01 X-22.0473 Y31.6951
G01 X-21.7994 Y31.6951
G01 X-21.7701 Y31.7244
G01 X-21.7701 Y32.0550
G01 X-22.0000 Y32.0550
G01 X-22.0125 Y32.0557
G00 Z4.0000
G00 X-20.6513 Y32.0653
G01 F80.00
G01 Z-0.0650
G01 F350.00
G01 X-20.6630 Y32.0609
G01 X-20.6751 Y32.0576
G01 X-20.6875 Y32.0557
G01 X-20.7000 Y32.0550
G01 X-20.9299 Y32.0550
G01 X-20.9299 Y31.7244
G01 X-20.9006 Y31.6951
G01 X-20.6527 Y31.6951
G01 X-20.5600 Y31.7135
G01 X-20.4727 Y31.7497
G01 X-20.3941 Y31.8022
G01 X-20.3272 Y31.8691
G01 X-20.2747 Y31.9477
G01 X-20.2385 Y32.0350
G01 X-20.2201 Y32.1277
G01 X-20.2201 Y33.4256
G01 X-20.2494 Y33.4549
G01 X-20.5800 Y33.4549
G01 X-20.5800 Y32.1750
G01 X-20.5807 Y32.1625
G01 X-20.5826 Y32.1501
G01 X-20.5859 Y32.1380
G01 X-20.5903 Y32.1263
G01 X-20.5960 Y32.1150
G01 X-20.6029 Y32.1045
G01 X-20.6108 Y32.0947
G01 X-20.6197 Y32.0858
G01 X-20.6295 Y32.0779
G01 X-20.6400 Y32.0711
G01 X-20.6513 Y32.0653
G01 X-20.6630 Y32.0609
G00 Z4.0000
G00 X-22.1200 Y34.2951
G01 F80.00
G01 Z-0.0650
G01 F350.00
G01 X-22.1200 Y35.5750
G01 X-22.1193 Y35.5875
G01 X-22.1174 Y35.5999
G01 X-22.1141 Y35.6120
G01 X-22.1097 Y35.6237
G01 X-22.1040 Y35.6350
G01 X-22.0971 Y35.6455
G01 X-22.0892 Y35.6553
G01 X-22.0803 Y35.6642
G01 X-22.0705 Y35.6721
G01 X-22.0600 Y35.6789
G01 X-22.0487 Y35.6847
G01 X-22.0370 Y35.6891
G01 X-22.0249 Y35.6924
G01 X-22.0125 Y35.6943
G01 X-22.0000 Y35.6950
G01 X-21.7701 Y35.6950
G01 X-21.7701 Y36.0256
G01 X-21.7994 Y36.0549
G01 X-22.0473 Y36.0549
G01 X-22.1400 Y36.0365
G01 X-22.2273 Y36.0003
G01 X-22.3059 Y35.9478
G01 X-22.3728 Y35.8809
G01 X-22.4253 Y35.8023
G01 X-22.4615 Y35.7150
G01 X-22.4799 Y35.6223
G01 X-22.4799 Y34.3244
G01 X-22.4506 Y34.2951
G01 X-22.1200 Y34.2951
G01 X-22.1200 Y35.5750
G00 Z4.0000
G00 X-20.5903 Y35.6237
G01 F80.00
G01 Z-0.0650
G01 F350.00
G01 X-20.5859 Y35.6120
G01 X-20.5826 Y35.5999
G01 X-20.5807 Y35.5875
G01 X-20.5800 Y35.5750
G01 X-20.5800 Y34.2951
G01 X-20.2494 Y34.2951
G01 X-20.2201 Y34.3244
G01 X-20.2201 Y35.6223
G01 X-20.2385 Y35.7150
G01 X-20.2747 Y35.8023
G01 X-20.3272 Y35.8809
G01 X-20.3941 Y35.9478
G01 X-20.4727 Y36.0003
G01 X-20.5600 Y36.0365
G01 X-20.6527 Y36.0549
G01 X-20.9006 Y36.0549
G01 X-20.9299 Y36.0256
G01 X-20.9299 Y35.6950
G01 X-20.7000 Y35.6950
G01 X-20.6875 Y35.6943
G01 X-20.6751 Y35.6924
G01 X-20.6630 Y35.6891
G01 X-20.6513 Y35.6847
G01 X-20.6400 Y35.6790
G01 X-20.6295 Y35.6721
G01 X-20.6197 Y35.6642
G01 X-20.6108 Y35.6553
G01 X-20.6029 Y35.6455
G01 X-20.5960 Y35.6350
G01 X-20.5903 Y35.6237
G01 X-20.5859 Y35.6120
G00 Z4.0000
G00 X-31.5500 Y27.9100
G01 F80.00
G01 Z-0.0650
G01 F350.00
G01 X-30.6500 Y27.9100
G01 X-30.6375 Y27.9107
G01 X-30.6251 Y27.9126
G01 X-30.6130 Y27.9159
G01 X-30.6013 Y27.9203
G01 X-30.5858 Y27.9288
G01 X-25.6376 Y27.9288
G01 X-24.8200 Y27.1112
G01 X-24.8199 Y26.6691
G01 X-24.8175 Y26.6329
G01 X-24.8123 Y26.6002
G01 X-24.8056 Y26.5733
G01 X-24.7940 Y26.5389
G01 X-24.7778 Y26.5035
G01 X-24.7577 Y26.4695
G01 X-24.7344 Y26.4383
G01 X-24.7116 Y26.4134
G01 X-24.6867 Y26.3906
G01 X-24.6555 Y26.3673
G01 X-24.6262 Y26.3498
G01 X-24.6262 Y25.7502
G01 X-24.6604 Y25.7293
G01 X-24.6867 Y25.7094
G01 X-24.7074 Y25.6907
G01 X-24.7344 Y25.6617
G01 X-24.7543 Y25.6354
G01 X-24.7608 Y25.6256
G01 X-24.7778 Y25.5965
G01 X-24.7894 Y25.5720
G01 X-24.8042 Y25.5321
G01 X-24.8139 Y25.4914
G01 X-24.8182 Y25.4614
G01 X-24.8199 Y25.4309
G01 X-24.8200 Y24.5250
G01 X-24.8182 Y24.4886
G01 X-24.8123 Y24.4502
G01 X-24.8042 Y24.4179
G01 X-24.7906 Y24.3806
G01 X-24.7778 Y24.3535
G01 X-24.7577 Y24.3195
G01 X-24.7344 Y24.2883
G01 X-24.7116 Y24.2634
G01 X-24.6867 Y24.2406
G01 X-24.6604 Y24.2207
G01 X-24.6506 Y24.2142
G01 X-24.6215 Y24.1972
G01 X-24.5944 Y24.1844
G01 X-24.5630 Y24.1728
G01 X-24.5517 Y24.1694
G01 X-24.5248 Y24.1627
G01 X-24.4864 Y24.1568
G01 X-24.4500 Y24.1550
G01 X-23.8122 Y24.1550
G01 X-22.0086 Y22.3514
G01 X-21.9804 Y22.3263
G01 X-21.9499 Y22.3050
G01 X-21.9263 Y22.2918
G01 X-21.8931 Y22.2772
G01 X-21.8585 Y22.2665
G01 X-21.8453 Y22.2635
G01 X-21.8136 Y22.2585
G01 X-21.7800 Y22.2567
G01 X-18.9525 Y22.2567
G01 X-18.3233 Y21.6275
G01 X-18.3233 Y17.7824
G01 X-18.3544 Y17.7544
G01 X-18.3927 Y17.7113
G01 X-18.4257 Y17.6645
G01 X-18.4485 Y17.6234
G01 X-18.4543 Y17.6113
G01 X-18.4712 Y17.5705
G01 X-18.4874 Y17.5164
G01 X-18.4899 Y17.5049
G01 X-18.4983 Y17.4535
G01 X-18.5012 Y17.4000
G01 X-18.5012 Y13.0500
G01 X-18.4983 Y12.9965
G01 X-18.4899 Y12.9451
G01 X-18.4853 Y12.9262
G01 X-20.6080 Y12.9262
G01 X-20.6109 Y12.9370
G01 X-20.6153 Y12.9487
G01 X-20.6210 Y12.9600
G01 X-20.6279 Y12.9705
G01 X-20.6358 Y12.9803
G01 X-20.6447 Y12.9892
G01 X-20.6545 Y12.9971
G01 X-20.6650 Y13.0040
G01 X-20.6763 Y13.0097
G01 X-20.6880 Y13.0141
G01 X-20.7001 Y13.0174
G01 X-20.7125 Y13.0193
G01 X-20.7250 Y13.0200
G01 X-21.5750 Y13.0200
G01 X-21.5875 Y13.0193
G01 X-21.5999 Y13.0174
G01 X-21.6120 Y13.0141
G01 X-21.6237 Y13.0097
G01 X-21.6350 Y13.0040
G01 X-21.6455 Y12.9971
G01 X-21.6553 Y12.9892
G01 X-21.6642 Y12.9803
G01 X-21.6721 Y12.9705
G01 X-21.6790 Y12.9600
G01 X-21.6847 Y12.9487
G01 X-21.6891 Y12.9370
G01 X-21.6924 Y12.9249
G01 X-21.6943 Y12.9125
G01 X-21.6950 Y12.9000
G01 X-21.6950 Y11.9000
G01 X-21.6943 Y11.8875
G01 X-21.6924 Y11.8751
G01 X-21.6891 Y11.8630
G01 X-21.6847 Y11.8513
G01 X-21.6790 Y11.8400
G01 X-21.6721 Y11.8295
G01 X-21.6642 Y11.8197
G01 X-21.6553 Y11.8108
G01 X-21.6455 Y11.8029
G01 X-21.6350 Y11.7960
G01 X-21.6237 Y11.7903
G01 X-21.6120 Y11.7859
G01 X-21.5999 Y11.7826
G01 X-21.5875 Y11.7807
G01 X-21.5750 Y11.7800
G01 X-20.7250 Y11.7800
G01 X-20.7125 Y11.7807
G01 X-20.7001 Y11.7826
G01 X-20.6880 Y11.7859
G01 X-20.6763 Y11.7903
G01 X-20.6650 Y11.7960
G01 X-20.6545 Y11.8029
G01 X-20.6447 Y11.8108
G01 X-20.6358 Y11.8197
G01 X-20.6279 Y11.8295
G01 X-20.6210 Y11.8400
G01 X-20.6153 Y11.8513
G01 X-20.6109 Y11.8630
G01 X-20.6076 Y11.8751
G01 X-20.6057 Y11.8875
G01 X-20.6050 Y11.9238
G01 X-15.3950 Y11.9238
G01 X-15.3943 Y11.8875
G01 X-15.3924 Y11.8751
G01 X-15.3891 Y11.8630
G01 X-15.3847 Y11.8513
G01 X-15.3790 Y11.8400
G01 X-15.3721 Y11.8295
G01 X-15.3642 Y11.8197
G01 X-15.3553 Y11.8108
G01 X-15.3455 Y11.8029
G01 X-15.3350 Y11.7960
G01 X-15.3237 Y11.7903
G01 X-15.3120 Y11.7859
G01 X-15.2999 Y11.7826
G01 X-15.2875 Y11.7807
G01 X-15.2750 Y11.7800
G01 X-14.4250 Y11.7800
G01 X-14.4125 Y11.7807
G01 X-14.4001 Y11.7826
G01 X-14.3880 Y11.7859
G01 X-14.3763 Y11.7903
G01 X-14.3650 Y11.7960
G01 X-14.3545 Y11.8029
G01 X-14.3447 Y11.8108
G01 X-14.3358 Y11.8197
G01 X-14.3279 Y11.8295
G01 X-14.3210 Y11.8400
G01 X-14.3153 Y11.8513
G01 X-14.3109 Y11.8630
G01 X-14.3076 Y11.8751
G01 X-14.3057 Y11.8875
G01 X-14.3050 Y11.9000
G01 X-14.3050 Y12.2516
G01 X-14.2999 Y12.2659
G01 X-14.2876 Y12.3086
G01 X-14.2851 Y12.3201
G01 X-14.2767 Y12.3715
G01 X-14.2738 Y12.4250
G01 X-14.2764 Y12.4744
G01 X-14.2779 Y12.4878
G01 X-14.2876 Y12.5414
G01 X-14.2999 Y12.5841
G01 X-14.3050 Y12.5984
G01 X-14.3050 Y12.9000
G01 X-14.3057 Y12.9125
G01 X-14.3076 Y12.9249
G01 X-14.3109 Y12.9370
G01 X-14.3153 Y12.9487
G01 X-14.3210 Y12.9600
G01 X-14.3279 Y12.9705
G01 X-14.3358 Y12.9803
G01 X-14.3447 Y12.9892
G01 X-14.3545 Y12.9971
G01 X-14.3650 Y13.0040
G01 X-14.3763 Y13.0097
G01 X-14.3880 Y13.0141
G01 X-14.4001 Y13.0174
G01 X-14.4125 Y13.0193
G01 X-14.4250 Y13.0200
G01 X-15.2750 Y13.0200
G01 X-15.2875 Y13.0193
G01 X-15.2999 Y13.0174
G01 X-15.3120 Y13.0141
G01 X-15.3237 Y13.0097
G01 X-15.3350 Y13.0040
G01 X-15.3455 Y12.9971
G01 X-15.3553 Y12.9892
G01 X-15.3642 Y12.9803
G01 X-15.3721 Y12.9705
G01 X-15.3790 Y12.9600
G01 X-15.3847 Y12.9487
G01 X-15.3891 Y12.9370
G01 X-15.3920 Y12.9262
G01 X-17.1674 Y12.9262
G01 X-17.4988 Y13.2576
G01 X-17.4988 Y17.4000
G01 X-17.5017 Y17.4535
G01 X-17.5101 Y17.5049
G01 X-17.5126 Y17.5164
G01 X-17.5288 Y17.5705
G01 X-17.5457 Y17.6113
G01 X-17.5515 Y17.6234
G01 X-17.5743 Y17.6645
G01 X-17.6073 Y17.7113
G01 X-17.6456 Y17.7544
G01 X-17.6767 Y17.7824
G01 X-17.6767 Y21.7614
G01 X-17.6782 Y21.7909
G01 X-17.6797 Y21.8043
G01 X-17.6860 Y21.8382
G01 X-17.6967 Y21.8731
G01 X-17.7060 Y21.8955
G01 X-17.7228 Y21.9276
G01 X-17.7300 Y21.9390
G01 X-17.7463 Y21.9618
G01 X-17.7714 Y21.9900
G01 X-18.0381 Y22.2567
G01 X-10.7639 Y22.2567
G01 X-9.7490 Y21.2418
G01 X-9.7512 Y21.2000
G01 X-9.7486 Y21.1506
G01 X-9.7471 Y21.1372
G01 X-9.7374 Y21.0836
G01 X-9.7212 Y21.0295
G01 X-9.7043 Y20.9887
G01 X-9.6985 Y20.9766
G01 X-9.6757 Y20.9355
G01 X-9.6427 Y20.8887
G01 X-9.6090 Y20.8505
G01 X-7.4012 Y18.6424
G01 X-7.4012 Y15.6949
G01 X-7.4125 Y15.6943
G01 X-7.4249 Y15.6924
G01 X-7.4370 Y15.6891
G01 X-7.4487 Y15.6847
G01 X-7.4600 Y15.6790
G01 X-7.4705 Y15.6721
G01 X-7.4803 Y15.6642
G01 X-7.4892 Y15.6553
G01 X-7.4971 Y15.6455
G01 X-7.5040 Y15.6350
G01 X-7.5097 Y15.6237
G01 X-7.5141 Y15.6120
G01 X-7.5174 Y15.5999
G01 X-7.5193 Y15.5875
G01 X-7.5200 Y15.5750
G01 X-7.5200 Y14.7250
G01 X-7.5193 Y14.7125
G01 X-7.5174 Y14.7001
G01 X-7.5141 Y14.6880
G01 X-7.5097 Y14.6763
G01 X-7.5040 Y14.6650
G01 X-7.4971 Y14.6545
G01 X-7.4892 Y14.6447
G01 X-7.4803 Y14.6358
G01 X-7.4705 Y14.6279
G01 X-7.4600 Y14.6210
G01 X-7.4487 Y14.6153
G01 X-7.4370 Y14.6109
G01 X-7.4249 Y14.6076
G01 X-7.4125 Y14.6057
G01 X-7.4012 Y14.6051
G01 X-7.4012 Y9.3949
G01 X-7.4125 Y9.3943
G01 X-7.4249 Y9.3924
G01 X-7.4370 Y9.3891
G01 X-7.4487 Y9.3847
G01 X-7.4600 Y9.3790
G01 X-7.4705 Y9.3721
G01 X-7.4803 Y9.3642
G01 X-7.4892 Y9.3553
G01 X-7.4971 Y9.3455
G01 X-7.5040 Y9.3350
G01 X-7.5097 Y9.3237
G01 X-7.5141 Y9.3120
G01 X-7.5174 Y9.2999
G01 X-7.5193 Y9.2875
G01 X-7.5200 Y9.2750
G01 X-7.5200 Y8.4250
G01 X-7.5193 Y8.4125
G01 X-7.5174 Y8.4001
G01 X-7.5141 Y8.3880
G01 X-7.5097 Y8.3763
G01 X-7.5040 Y8.3650
G01 X-7.4971 Y8.3545
G01 X-7.4892 Y8.3447
G01 X-7.4803 Y8.3358
G01 X-7.4705 Y8.3279
G01 X-7.4600 Y8.3210
G01 X-7.4487 Y8.3153
G01 X-7.4370 Y8.3109
G01 X-7.4249 Y8.3076
G01 X-7.4125 Y8.3057
G01 X-7.4012 Y8.3051
G01 X-7.4012 Y7.8750
G01 X-7.3986 Y7.8256
G01 X-7.3971 Y7.8122
G01 X-7.3874 Y7.7586
G01 X-7.3712 Y7.7045
G01 X-7.3543 Y7.6637
G01 X-7.3485 Y7.6516
G01 X-7.3278 Y7.6141
G01 X-7.3206 Y7.6028
G01 X-7.2927 Y7.5637
G01 X-7.2590 Y7.5255
G01 X-6.7200 Y6.9862
G01 X-6.7199 Y6.5441
G01 X-6.7175 Y6.5079
G01 X-6.7123 Y6.4752
G01 X-6.7056 Y6.4483
G01 X-6.6940 Y6.4139
G01 X-6.6778 Y6.3785
G01 X-6.6577 Y6.3445
G01 X-6.6344 Y6.3133
G01 X-6.6116 Y6.2884
G01 X-6.5867 Y6.2656
G01 X-6.5555 Y6.2423
G01 X-6.5262 Y6.2248
G01 X-6.5260 Y4.0933
G01 X-6.5233 Y4.0465
G01 X-6.5149 Y3.9951
G01 X-6.5124 Y3.9836
G01 X-6.5001 Y3.9409
G01 X-6.4962 Y3.9295
G01 X-6.4793 Y3.8887
G01 X-6.4735 Y3.8766
G01 X-6.4528 Y3.8391
G01 X-6.4456 Y3.8278
G01 X-6.4177 Y3.7887
G01 X-6.3794 Y3.7456
G01 X-5.9044 Y3.2706
G01 X-5.8676 Y3.2375
G01 X-5.8571 Y3.2291
G01 X-5.8145 Y3.1993
G01 X-5.7734 Y3.1765
G01 X-5.7613 Y3.1707
G01 X-5.7205 Y3.1538
G01 X-5.7091 Y3.1499
G01 X-5.6664 Y3.1376
G01 X-5.6128 Y3.1279
G01 X-5.5994 Y3.1264
G01 X-5.5500 Y3.1238
G01 X-2.1500 Y3.1238
G01 X-2.0965 Y3.1267
G01 X-2.0451 Y3.1351
G01 X-2.0336 Y3.1376
G01 X-1.9795 Y3.1538
G01 X-1.9387 Y3.1707
G01 X-1.9266 Y3.1765
G01 X-1.8855 Y3.1993
G01 X-1.8429 Y3.2291
G01 X-1.8324 Y3.2375
G01 X-1.7956 Y3.2706
G01 X-0.7206 Y4.3456
G01 X-0.6823 Y4.3887
G01 X-0.6544 Y4.4278
G01 X-0.6472 Y4.4391
G01 X-0.6265 Y4.4766
G01 X-0.6207 Y4.4887
G01 X-0.6038 Y4.5295
G01 X-0.5881 Y4.5820
G01 X-0.5851 Y4.5951
G01 X-0.5767 Y4.6465
G01 X-0.5738 Y4.7000
G01 X-0.5738 Y21.6380
G01 X-0.5767 Y21.6915
G01 X-0.5851 Y21.7429
G01 X-0.5876 Y21.7544
G01 X-0.6038 Y21.8085
G01 X-0.6207 Y21.8493
G01 X-0.6265 Y21.8614
G01 X-0.6472 Y21.8989
G01 X-0.6544 Y21.9102
G01 X-0.6823 Y21.9493
G01 X-0.7160 Y21.9875
G01 X-2.5988 Y23.8706
G01 X-2.5988 Y24.3051
G01 X-2.5875 Y24.3057
G01 X-2.5751 Y24.3076
G01 X-2.5630 Y24.3109
G01 X-2.5513 Y24.3153
G01 X-2.5400 Y24.3210
G01 X-2.5295 Y24.3279
G01 X-2.5197 Y24.3358
G01 X-2.5108 Y24.3447
G01 X-2.5029 Y24.3545
G01 X-2.4960 Y24.3650
G01 X-2.4903 Y24.3763
G01 X-2.4859 Y24.3880
G01 X-2.4826 Y24.4001
G01 X-2.4807 Y24.4125
G01 X-2.4800 Y24.4250
G01 X-2.4800 Y25.2750
G01 X-2.4807 Y25.2875
G01 X-2.4826 Y25.2999
G01 X-2.4859 Y25.3120
G01 X-2.4903 Y25.3237
G01 X-2.4960 Y25.3350
G01 X-2.5029 Y25.3455
G01 X-2.5108 Y25.3553
G01 X-2.5197 Y25.3642
G01 X-2.5295 Y25.3721
G01 X-2.5400 Y25.3790
G01 X-2.5513 Y25.3847
G01 X-2.5630 Y25.3891
G01 X-2.5751 Y25.3924
G01 X-2.5875 Y25.3943
G01 X-2.5988 Y25.3949
G01 X-2.5988 Y30.6051
G01 X-2.5875 Y30.6057
G01 X-2.5751 Y30.6076
G01 X-2.5630 Y30.6109
G01 X-2.5513 Y30.6153
G01 X-2.5400 Y30.6210
G01 X-2.5295 Y30.6279
G01 X-2.5197 Y30.6358
G01 X-2.5108 Y30.6447
G01 X-2.5029 Y30.6545
G01 X-2.4960 Y30.6650
G01 X-2.4903 Y30.6763
G01 X-2.4859 Y30.6880
G01 X-2.4826 Y30.7001
G01 X-2.4807 Y30.7125
G01 X-2.4800 Y30.7250
G01 X-2.4800 Y31.5750
G01 X-2.4807 Y31.5875
G01 X-2.4826 Y31.5999
G01 X-2.4859 Y31.6120
G01 X-2.4903 Y31.6237
G01 X-2.4960 Y31.6350
G01 X-2.5029 Y31.6455
G01 X-2.5108 Y31.6553
G01 X-2.5197 Y31.6642
G01 X-2.5295 Y31.6721
G01 X-2.5400 Y31.6790
G01 X-2.5513 Y31.6847
G01 X-2.5630 Y31.6891
G01 X-2.5751 Y31.6924
G01 X-2.5875 Y31.6943
G01 X-2.5988 Y31.6949
G01 X-2.5988 Y32.1250
G01 X-2.6017 Y32.1785
G01 X-2.6101 Y32.2299
G01 X-2.6126 Y32.2414
G01 X-2.6249 Y32.2841
G01 X-2.6288 Y32.2955
G01 X-2.6457 Y32.3363
G01 X-2.6515 Y32.3484
G01 X-2.6722 Y32.3859
G01 X-2.6794 Y32.3972
G01 X-2.7073 Y32.4363
G01 X-2.7456 Y32.4794
G01 X-3.2800 Y33.0138
G01 X-3.2800 Y33.4500
G01 X-3.2818 Y33.4864
G01 X-3.2877 Y33.5248
G01 X-3.2958 Y33.5571
G01 X-3.3094 Y33.5944
G01 X-3.3222 Y33.6215
G01 X-3.3392 Y33.6506
G01 X-3.3457 Y33.6604
G01 X-3.3678 Y33.6892
G01 X-3.3884 Y33.7116
G01 X-3.4199 Y33.7396
G01 X-3.4445 Y33.7577
G01 X-3.4705 Y33.7734
G01 X-3.5056 Y33.7906
G01 X-3.5370 Y33.8022
G01 X-3.5483 Y33.8056
G01 X-3.5752 Y33.8123
G01 X-3.6136 Y33.8182
G01 X-3.6500 Y33.8200
G01 X-4.3000 Y33.8200
G01 X-4.3364 Y33.8182
G01 X-4.3748 Y33.8123
G01 X-4.4071 Y33.8042
G01 X-4.4444 Y33.7906
G01 X-4.4715 Y33.7778
G01 X-4.5006 Y33.7608
G01 X-4.5104 Y33.7543
G01 X-4.5392 Y33.7322
G01 X-4.5616 Y33.7116
G01 X-4.5844 Y33.6867
G01 X-4.6077 Y33.6555
G01 X-4.6234 Y33.6295
G01 X-4.6394 Y33.5970
G01 X-4.6440 Y33.5861
G01 X-4.6542 Y33.5571
G01 X-4.6623 Y33.5248
G01 X-4.6682 Y33.4864
G01 X-4.6699 Y33.4559
G01 X-4.6700 Y32.5500
G01 X-4.6687 Y32.5196
G01 X-4.6675 Y32.5079
G01 X-4.6623 Y32.4752
G01 X-4.6522 Y32.4370
G01 X-4.6406 Y32.4056
G01 X-4.6290 Y32.3808
G01 X-4.6077 Y32.3445
G01 X-4.5844 Y32.3133
G01 X-4.5616 Y32.2884
G01 X-4.5367 Y32.2656
G01 X-4.5055 Y32.2423
G01 X-4.4715 Y32.2222
G01 X-4.4444 Y32.2094
G01 X-4.4071 Y32.1958
G01 X-4.3748 Y32.1877
G01 X-4.3364 Y32.1818
G01 X-4.3000 Y32.1800
G01 X-3.8638 Y32.1800
G01 X-3.6012 Y31.9174
G01 X-3.6012 Y31.6949
G01 X-3.6125 Y31.6943
G01 X-3.6249 Y31.6924
G01 X-3.6370 Y31.6891
G01 X-3.6487 Y31.6847
G01 X-3.6600 Y31.6790
G01 X-3.6705 Y31.6721
G01 X-3.6803 Y31.6642
G01 X-3.6892 Y31.6553
G01 X-3.6971 Y31.6455
G01 X-3.7040 Y31.6350
G01 X-3.7097 Y31.6237
G01 X-3.7141 Y31.6120
G01 X-3.7174 Y31.5999
G01 X-3.7193 Y31.5875
G01 X-3.7200 Y31.5750
G01 X-3.7200 Y30.7250
G01 X-3.7193 Y30.7125
G01 X-3.7174 Y30.7001
G01 X-3.7141 Y30.6880
G01 X-3.7097 Y30.6763
G01 X-3.7040 Y30.6650
G01 X-3.6971 Y30.6545
G01 X-3.6892 Y30.6447
G01 X-3.6803 Y30.6358
G01 X-3.6705 Y30.6279
G01 X-3.6600 Y30.6210
G01 X-3.6487 Y30.6153
G01 X-3.6370 Y30.6109
G01 X-3.6249 Y30.6076
G01 X-3.6125 Y30.6057
G01 X-3.6012 Y30.6051
G01 X-3.6012 Y25.3949
G01 X-3.6125 Y25.3943
G01 X-3.6249 Y25.3924
G01 X-3.6370 Y25.3891
G01 X-3.6487 Y25.3847
G01 X-3.6600 Y25.3790
G01 X-3.6705 Y25.3721
G01 X-3.6803 Y25.3642
G01 X-3.6892 Y25.3553
G01 X-3.6971 Y25.3455
G01 X-3.7040 Y25.3350
G01 X-3.7097 Y25.3237
G01 X-3.7141 Y25.3120
G01 X-3.7174 Y25.2999
G01 X-3.7193 Y25.2875
G01 X-3.7200 Y25.2750
G01 X-3.7200 Y24.4250
G01 X-3.7193 Y24.4125
G01 X-3.7174 Y24.4001
G01 X-3.7141 Y24.3880
G01 X-3.7097 Y24.3763
G01 X-3.7040 Y24.3650
G01 X-3.6971 Y24.3545
G01 X-3.6892 Y24.3447
G01 X-3.6803 Y24.3358
G01 X-3.6705 Y24.3279
G01 X-3.6600 Y24.3210
G01 X-3.6487 Y24.3153
G01 X-3.6370 Y24.3109
G01 X-3.6249 Y24.3076
G01 X-3.6125 Y24.3057
G01 X-3.6012 Y24.3051
G01 X-3.6012 Y23.6630
G01 X-3.5983 Y23.6095
G01 X-3.5899 Y23.5581
G01 X-3.5874 Y23.5466
G01 X-3.5712 Y23.4925
G01 X-3.5543 Y23.4517
G01 X-3.5485 Y23.4396
G01 X-3.5257 Y23.3985
G01 X-3.4959 Y23.3559
G01 X-3.4875 Y23.3454
G01 X-3.4544 Y23.3086
G01 X-1.5762 Y21.4304
G01 X-1.5762 Y4.9076
G01 X-2.3576 Y4.1262
G01 X-5.3424 Y4.1262
G01 X-5.5238 Y4.3076
G01 X-5.5238 Y6.2248
G01 X-5.4896 Y6.2457
G01 X-5.4633 Y6.2656
G01 X-5.4426 Y6.2843
G01 X-5.4156 Y6.3133
G01 X-5.3923 Y6.3445
G01 X-5.3722 Y6.3785
G01 X-5.3560 Y6.4139
G01 X-5.3444 Y6.4483
G01 X-5.3377 Y6.4752
G01 X-5.3325 Y6.5079
G01 X-5.3300 Y6.5500
G01 X-5.3300 Y7.4500
G01 X-5.3318 Y7.4864
G01 X-5.3377 Y7.5248
G01 X-5.3458 Y7.5571
G01 X-5.3606 Y7.5970
G01 X-5.3722 Y7.6215
G01 X-5.3892 Y7.6506
G01 X-5.4104 Y7.6801
G01 X-5.4384 Y7.7116
G01 X-5.4633 Y7.7344
G01 X-5.4945 Y7.7577
G01 X-5.5285 Y7.7778
G01 X-5.5556 Y7.7906
G01 X-5.5929 Y7.8042
G01 X-5.6252 Y7.8123
G01 X-5.6579 Y7.8175
G01 X-5.6696 Y7.8187
G01 X-5.7000 Y7.8200
G01 X-6.1362 Y7.8200
G01 X-6.3988 Y8.0826
G01 X-6.3988 Y8.3051
G01 X-6.3875 Y8.3057
G01 X-6.3751 Y8.3076
G01 X-6.3630 Y8.3109
G01 X-6.3513 Y8.3153
G01 X-6.3400 Y8.3210
G01 X-6.3295 Y8.3279
G01 X-6.3197 Y8.3358
G01 X-6.3108 Y8.3447
G01 X-6.3029 Y8.3545
G01 X-6.2960 Y8.3650
G01 X-6.2903 Y8.3763
G01 X-6.2859 Y8.3880
G01 X-6.2826 Y8.4001
G01 X-6.2807 Y8.4125
G01 X-6.2800 Y8.4250
G01 X-6.2800 Y9.2750
G01 X-6.2807 Y9.2875
G01 X-6.2826 Y9.2999
G01 X-6.2859 Y9.3120
G01 X-6.2903 Y9.3237
G01 X-6.2960 Y9.3350
G01 X-6.3029 Y9.3455
G01 X-6.3108 Y9.3553
G01 X-6.3197 Y9.3642
G01 X-6.3295 Y9.3721
G01 X-6.3400 Y9.3790
G01 X-6.3513 Y9.3847
G01 X-6.3630 Y9.3891
G01 X-6.3751 Y9.3924
G01 X-6.3875 Y9.3943
G01 X-6.3988 Y9.3949
G01 X-6.3988 Y14.6051
G01 X-6.3875 Y14.6057
G01 X-6.3751 Y14.6076
G01 X-6.3630 Y14.6109
G01 X-6.3513 Y14.6153
G01 X-6.3400 Y14.6210
G01 X-6.3295 Y14.6279
G01 X-6.3197 Y14.6358
G01 X-6.3108 Y14.6447
G01 X-6.3029 Y14.6545
G01 X-6.2960 Y14.6650
G01 X-6.2903 Y14.6763
G01 X-6.2859 Y14.6880
G01 X-6.2826 Y14.7001
G01 X-6.2807 Y14.7125
G01 X-6.2800 Y14.7250
G01 X-6.2800 Y15.5750
G01 X-6.2807 Y15.5875
G01 X-6.2826 Y15.5999
G01 X-6.2859 Y15.6120
G01 X-6.2903 Y15.6237
G01 X-6.2960 Y15.6350
G01 X-6.3029 Y15.6455
G01 X-6.3108 Y15.6553
G01 X-6.3197 Y15.6642
G01 X-6.3295 Y15.6721
G01 X-6.3400 Y15.6790
G01 X-6.3513 Y15.6847
G01 X-6.3630 Y15.6891
G01 X-6.3751 Y15.6924
G01 X-6.3875 Y15.6943
G01 X-6.3988 Y15.6949
G01 X-6.3988 Y18.8500
G01 X-6.4017 Y18.9035
G01 X-6.4101 Y18.9549
G01 X-6.4126 Y18.9664
G01 X-6.4249 Y19.0091
G01 X-6.4293 Y19.0218
G01 X-6.4457 Y19.0613
G01 X-6.4515 Y19.0734
G01 X-6.4722 Y19.1109
G01 X-6.4794 Y19.1222
G01 X-6.5073 Y19.1613
G01 X-6.5456 Y19.2044
G01 X-8.8956 Y21.5544
G01 X-8.9387 Y21.5927
G01 X-8.9855 Y21.6257
G01 X-9.0266 Y21.6485
G01 X-9.0387 Y21.6543
G01 X-9.0795 Y21.6712
G01 X-9.1336 Y21.6874
G01 X-9.1872 Y21.6971
G01 X-9.2006 Y21.6986
G01 X-9.2500 Y21.7012
G01 X-9.2918 Y21.6990
G01 X-10.4014 Y22.8086
G01 X-10.4296 Y22.8337
G01 X-10.4524 Y22.8500
G01 X-10.4638 Y22.8572
G01 X-10.4959 Y22.8740
G01 X-10.5183 Y22.8833
G01 X-10.5515 Y22.8935
G01 X-10.5647 Y22.8965
G01 X-10.5964 Y22.9015
G01 X-10.6300 Y22.9033
G01 X-21.6461 Y22.9033
G01 X-23.4300 Y24.6872
G01 X-23.4300 Y25.4250
G01 X-23.4318 Y25.4614
G01 X-23.4361 Y25.4914
G01 X-23.4458 Y25.5321
G01 X-23.4594 Y25.5694
G01 X-23.4766 Y25.6045
G01 X-23.4957 Y25.6354
G01 X-23.5178 Y25.6642
G01 X-23.5384 Y25.6866
G01 X-23.5608 Y25.7072
G01 X-23.5945 Y25.7327
G01 X-23.6238 Y25.7502
G01 X-23.6238 Y26.3498
G01 X-23.5896 Y26.3707
G01 X-23.5633 Y26.3906
G01 X-23.5426 Y26.4093
G01 X-23.5156 Y26.4383
G01 X-23.4923 Y26.4695
G01 X-23.4710 Y26.5058
G01 X-23.4594 Y26.5306
G01 X-23.4478 Y26.5620
G01 X-23.4377 Y26.6002
G01 X-23.4325 Y26.6329
G01 X-23.4313 Y26.6446
G01 X-23.4300 Y26.6750
G01 X-23.4301 Y27.5809
G01 X-23.4325 Y27.6171
G01 X-23.4377 Y27.6498
G01 X-23.4444 Y27.6767
G01 X-23.4478 Y27.6880
G01 X-23.4594 Y27.7194
G01 X-23.4766 Y27.7545
G01 X-23.4923 Y27.7805
G01 X-23.5156 Y27.8117
G01 X-23.5384 Y27.8366
G01 X-23.5699 Y27.8646
G01 X-23.5945 Y27.8827
G01 X-23.6285 Y27.9028
G01 X-23.6639 Y27.9190
G01 X-23.6983 Y27.9306
G01 X-23.7252 Y27.9373
G01 X-23.7579 Y27.9425
G01 X-23.7941 Y27.9449
G01 X-24.2362 Y27.9450
G01 X-25.0756 Y28.7844
G01 X-25.1124 Y28.8175
G01 X-25.1229 Y28.8259
G01 X-25.1655 Y28.8557
G01 X-25.2066 Y28.8785
G01 X-25.2187 Y28.8843
G01 X-25.2595 Y28.9012
G01 X-25.3136 Y28.9174
G01 X-25.3251 Y28.9199
G01 X-25.3765 Y28.9283
G01 X-25.4300 Y28.9312
G01 X-30.5858 Y28.9312
G01 X-30.6013 Y28.9397
G01 X-30.6130 Y28.9441
G01 X-30.6251 Y28.9474
G01 X-30.6375 Y28.9493
G01 X-30.6500 Y28.9500
G01 X-31.5500 Y28.9500
G01 X-31.5625 Y28.9493
G01 X-31.5749 Y28.9474
G01 X-31.5870 Y28.9441
G01 X-31.5987 Y28.9397
G01 X-31.6099 Y28.9340
G01 X-31.6205 Y28.9271
G01 X-31.6303 Y28.9192
G01 X-31.6392 Y28.9103
G01 X-31.6471 Y28.9005
G01 X-31.6540 Y28.8899
G01 X-31.6597 Y28.8787
G01 X-31.6641 Y28.8670
G01 X-31.6674 Y28.8549
G01 X-31.6693 Y28.8425
G01 X-31.6700 Y28.8300
G01 X-31.6700 Y28.0300
G01 X-31.6693 Y28.0175
G01 X-31.6674 Y28.0051
G01 X-31.6641 Y27.9930
G01 X-31.6597 Y27.9813
G01 X-31.6540 Y27.9700
G01 X-31.6471 Y27.9595
G01 X-31.6392 Y27.9497
G01 X-31.6303 Y27.9408
G01 X-31.6205 Y27.9329
G01 X-31.6100 Y27.9260
G01 X-31.5987 Y27.9203
G01 X-31.5870 Y27.9159
G01 X-31.5749 Y27.9126
G01 X-31.5625 Y27.9107
G01 X-31.5500 Y27.9100
G01 X-30.6500 Y27.9100
G00 Z4.0000
G00 X-35.6380 Y29.8420
G01 F80.00
G01 Z-0.0650
G01 F350.00
G01 X-35.6380 Y28.9420
G01 X-35.6362 Y28.9056
G01 X-35.6303 Y28.8672
G01 X-35.6202 Y28.8290
G01 X-35.6086 Y28.7976
G01 X-35.5958 Y28.7705
G01 X-35.5788 Y28.7414
G01 X-35.5723 Y28.7316
G01 X-35.5524 Y28.7053
G01 X-35.5337 Y28.6846
G01 X-35.5047 Y28.6576
G01 X-35.4784 Y28.6377
G01 X-35.4686 Y28.6312
G01 X-35.4395 Y28.6142
G01 X-35.4150 Y28.6026
G01 X-35.3751 Y28.5878
G01 X-35.3428 Y28.5797
G01 X-35.3101 Y28.5745
G01 X-35.2680 Y28.5720
G01 X-34.6180 Y28.5720
G01 X-34.5759 Y28.5745
G01 X-34.5432 Y28.5797
G01 X-34.5163 Y28.5864
G01 X-34.5050 Y28.5898
G01 X-34.4710 Y28.6026
G01 X-34.4465 Y28.6142
G01 X-34.4125 Y28.6343
G01 X-34.3788 Y28.6598
G01 X-34.3564 Y28.6804
G01 X-34.3336 Y28.7053
G01 X-34.3137 Y28.7316
G01 X-34.3072 Y28.7414
G01 X-34.2902 Y28.7705
G01 X-34.2774 Y28.7976
G01 X-34.2658 Y28.8290
G01 X-34.2624 Y28.8403
G01 X-34.2557 Y28.8672
G01 X-34.2518 Y28.8908
G01 X-33.6303 Y28.8908
G01 X-33.6205 Y28.8829
G01 X-33.6100 Y28.8760
G01 X-33.5987 Y28.8703
G01 X-33.5870 Y28.8659
G01 X-33.5749 Y28.8626
G01 X-33.5625 Y28.8607
G01 X-33.5500 Y28.8600
G01 X-32.6500 Y28.8600
G01 X-32.6375 Y28.8607
G01 X-32.6251 Y28.8626
G01 X-32.6130 Y28.8659
G01 X-32.6013 Y28.8703
G01 X-32.5900 Y28.8760
G01 X-32.5795 Y28.8829
G01 X-32.5697 Y28.8908
G01 X-32.5608 Y28.8997
G01 X-32.5529 Y28.9095
G01 X-32.5460 Y28.9200
G01 X-32.5403 Y28.9313
G01 X-32.5359 Y28.9430
G01 X-32.5326 Y28.9551
G01 X-32.5307 Y28.9675
G01 X-32.5300 Y28.9800
G01 X-32.5300 Y29.7800
G01 X-32.5307 Y29.7925
G01 X-32.5326 Y29.8049
G01 X-32.5359 Y29.8170
G01 X-32.5403 Y29.8287
G01 X-32.5460 Y29.8400
G01 X-32.5529 Y29.8505
G01 X-32.5608 Y29.8603
G01 X-32.5697 Y29.8692
G01 X-32.5795 Y29.8771
G01 X-32.5901 Y29.8840
G01 X-32.6013 Y29.8897
G01 X-32.6130 Y29.8941
G01 X-32.6251 Y29.8974
G01 X-32.6375 Y29.8993
G01 X-32.6500 Y29.9000
G01 X-33.5500 Y29.9000
G01 X-33.5625 Y29.8993
G01 X-33.5749 Y29.8974
G01 X-33.5895 Y29.8932
G01 X-34.2518 Y29.8932
G01 X-34.2526 Y29.8986
G01 X-33.2010 Y30.9505
G01 X-33.1673 Y30.9887
G01 X-33.1343 Y31.0355
G01 X-33.1115 Y31.0766
G01 X-33.1057 Y31.0887
G01 X-33.0888 Y31.1295
G01 X-33.0849 Y31.1409
G01 X-33.0726 Y31.1836
G01 X-33.0629 Y31.2372
G01 X-33.0614 Y31.2506
G01 X-33.0588 Y31.3000
G01 X-33.0588 Y33.1600
G01 X-32.8100 Y33.1600
G01 X-32.7975 Y33.1607
G01 X-32.7851 Y33.1626
G01 X-32.7730 Y33.1659
G01 X-32.7613 Y33.1703
G01 X-32.7501 Y33.1760
G01 X-32.7395 Y33.1829
G01 X-32.7297 Y33.1908
G01 X-32.7208 Y33.1997
G01 X-32.7129 Y33.2095
G01 X-32.7060 Y33.2201
G01 X-32.7003 Y33.2313
G01 X-32.6959 Y33.2430
G01 X-32.6926 Y33.2551
G01 X-32.6907 Y33.2675
G01 X-32.6900 Y33.2800
G01 X-32.6900 Y34.2800
G01 X-32.6907 Y34.2925
G01 X-32.6926 Y34.3049
G01 X-32.6959 Y34.3170
G01 X-32.7003 Y34.3287
G01 X-32.7060 Y34.3400
G01 X-32.7129 Y34.3505
G01 X-32.7208 Y34.3603
G01 X-32.7297 Y34.3692
G01 X-32.7395 Y34.3771
G01 X-32.7500 Y34.3840
G01 X-32.7613 Y34.3897
G01 X-32.7730 Y34.3941
G01 X-32.7851 Y34.3974
G01 X-32.7975 Y34.3993
G01 X-32.8100 Y34.4000
G01 X-34.3100 Y34.4000
G01 X-34.3225 Y34.3993
G01 X-34.3349 Y34.3974
G01 X-34.3470 Y34.3941
G01 X-34.3587 Y34.3897
G01 X-34.3700 Y34.3840
G01 X-34.3805 Y34.3771
G01 X-34.3903 Y34.3692
G01 X-34.3992 Y34.3603
G01 X-34.4071 Y34.3505
G01 X-34.4140 Y34.3399
G01 X-34.4197 Y34.3287
G01 X-34.4241 Y34.3170
G01 X-34.4274 Y34.3049
G01 X-34.4293 Y34.2925
G01 X-34.4300 Y34.2800
G01 X-34.4300 Y33.2800
G01 X-34.4293 Y33.2675
G01 X-34.4274 Y33.2551
G01 X-34.4241 Y33.2430
G01 X-34.4197 Y33.2313
G01 X-34.4140 Y33.2200
G01 X-34.4071 Y33.2095
G01 X-34.3992 Y33.1997
G01 X-34.3903 Y33.1908
G01 X-34.3805 Y33.1829
G01 X-34.3700 Y33.1760
G01 X-34.3587 Y33.1703
G01 X-34.3470 Y33.1659
G01 X-34.3349 Y33.1626
G01 X-34.3225 Y33.1607
G01 X-34.3100 Y33.1600
G01 X-34.0612 Y33.1600
G01 X-34.0612 Y31.5076
G01 X-35.2974 Y30.2714
G01 X-35.3357 Y30.2283
G01 X-35.3551 Y30.2013
G01 X-35.3751 Y30.1962
G01 X-35.4041 Y30.1860
G01 X-35.4150 Y30.1814
G01 X-35.4475 Y30.1654
G01 X-35.4735 Y30.1497
G01 X-35.4981 Y30.1316
G01 X-35.5072 Y30.1242
G01 X-35.5337 Y30.0994
G01 X-35.5524 Y30.0787
G01 X-35.5757 Y30.0475
G01 X-35.5958 Y30.0135
G01 X-35.6086 Y29.9864
G01 X-35.6222 Y29.9491
G01 X-35.6303 Y29.9168
G01 X-35.6362 Y29.8784
G01 X-35.6380 Y29.8420
G01 X-35.6380 Y28.9420
G00 Z4.0000
G00 X-39.7075 Y30.2500
G01 F80.00
G01 Z-0.0650
G01 F350.00
G01 X-39.7075 Y29.7500
G01 X-39.7057 Y29.7136
G01 X-39.6998 Y29.6752
G01 X-39.6917 Y29.6429
G01 X-39.6781 Y29.6056
G01 X-39.6609 Y29.5705
G01 X-39.6418 Y29.5396
G01 X-39.6219 Y29.5133
G01 X-39.5949 Y29.4843
G01 X-39.5742 Y29.4656
G01 X-39.5479 Y29.4457
G01 X-39.5170 Y29.4266
G01 X-39.4819 Y29.4094
G01 X-39.4446 Y29.3958
G01 X-39.4123 Y29.3877
G01 X-39.3796 Y29.3825
G01 X-39.3679 Y29.3813
G01 X-39.3375 Y29.3800
G01 X-38.8375 Y29.3800
G01 X-38.7954 Y29.3825
G01 X-38.7596 Y29.3884
G01 X-38.7304 Y29.3958
G01 X-38.7014 Y29.4060
G01 X-38.6660 Y29.4222
G01 X-38.6320 Y29.4423
G01 X-38.6008 Y29.4656
G01 X-38.5718 Y29.4926
G01 X-38.5531 Y29.5133
G01 X-38.5332 Y29.5396
G01 X-38.5141 Y29.5705
G01 X-38.4969 Y29.6056
G01 X-38.4833 Y29.6429
G01 X-38.4752 Y29.6752
G01 X-38.4700 Y29.7079
G01 X-38.4688 Y29.7196
G01 X-38.4675 Y29.7500
G01 X-38.4675 Y30.2500
G01 X-38.4700 Y30.2921
G01 X-38.4759 Y30.3279
G01 X-38.4833 Y30.3571
G01 X-38.4935 Y30.3861
G01 X-38.5097 Y30.4215
G01 X-38.5298 Y30.4555
G01 X-38.5531 Y30.4867
G01 X-38.5801 Y30.5157
G01 X-38.6008 Y30.5344
G01 X-38.6271 Y30.5543
G01 X-38.6580 Y30.5734
G01 X-38.6931 Y30.5906
G01 X-38.7245 Y30.6022
G01 X-38.7358 Y30.6056
G01 X-38.7711 Y30.6139
G01 X-38.8011 Y30.6182
G01 X-38.8316 Y30.6199
G01 X-39.3434 Y30.6199
G01 X-39.3739 Y30.6182
G01 X-39.4039 Y30.6139
G01 X-39.4446 Y30.6042
G01 X-39.4845 Y30.5894
G01 X-39.5090 Y30.5778
G01 X-39.5430 Y30.5577
G01 X-39.5742 Y30.5344
G01 X-39.5949 Y30.5157
G01 X-39.6032 Y30.5074
G01 X-39.6271 Y30.4801
G01 X-39.6452 Y30.4555
G01 X-39.6653 Y30.4215
G01 X-39.6781 Y30.3944
G01 X-39.6897 Y30.3630
G01 X-39.6991 Y30.3279
G01 X-39.7014 Y30.3164
G01 X-39.7057 Y30.2864
G01 X-39.7075 Y30.2500
G01 X-39.7075 Y29.7500
G00 Z4.0000
G00 X-41.2863 Y30.0799
G01 F80.00
G01 Z-0.0650
G01 F350.00
G01 X-41.2863 Y29.7200
G01 X-41.1375 Y29.7200
G01 X-41.0905 Y29.7173
G01 X-41.0529 Y29.7114
G01 X-41.0159 Y29.7020
G01 X-40.9740 Y29.6868
G01 X-40.9424 Y29.6719
G01 X-40.9043 Y29.6493
G01 X-40.8691 Y29.6230
G01 X-40.8405 Y29.5970
G01 X-40.8145 Y29.5684
G01 X-40.7882 Y29.5332
G01 X-40.7656 Y29.4951
G01 X-40.7507 Y29.4635
G01 X-40.7351 Y29.4201
G01 X-40.3869 Y29.4201
G01 X-40.3102 Y29.4968
G01 X-40.2931 Y29.5123
G01 X-40.2662 Y29.5323
G01 X-40.2390 Y29.5479
G01 X-40.2147 Y29.5584
G01 X-40.2047 Y29.5619
G01 X-40.1761 Y29.5697
G01 X-40.1597 Y29.5727
G01 X-40.1305 Y29.5755
G01 X-40.1173 Y29.5758
G01 X-40.0945 Y29.5747
G01 X-40.0655 Y29.5705
G01 X-40.0321 Y29.5614
G01 X-40.0132 Y29.5541
G01 X-39.9881 Y29.5418
G01 X-39.9629 Y29.5259
G01 X-39.9525 Y29.5182
G01 X-39.9320 Y29.5004
G01 X-39.9151 Y29.4827
G01 X-39.8955 Y29.4572
G01 X-39.8810 Y29.4331
G01 X-39.8628 Y29.3990
G01 X-39.7842 Y29.3033
G01 X-39.6885 Y29.2247
G01 X-39.5793 Y29.1663
G01 X-39.4608 Y29.1304
G01 X-39.3242 Y29.1169
G01 X-38.8508 Y29.1169
G01 X-38.7142 Y29.1304
G01 X-38.5957 Y29.1663
G01 X-38.4857 Y29.2251
G01 X-38.4661 Y29.2395
G01 X-38.4442 Y29.2523
G01 X-38.4138 Y29.2661
G01 X-38.3876 Y29.2745
G01 X-38.3745 Y29.2776
G01 X-38.3578 Y29.2806
G01 X-38.3443 Y29.2823
G01 X-38.3195 Y29.2837
G01 X-38.2917 Y29.2824
G01 X-38.2668 Y29.2787
G01 X-38.2372 Y29.2712
G01 X-38.2244 Y29.2669
G01 X-38.2002 Y29.2566
G01 X-38.1724 Y29.2410
G01 X-38.1514 Y29.2262
G01 X-38.1276 Y29.2051
G01 X-38.1119 Y29.1881
G01 X-38.0914 Y29.1605
G01 X-38.0781 Y29.1375
G01 X-38.0722 Y29.1253
G01 X-38.0612 Y29.0969
G01 X-38.0535 Y29.0674
G01 X-38.0494 Y29.0414
G01 X-38.0481 Y29.0204
G01 X-38.0479 Y28.6447
G01 X-38.0295 Y28.5520
G01 X-37.9933 Y28.4647
G01 X-37.9408 Y28.3861
G01 X-37.8739 Y28.3192
G01 X-37.7953 Y28.2667
G01 X-37.7080 Y28.2305
G01 X-37.6153 Y28.2121
G01 X-37.4424 Y28.2121
G01 X-37.4131 Y28.2414
G01 X-37.4131 Y28.5847
G01 X-37.4310 Y28.5898
G01 X-37.4624 Y28.6014
G01 X-37.4975 Y28.6186
G01 X-37.5235 Y28.6343
G01 X-37.5481 Y28.6524
G01 X-37.5572 Y28.6598
G01 X-37.5837 Y28.6846
G01 X-37.6024 Y28.7053
G01 X-37.6223 Y28.7316
G01 X-37.6288 Y28.7414
G01 X-37.6458 Y28.7705
G01 X-37.6586 Y28.7976
G01 X-37.6702 Y28.8290
G01 X-37.6736 Y28.8403
G01 X-37.6819 Y28.8756
G01 X-37.6862 Y28.9056
G01 X-37.6880 Y28.9420
G01 X-37.6880 Y29.8420
G01 X-37.6862 Y29.8784
G01 X-37.6803 Y29.9168
G01 X-37.6722 Y29.9491
G01 X-37.6620 Y29.9781
G01 X-37.6574 Y29.9890
G01 X-37.6414 Y30.0215
G01 X-37.6257 Y30.0475
G01 X-37.6024 Y30.0787
