(G-CODE GENERATED BY FLATCAM v8.906 - www.flatcam.org - Version Date: 2019/01/30)

(Name: kroneum-F.Cu.gbr_iso_cnc)
(Type: G-code from Geometry)
(Units: MM)

(Created on Saturday, 02 February 2019 at 23:44)

(TOOL DIAMETER: 0.24 mm)
(Feedrate: 350.0 mm/min)
(Feedrate_Z: 80.0 mm/min)
(Feedrate rapids 80.0 mm/min)

(Z_Cut: -0.0746 mm)
(Z_Move: 4.0 mm)
(Z Toolchange: 1.0 mm)
(X,Y Toolchange: 0.0000, 0.0000 mm)
(Z Start: None mm)
(Z End: 2.0 mm)
(Steps per circle: 64)
(Postprocessor Geometry: default)
(Spindle Speed: 20000 RPM)

G21
G90
G94

G01 F350.00
G00 Z4.0000

M03 S20000
G4 P3
G00 X-23.8800 Y6.3112
G01 F80.00
G01 Z-0.0746
G01 F350.00
G01 X-22.9800 Y6.3112
G01 X-22.9437 Y6.3130
G01 X-22.9024 Y6.3196
G01 X-22.8733 Y6.3270
G01 X-22.8443 Y6.3372
G01 X-22.8090 Y6.3533
G01 X-22.7752 Y6.3733
G01 X-22.7441 Y6.3966
G01 X-22.7152 Y6.4235
G01 X-22.6966 Y6.4441
G01 X-22.6768 Y6.4704
G01 X-22.6555 Y6.5051
G01 X-22.0983 Y6.5052
G01 X-22.0516 Y6.5079
G01 X-22.0003 Y6.5163
G01 X-21.9889 Y6.5188
G01 X-21.9462 Y6.5311
G01 X-21.9350 Y6.5349
G01 X-21.8942 Y6.5518
G01 X-21.8822 Y6.5576
G01 X-21.8411 Y6.5804
G01 X-21.7944 Y6.6132
G01 X-21.7563 Y6.6469
G01 X-21.1417 Y7.2612
G01 X-20.8050 Y7.2612
G01 X-20.7926 Y7.2619
G01 X-20.7803 Y7.2638
G01 X-20.7684 Y7.2670
G01 X-20.7568 Y7.2715
G01 X-20.7457 Y7.2771
G01 X-20.7352 Y7.2839
G01 X-20.7255 Y7.2917
G01 X-20.7167 Y7.3005
G01 X-20.7089 Y7.3102
G01 X-20.7021 Y7.3207
G01 X-20.6965 Y7.3318
G01 X-20.6920 Y7.3434
G01 X-20.6888 Y7.3553
G01 X-20.6869 Y7.3676
G01 X-20.6862 Y7.3801
G01 X-15.4737 Y7.3801
G01 X-15.4731 Y7.3676
G01 X-15.4712 Y7.3553
G01 X-15.4680 Y7.3434
G01 X-15.4635 Y7.3318
G01 X-15.4579 Y7.3207
G01 X-15.4511 Y7.3102
G01 X-15.4433 Y7.3005
G01 X-15.4345 Y7.2917
G01 X-15.4248 Y7.2839
G01 X-15.4143 Y7.2771
G01 X-15.4032 Y7.2715
G01 X-15.3916 Y7.2670
G01 X-15.3797 Y7.2638
G01 X-15.3674 Y7.2619
G01 X-15.3550 Y7.2612
G01 X-14.5050 Y7.2612
G01 X-14.4926 Y7.2619
G01 X-14.4803 Y7.2638
G01 X-14.4684 Y7.2670
G01 X-14.4568 Y7.2715
G01 X-14.4457 Y7.2771
G01 X-14.4352 Y7.2839
G01 X-14.4255 Y7.2917
G01 X-14.4167 Y7.3005
G01 X-14.4089 Y7.3102
G01 X-14.4021 Y7.3207
G01 X-14.3965 Y7.3318
G01 X-14.3920 Y7.3434
G01 X-14.3888 Y7.3553
G01 X-14.3869 Y7.3676
G01 X-14.3863 Y7.3800
G01 X-14.3863 Y8.3800
G01 X-14.3869 Y8.3924
G01 X-14.3888 Y8.4047
G01 X-14.3920 Y8.4166
G01 X-14.3965 Y8.4282
G01 X-14.4021 Y8.4393
G01 X-14.4089 Y8.4498
G01 X-14.4167 Y8.4595
G01 X-14.4255 Y8.4683
G01 X-14.4352 Y8.4761
G01 X-14.4457 Y8.4829
G01 X-14.4568 Y8.4885
G01 X-14.4684 Y8.4930
G01 X-14.4803 Y8.4962
G01 X-14.4926 Y8.4981
G01 X-14.5050 Y8.4987
G01 X-14.8417 Y8.4988
G01 X-15.5701 Y9.2271
G01 X-15.5701 Y11.2810
G01 X-15.5491 Y11.2934
G01 X-15.4713 Y11.3486
G01 X-15.4609 Y11.3569
G01 X-15.3850 Y11.4250
G01 X-15.3117 Y11.5071
G01 X-15.2485 Y11.5967
G01 X-15.2002 Y11.6838
G01 X-15.1945 Y11.6958
G01 X-15.1580 Y11.7838
G01 X-15.1536 Y11.7964
G01 X-15.1267 Y11.8896
G01 X-15.1242 Y11.9010
G01 X-15.1071 Y12.0041
G01 X-15.1013 Y12.1100
G01 X-15.1068 Y12.2118
G01 X-15.1083 Y12.2251
G01 X-15.1242 Y12.3190
G01 X-15.1267 Y12.3304
G01 X-15.1536 Y12.4236
G01 X-15.1580 Y12.4362
G01 X-15.1945 Y12.5242
G01 X-15.2002 Y12.5362
G01 X-15.2485 Y12.6233
G01 X-15.3086 Y12.7087
G01 X-15.3169 Y12.7191
G01 X-15.3850 Y12.7950
G01 X-15.4671 Y12.8683
G01 X-15.5491 Y12.9266
G01 X-15.5603 Y12.9336
G01 X-15.6438 Y12.9798
G01 X-15.6558 Y12.9855
G01 X-15.7452 Y13.0226
G01 X-15.7564 Y13.0264
G01 X-15.8480 Y13.0528
G01 X-15.8610 Y13.0558
G01 X-15.9641 Y13.0729
G01 X-16.0700 Y13.0787
G01 X-16.1718 Y13.0732
G01 X-16.1851 Y13.0717
G01 X-16.2790 Y13.0558
G01 X-16.3027 Y13.0497
G01 X-16.4484 Y13.1954
G01 X-16.4668 Y13.2408
G01 X-16.4726 Y13.2528
G01 X-16.4954 Y13.2939
G01 X-16.5282 Y13.3406
G01 X-16.5665 Y13.3835
G01 X-21.7851 Y18.6021
G01 X-21.7851 Y20.5163
G01 X-21.5600 Y20.5163
G01 X-21.5476 Y20.5169
G01 X-21.5353 Y20.5188
G01 X-21.5234 Y20.5220
G01 X-21.5118 Y20.5265
G01 X-21.5007 Y20.5321
G01 X-21.4902 Y20.5389
G01 X-21.4805 Y20.5467
G01 X-21.4717 Y20.5555
G01 X-21.4639 Y20.5652
G01 X-21.4571 Y20.5757
G01 X-21.4515 Y20.5868
G01 X-21.4470 Y20.5984
G01 X-21.4438 Y20.6103
G01 X-21.4419 Y20.6226
G01 X-21.4413 Y20.6350
G01 X-21.4413 Y21.0350
G01 X-21.4419 Y21.0474
G01 X-21.4438 Y21.0597
G01 X-21.4470 Y21.0716
G01 X-21.4515 Y21.0832
G01 X-21.4571 Y21.0943
G01 X-21.4639 Y21.1048
G01 X-21.4717 Y21.1145
G01 X-21.4805 Y21.1233
G01 X-21.4902 Y21.1311
G01 X-21.5007 Y21.1379
G01 X-21.5118 Y21.1435
G01 X-21.5234 Y21.1480
G01 X-21.5353 Y21.1512
G01 X-21.5476 Y21.1531
G01 X-21.5600 Y21.1537
G01 X-23.0100 Y21.1537
G01 X-23.0224 Y21.1531
G01 X-23.0347 Y21.1512
G01 X-23.0466 Y21.1480
G01 X-23.0582 Y21.1435
G01 X-23.0693 Y21.1379
G01 X-23.0798 Y21.1311
G01 X-23.0895 Y21.1233
G01 X-23.0983 Y21.1145
G01 X-23.1061 Y21.1048
G01 X-23.1129 Y21.0943
G01 X-23.1185 Y21.0832
G01 X-23.1230 Y21.0716
G01 X-23.1262 Y21.0597
G01 X-23.1281 Y21.0474
G01 X-23.1287 Y21.0350
G01 X-23.1287 Y20.6350
G01 X-23.1281 Y20.6226
G01 X-23.1262 Y20.6103
G01 X-23.1230 Y20.5984
G01 X-23.1185 Y20.5868
G01 X-23.1129 Y20.5757
G01 X-23.1061 Y20.5652
G01 X-23.0983 Y20.5555
G01 X-23.0895 Y20.5467
G01 X-23.0798 Y20.5389
G01 X-23.0693 Y20.5321
G01 X-23.0582 Y20.5265
G01 X-23.0466 Y20.5220
G01 X-23.0347 Y20.5188
G01 X-23.0224 Y20.5169
G01 X-23.0100 Y20.5163
G01 X-22.7849 Y20.5162
G01 X-22.7849 Y18.3950
G01 X-22.7821 Y18.3416
G01 X-22.7737 Y18.2903
G01 X-22.7712 Y18.2789
G01 X-22.7551 Y18.2250
G01 X-22.7382 Y18.1842
G01 X-22.7324 Y18.1722
G01 X-22.7117 Y18.1348
G01 X-22.7046 Y18.1235
G01 X-22.6768 Y18.0844
G01 X-22.6385 Y18.0415
G01 X-17.3916 Y12.7946
G01 X-17.3732 Y12.7492
G01 X-17.3674 Y12.7372
G01 X-17.3467 Y12.6998
G01 X-17.3396 Y12.6885
G01 X-17.3149 Y12.6536
G01 X-17.3066 Y12.6432
G01 X-17.2735 Y12.6065
G01 X-17.0097 Y12.3427
G01 X-17.0158 Y12.3190
G01 X-17.0317 Y12.2251
G01 X-17.0332 Y12.2118
G01 X-17.0387 Y12.1100
G01 X-17.0329 Y12.0041
G01 X-17.0158 Y11.9010
G01 X-17.0128 Y11.8880
G01 X-16.9864 Y11.7964
G01 X-16.9826 Y11.7852
G01 X-16.9455 Y11.6958
G01 X-16.9398 Y11.6838
G01 X-16.8936 Y11.6003
G01 X-16.8866 Y11.5891
G01 X-16.8283 Y11.5071
G01 X-16.7596 Y11.4298
G01 X-16.7502 Y11.4204
G01 X-16.6729 Y11.3517
G01 X-16.5909 Y11.2934
G01 X-16.5699 Y11.2810
G01 X-16.5699 Y9.0200
G01 X-16.5671 Y8.9666
G01 X-16.5587 Y8.9153
G01 X-16.5562 Y8.9039
G01 X-16.5439 Y8.8612
G01 X-16.5401 Y8.8500
G01 X-16.5232 Y8.8092
G01 X-16.5174 Y8.7972
G01 X-16.4946 Y8.7561
G01 X-16.4618 Y8.7094
G01 X-16.4235 Y8.6665
G01 X-16.1370 Y8.3799
G01 X-20.6863 Y8.3799
G01 X-20.6869 Y8.3924
G01 X-20.6888 Y8.4047
G01 X-20.6920 Y8.4166
G01 X-20.6965 Y8.4282
G01 X-20.7021 Y8.4393
G01 X-20.7089 Y8.4498
G01 X-20.7167 Y8.4595
G01 X-20.7255 Y8.4683
G01 X-20.7352 Y8.4761
G01 X-20.7457 Y8.4829
G01 X-20.7568 Y8.4885
G01 X-20.7684 Y8.4930
G01 X-20.7803 Y8.4962
G01 X-20.7926 Y8.4981
G01 X-20.8050 Y8.4987
G01 X-21.6550 Y8.4987
G01 X-21.6674 Y8.4981
G01 X-21.6797 Y8.4962
G01 X-21.6916 Y8.4930
G01 X-21.7032 Y8.4885
G01 X-21.7143 Y8.4829
G01 X-21.7248 Y8.4761
G01 X-21.7345 Y8.4683
G01 X-21.7433 Y8.4595
G01 X-21.7511 Y8.4498
G01 X-21.7579 Y8.4393
G01 X-21.7635 Y8.4282
G01 X-21.7680 Y8.4166
G01 X-21.7712 Y8.4047
G01 X-21.7731 Y8.3924
G01 X-21.7737 Y8.3800
G01 X-21.7738 Y8.0433
G01 X-22.3121 Y7.5049
G01 X-22.6555 Y7.5049
G01 X-22.6768 Y7.5396
G01 X-22.6966 Y7.5659
G01 X-22.7152 Y7.5865
G01 X-22.7441 Y7.6134
G01 X-22.7801 Y7.6397
G01 X-22.8090 Y7.6567
G01 X-22.8336 Y7.6683
G01 X-22.8733 Y7.6830
G01 X-22.9138 Y7.6927
G01 X-22.9437 Y7.6970
G01 X-22.9742 Y7.6986
G01 X-23.8800 Y7.6988
G01 X-23.9163 Y7.6970
G01 X-23.9545 Y7.6911
G01 X-23.9867 Y7.6830
G01 X-24.0239 Y7.6695
G01 X-24.0486 Y7.6578
G01 X-24.0799 Y7.6397
G01 X-24.0896 Y7.6332
G01 X-24.1159 Y7.6134
G01 X-24.1407 Y7.5907
G01 X-24.1634 Y7.5659
G01 X-24.1832 Y7.5396
G01 X-24.1897 Y7.5299
G01 X-24.2078 Y7.4986
G01 X-24.2195 Y7.4739
G01 X-24.2330 Y7.4367
G01 X-24.2411 Y7.4045
G01 X-24.2470 Y7.3663
G01 X-24.2487 Y7.3300
G01 X-24.2487 Y6.6800
G01 X-24.2470 Y6.6437
G01 X-24.2411 Y6.6055
G01 X-24.2330 Y6.5733
G01 X-24.2195 Y6.5361
G01 X-24.2067 Y6.5090
G01 X-24.1897 Y6.4801
G01 X-24.1832 Y6.4704
G01 X-24.1612 Y6.4417
G01 X-24.1407 Y6.4193
G01 X-24.1159 Y6.3966
G01 X-24.0848 Y6.3733
G01 X-24.0589 Y6.3577
G01 X-24.0264 Y6.3417
G01 X-24.0157 Y6.3372
G01 X-23.9867 Y6.3270
G01 X-23.9545 Y6.3189
G01 X-23.9163 Y6.3130
G01 X-23.8800 Y6.3112
G01 X-22.9800 Y6.3112
G00 Z4.0000
G00 X-25.3498 Y15.8033
G01 F80.00
G01 Z-0.0746
G01 F350.00
G01 X-25.3471 Y15.7566
G01 X-25.3387 Y15.7053
G01 X-25.3362 Y15.6939
G01 X-25.3239 Y15.6512
G01 X-25.3195 Y15.6387
G01 X-25.3032 Y15.5992
G01 X-25.2974 Y15.5872
G01 X-25.2746 Y15.5461
G01 X-25.2418 Y15.4994
G01 X-25.2081 Y15.4613
G01 X-22.0897 Y12.3427
G01 X-22.0958 Y12.3190
G01 X-22.1129 Y12.2159
G01 X-22.1186 Y12.1167
G01 X-22.1186 Y12.1033
G01 X-22.1129 Y12.0041
G01 X-22.0958 Y11.9010
G01 X-22.0928 Y11.8880
G01 X-22.0664 Y11.7964
G01 X-22.0626 Y11.7852
G01 X-22.0255 Y11.6958
G01 X-22.0198 Y11.6838
G01 X-21.9736 Y11.6003
G01 X-21.9666 Y11.5891
G01 X-21.9114 Y11.5113
G01 X-21.9031 Y11.5009
G01 X-21.8350 Y11.4250
G01 X-21.7591 Y11.3569
G01 X-21.7487 Y11.3486
G01 X-21.6633 Y11.2885
G01 X-21.5762 Y11.2402
G01 X-21.5642 Y11.2345
G01 X-21.4762 Y11.1980
G01 X-21.4636 Y11.1936
G01 X-21.3704 Y11.1667
G01 X-21.3590 Y11.1642
G01 X-21.2559 Y11.1471
G01 X-21.1500 Y11.1413
G01 X-21.0441 Y11.1471
G01 X-20.9410 Y11.1642
G01 X-20.9296 Y11.1667
G01 X-20.8364 Y11.1936
G01 X-20.8238 Y11.1980
G01 X-20.7358 Y11.2345
G01 X-20.7238 Y11.2402
G01 X-20.6367 Y11.2885
G01 X-20.5471 Y11.3517
G01 X-20.4650 Y11.4250
G01 X-20.3969 Y11.5009
G01 X-20.3886 Y11.5113
G01 X-20.3334 Y11.5891
G01 X-20.3264 Y11.6003
G01 X-20.2802 Y11.6838
G01 X-20.2745 Y11.6958
G01 X-20.2374 Y11.7852
G01 X-20.2336 Y11.7964
G01 X-20.2072 Y11.8880
G01 X-20.2042 Y11.9010
G01 X-20.1871 Y12.0041
G01 X-20.1813 Y12.1100
G01 X-20.1871 Y12.2159
G01 X-20.2042 Y12.3190
G01 X-20.2072 Y12.3320
G01 X-20.2336 Y12.4236
G01 X-20.2374 Y12.4348
G01 X-20.2745 Y12.5242
G01 X-20.2802 Y12.5362
G01 X-20.3264 Y12.6197
G01 X-20.3334 Y12.6309
G01 X-20.3886 Y12.7087
G01 X-20.3969 Y12.7191
G01 X-20.4650 Y12.7950
G01 X-20.5409 Y12.8631
G01 X-20.5513 Y12.8714
G01 X-20.6291 Y12.9266
G01 X-20.6403 Y12.9336
G01 X-20.7238 Y12.9798
G01 X-20.7358 Y12.9855
G01 X-20.8238 Y13.0220
G01 X-20.8364 Y13.0264
G01 X-20.9280 Y13.0528
G01 X-20.9410 Y13.0558
G01 X-21.0441 Y13.0729
G01 X-21.1433 Y13.0786
G01 X-21.1567 Y13.0786
G01 X-21.2559 Y13.0729
G01 X-21.3590 Y13.0558
G01 X-21.3827 Y13.0497
G01 X-24.3501 Y16.0171
G01 X-24.3502 Y18.9867
G01 X-24.3529 Y19.0334
G01 X-24.3613 Y19.0847
G01 X-24.3638 Y19.0961
G01 X-24.3799 Y19.1500
G01 X-24.3968 Y19.1908
G01 X-24.4026 Y19.2028
G01 X-24.4254 Y19.2439
G01 X-24.4582 Y19.2906
G01 X-24.4965 Y19.3335
G01 X-24.5279 Y19.3619
G01 X-24.5279 Y21.1566
G01 X-23.8684 Y21.8161
G01 X-21.5600 Y21.8163
G01 X-21.5476 Y21.8169
G01 X-21.5353 Y21.8188
G01 X-21.5234 Y21.8220
G01 X-21.5118 Y21.8265
G01 X-21.5007 Y21.8321
G01 X-21.4902 Y21.8389
G01 X-21.4805 Y21.8467
G01 X-21.4717 Y21.8555
G01 X-21.4639 Y21.8652
G01 X-21.4571 Y21.8757
G01 X-21.4515 Y21.8868
G01 X-21.4470 Y21.8984
G01 X-21.4438 Y21.9103
G01 X-21.4419 Y21.9226
G01 X-21.4413 Y21.9350
G01 X-21.4413 Y22.3350
G01 X-21.4419 Y22.3474
G01 X-21.4438 Y22.3597
G01 X-21.4470 Y22.3716
G01 X-21.4515 Y22.3832
G01 X-21.4571 Y22.3943
G01 X-21.4639 Y22.4048
G01 X-21.4717 Y22.4145
G01 X-21.4805 Y22.4233
G01 X-21.4902 Y22.4311
G01 X-21.5007 Y22.4379
G01 X-21.5118 Y22.4435
G01 X-21.5234 Y22.4480
G01 X-21.5353 Y22.4512
G01 X-21.5476 Y22.4531
G01 X-21.5600 Y22.4537
G01 X-23.9609 Y22.4539
G01 X-23.9756 Y22.4556
G01 X-24.0050 Y22.4571
G01 X-24.0385 Y22.4553
G01 X-24.0701 Y22.4503
G01 X-24.0815 Y22.4478
G01 X-24.1176 Y22.4366
G01 X-24.1387 Y22.4279
G01 X-24.1706 Y22.4111
G01 X-24.1819 Y22.4040
G01 X-24.2047 Y22.3877
G01 X-24.2327 Y22.3627
G01 X-25.0777 Y21.5177
G01 X-25.1027 Y21.4897
G01 X-25.1240 Y21.4593
G01 X-25.1371 Y21.4357
G01 X-25.1429 Y21.4237
G01 X-25.1521 Y21.4012
G01 X-25.1623 Y21.3681
G01 X-25.1653 Y21.3551
G01 X-25.1703 Y21.3235
G01 X-25.1721 Y21.2900
G01 X-25.1721 Y19.3619
G01 X-25.2035 Y19.3335
G01 X-25.2418 Y19.2906
G01 X-25.2746 Y19.2439
G01 X-25.2974 Y19.2028
G01 X-25.3032 Y19.1908
G01 X-25.3201 Y19.1500
G01 X-25.3362 Y19.0961
G01 X-25.3387 Y19.0847
G01 X-25.3471 Y19.0334
G01 X-25.3498 Y18.9867
G01 X-25.3498 Y15.8033
G01 X-25.3471 Y15.7566
G00 Z4.0000
G00 X-24.0898 Y17.7333
G01 F80.00
G01 Z-0.0746
G01 F350.00
G01 X-24.0871 Y17.6866
G01 X-24.0787 Y17.6353
G01 X-24.0762 Y17.6239
G01 X-24.0601 Y17.5700
G01 X-24.0432 Y17.5292
G01 X-24.0374 Y17.5172
G01 X-24.0167 Y17.4798
G01 X-24.0096 Y17.4685
G01 X-23.9818 Y17.4294
G01 X-23.9435 Y17.3865
G01 X-19.3221 Y12.7650
G01 X-19.3683 Y12.7129
G01 X-19.4315 Y12.6233
G01 X-19.4798 Y12.5362
G01 X-19.4855 Y12.5242
G01 X-19.5226 Y12.4348
G01 X-19.5264 Y12.4236
G01 X-19.5528 Y12.3320
G01 X-19.5558 Y12.3190
G01 X-19.5729 Y12.2159
G01 X-19.5787 Y12.1100
G01 X-19.5729 Y12.0041
G01 X-19.5558 Y11.9010
G01 X-19.5528 Y11.8880
G01 X-19.5264 Y11.7964
G01 X-19.5220 Y11.7838
G01 X-19.4855 Y11.6958
G01 X-19.4798 Y11.6838
G01 X-19.4315 Y11.5967
G01 X-19.3683 Y11.5071
G01 X-19.2950 Y11.4250
G01 X-19.2129 Y11.3517
G01 X-19.1309 Y11.2934
G01 X-19.1197 Y11.2864
G01 X-19.0362 Y11.2402
G01 X-19.0242 Y11.2345
G01 X-18.9348 Y11.1974
G01 X-18.9236 Y11.1936
G01 X-18.8304 Y11.1667
G01 X-18.8190 Y11.1642
G01 X-18.7159 Y11.1471
G01 X-18.6100 Y11.1413
G01 X-18.5041 Y11.1471
G01 X-18.4010 Y11.1642
G01 X-18.3896 Y11.1667
G01 X-18.2964 Y11.1936
G01 X-18.2852 Y11.1974
G01 X-18.1958 Y11.2345
G01 X-18.1838 Y11.2402
G01 X-18.1003 Y11.2864
G01 X-18.0891 Y11.2934
G01 X-18.0071 Y11.3517
G01 X-17.9250 Y11.4250
G01 X-17.8517 Y11.5071
G01 X-17.7934 Y11.5891
G01 X-17.7864 Y11.6003
G01 X-17.7402 Y11.6838
G01 X-17.7345 Y11.6958
G01 X-17.6974 Y11.7852
G01 X-17.6936 Y11.7964
G01 X-17.6672 Y11.8880
G01 X-17.6642 Y11.9010
G01 X-17.6483 Y11.9949
G01 X-17.6468 Y12.0082
G01 X-17.6413 Y12.1100
G01 X-17.6471 Y12.2159
G01 X-17.6642 Y12.3190
G01 X-17.6667 Y12.3304
G01 X-17.6936 Y12.4236
G01 X-17.6980 Y12.4362
G01 X-17.7345 Y12.5242
G01 X-17.7402 Y12.5362
G01 X-17.7885 Y12.6233
G01 X-17.8517 Y12.7129
G01 X-17.9250 Y12.7950
G01 X-18.0071 Y12.8683
G01 X-18.0967 Y12.9315
G01 X-18.1537 Y12.9631
G01 X-18.1626 Y12.9828
G01 X-18.1833 Y13.0202
G01 X-18.1904 Y13.0315
G01 X-18.2182 Y13.0706
G01 X-18.2565 Y13.1135
G01 X-23.0901 Y17.9471
G01 X-23.0901 Y19.0000
G01 X-23.0926 Y19.0493
G01 X-23.0941 Y19.0626
G01 X-23.1038 Y19.1161
G01 X-23.1199 Y19.1700
G01 X-23.1368 Y19.2108
G01 X-23.1426 Y19.2228
G01 X-23.1633 Y19.2602
G01 X-23.1704 Y19.2715
G01 X-23.1982 Y19.3106
G01 X-23.2365 Y19.3535
G01 X-23.2794 Y19.3918
G01 X-23.3185 Y19.4196
G01 X-23.3379 Y19.4312
G01 X-23.3379 Y21.0069
G01 X-23.1787 Y21.1661
G01 X-21.5600 Y21.1663
G01 X-21.5476 Y21.1669
G01 X-21.5353 Y21.1688
G01 X-21.5234 Y21.1720
G01 X-21.5118 Y21.1765
G01 X-21.5007 Y21.1821
G01 X-21.4902 Y21.1889
G01 X-21.4805 Y21.1967
G01 X-21.4717 Y21.2055
G01 X-21.4639 Y21.2152
G01 X-21.4571 Y21.2257
G01 X-21.4515 Y21.2368
G01 X-21.4470 Y21.2484
G01 X-21.4438 Y21.2603
G01 X-21.4419 Y21.2726
G01 X-21.4413 Y21.2850
G01 X-21.4413 Y21.6850
G01 X-21.4419 Y21.6974
G01 X-21.4438 Y21.7097
G01 X-21.4470 Y21.7216
G01 X-21.4515 Y21.7332
G01 X-21.4571 Y21.7443
G01 X-21.4639 Y21.7548
G01 X-21.4717 Y21.7645
G01 X-21.4805 Y21.7733
G01 X-21.4902 Y21.7811
G01 X-21.5007 Y21.7879
G01 X-21.5118 Y21.7935
G01 X-21.5234 Y21.7980
G01 X-21.5353 Y21.8012
G01 X-21.5476 Y21.8031
G01 X-21.5600 Y21.8037
G01 X-23.3108 Y21.8039
G01 X-23.3439 Y21.8021
G01 X-23.3752 Y21.7972
G01 X-23.4097 Y21.7880
G01 X-23.4430 Y21.7750
G01 X-23.4550 Y21.7692
G01 X-23.4783 Y21.7563
G01 X-23.5042 Y21.7383
G01 X-23.5147 Y21.7300
G01 X-23.5362 Y21.7105
G01 X-23.8543 Y21.3924
G01 X-23.8659 Y21.3833
G01 X-23.8877 Y21.3635
G01 X-23.9127 Y21.3354
G01 X-23.9340 Y21.3050
G01 X-23.9471 Y21.2814
G01 X-23.9529 Y21.2694
G01 X-23.9621 Y21.2470
G01 X-23.9723 Y21.2139
G01 X-23.9753 Y21.2009
G01 X-23.9803 Y21.1693
G01 X-23.9821 Y21.1358
G01 X-23.9821 Y19.3102
G01 X-24.0096 Y19.2715
G01 X-24.0167 Y19.2602
G01 X-24.0374 Y19.2228
G01 X-24.0432 Y19.2108
G01 X-24.0601 Y19.1700
G01 X-24.0757 Y19.1177
G01 X-24.0787 Y19.1047
G01 X-24.0871 Y19.0534
G01 X-24.0898 Y19.0067
G01 X-24.0898 Y17.7333
G01 X-24.0871 Y17.6866
G00 Z4.0000
G00 X-28.9100 Y20.5163
G01 F80.00
G01 Z-0.0746
G01 F350.00
G01 X-28.6849 Y20.5162
G01 X-28.6849 Y14.0650
G01 X-28.6824 Y14.0157
G01 X-28.6809 Y14.0024
G01 X-28.6712 Y13.9489
G01 X-28.6589 Y13.9062
G01 X-28.6551 Y13.8950
G01 X-28.6382 Y13.8542
G01 X-28.6324 Y13.8422
G01 X-28.6096 Y13.8011
G01 X-28.5768 Y13.7544
G01 X-28.5385 Y13.7115
G01 X-27.1697 Y12.3427
G01 X-27.1758 Y12.3190
G01 X-27.1929 Y12.2159
G01 X-27.1987 Y12.1100
G01 X-27.1929 Y12.0041
G01 X-27.1758 Y11.9010
G01 X-27.1733 Y11.8896
G01 X-27.1464 Y11.7964
G01 X-27.1420 Y11.7838
G01 X-27.1055 Y11.6958
G01 X-27.0998 Y11.6838
G01 X-27.0536 Y11.6003
G01 X-27.0466 Y11.5891
G01 X-26.9883 Y11.5071
G01 X-26.9150 Y11.4250
G01 X-26.8329 Y11.3517
G01 X-26.7509 Y11.2934
G01 X-26.7397 Y11.2864
G01 X-26.6562 Y11.2402
G01 X-26.6442 Y11.2345
G01 X-26.5562 Y11.1980
G01 X-26.5436 Y11.1936
G01 X-26.4504 Y11.1667
G01 X-26.4390 Y11.1642
G01 X-26.3359 Y11.1471
G01 X-26.2367 Y11.1414
G01 X-26.2233 Y11.1414
G01 X-26.1241 Y11.1471
G01 X-26.0210 Y11.1642
G01 X-26.0080 Y11.1672
G01 X-25.9164 Y11.1936
G01 X-25.9052 Y11.1974
G01 X-25.8158 Y11.2345
G01 X-25.8038 Y11.2402
G01 X-25.7167 Y11.2885
G01 X-25.6271 Y11.3517
G01 X-25.5450 Y11.4250
G01 X-25.4717 Y11.5071
G01 X-25.4085 Y11.5967
G01 X-25.3602 Y11.6838
G01 X-25.3545 Y11.6958
G01 X-25.3174 Y11.7852
G01 X-25.3136 Y11.7964
G01 X-25.2867 Y11.8896
G01 X-25.2842 Y11.9010
G01 X-25.2671 Y12.0041
G01 X-25.2613 Y12.1100
G01 X-25.2671 Y12.2159
G01 X-25.2842 Y12.3190
G01 X-25.2867 Y12.3304
G01 X-25.3136 Y12.4236
G01 X-25.3174 Y12.4348
G01 X-25.3545 Y12.5242
G01 X-25.3602 Y12.5362
G01 X-25.4064 Y12.6197
G01 X-25.4134 Y12.6309
G01 X-25.4686 Y12.7087
G01 X-25.4769 Y12.7191
G01 X-25.5450 Y12.7950
G01 X-25.6271 Y12.8683
G01 X-25.7091 Y12.9266
G01 X-25.7203 Y12.9336
G01 X-25.8038 Y12.9798
G01 X-25.8158 Y12.9855
G01 X-25.9038 Y13.0220
G01 X-25.9164 Y13.0264
G01 X-26.0080 Y13.0528
G01 X-26.0210 Y13.0558
G01 X-26.1241 Y13.0729
G01 X-26.2233 Y13.0786
G01 X-26.2367 Y13.0786
G01 X-26.3359 Y13.0729
G01 X-26.4390 Y13.0558
G01 X-26.4627 Y13.0497
G01 X-27.6851 Y14.2721
G01 X-27.6851 Y20.5163
G01 X-27.4600 Y20.5163
G01 X-27.4476 Y20.5169
G01 X-27.4353 Y20.5188
G01 X-27.4234 Y20.5220
G01 X-27.4118 Y20.5265
G01 X-27.4007 Y20.5321
G01 X-27.3902 Y20.5389
G01 X-27.3805 Y20.5467
G01 X-27.3717 Y20.5555
G01 X-27.3639 Y20.5652
G01 X-27.3571 Y20.5757
G01 X-27.3515 Y20.5868
G01 X-27.3470 Y20.5984
G01 X-27.3438 Y20.6103
G01 X-27.3419 Y20.6226
G01 X-27.3413 Y20.6350
G01 X-27.3413 Y21.0350
G01 X-27.3419 Y21.0474
G01 X-27.3438 Y21.0597
G01 X-27.3470 Y21.0716
G01 X-27.3515 Y21.0832
G01 X-27.3571 Y21.0943
G01 X-27.3639 Y21.1048
G01 X-27.3717 Y21.1145
G01 X-27.3805 Y21.1233
G01 X-27.3902 Y21.1311
G01 X-27.4007 Y21.1379
G01 X-27.4118 Y21.1435
G01 X-27.4234 Y21.1480
G01 X-27.4353 Y21.1512
G01 X-27.4476 Y21.1531
G01 X-27.4600 Y21.1537
G01 X-28.9100 Y21.1537
G01 X-28.9224 Y21.1531
G01 X-28.9347 Y21.1512
G01 X-28.9466 Y21.1480
G01 X-28.9582 Y21.1435
G01 X-28.9693 Y21.1379
G01 X-28.9798 Y21.1311
G01 X-28.9895 Y21.1233
G01 X-28.9983 Y21.1145
G01 X-29.0061 Y21.1048
G01 X-29.0129 Y21.0943
G01 X-29.0185 Y21.0832
G01 X-29.0230 Y21.0716
G01 X-29.0262 Y21.0597
G01 X-29.0281 Y21.0474
G01 X-29.0287 Y21.0350
G01 X-29.0287 Y20.6350
G01 X-29.0281 Y20.6226
G01 X-29.0262 Y20.6103
G01 X-29.0230 Y20.5984
G01 X-29.0185 Y20.5868
G01 X-29.0129 Y20.5757
G01 X-29.0061 Y20.5652
G01 X-28.9983 Y20.5555
G01 X-28.9895 Y20.5467
G01 X-28.9798 Y20.5389
G01 X-28.9693 Y20.5321
G01 X-28.9582 Y20.5265
G01 X-28.9466 Y20.5220
G01 X-28.9347 Y20.5188
G01 X-28.9224 Y20.5169
G01 X-28.9100 Y20.5163
G01 X-28.6849 Y20.5162
G00 Z4.0000
G00 X-29.0287 Y24.9350
G01 F80.00
G01 Z-0.0746
G01 F350.00
G01 X-29.0287 Y24.5350
G01 X-29.0281 Y24.5226
G01 X-29.0262 Y24.5103
G01 X-29.0230 Y24.4984
G01 X-29.0185 Y24.4868
G01 X-29.0129 Y24.4757
G01 X-29.0061 Y24.4652
G01 X-28.9983 Y24.4555
G01 X-28.9895 Y24.4467
G01 X-28.9798 Y24.4389
G01 X-28.9693 Y24.4321
G01 X-28.9582 Y24.4265
G01 X-28.9466 Y24.4220
G01 X-28.9347 Y24.4188
G01 X-28.9224 Y24.4169
G01 X-28.9100 Y24.4163
G01 X-27.4600 Y24.4163
G01 X-27.4476 Y24.4169
G01 X-27.4353 Y24.4188
G01 X-27.4234 Y24.4220
G01 X-27.4118 Y24.4265
G01 X-27.4007 Y24.4321
G01 X-27.3902 Y24.4389
G01 X-27.3805 Y24.4467
G01 X-27.3717 Y24.4555
G01 X-27.3639 Y24.4652
G01 X-27.3571 Y24.4757
G01 X-27.3515 Y24.4868
G01 X-27.3470 Y24.4984
G01 X-27.3438 Y24.5103
G01 X-27.3419 Y24.5226
G01 X-27.3413 Y24.5350
G01 X-27.3413 Y24.9350
G01 X-27.3419 Y24.9474
G01 X-27.3438 Y24.9597
G01 X-27.3470 Y24.9716
G01 X-27.3515 Y24.9832
G01 X-27.3571 Y24.9943
G01 X-27.3639 Y25.0048
G01 X-27.3717 Y25.0145
G01 X-27.3805 Y25.0233
G01 X-27.3902 Y25.0311
G01 X-27.4007 Y25.0379
G01 X-27.4118 Y25.0435
G01 X-27.4234 Y25.0480
G01 X-27.4353 Y25.0512
G01 X-27.4476 Y25.0531
G01 X-27.4600 Y25.0537
G01 X-28.9100 Y25.0537
G01 X-28.9224 Y25.0531
G01 X-28.9347 Y25.0512
G01 X-28.9466 Y25.0480
G01 X-28.9582 Y25.0435
G01 X-28.9693 Y25.0379
G01 X-28.9798 Y25.0311
G01 X-28.9895 Y25.0233
G01 X-28.9983 Y25.0145
G01 X-29.0061 Y25.0048
G01 X-29.0129 Y24.9943
G01 X-29.0185 Y24.9832
G01 X-29.0230 Y24.9716
G01 X-29.0262 Y24.9597
G01 X-29.0281 Y24.9474
G01 X-29.0287 Y24.9350
G01 X-29.0287 Y24.5350
G00 Z4.0000
G00 X-28.9100 Y25.7163
G01 F80.00
G01 Z-0.0746
G01 F350.00
G01 X-27.4600 Y25.7163
G01 X-27.4476 Y25.7169
G01 X-27.4353 Y25.7188
G01 X-27.4234 Y25.7220
G01 X-27.4118 Y25.7265
G01 X-27.4007 Y25.7321
G01 X-27.3902 Y25.7389
G01 X-27.3805 Y25.7467
G01 X-27.3717 Y25.7555
G01 X-27.3639 Y25.7652
G01 X-27.3571 Y25.7757
G01 X-27.3515 Y25.7868
G01 X-27.3470 Y25.7984
G01 X-27.3438 Y25.8103
G01 X-27.3419 Y25.8226
G01 X-27.3413 Y25.8350
G01 X-27.3413 Y26.2350
G01 X-27.3419 Y26.2474
G01 X-27.3438 Y26.2597
G01 X-27.3470 Y26.2716
G01 X-27.3515 Y26.2832
G01 X-27.3571 Y26.2943
G01 X-27.3639 Y26.3048
G01 X-27.3717 Y26.3145
G01 X-27.3805 Y26.3233
G01 X-27.3902 Y26.3311
G01 X-27.4007 Y26.3379
G01 X-27.4118 Y26.3435
G01 X-27.4234 Y26.3480
G01 X-27.4353 Y26.3512
G01 X-27.4476 Y26.3531
G01 X-27.4600 Y26.3537
G01 X-28.9100 Y26.3537
G01 X-28.9224 Y26.3531
G01 X-28.9347 Y26.3512
G01 X-28.9466 Y26.3480
G01 X-28.9582 Y26.3435
G01 X-28.9693 Y26.3379
G01 X-28.9798 Y26.3311
G01 X-28.9895 Y26.3233
G01 X-28.9983 Y26.3145
G01 X-29.0061 Y26.3048
G01 X-29.0129 Y26.2943
G01 X-29.0185 Y26.2832
G01 X-29.0230 Y26.2716
G01 X-29.0262 Y26.2597
G01 X-29.0281 Y26.2474
G01 X-29.0287 Y26.2350
G01 X-29.0287 Y25.8350
G01 X-29.0281 Y25.8226
G01 X-29.0262 Y25.8103
G01 X-29.0230 Y25.7984
G01 X-29.0185 Y25.7868
G01 X-29.0129 Y25.7757
G01 X-29.0061 Y25.7652
G01 X-28.9983 Y25.7555
G01 X-28.9895 Y25.7467
G01 X-28.9798 Y25.7389
G01 X-28.9693 Y25.7321
G01 X-28.9582 Y25.7265
G01 X-28.9466 Y25.7220
G01 X-28.9347 Y25.7188
G01 X-28.9224 Y25.7169
G01 X-28.9100 Y25.7163
G01 X-27.4600 Y25.7163
G00 Z4.0000
G00 X-29.0287 Y26.8850
G01 F80.00
G01 Z-0.0746
G01 F350.00
G01 X-29.0287 Y26.4850
G01 X-29.0281 Y26.4726
G01 X-29.0262 Y26.4603
G01 X-29.0230 Y26.4484
G01 X-29.0185 Y26.4368
G01 X-29.0129 Y26.4257
G01 X-29.0061 Y26.4152
G01 X-28.9983 Y26.4055
G01 X-28.9895 Y26.3967
G01 X-28.9798 Y26.3889
G01 X-28.9693 Y26.3821
G01 X-28.9582 Y26.3765
G01 X-28.9466 Y26.3720
G01 X-28.9347 Y26.3688
G01 X-28.9224 Y26.3669
G01 X-28.9100 Y26.3663
G01 X-27.4600 Y26.3663
G01 X-27.4476 Y26.3669
G01 X-27.4353 Y26.3688
G01 X-27.4234 Y26.3720
G01 X-27.4118 Y26.3765
G01 X-27.4007 Y26.3821
G01 X-27.3902 Y26.3889
G01 X-27.3805 Y26.3967
G01 X-27.3717 Y26.4055
G01 X-27.3639 Y26.4152
G01 X-27.3571 Y26.4257
G01 X-27.3515 Y26.4368
G01 X-27.3470 Y26.4484
G01 X-27.3438 Y26.4603
G01 X-27.3419 Y26.4726
G01 X-27.3413 Y26.4850
G01 X-27.3413 Y26.8850
G01 X-27.3419 Y26.8974
G01 X-27.3438 Y26.9097
G01 X-27.3470 Y26.9216
G01 X-27.3515 Y26.9332
G01 X-27.3571 Y26.9443
G01 X-27.3639 Y26.9548
G01 X-27.3717 Y26.9645
G01 X-27.3805 Y26.9733
G01 X-27.3902 Y26.9811
G01 X-27.4007 Y26.9879
G01 X-27.4118 Y26.9935
G01 X-27.4234 Y26.9980
G01 X-27.4353 Y27.0012
G01 X-27.4476 Y27.0031
G01 X-27.4600 Y27.0037
G01 X-28.9100 Y27.0037
G01 X-28.9224 Y27.0031
G01 X-28.9347 Y27.0012
G01 X-28.9466 Y26.9980
G01 X-28.9582 Y26.9935
G01 X-28.9693 Y26.9879
G01 X-28.9798 Y26.9811
G01 X-28.9895 Y26.9733
G01 X-28.9983 Y26.9645
G01 X-29.0061 Y26.9548
G01 X-29.0129 Y26.9443
G01 X-29.0185 Y26.9332
G01 X-29.0230 Y26.9216
G01 X-29.0262 Y26.9097
G01 X-29.0281 Y26.8974
G01 X-29.0287 Y26.8850
G01 X-29.0287 Y26.4850
G00 Z4.0000
G00 X-29.6837 Y29.5700
G01 F80.00
G01 Z-0.0746
G01 F350.00
G01 X-29.6837 Y28.6700
G01 X-29.6813 Y28.6281
G01 X-29.6761 Y28.5955
G01 X-29.6694 Y28.5686
G01 X-29.6660 Y28.5574
G01 X-29.6533 Y28.5236
G01 X-29.6417 Y28.4990
G01 X-29.6217 Y28.4652
G01 X-29.5962 Y28.4317
G01 X-29.5757 Y28.4093
G01 X-29.5509 Y28.3866
G01 X-29.5149 Y28.3603
G01 X-29.4860 Y28.3433
G01 X-29.4589 Y28.3305
G01 X-29.4276 Y28.3190
G01 X-29.4164 Y28.3156
G01 X-29.3895 Y28.3089
G01 X-29.3513 Y28.3030
G01 X-29.3150 Y28.3013
G01 X-28.6650 Y28.3013
G01 X-28.6231 Y28.3037
G01 X-28.5905 Y28.3089
G01 X-28.5583 Y28.3170
G01 X-28.5186 Y28.3317
G01 X-28.4940 Y28.3433
G01 X-28.4602 Y28.3633
G01 X-28.4267 Y28.3888
G01 X-28.4043 Y28.4093
G01 X-28.3816 Y28.4341
G01 X-28.3553 Y28.4701
G01 X-28.3383 Y28.4990
G01 X-28.3255 Y28.5261
G01 X-28.3140 Y28.5574
G01 X-28.3106 Y28.5686
G01 X-28.3039 Y28.5955
G01 X-28.2999 Y28.6201
G01 X-21.2800 Y28.6201
G01 X-21.2266 Y28.6229
G01 X-21.1753 Y28.6313
G01 X-21.1639 Y28.6338
G01 X-21.1100 Y28.6499
G01 X-21.0692 Y28.6668
G01 X-21.0572 Y28.6726
G01 X-21.0198 Y28.6933
G01 X-21.0085 Y28.7004
G01 X-20.9694 Y28.7282
G01 X-20.9265 Y28.7665
G01 X-18.5917 Y31.1013
G01 X-17.8800 Y31.1013
G01 X-17.8676 Y31.1019
G01 X-17.8553 Y31.1038
G01 X-17.8434 Y31.1070
G01 X-17.8318 Y31.1115
G01 X-17.8207 Y31.1171
G01 X-17.8102 Y31.1239
G01 X-17.8005 Y31.1317
G01 X-17.7917 Y31.1405
G01 X-17.7839 Y31.1502
G01 X-17.7771 Y31.1607
G01 X-17.7715 Y31.1718
G01 X-17.7670 Y31.1834
G01 X-17.7638 Y31.1953
G01 X-17.7619 Y31.2076
G01 X-17.7613 Y31.2200
G01 X-17.7613 Y34.6200
G01 X-17.7619 Y34.6324
G01 X-17.7638 Y34.6447
G01 X-17.7670 Y34.6566
G01 X-17.7715 Y34.6682
G01 X-17.7771 Y34.6793
G01 X-17.7839 Y34.6898
G01 X-17.7917 Y34.6995
G01 X-17.8005 Y34.7083
G01 X-17.8102 Y34.7161
G01 X-17.8207 Y34.7229
G01 X-17.8318 Y34.7285
G01 X-17.8434 Y34.7330
G01 X-17.8553 Y34.7362
G01 X-17.8676 Y34.7381
G01 X-17.8800 Y34.7387
G01 X-19.1800 Y34.7387
G01 X-19.1924 Y34.7381
G01 X-19.2047 Y34.7362
G01 X-19.2166 Y34.7330
G01 X-19.2282 Y34.7285
G01 X-19.2393 Y34.7229
G01 X-19.2498 Y34.7161
G01 X-19.2594 Y34.7083
G01 X-19.2683 Y34.6995
G01 X-19.2761 Y34.6898
G01 X-19.2829 Y34.6793
G01 X-19.2885 Y34.6682
G01 X-19.2930 Y34.6566
G01 X-19.2962 Y34.6447
G01 X-19.2981 Y34.6324
G01 X-19.2987 Y34.6200
G01 X-19.2988 Y31.8083
G01 X-21.4871 Y29.6199
G01 X-28.2999 Y29.6199
G01 X-28.3039 Y29.6445
G01 X-28.3106 Y29.6714
G01 X-28.3140 Y29.6826
G01 X-28.3255 Y29.7139
G01 X-28.3383 Y29.7410
G01 X-28.3553 Y29.7699
G01 X-28.3816 Y29.8059
G01 X-28.4043 Y29.8307
G01 X-28.4267 Y29.8512
G01 X-28.4602 Y29.8767
G01 X-28.4940 Y29.8967
G01 X-28.5186 Y29.9083
G01 X-28.5583 Y29.9230
G01 X-28.5905 Y29.9311
G01 X-28.6231 Y29.9363
G01 X-28.6650 Y29.9387
G01 X-29.3150 Y29.9387
G01 X-29.3513 Y29.9370
G01 X-29.3895 Y29.9311
G01 X-29.4217 Y29.9230
G01 X-29.4589 Y29.9095
G01 X-29.4860 Y29.8967
G01 X-29.5198 Y29.8767
G01 X-29.5509 Y29.8534
G01 X-29.5757 Y29.8307
G01 X-29.5984 Y29.8059
G01 X-29.6217 Y29.7748
G01 X-29.6417 Y29.7410
G01 X-29.6545 Y29.7139
G01 X-29.6680 Y29.6767
G01 X-29.6761 Y29.6445
G01 X-29.6820 Y29.6063
G01 X-29.6837 Y29.5700
G01 X-29.6837 Y28.6700
G00 Z4.0000
G00 X-31.7337 Y29.5700
G01 F80.00
G01 Z-0.0746
G01 F350.00
G01 X-31.7337 Y28.6700
G01 X-31.7320 Y28.6337
G01 X-31.7277 Y28.6038
G01 X-31.7194 Y28.5686
G01 X-31.7160 Y28.5574
G01 X-31.7045 Y28.5261
G01 X-31.6873 Y28.4911
G01 X-31.6717 Y28.4652
G01 X-31.6484 Y28.4341
G01 X-31.6257 Y28.4093
G01 X-31.6009 Y28.3866
G01 X-31.5698 Y28.3633
G01 X-31.5360 Y28.3433
G01 X-31.5089 Y28.3305
G01 X-31.4776 Y28.3190
G01 X-31.4664 Y28.3156
G01 X-31.4312 Y28.3073
G01 X-31.4013 Y28.3030
G01 X-31.3621 Y28.3012
G01 X-31.3621 Y27.1086
G01 X-31.3606 Y27.0792
G01 X-31.3591 Y27.0659
G01 X-31.3528 Y27.0321
G01 X-31.3421 Y26.9974
G01 X-31.3329 Y26.9749
G01 X-31.3271 Y26.9629
G01 X-31.3090 Y26.9317
G01 X-31.2927 Y26.9089
G01 X-31.2677 Y26.8809
G01 X-29.5441 Y25.1573
G01 X-29.5161 Y25.1323
G01 X-29.4933 Y25.1160
G01 X-29.4621 Y25.0979
G01 X-29.4501 Y25.0921
G01 X-29.4164 Y25.0790
G01 X-29.3815 Y25.0697
G01 X-29.3499 Y25.0647
G01 X-29.3164 Y25.0629
G01 X-29.2870 Y25.0644
G01 X-29.2723 Y25.0661
G01 X-27.4600 Y25.0663
G01 X-27.4476 Y25.0669
G01 X-27.4353 Y25.0688
G01 X-27.4234 Y25.0720
G01 X-27.4118 Y25.0765
G01 X-27.4007 Y25.0821
G01 X-27.3902 Y25.0889
G01 X-27.3805 Y25.0967
G01 X-27.3717 Y25.1055
G01 X-27.3639 Y25.1152
G01 X-27.3571 Y25.1257
G01 X-27.3515 Y25.1368
G01 X-27.3470 Y25.1484
G01 X-27.3438 Y25.1603
G01 X-27.3419 Y25.1726
G01 X-27.3413 Y25.1850
G01 X-27.3413 Y25.5850
G01 X-27.3419 Y25.5974
G01 X-27.3438 Y25.6097
G01 X-27.3470 Y25.6216
G01 X-27.3515 Y25.6332
G01 X-27.3571 Y25.6443
G01 X-27.3639 Y25.6548
G01 X-27.3717 Y25.6645
G01 X-27.3805 Y25.6733
G01 X-27.3902 Y25.6811
G01 X-27.4007 Y25.6879
G01 X-27.4118 Y25.6935
G01 X-27.4234 Y25.6980
G01 X-27.4353 Y25.7012
G01 X-27.4476 Y25.7031
G01 X-27.4600 Y25.7037
G01 X-29.1798 Y25.7039
G01 X-30.7179 Y27.2420
G01 X-30.7179 Y28.3013
G01 X-30.6787 Y28.3030
G01 X-30.6405 Y28.3089
G01 X-30.6083 Y28.3170
G01 X-30.5793 Y28.3272
G01 X-30.5440 Y28.3433
G01 X-30.5151 Y28.3603
G01 X-30.5054 Y28.3668
G01 X-30.4767 Y28.3888
G01 X-30.4543 Y28.4093
G01 X-30.4316 Y28.4341
G01 X-30.4083 Y28.4652
G01 X-30.3883 Y28.4990
G01 X-30.3755 Y28.5261
G01 X-30.3620 Y28.5633
G01 X-30.3539 Y28.5955
G01 X-30.3480 Y28.6337
G01 X-30.3463 Y28.6700
G01 X-30.3463 Y29.5700
G01 X-30.3480 Y29.6063
G01 X-30.3539 Y29.6445
G01 X-30.3620 Y29.6767
G01 X-30.3755 Y29.7139
G01 X-30.3872 Y29.7386
G01 X-30.4053 Y29.7699
G01 X-30.4118 Y29.7796
G01 X-30.4316 Y29.8059
G01 X-30.4543 Y29.8307
G01 X-30.4791 Y29.8534
G01 X-30.5054 Y29.8732
G01 X-30.5151 Y29.8797
G01 X-30.5464 Y29.8978
G01 X-30.5711 Y29.9095
G01 X-30.6083 Y29.9230
G01 X-30.6405 Y29.9311
G01 X-30.6787 Y29.9370
G01 X-30.7150 Y29.9387
G01 X-31.3650 Y29.9387
G01 X-31.4013 Y29.9370
G01 X-31.4395 Y29.9311
G01 X-31.4717 Y29.9230
G01 X-31.5089 Y29.9095
G01 X-31.5360 Y29.8967
G01 X-31.5649 Y29.8797
G01 X-31.5746 Y29.8732
G01 X-31.6033 Y29.8512
G01 X-31.6257 Y29.8307
G01 X-31.6484 Y29.8059
G01 X-31.6717 Y29.7748
G01 X-31.6873 Y29.7489
G01 X-31.7033 Y29.7164
G01 X-31.7078 Y29.7057
G01 X-31.7180 Y29.6767
G01 X-31.7261 Y29.6445
G01 X-31.7320 Y29.6063
G01 X-31.7337 Y29.5700
G01 X-31.7337 Y28.6700
G00 Z4.0000
G00 X-37.8800 Y23.0413
G01 F80.00
G01 Z-0.0746
G01 F350.00
G01 X-36.9800 Y23.0413
G01 X-36.9676 Y23.0419
G01 X-36.9553 Y23.0438
G01 X-36.9434 Y23.0470
G01 X-36.9318 Y23.0515
G01 X-36.9162 Y23.0601
G01 X-36.3283 Y23.0602
G01 X-36.2816 Y23.0629
G01 X-36.2303 Y23.0713
G01 X-36.2173 Y23.0743
G01 X-36.1762 Y23.0861
G01 X-36.1637 Y23.0905
G01 X-36.1242 Y23.1068
G01 X-36.1122 Y23.1126
G01 X-36.0799 Y23.1304
G01 X-36.0799 Y17.2300
G01 X-36.0771 Y17.1766
G01 X-36.0687 Y17.1253
G01 X-36.0657 Y17.1123
G01 X-36.0501 Y17.0600
G01 X-36.0332 Y17.0192
G01 X-36.0274 Y17.0072
G01 X-36.0046 Y16.9661
G01 X-35.9718 Y16.9194
G01 X-35.9335 Y16.8765
G01 X-31.9196 Y12.8626
G01 X-31.9950 Y12.7950
G01 X-32.0631 Y12.7191
G01 X-32.0714 Y12.7087
G01 X-32.1315 Y12.6233
G01 X-32.1798 Y12.5362
G01 X-32.1855 Y12.5242
G01 X-32.2226 Y12.4348
G01 X-32.2264 Y12.4236
G01 X-32.2528 Y12.3320
G01 X-32.2558 Y12.3190
G01 X-32.2729 Y12.2159
G01 X-32.2786 Y12.1167
G01 X-32.2786 Y12.1033
G01 X-32.2729 Y12.0041
G01 X-32.2558 Y11.9010
G01 X-32.2528 Y11.8880
G01 X-32.2264 Y11.7964
G01 X-32.2226 Y11.7852
G01 X-32.1855 Y11.6958
G01 X-32.1798 Y11.6838
G01 X-32.1336 Y11.6003
G01 X-32.1266 Y11.5891
G01 X-32.0683 Y11.5071
G01 X-31.9996 Y11.4298
G01 X-31.9902 Y11.4204
G01 X-31.9129 Y11.3517
G01 X-31.8309 Y11.2934
G01 X-31.8197 Y11.2864
G01 X-31.7362 Y11.2402
G01 X-31.7242 Y11.2345
G01 X-31.6362 Y11.1980
G01 X-31.6236 Y11.1936
G01 X-31.5304 Y11.1667
G01 X-31.5190 Y11.1642
G01 X-31.4251 Y11.1483
G01 X-31.4118 Y11.1468
G01 X-31.3167 Y11.1414
G01 X-31.3033 Y11.1414
G01 X-31.2041 Y11.1471
G01 X-31.1010 Y11.1642
G01 X-31.0880 Y11.1672
G01 X-30.9964 Y11.1936
G01 X-30.9852 Y11.1974
G01 X-30.8958 Y11.2345
G01 X-30.8838 Y11.2402
G01 X-30.7967 Y11.2885
G01 X-30.7113 Y11.3486
G01 X-30.7009 Y11.3569
G01 X-30.6298 Y11.4204
G01 X-30.6204 Y11.4298
G01 X-30.5517 Y11.5071
G01 X-30.4885 Y11.5967
G01 X-30.4402 Y11.6838
G01 X-30.4345 Y11.6958
G01 X-30.3974 Y11.7852
G01 X-30.3936 Y11.7964
G01 X-30.3672 Y11.8880
G01 X-30.3642 Y11.9010
G01 X-30.3471 Y12.0041
G01 X-30.3413 Y12.1100
G01 X-30.3471 Y12.2159
G01 X-30.3642 Y12.3190
G01 X-30.3672 Y12.3320
G01 X-30.3936 Y12.4236
G01 X-30.3974 Y12.4348
G01 X-30.4345 Y12.5242
G01 X-30.4402 Y12.5362
G01 X-30.4885 Y12.6233
G01 X-30.5517 Y12.7129
G01 X-30.6250 Y12.7950
G01 X-30.7071 Y12.8683
G01 X-30.7891 Y12.9266
G01 X-30.8101 Y12.9390
G01 X-30.8102 Y12.9667
G01 X-30.8126 Y13.0093
G01 X-30.8141 Y13.0226
G01 X-30.8238 Y13.0761
G01 X-30.8399 Y13.1300
G01 X-30.8568 Y13.1708
G01 X-30.8626 Y13.1828
G01 X-30.8854 Y13.2239
G01 X-30.9182 Y13.2706
G01 X-30.9565 Y13.3135
G01 X-35.0801 Y17.4371
G01 X-35.0801 Y23.7813
G01 X-34.9700 Y23.7813
G01 X-34.9337 Y23.7830
G01 X-34.8955 Y23.7889
G01 X-34.8686 Y23.7956
G01 X-34.8574 Y23.7990
G01 X-34.8261 Y23.8105
G01 X-34.7990 Y23.8233
G01 X-34.7652 Y23.8433
G01 X-34.7341 Y23.8666
G01 X-34.7135 Y23.8852
G01 X-34.6888 Y23.9117
G01 X-34.6814 Y23.9207
G01 X-34.6633 Y23.9452
G01 X-34.6455 Y23.9751
G01 X-33.7345 Y23.9751
G01 X-33.7167 Y23.9452
G01 X-33.6934 Y23.9141
G01 X-33.6707 Y23.8893
G01 X-33.6393 Y23.8614
G01 X-33.6099 Y23.8403
G01 X-33.5810 Y23.8233
G01 X-33.5564 Y23.8117
G01 X-33.5167 Y23.7970
G01 X-33.4845 Y23.7889
G01 X-33.4463 Y23.7830
G01 X-33.4100 Y23.7813
G01 X-33.0145 Y23.7812
G01 X-32.9950 Y23.7740
G01 X-32.9601 Y23.7647
G01 X-32.9285 Y23.7597
G01 X-32.8950 Y23.7579
G01 X-32.8615 Y23.7597
G01 X-32.8299 Y23.7647
G01 X-32.7950 Y23.7740
G01 X-32.7755 Y23.7812
G01 X-32.7217 Y23.7812
G01 X-32.1477 Y23.2073
G01 X-32.1259 Y23.1875
G01 X-32.1155 Y23.1792
G01 X-32.0893 Y23.1610
G01 X-32.0657 Y23.1479
G01 X-32.0312 Y23.1329
G01 X-31.9981 Y23.1227
G01 X-31.9851 Y23.1197
G01 X-31.9535 Y23.1147
G01 X-31.9267 Y23.1131
G01 X-31.8906 Y23.1144
G01 X-31.8759 Y23.1161
G01 X-21.2857 Y23.1161
G01 X-20.2167 Y22.0472
G01 X-20.2192 Y22.0006
G01 X-20.2192 Y19.5692
G01 X-20.2163 Y19.5158
G01 X-20.2079 Y19.4645
G01 X-20.2050 Y19.4515
G01 X-20.1893 Y19.3992
G01 X-20.1724 Y19.3584
G01 X-20.1666 Y19.3464
G01 X-20.1438 Y19.3053
G01 X-20.1110 Y19.2586
G01 X-20.0727 Y19.2157
G01 X-14.8299 Y13.9729
G01 X-14.8299 Y11.9800
G01 X-14.8271 Y11.9266
G01 X-14.8187 Y11.8753
G01 X-14.8162 Y11.8639
G01 X-14.8001 Y11.8100
G01 X-14.7832 Y11.7692
G01 X-14.7774 Y11.7572
G01 X-14.7546 Y11.7161
G01 X-14.7249 Y11.6736
G01 X-14.7166 Y11.6632
G01 X-14.6835 Y11.6265
G01 X-13.6835 Y10.6265
G01 X-13.6406 Y10.5882
G01 X-13.5939 Y10.5554
G01 X-13.5528 Y10.5326
G01 X-13.5408 Y10.5268
G01 X-13.5000 Y10.5099
G01 X-13.4888 Y10.5061
G01 X-13.4461 Y10.4938
G01 X-13.4347 Y10.4913
G01 X-13.3834 Y10.4829
G01 X-13.3367 Y10.4802
G01 X-13.1167 Y10.4801
G01 X-13.1067 Y10.4590
G01 X-13.0897 Y10.4301
G01 X-13.0686 Y10.4007
G01 X-13.0407 Y10.3693
G01 X-13.0093 Y10.3414
G01 X-12.9848 Y10.3233
G01 X-12.9589 Y10.3077
G01 X-12.9239 Y10.2905
G01 X-12.8926 Y10.2790
G01 X-12.8814 Y10.2756
G01 X-12.8545 Y10.2689
G01 X-12.8299 Y10.2649
G01 X-12.8299 Y5.7001
G01 X-13.9501 Y4.5799
G01 X-14.3863 Y4.5799
G01 X-14.3869 Y4.5924
G01 X-14.3888 Y4.6047
G01 X-14.3920 Y4.6166
G01 X-14.3965 Y4.6282
G01 X-14.4021 Y4.6393
G01 X-14.4089 Y4.6498
G01 X-14.4167 Y4.6595
G01 X-14.4255 Y4.6683
G01 X-14.4352 Y4.6761
G01 X-14.4457 Y4.6829
G01 X-14.4568 Y4.6885
G01 X-14.4684 Y4.6930
G01 X-14.4803 Y4.6962
G01 X-14.4926 Y4.6981
G01 X-14.5050 Y4.6988
G01 X-15.3550 Y4.6988
G01 X-15.3674 Y4.6981
G01 X-15.3797 Y4.6962
G01 X-15.3916 Y4.6930
G01 X-15.4032 Y4.6885
G01 X-15.4143 Y4.6829
G01 X-15.4248 Y4.6761
G01 X-15.4345 Y4.6683
G01 X-15.4433 Y4.6595
G01 X-15.4511 Y4.6498
G01 X-15.4579 Y4.6393
G01 X-15.4635 Y4.6282
G01 X-15.4680 Y4.6166
G01 X-15.4712 Y4.6047
G01 X-15.4731 Y4.5924
G01 X-15.4738 Y4.5799
G01 X-20.6863 Y4.5799
G01 X-20.6869 Y4.5924
G01 X-20.6888 Y4.6047
G01 X-20.6920 Y4.6166
G01 X-20.6965 Y4.6282
G01 X-20.7021 Y4.6393
G01 X-20.7089 Y4.6498
G01 X-20.7167 Y4.6595
G01 X-20.7255 Y4.6683
G01 X-20.7352 Y4.6761
G01 X-20.7457 Y4.6829
G01 X-20.7568 Y4.6885
G01 X-20.7684 Y4.6930
G01 X-20.7803 Y4.6962
G01 X-20.7926 Y4.6981
G01 X-20.8050 Y4.6988
G01 X-21.6550 Y4.6988
G01 X-21.6674 Y4.6981
G01 X-21.6797 Y4.6962
G01 X-21.6916 Y4.6930
G01 X-21.7032 Y4.6885
G01 X-21.7143 Y4.6829
G01 X-21.7248 Y4.6761
G01 X-21.7345 Y4.6683
G01 X-21.7433 Y4.6595
G01 X-21.7511 Y4.6498
G01 X-21.7579 Y4.6393
G01 X-21.7635 Y4.6282
G01 X-21.7680 Y4.6166
G01 X-21.7712 Y4.6047
G01 X-21.7731 Y4.5924
G01 X-21.7737 Y4.5800
G01 X-21.7737 Y3.5800
G01 X-21.7731 Y3.5676
G01 X-21.7712 Y3.5553
G01 X-21.7680 Y3.5434
G01 X-21.7635 Y3.5318
G01 X-21.7579 Y3.5207
G01 X-21.7511 Y3.5102
G01 X-21.7433 Y3.5005
G01 X-21.7345 Y3.4917
G01 X-21.7248 Y3.4839
G01 X-21.7143 Y3.4771
G01 X-21.7032 Y3.4715
G01 X-21.6916 Y3.4670
G01 X-21.6797 Y3.4638
G01 X-21.6674 Y3.4619
G01 X-21.6550 Y3.4613
G01 X-20.8050 Y3.4613
G01 X-20.7926 Y3.4619
G01 X-20.7803 Y3.4638
G01 X-20.7684 Y3.4670
G01 X-20.7568 Y3.4715
G01 X-20.7457 Y3.4771
G01 X-20.7352 Y3.4839
G01 X-20.7255 Y3.4917
G01 X-20.7167 Y3.5005
G01 X-20.7089 Y3.5102
G01 X-20.7021 Y3.5207
G01 X-20.6965 Y3.5318
G01 X-20.6920 Y3.5434
G01 X-20.6888 Y3.5553
G01 X-20.6869 Y3.5676
G01 X-20.6862 Y3.5801
G01 X-15.4737 Y3.5801
G01 X-15.4731 Y3.5676
G01 X-15.4712 Y3.5553
G01 X-15.4680 Y3.5434
G01 X-15.4635 Y3.5318
G01 X-15.4579 Y3.5207
G01 X-15.4511 Y3.5102
G01 X-15.4433 Y3.5005
G01 X-15.4345 Y3.4917
G01 X-15.4248 Y3.4839
G01 X-15.4143 Y3.4771
G01 X-15.4032 Y3.4715
G01 X-15.3916 Y3.4670
G01 X-15.3797 Y3.4638
G01 X-15.3674 Y3.4619
G01 X-15.3550 Y3.4613
G01 X-14.5050 Y3.4613
G01 X-14.4926 Y3.4619
G01 X-14.4803 Y3.4638
G01 X-14.4684 Y3.4670
G01 X-14.4568 Y3.4715
G01 X-14.4457 Y3.4771
G01 X-14.4352 Y3.4839
G01 X-14.4255 Y3.4917
G01 X-14.4167 Y3.5005
G01 X-14.4089 Y3.5102
G01 X-14.4021 Y3.5207
G01 X-14.3965 Y3.5318
G01 X-14.3920 Y3.5434
G01 X-14.3888 Y3.5553
G01 X-14.3869 Y3.5676
G01 X-14.3862 Y3.5801
G01 X-13.7430 Y3.5801
G01 X-13.6896 Y3.5829
G01 X-13.6383 Y3.5913
G01 X-13.6269 Y3.5938
G01 X-13.5730 Y3.6099
G01 X-13.5322 Y3.6268
G01 X-13.5202 Y3.6326
G01 X-13.4828 Y3.6533
G01 X-13.4715 Y3.6604
G01 X-13.4324 Y3.6882
G01 X-13.3895 Y3.7265
G01 X-11.9765 Y5.1395
G01 X-11.9382 Y5.1824
G01 X-11.9104 Y5.2215
G01 X-11.9033 Y5.2328
G01 X-11.8826 Y5.2702
G01 X-11.8768 Y5.2822
G01 X-11.8605 Y5.3217
G01 X-11.8561 Y5.3342
G01 X-11.8443 Y5.3753
G01 X-11.8413 Y5.3883
G01 X-11.8329 Y5.4396
G01 X-11.8301 Y5.4930
G01 X-11.8301 Y10.2649
G01 X-11.8055 Y10.2689
G01 X-11.7786 Y10.2756
G01 X-11.7674 Y10.2790
G01 X-11.7361 Y10.2905
G01 X-11.7011 Y10.3077
G01 X-11.6752 Y10.3233
G01 X-11.6507 Y10.3414
G01 X-11.6193 Y10.3693
G01 X-11.5914 Y10.4007
G01 X-11.5703 Y10.4301
G01 X-11.5533 Y10.4590
G01 X-11.5433 Y10.4801
G01 X-11.2371 Y10.4801
G01 X-10.6738 Y9.9167
G01 X-10.6738 Y9.5800
G01 X-10.6731 Y9.5676
G01 X-10.6712 Y9.5553
G01 X-10.6680 Y9.5434
G01 X-10.6635 Y9.5318
G01 X-10.6579 Y9.5207
G01 X-10.6511 Y9.5102
G01 X-10.6433 Y9.5005
G01 X-10.6345 Y9.4917
G01 X-10.6248 Y9.4839
G01 X-10.6143 Y9.4771
G01 X-10.6032 Y9.4715
G01 X-10.5916 Y9.4670
G01 X-10.5797 Y9.4638
G01 X-10.5674 Y9.4619
G01 X-10.5550 Y9.4612
G01 X-9.7050 Y9.4612
G01 X-9.6926 Y9.4619
G01 X-9.6803 Y9.4638
G01 X-9.6684 Y9.4670
G01 X-9.6568 Y9.4715
G01 X-9.6457 Y9.4771
G01 X-9.6352 Y9.4839
G01 X-9.6255 Y9.4917
G01 X-9.6167 Y9.5005
G01 X-9.6089 Y9.5102
G01 X-9.6021 Y9.5207
G01 X-9.5965 Y9.5318
G01 X-9.5920 Y9.5434
G01 X-9.5888 Y9.5553
G01 X-9.5869 Y9.5676
G01 X-9.5862 Y9.5801
G01 X-4.3738 Y9.5801
G01 X-4.3731 Y9.5676
G01 X-4.3712 Y9.5553
G01 X-4.3680 Y9.5434
G01 X-4.3635 Y9.5318
G01 X-4.3579 Y9.5207
G01 X-4.3511 Y9.5102
G01 X-4.3433 Y9.5005
G01 X-4.3345 Y9.4917
G01 X-4.3248 Y9.4839
G01 X-4.3143 Y9.4771
G01 X-4.3032 Y9.4715
G01 X-4.2916 Y9.4670
G01 X-4.2797 Y9.4638
G01 X-4.2674 Y9.4619
G01 X-4.2550 Y9.4612
G01 X-3.4050 Y9.4612
G01 X-3.3926 Y9.4619
G01 X-3.3803 Y9.4638
G01 X-3.3684 Y9.4670
G01 X-3.3568 Y9.4715
G01 X-3.3457 Y9.4771
G01 X-3.3352 Y9.4839
G01 X-3.3255 Y9.4917
G01 X-3.3167 Y9.5005
G01 X-3.3089 Y9.5102
G01 X-3.3021 Y9.5207
G01 X-3.2965 Y9.5318
G01 X-3.2920 Y9.5434
G01 X-3.2888 Y9.5553
G01 X-3.2869 Y9.5676
G01 X-3.2862 Y9.5800
G01 X-3.2862 Y9.7071
G01 X-2.8970 Y9.7071
G01 X-2.8578 Y9.7092
G01 X-2.8206 Y9.7152
G01 X-2.8092 Y9.7177
G01 X-2.7690 Y9.7299
G01 X-2.7413 Y9.7413
G01 X-2.7293 Y9.7471
G01 X-2.7007 Y9.7630
G01 X-2.6698 Y9.7845
G01 X-2.6594 Y9.7928
G01 X-2.6333 Y9.8163
G01 X-2.0618 Y10.3882
G01 X-2.0376 Y10.4156
G01 X-2.0130 Y10.4507
G01 X-1.9971 Y10.4793
G01 X-1.9913 Y10.4913
G01 X-1.9799 Y10.5190
G01 X-1.9681 Y10.5576
G01 X-1.9652 Y10.5706
G01 X-1.9592 Y10.6078
G01 X-1.9571 Y10.6470
G01 X-1.9571 Y25.5130
G01 X-1.9592 Y25.5522
G01 X-1.9652 Y25.5894
G01 X-1.9677 Y25.6008
G01 X-1.9799 Y25.6410
G01 X-1.9913 Y25.6687
G01 X-1.9971 Y25.6807
G01 X-2.0130 Y25.7093
G01 X-2.0345 Y25.7402
G01 X-2.0428 Y25.7506
G01 X-2.0663 Y25.7767
G01 X-2.6333 Y26.3437
G01 X-2.6656 Y26.3724
G01 X-2.6931 Y26.3920
G01 X-2.7044 Y26.3991
G01 X-2.7293 Y26.4129
G01 X-2.7413 Y26.4187
G01 X-2.7676 Y26.4296
G01 X-2.7802 Y26.4340
G01 X-2.8092 Y26.4423
G01 X-2.8206 Y26.4448
G01 X-2.8578 Y26.4508
G01 X-2.8970 Y26.4529
G01 X-3.2862 Y26.4529
G01 X-3.2862 Y26.5800
G01 X-3.2869 Y26.5924
G01 X-3.2888 Y26.6047
G01 X-3.2920 Y26.6166
G01 X-3.2965 Y26.6282
G01 X-3.3021 Y26.6393
G01 X-3.3089 Y26.6498
G01 X-3.3167 Y26.6595
G01 X-3.3255 Y26.6683
G01 X-3.3352 Y26.6761
G01 X-3.3457 Y26.6829
G01 X-3.3568 Y26.6885
G01 X-3.3684 Y26.6930
G01 X-3.3803 Y26.6962
G01 X-3.3926 Y26.6981
G01 X-3.4050 Y26.6987
G01 X-4.2550 Y26.6987
G01 X-4.2674 Y26.6981
G01 X-4.2797 Y26.6962
G01 X-4.2916 Y26.6930
G01 X-4.3032 Y26.6885
G01 X-4.3143 Y26.6829
G01 X-4.3248 Y26.6761
G01 X-4.3345 Y26.6683
G01 X-4.3433 Y26.6595
G01 X-4.3511 Y26.6498
G01 X-4.3579 Y26.6393
G01 X-4.3635 Y26.6282
G01 X-4.3680 Y26.6166
G01 X-4.3712 Y26.6047
G01 X-4.3731 Y26.5924
G01 X-4.3738 Y26.5799
G01 X-9.5862 Y26.5799
G01 X-9.5869 Y26.5924
G01 X-9.5888 Y26.6047
G01 X-9.5920 Y26.6166
G01 X-9.5965 Y26.6282
G01 X-9.6021 Y26.6393
G01 X-9.6089 Y26.6498
G01 X-9.6167 Y26.6595
G01 X-9.6255 Y26.6683
G01 X-9.6352 Y26.6761
G01 X-9.6457 Y26.6829
G01 X-9.6568 Y26.6885
G01 X-9.6684 Y26.6930
G01 X-9.6803 Y26.6962
G01 X-9.6926 Y26.6981
G01 X-9.7050 Y26.6987
G01 X-10.0417 Y26.6988
G01 X-10.6563 Y27.3131
G01 X-10.6944 Y27.3468
G01 X-10.7335 Y27.3746
G01 X-10.7448 Y27.3817
G01 X-10.7822 Y27.4024
G01 X-10.7942 Y27.4082
G01 X-10.8350 Y27.4251
G01 X-10.8889 Y27.4412
G01 X-10.9424 Y27.4509
G01 X-10.9557 Y27.4524
G01 X-11.0050 Y27.4549
G01 X-11.5555 Y27.4549
G01 X-11.5733 Y27.4848
G01 X-11.5966 Y27.5159
G01 X-11.6193 Y27.5407
G01 X-11.6507 Y27.5686
G01 X-11.6801 Y27.5897
G01 X-11.7090 Y27.6067
G01 X-11.7336 Y27.6183
G01 X-11.7733 Y27.6330
G01 X-11.8055 Y27.6411
G01 X-11.8437 Y27.6470
G01 X-11.8800 Y27.6487
G01 X-12.7800 Y27.6487
G01 X-12.8163 Y27.6470
G01 X-12.8576 Y27.6404
G01 X-12.8867 Y27.6330
G01 X-12.9239 Y27.6195
G01 X-12.9510 Y27.6067
G01 X-12.9799 Y27.5897
G01 X-12.9896 Y27.5832
G01 X-13.0183 Y27.5612
G01 X-13.0407 Y27.5407
G01 X-13.0634 Y27.5159
G01 X-13.0897 Y27.4799
G01 X-13.1067 Y27.4510
G01 X-13.1195 Y27.4239
G01 X-13.1330 Y27.3867
G01 X-13.1404 Y27.3576
G01 X-13.1463 Y27.3219
G01 X-13.1474 Y27.3103
G01 X-13.1487 Y27.2800
G01 X-13.1487 Y26.6300
G01 X-13.1470 Y26.5937
G01 X-13.1427 Y26.5638
G01 X-13.1330 Y26.5233
G01 X-13.1195 Y26.4861
G01 X-13.1067 Y26.4590
G01 X-13.0867 Y26.4252
G01 X-13.0634 Y26.3941
G01 X-13.0407 Y26.3693
G01 X-13.0159 Y26.3466
G01 X-12.9896 Y26.3268
G01 X-12.9799 Y26.3203
G01 X-12.9510 Y26.3033
G01 X-12.9239 Y26.2905
G01 X-12.8926 Y26.2790
G01 X-12.8545 Y26.2689
G01 X-12.8219 Y26.2637
G01 X-12.8103 Y26.2626
G01 X-12.7800 Y26.2613
G01 X-11.8800 Y26.2613
G01 X-11.8497 Y26.2626
G01 X-11.8381 Y26.2637
G01 X-11.8055 Y26.2689
G01 X-11.7674 Y26.2790
G01 X-11.7361 Y26.2905
G01 X-11.7114 Y26.3022
G01 X-11.6752 Y26.3233
G01 X-11.6441 Y26.3466
G01 X-11.6152 Y26.3735
G01 X-11.5966 Y26.3941
G01 X-11.5768 Y26.4204
G01 X-11.5555 Y26.4551
G01 X-11.2121 Y26.4551
G01 X-10.6738 Y25.9167
G01 X-10.6738 Y25.5800
G01 X-10.6731 Y25.5676
G01 X-10.6712 Y25.5553
G01 X-10.6680 Y25.5434
G01 X-10.6635 Y25.5318
G01 X-10.6579 Y25.5207
G01 X-10.6511 Y25.5102
G01 X-10.6433 Y25.5005
G01 X-10.6345 Y25.4917
G01 X-10.6248 Y25.4839
G01 X-10.6143 Y25.4771
G01 X-10.6032 Y25.4715
G01 X-10.5916 Y25.4670
G01 X-10.5797 Y25.4638
G01 X-10.5674 Y25.4619
G01 X-10.5550 Y25.4613
G01 X-9.7050 Y25.4613
G01 X-9.6926 Y25.4619
G01 X-9.6803 Y25.4638
G01 X-9.6684 Y25.4670
G01 X-9.6568 Y25.4715
G01 X-9.6457 Y25.4771
G01 X-9.6352 Y25.4839
G01 X-9.6255 Y25.4917
G01 X-9.6167 Y25.5005
G01 X-9.6089 Y25.5102
G01 X-9.6021 Y25.5207
G01 X-9.5965 Y25.5318
G01 X-9.5920 Y25.5434
G01 X-9.5888 Y25.5553
G01 X-9.5869 Y25.5676
G01 X-9.5862 Y25.5801
G01 X-4.3738 Y25.5801
G01 X-4.3731 Y25.5676
G01 X-4.3712 Y25.5553
G01 X-4.3680 Y25.5434
G01 X-4.3635 Y25.5318
G01 X-4.3579 Y25.5207
G01 X-4.3511 Y25.5102
G01 X-4.3433 Y25.5005
G01 X-4.3345 Y25.4917
G01 X-4.3248 Y25.4839
G01 X-4.3143 Y25.4771
G01 X-4.3032 Y25.4715
G01 X-4.2916 Y25.4670
G01 X-4.2797 Y25.4638
G01 X-4.2674 Y25.4619
G01 X-4.2550 Y25.4613
G01 X-3.4050 Y25.4613
G01 X-3.3926 Y25.4619
G01 X-3.3803 Y25.4638
G01 X-3.3684 Y25.4670
G01 X-3.3568 Y25.4715
G01 X-3.3457 Y25.4771
G01 X-3.3352 Y25.4839
G01 X-3.3255 Y25.4917
G01 X-3.3167 Y25.5005
G01 X-3.3089 Y25.5102
G01 X-3.3021 Y25.5207
G01 X-3.2965 Y25.5318
G01 X-3.2920 Y25.5434
G01 X-3.2888 Y25.5553
G01 X-3.2869 Y25.5676
G01 X-3.2862 Y25.5800
G01 X-3.2862 Y25.7071
G01 X-3.0515 Y25.7071
G01 X-2.7029 Y25.3585
G01 X-2.7029 Y10.8015
G01 X-3.0515 Y10.4529
G01 X-3.2862 Y10.4529
G01 X-3.2862 Y10.5800
G01 X-3.2869 Y10.5924
G01 X-3.2888 Y10.6047
G01 X-3.2920 Y10.6166
G01 X-3.2965 Y10.6282
G01 X-3.3021 Y10.6393
G01 X-3.3089 Y10.6498
G01 X-3.3167 Y10.6595
G01 X-3.3255 Y10.6683
G01 X-3.3352 Y10.6761
G01 X-3.3457 Y10.6829
G01 X-3.3568 Y10.6885
G01 X-3.3684 Y10.6930
G01 X-3.3803 Y10.6962
G01 X-3.3926 Y10.6981
G01 X-3.4050 Y10.6987
G01 X-4.2550 Y10.6987
G01 X-4.2674 Y10.6981
G01 X-4.2797 Y10.6962
G01 X-4.2916 Y10.6930
G01 X-4.3032 Y10.6885
G01 X-4.3143 Y10.6829
G01 X-4.3248 Y10.6761
G01 X-4.3345 Y10.6683
G01 X-4.3433 Y10.6595
G01 X-4.3511 Y10.6498
G01 X-4.3579 Y10.6393
G01 X-4.3635 Y10.6282
G01 X-4.3680 Y10.6166
G01 X-4.3712 Y10.6047
G01 X-4.3731 Y10.5924
G01 X-4.3738 Y10.5799
G01 X-9.5862 Y10.5799
G01 X-9.5869 Y10.5924
G01 X-9.5888 Y10.6047
G01 X-9.5920 Y10.6166
G01 X-9.5965 Y10.6282
G01 X-9.6021 Y10.6393
G01 X-9.6089 Y10.6498
G01 X-9.6167 Y10.6595
G01 X-9.6255 Y10.6683
G01 X-9.6352 Y10.6761
G01 X-9.6457 Y10.6829
G01 X-9.6568 Y10.6885
G01 X-9.6684 Y10.6930
G01 X-9.6803 Y10.6962
G01 X-9.6926 Y10.6981
G01 X-9.7050 Y10.6987
G01 X-10.0417 Y10.6988
G01 X-10.6765 Y11.3335
G01 X-10.7132 Y11.3666
G01 X-10.7236 Y11.3749
G01 X-10.7661 Y11.4046
G01 X-10.8072 Y11.4274
G01 X-10.8192 Y11.4332
G01 X-10.8600 Y11.4501
G01 X-10.9139 Y11.4662
G01 X-10.9253 Y11.4687
G01 X-10.9766 Y11.4771
G01 X-11.0300 Y11.4799
G01 X-11.5703 Y11.4799
G01 X-11.5966 Y11.5159
G01 X-11.6235 Y11.5448
G01 X-11.6441 Y11.5634
G01 X-11.6704 Y11.5832
G01 X-11.6801 Y11.5897
G01 X-11.7090 Y11.6067
G01 X-11.7443 Y11.6228
G01 X-11.7733 Y11.6330
G01 X-11.8024 Y11.6404
G01 X-11.8437 Y11.6470
G01 X-11.8800 Y11.6487
G01 X-12.7800 Y11.6487
G01 X-12.8219 Y11.6463
G01 X-12.8545 Y11.6411
G01 X-12.8867 Y11.6330
G01 X-12.9239 Y11.6195
G01 X-12.9589 Y11.6023
G01 X-12.9896 Y11.5832
G01 X-13.0159 Y11.5634
G01 X-13.0365 Y11.5448
G01 X-13.0634 Y11.5159
G01 X-13.0897 Y11.4799
G01 X-13.1229 Y11.4799
G01 X-13.8301 Y12.1871
G01 X-13.8302 Y14.1867
G01 X-13.8329 Y14.2334
G01 X-13.8413 Y14.2847
G01 X-13.8438 Y14.2961
G01 X-13.8561 Y14.3388
G01 X-13.8599 Y14.3500
G01 X-13.8768 Y14.3908
G01 X-13.8826 Y14.4028
G01 X-13.9054 Y14.4439
G01 X-13.9382 Y14.4906
G01 X-13.9765 Y14.5335
G01 X-19.2193 Y19.7763
G01 X-19.2193 Y22.0006
G01 X-19.2222 Y22.0540
G01 X-19.2305 Y22.1053
G01 X-19.2330 Y22.1167
G01 X-19.2492 Y22.1706
G01 X-19.2661 Y22.2114
G01 X-19.2718 Y22.2234
G01 X-19.2925 Y22.2609
G01 X-19.2996 Y22.2721
G01 X-19.3274 Y22.3112
G01 X-19.3611 Y22.3493
G01 X-19.3705 Y22.3587
G01 X-19.4086 Y22.3924
G01 X-19.4477 Y22.4202
G01 X-19.4590 Y22.4273
G01 X-19.4964 Y22.4480
G01 X-19.5084 Y22.4538
G01 X-19.5479 Y22.4701
G01 X-19.5604 Y22.4745
G01 X-19.6031 Y22.4868
G01 X-19.6566 Y22.4965
G01 X-19.6699 Y22.4980
G01 X-19.7192 Y22.5006
G01 X-19.7658 Y22.4981
G01 X-20.9281 Y23.6605
G01 X-20.9559 Y23.6852
G01 X-20.9860 Y23.7063
G01 X-21.0093 Y23.7192
G01 X-21.0434 Y23.7341
G01 X-21.0762 Y23.7442
G01 X-21.0892 Y23.7472
G01 X-21.1204 Y23.7521
G01 X-21.1536 Y23.7539
G01 X-31.7834 Y23.7539
G01 X-32.1431 Y24.1135
G01 X-32.1412 Y24.1500
G01 X-32.1412 Y24.8000
G01 X-32.1430 Y24.8363
G01 X-32.1496 Y24.8776
G01 X-32.1570 Y24.9067
G01 X-32.1672 Y24.9357
G01 X-32.1833 Y24.9710
G01 X-32.2033 Y25.0048
G01 X-32.2288 Y25.0383
G01 X-32.2493 Y25.0607
G01 X-32.2717 Y25.0812
G01 X-32.3052 Y25.1067
G01 X-32.3414 Y25.1278
G01 X-32.3661 Y25.1395
G01 X-32.3974 Y25.1510
G01 X-32.4086 Y25.1544
G01 X-32.4438 Y25.1627
G01 X-32.4737 Y25.1670
G01 X-32.5100 Y25.1687
G01 X-33.4100 Y25.1687
G01 X-33.4463 Y25.1670
G01 X-33.4876 Y25.1604
G01 X-33.5167 Y25.1530
G01 X-33.5457 Y25.1428
G01 X-33.5810 Y25.1267
G01 X-33.6148 Y25.1067
G01 X-33.6459 Y25.0834
G01 X-33.6748 Y25.0565
G01 X-33.6934 Y25.0359
G01 X-33.7132 Y25.0096
G01 X-33.7345 Y24.9749
G01 X-34.6455 Y24.9749
G01 X-34.6633 Y25.0048
G01 X-34.6888 Y25.0383
G01 X-34.7093 Y25.0607
G01 X-34.7317 Y25.0812
G01 X-34.7604 Y25.1032
G01 X-34.7911 Y25.1223
G01 X-34.8261 Y25.1395
G01 X-34.8633 Y25.1530
G01 X-34.9038 Y25.1627
G01 X-34.9337 Y25.1670
G01 X-34.9700 Y25.1687
G01 X-35.8758 Y25.1686
G01 X-35.9119 Y25.1663
G01 X-35.9445 Y25.1611
G01 X-35.9714 Y25.1544
G01 X-35.9826 Y25.1510
G01 X-36.0139 Y25.1395
G01 X-36.0489 Y25.1223
G01 X-36.0796 Y25.1032
G01 X-36.1059 Y25.0834
G01 X-36.1265 Y25.0648
G01 X-36.1534 Y25.0359
G01 X-36.1797 Y24.9999
G01 X-36.1967 Y24.9710
G01 X-36.2083 Y24.9464
G01 X-36.2210 Y24.9126
G01 X-36.2311 Y24.8745
G01 X-36.2370 Y24.8363
G01 X-36.2387 Y24.8000
G01 X-36.2388 Y24.3633
G01 X-36.5421 Y24.0599
G01 X-36.9162 Y24.0599
G01 X-36.9318 Y24.0685
G01 X-36.9434 Y24.0730
G01 X-36.9553 Y24.0762
G01 X-36.9676 Y24.0781
G01 X-36.9800 Y24.0787
G01 X-37.8800 Y24.0787
G01 X-37.8924 Y24.0781
G01 X-37.9047 Y24.0762
G01 X-37.9166 Y24.0730
G01 X-37.9282 Y24.0685
G01 X-37.9393 Y24.0629
G01 X-37.9498 Y24.0561
G01 X-37.9595 Y24.0483
G01 X-37.9683 Y24.0395
G01 X-37.9761 Y24.0298
G01 X-37.9829 Y24.0193
G01 X-37.9885 Y24.0082
G01 X-37.9930 Y23.9966
G01 X-37.9962 Y23.9847
G01 X-37.9981 Y23.9724
G01 X-37.9988 Y23.9600
G01 X-37.9988 Y23.1600
G01 X-37.9981 Y23.1476
G01 X-37.9962 Y23.1353
G01 X-37.9930 Y23.1234
G01 X-37.9885 Y23.1118
G01 X-37.9829 Y23.1007
G01 X-37.9761 Y23.0902
G01 X-37.9683 Y23.0805
G01 X-37.9595 Y23.0717
G01 X-37.9498 Y23.0639
G01 X-37.9393 Y23.0571
G01 X-37.9282 Y23.0515
G01 X-37.9166 Y23.0470
G01 X-37.9047 Y23.0438
G01 X-37.8924 Y23.0419
G01 X-37.8800 Y23.0413
G01 X-36.9800 Y23.0413
G00 Z4.0000
G00 X-41.9667 Y24.9720
G01 F80.00
G01 Z-0.0746
G01 F350.00
G01 X-41.9667 Y24.0720
G01 X-41.9650 Y24.0357
G01 X-41.9591 Y23.9975
G01 X-41.9490 Y23.9594
G01 X-41.9375 Y23.9281
G01 X-41.9247 Y23.9010
G01 X-41.9077 Y23.8721
G01 X-41.9012 Y23.8624
G01 X-41.8814 Y23.8361
G01 X-41.8628 Y23.8155
G01 X-41.8339 Y23.7886
G01 X-41.7979 Y23.7623
G01 X-41.7690 Y23.7453
G01 X-41.7444 Y23.7337
G01 X-41.7047 Y23.7190
G01 X-41.6725 Y23.7109
G01 X-41.6399 Y23.7057
G01 X-41.5980 Y23.7033
G01 X-40.9480 Y23.7033
G01 X-40.9061 Y23.7057
G01 X-40.8735 Y23.7109
G01 X-40.8466 Y23.7176
G01 X-40.8354 Y23.7210
G01 X-40.8016 Y23.7337
G01 X-40.7770 Y23.7453
G01 X-40.7432 Y23.7653
G01 X-40.7097 Y23.7908
G01 X-40.6873 Y23.8113
G01 X-40.6646 Y23.8361
G01 X-40.6383 Y23.8721
G01 X-40.6213 Y23.9010
G01 X-40.6085 Y23.9281
G01 X-40.5970 Y23.9594
G01 X-40.5936 Y23.9706
G01 X-40.5869 Y23.9975
G01 X-40.5829 Y24.0221
G01 X-39.9598 Y24.0221
G01 X-39.9498 Y24.0139
G01 X-39.9393 Y24.0071
G01 X-39.9282 Y24.0015
G01 X-39.9166 Y23.9970
G01 X-39.9047 Y23.9938
G01 X-39.8924 Y23.9919
G01 X-39.8800 Y23.9913
G01 X-38.9800 Y23.9913
G01 X-38.9676 Y23.9919
G01 X-38.9553 Y23.9938
G01 X-38.9434 Y23.9970
G01 X-38.9318 Y24.0015
G01 X-38.9207 Y24.0071
G01 X-38.9102 Y24.0139
G01 X-38.9005 Y24.0217
G01 X-38.8917 Y24.0305
G01 X-38.8839 Y24.0402
G01 X-38.8771 Y24.0507
G01 X-38.8715 Y24.0618
G01 X-38.8670 Y24.0734
G01 X-38.8638 Y24.0853
G01 X-38.8619 Y24.0976
G01 X-38.8613 Y24.1100
G01 X-38.8613 Y24.9100
G01 X-38.8619 Y24.9224
G01 X-38.8638 Y24.9347
G01 X-38.8670 Y24.9466
G01 X-38.8715 Y24.9582
G01 X-38.8771 Y24.9693
G01 X-38.8839 Y24.9798
G01 X-38.8917 Y24.9894
G01 X-38.9005 Y24.9983
G01 X-38.9102 Y25.0061
G01 X-38.9207 Y25.0129
G01 X-38.9318 Y25.0185
G01 X-38.9434 Y25.0230
G01 X-38.9553 Y25.0262
G01 X-38.9676 Y25.0281
G01 X-38.9800 Y25.0287
G01 X-39.8800 Y25.0287
G01 X-39.8924 Y25.0281
G01 X-39.9047 Y25.0262
G01 X-39.9193 Y25.0219
G01 X-40.5829 Y25.0219
G01 X-40.5840 Y25.0290
G01 X-39.5319 Y26.0813
G01 X-39.4982 Y26.1194
G01 X-39.4654 Y26.1661
G01 X-39.4426 Y26.2072
G01 X-39.4368 Y26.2192
G01 X-39.4199 Y26.2600
G01 X-39.4161 Y26.2712
G01 X-39.4038 Y26.3139
G01 X-39.3941 Y26.3674
G01 X-39.3926 Y26.3807
G01 X-39.3901 Y26.4300
G01 X-39.3901 Y28.2913
G01 X-39.1400 Y28.2913
G01 X-39.1276 Y28.2919
G01 X-39.1153 Y28.2938
G01 X-39.1034 Y28.2970
G01 X-39.0918 Y28.3015
G01 X-39.0807 Y28.3071
G01 X-39.0702 Y28.3139
G01 X-39.0605 Y28.3217
G01 X-39.0517 Y28.3305
G01 X-39.0439 Y28.3402
G01 X-39.0371 Y28.3507
G01 X-39.0315 Y28.3618
G01 X-39.0270 Y28.3734
G01 X-39.0238 Y28.3853
G01 X-39.0219 Y28.3976
G01 X-39.0213 Y28.4100
G01 X-39.0213 Y29.4100
G01 X-39.0219 Y29.4224
G01 X-39.0238 Y29.4347
G01 X-39.0270 Y29.4466
G01 X-39.0315 Y29.4582
G01 X-39.0371 Y29.4693
G01 X-39.0439 Y29.4798
G01 X-39.0517 Y29.4895
G01 X-39.0605 Y29.4983
G01 X-39.0702 Y29.5061
G01 X-39.0807 Y29.5129
G01 X-39.0918 Y29.5185
G01 X-39.1034 Y29.5230
G01 X-39.1153 Y29.5262
G01 X-39.1276 Y29.5281
G01 X-39.1400 Y29.5287
G01 X-40.6400 Y29.5287
G01 X-40.6524 Y29.5281
G01 X-40.6647 Y29.5262
G01 X-40.6766 Y29.5230
G01 X-40.6882 Y29.5185
G01 X-40.6993 Y29.5129
G01 X-40.7098 Y29.5061
G01 X-40.7195 Y29.4983
G01 X-40.7283 Y29.4895
G01 X-40.7361 Y29.4798
G01 X-40.7429 Y29.4693
G01 X-40.7485 Y29.4582
G01 X-40.7530 Y29.4466
G01 X-40.7562 Y29.4347
G01 X-40.7581 Y29.4224
G01 X-40.7587 Y29.4100
G01 X-40.7587 Y28.4100
G01 X-40.7581 Y28.3976
G01 X-40.7562 Y28.3853
G01 X-40.7530 Y28.3734
G01 X-40.7485 Y28.3618
G01 X-40.7429 Y28.3507
G01 X-40.7361 Y28.3402
G01 X-40.7283 Y28.3305
G01 X-40.7195 Y28.3217
G01 X-40.7098 Y28.3139
G01 X-40.6993 Y28.3071
G01 X-40.6882 Y28.3015
G01 X-40.6766 Y28.2970
G01 X-40.6647 Y28.2938
G01 X-40.6524 Y28.2919
G01 X-40.6400 Y28.2913
G01 X-40.3899 Y28.2912
G01 X-40.3899 Y26.6371
G01 X-41.6265 Y25.4005
G01 X-41.6648 Y25.3576
G01 X-41.6843 Y25.3302
G01 X-41.7047 Y25.3250
G01 X-41.7337 Y25.3148
G01 X-41.7444 Y25.3103
G01 X-41.7769 Y25.2943
G01 X-41.8028 Y25.2787
G01 X-41.8273 Y25.2606
G01 X-41.8363 Y25.2532
G01 X-41.8628 Y25.2285
G01 X-41.8814 Y25.2079
G01 X-41.9047 Y25.1768
G01 X-41.9247 Y25.1430
G01 X-41.9375 Y25.1159
G01 X-41.9510 Y25.0787
G01 X-41.9591 Y25.0465
G01 X-41.9650 Y25.0083
G01 X-41.9667 Y24.9720
G01 X-41.9667 Y24.0720
G00 Z4.0000
G00 X-46.0362 Y25.3800
G01 F80.00
G01 Z-0.0746
G01 F350.00
G01 X-46.0362 Y24.8800
G01 X-46.0345 Y24.8437
G01 X-46.0286 Y24.8055
G01 X-46.0205 Y24.7733
G01 X-46.0070 Y24.7361
G01 X-45.9898 Y24.7011
G01 X-45.9707 Y24.6704
G01 X-45.9509 Y24.6441
G01 X-45.9240 Y24.6152
G01 X-45.9034 Y24.5966
G01 X-45.8771 Y24.5768
G01 X-45.8464 Y24.5577
G01 X-45.8114 Y24.5405
G01 X-45.7742 Y24.5270
G01 X-45.7420 Y24.5189
G01 X-45.7094 Y24.5137
G01 X-45.6978 Y24.5126
G01 X-45.6675 Y24.5113
G01 X-45.1675 Y24.5113
G01 X-45.1256 Y24.5137
G01 X-45.0899 Y24.5196
G01 X-45.0608 Y24.5270
G01 X-45.0318 Y24.5372
G01 X-44.9965 Y24.5533
G01 X-44.9627 Y24.5733
G01 X-44.9316 Y24.5966
G01 X-44.9027 Y24.6235
G01 X-44.8841 Y24.6441
G01 X-44.8643 Y24.6704
G01 X-44.8452 Y24.7011
G01 X-44.8280 Y24.7361
G01 X-44.8145 Y24.7733
G01 X-44.8064 Y24.8055
G01 X-44.8012 Y24.8381
G01 X-44.8001 Y24.8497
G01 X-44.7988 Y24.8800
G01 X-44.7988 Y25.3800
G01 X-44.8012 Y25.4219
G01 X-44.8071 Y25.4576
G01 X-44.8145 Y25.4867
G01 X-44.8247 Y25.5157
G01 X-44.8408 Y25.5510
G01 X-44.8608 Y25.5848
G01 X-44.8841 Y25.6159
G01 X-44.9110 Y25.6448
G01 X-44.9316 Y25.6634
G01 X-44.9579 Y25.6832
G01 X-44.9886 Y25.7023
G01 X-45.0236 Y25.7195
G01 X-45.0549 Y25.7310
G01 X-45.0661 Y25.7344
G01 X-45.1013 Y25.7427
G01 X-45.1312 Y25.7470
G01 X-45.1617 Y25.7486
G01 X-45.6733 Y25.7486
G01 X-45.7038 Y25.7470
G01 X-45.7337 Y25.7427
G01 X-45.7742 Y25.7330
G01 X-45.8139 Y25.7183
G01 X-45.8385 Y25.7067
G01 X-45.8723 Y25.6867
G01 X-45.9034 Y25.6634
G01 X-45.9240 Y25.6448
G01 X-45.9323 Y25.6365
G01 X-45.9561 Y25.6093
G01 X-45.9742 Y25.5848
G01 X-45.9942 Y25.5510
G01 X-46.0070 Y25.5239
G01 X-46.0185 Y25.4926
G01 X-46.0279 Y25.4576
G01 X-46.0302 Y25.4462
G01 X-46.0345 Y25.4163
G01 X-46.0362 Y25.3800
G01 X-46.0362 Y24.8800
G00 Z4.0000
G00 X-46.0925 Y26.6613
G01 F80.00
G01 Z-0.0746
G01 F350.00
G01 X-44.7425 Y26.6613
G01 X-44.7301 Y26.6619
G01 X-44.7178 Y26.6638
G01 X-44.7059 Y26.6670
G01 X-44.6943 Y26.6715
G01 X-44.6832 Y26.6771
G01 X-44.6727 Y26.6839
G01 X-44.6630 Y26.6917
G01 X-44.6542 Y26.7005
G01 X-44.6464 Y26.7102
G01 X-44.6396 Y26.7207
G01 X-44.6340 Y26.7318
G01 X-44.6295 Y26.7434
G01 X-44.6263 Y26.7553
G01 X-44.6244 Y26.7676
G01 X-44.6238 Y26.7800
G01 X-44.6238 Y27.1800
G01 X-44.6244 Y27.1924
G01 X-44.6263 Y27.2047
G01 X-44.6295 Y27.2166
G01 X-44.6340 Y27.2282
G01 X-44.6396 Y27.2393
G01 X-44.6464 Y27.2498
G01 X-44.6542 Y27.2595
G01 X-44.6630 Y27.2683
G01 X-44.6727 Y27.2761
G01 X-44.6832 Y27.2829
G01 X-44.6943 Y27.2885
G01 X-44.7059 Y27.2930
G01 X-44.7178 Y27.2962
G01 X-44.7301 Y27.2981
G01 X-44.7425 Y27.2987
G01 X-46.0925 Y27.2987
G01 X-46.1049 Y27.2981
G01 X-46.1172 Y27.2962
G01 X-46.1291 Y27.2930
G01 X-46.1407 Y27.2885
G01 X-46.1518 Y27.2829
G01 X-46.1623 Y27.2761
G01 X-46.1720 Y27.2683
G01 X-46.1808 Y27.2595
G01 X-46.1886 Y27.2498
G01 X-46.1954 Y27.2393
G01 X-46.2010 Y27.2282
G01 X-46.2055 Y27.2166
G01 X-46.2087 Y27.2047
G01 X-46.2106 Y27.1924
G01 X-46.2112 Y27.1800
G01 X-46.2112 Y26.7800
G01 X-46.2106 Y26.7676
G01 X-46.2087 Y26.7553
G01 X-46.2055 Y26.7434
G01 X-46.2010 Y26.7318
G01 X-46.1954 Y26.7207
G01 X-46.1886 Y26.7102
G01 X-46.1808 Y26.7005
G01 X-46.1720 Y26.6917
G01 X-46.1623 Y26.6839
G01 X-46.1518 Y26.6771
G01 X-46.1407 Y26.6715
G01 X-46.1291 Y26.6670
G01 X-46.1172 Y26.6638
G01 X-46.1049 Y26.6619
G01 X-46.0925 Y26.6613
G01 X-44.7425 Y26.6613
G00 Z4.0000
G00 X-46.2112 Y27.8300
G01 F80.00
G01 Z-0.0746
G01 F350.00
G01 X-46.2112 Y27.4300
G01 X-46.2106 Y27.4176
G01 X-46.2087 Y27.4053
G01 X-46.2055 Y27.3934
G01 X-46.2010 Y27.3818
G01 X-46.1954 Y27.3707
G01 X-46.1886 Y27.3602
G01 X-46.1808 Y27.3505
G01 X-46.1720 Y27.3417
G01 X-46.1623 Y27.3339
G01 X-46.1518 Y27.3271
G01 X-46.1407 Y27.3215
G01 X-46.1291 Y27.3170
G01 X-46.1172 Y27.3138
G01 X-46.1049 Y27.3119
G01 X-46.0925 Y27.3113
G01 X-45.4622 Y27.3112
G01 X-45.4510 Y27.3097
G01 X-45.4175 Y27.3079
G01 X-43.8515 Y27.3079
G01 X-43.8548 Y27.2838
G01 X-43.8586 Y27.2167
G01 X-43.8586 Y27.2033
G01 X-43.8545 Y27.1321
G01 X-43.8420 Y27.0566
G01 X-43.8395 Y27.0452
G01 X-43.8204 Y26.9790
G01 X-43.8160 Y26.9664
G01 X-43.7903 Y26.9042
G01 X-43.7845 Y26.8922
G01 X-43.7520 Y26.8333
G01 X-43.7449 Y26.8221
G01 X-43.7028 Y26.7630
G01 X-43.6482 Y26.7018
G01 X-43.5870 Y26.6472
G01 X-43.5279 Y26.6051
G01 X-43.5167 Y26.5980
G01 X-43.4578 Y26.5655
G01 X-43.4458 Y26.5597
G01 X-43.3836 Y26.5340
G01 X-43.3710 Y26.5296
G01 X-43.3048 Y26.5105
G01 X-43.2934 Y26.5080
G01 X-43.2179 Y26.4955
G01 X-43.1400 Y26.4913
G01 X-43.0621 Y26.4955
G01 X-42.9866 Y26.5080
G01 X-42.9736 Y26.5109
G01 X-42.9090 Y26.5296
G01 X-42.8977 Y26.5334
G01 X-42.8342 Y26.5597
G01 X-42.8222 Y26.5655
G01 X-42.7597 Y26.6001
G01 X-42.6930 Y26.6472
G01 X-42.6318 Y26.7018
G01 X-42.5772 Y26.7630
G01 X-42.5351 Y26.8221
G01 X-42.5280 Y26.8333
G01 X-42.4955 Y26.8922
G01 X-42.4897 Y26.9042
G01 X-42.4640 Y26.9664
G01 X-42.4596 Y26.9790
G01 X-42.4405 Y27.0452
G01 X-42.4380 Y27.0566
G01 X-42.4255 Y27.1321
G01 X-42.4213 Y27.2100
G01 X-42.4255 Y27.2879
G01 X-42.4380 Y27.3634
G01 X-42.4409 Y27.3764
G01 X-42.4596 Y27.4410
G01 X-42.4634 Y27.4523
G01 X-42.4897 Y27.5158
G01 X-42.4955 Y27.5278
G01 X-42.5301 Y27.5903
G01 X-42.5772 Y27.6570
G01 X-42.6318 Y27.7182
G01 X-42.6930 Y27.7728
G01 X-42.7521 Y27.8149
G01 X-42.7633 Y27.8220
G01 X-42.8222 Y27.8545
G01 X-42.8342 Y27.8603
G01 X-42.8964 Y27.8860
G01 X-42.9090 Y27.8904
G01 X-42.9752 Y27.9095
G01 X-42.9866 Y27.9120
G01 X-43.0621 Y27.9245
G01 X-43.1333 Y27.9286
G01 X-43.1467 Y27.9286
G01 X-43.2138 Y27.9248
G01 X-43.2271 Y27.9233
G01 X-43.2934 Y27.9120
G01 X-43.3048 Y27.9095
G01 X-43.3711 Y27.8904
G01 X-43.3907 Y27.9040
G01 X-43.4143 Y27.9171
G01 X-43.4263 Y27.9229
G01 X-43.4600 Y27.9360
G01 X-43.4835 Y27.9428
G01 X-43.5173 Y27.9491
G01 X-43.5306 Y27.9506
G01 X-43.5600 Y27.9521
G01 X-45.4175 Y27.9521
G01 X-45.4510 Y27.9503
G01 X-45.4622 Y27.9487
G01 X-46.0925 Y27.9487
G01 X-46.1049 Y27.9481
G01 X-46.1172 Y27.9462
G01 X-46.1291 Y27.9430
G01 X-46.1407 Y27.9385
G01 X-46.1518 Y27.9329
G01 X-46.1623 Y27.9261
G01 X-46.1720 Y27.9183
G01 X-46.1808 Y27.9095
G01 X-46.1886 Y27.8998
G01 X-46.1954 Y27.8893
G01 X-46.2010 Y27.8782
G01 X-46.2055 Y27.8666
G01 X-46.2087 Y27.8547
G01 X-46.2106 Y27.8424
G01 X-46.2112 Y27.8300
G01 X-46.2112 Y27.4300
G00 Z4.0000
G00 X-46.0925 Y27.9613
G01 F80.00
G01 Z-0.0746
G01 F350.00
G01 X-45.4779 Y27.9612
G01 X-45.4478 Y27.9565
G01 X-45.4143 Y27.9547
G01 X-45.3849 Y27.9562
G01 X-45.3701 Y27.9579
G01 X-42.5691 Y27.9579
G01 X-42.5595 Y27.9052
G01 X-42.5404 Y27.8390
G01 X-42.5366 Y27.8277
G01 X-42.5103 Y27.7642
G01 X-42.5045 Y27.7522
G01 X-42.4720 Y27.6933
G01 X-42.4649 Y27.6821
G01 X-42.4259 Y27.6272
G01 X-42.4176 Y27.6168
G01 X-42.3682 Y27.5618
G01 X-42.3132 Y27.5124
G01 X-42.3028 Y27.5041
G01 X-42.2479 Y27.4651
G01 X-42.2367 Y27.4580
G01 X-42.1778 Y27.4255
G01 X-42.1658 Y27.4197
G01 X-42.1023 Y27.3934
G01 X-42.0910 Y27.3896
G01 X-42.0264 Y27.3709
G01 X-42.0134 Y27.3680
G01 X-41.9379 Y27.3555
G01 X-41.8600 Y27.3513
G01 X-41.7821 Y27.3555
G01 X-41.7066 Y27.3680
G01 X-41.6952 Y27.3705
G01 X-41.6290 Y27.3896
G01 X-41.6164 Y27.3940
G01 X-41.5542 Y27.4197
G01 X-41.5422 Y27.4255
G01 X-41.4797 Y27.4601
G01 X-41.4130 Y27.5072
G01 X-41.3518 Y27.5618
G01 X-41.2972 Y27.6230
G01 X-41.2551 Y27.6821
G01 X-41.2480 Y27.6933
G01 X-41.2155 Y27.7522
G01 X-41.2097 Y27.7642
G01 X-41.1834 Y27.8277
G01 X-41.1796 Y27.8390
G01 X-41.1605 Y27.9052
G01 X-41.1580 Y27.9166
G01 X-41.1455 Y27.9921
G01 X-41.1412 Y28.0700
G01 X-41.1455 Y28.1479
G01 X-41.1580 Y28.2234
G01 X-41.1605 Y28.2348
G01 X-41.1796 Y28.3010
G01 X-41.1834 Y28.3123
G01 X-41.2097 Y28.3758
G01 X-41.2155 Y28.3878
G01 X-41.2480 Y28.4467
G01 X-41.2551 Y28.4579
G01 X-41.2972 Y28.5170
G01 X-41.3518 Y28.5782
G01 X-41.4130 Y28.6328
G01 X-41.4797 Y28.6799
G01 X-41.5422 Y28.7145
G01 X-41.5542 Y28.7203
G01 X-41.6164 Y28.7460
G01 X-41.6290 Y28.7504
G01 X-41.6952 Y28.7695
G01 X-41.7066 Y28.7720
G01 X-41.7821 Y28.7845
G01 X-41.8600 Y28.7887
G01 X-41.9379 Y28.7845
G01 X-42.0134 Y28.7720
G01 X-42.0264 Y28.7691
G01 X-42.0910 Y28.7504
G01 X-42.1023 Y28.7466
G01 X-42.1658 Y28.7203
G01 X-42.1778 Y28.7145
G01 X-42.2403 Y28.6799
G01 X-42.3070 Y28.6328
G01 X-42.3419 Y28.6021
G01 X-45.4175 Y28.6021
G01 X-45.4510 Y28.6003
G01 X-45.4622 Y28.5987
G01 X-46.0925 Y28.5987
G01 X-46.1049 Y28.5981
G01 X-46.1172 Y28.5962
G01 X-46.1291 Y28.5930
G01 X-46.1407 Y28.5885
G01 X-46.1518 Y28.5829
G01 X-46.1623 Y28.5761
G01 X-46.1720 Y28.5683
G01 X-46.1808 Y28.5595
G01 X-46.1886 Y28.5498
G01 X-46.1954 Y28.5393
G01 X-46.2010 Y28.5282
G01 X-46.2055 Y28.5166
G01 X-46.2087 Y28.5047
G01 X-46.2106 Y28.4924
G01 X-46.2112 Y28.4800
G01 X-46.2112 Y28.0800
G01 X-46.2106 Y28.0676
G01 X-46.2087 Y28.0553
G01 X-46.2055 Y28.0434
G01 X-46.2010 Y28.0318
G01 X-46.1954 Y28.0207
G01 X-46.1886 Y28.0102
G01 X-46.1808 Y28.0005
G01 X-46.1720 Y27.9917
G01 X-46.1623 Y27.9839
G01 X-46.1518 Y27.9771
G01 X-46.1407 Y27.9715
G01 X-46.1291 Y27.9670
G01 X-46.1172 Y27.9638
G01 X-46.1049 Y27.9619
G01 X-46.0925 Y27.9613
G01 X-45.4779 Y27.9612
G00 Z4.0000
G00 X-46.2112 Y29.1300
G01 F80.00
G01 Z-0.0746
G01 F350.00
G01 X-46.2112 Y28.7300
G01 X-46.2106 Y28.7176
G01 X-46.2087 Y28.7053
G01 X-46.2055 Y28.6934
G01 X-46.2010 Y28.6818
G01 X-46.1954 Y28.6707
G01 X-46.1886 Y28.6602
G01 X-46.1808 Y28.6505
G01 X-46.1720 Y28.6417
G01 X-46.1623 Y28.6339
G01 X-46.1518 Y28.6271
G01 X-46.1407 Y28.6215
G01 X-46.1291 Y28.6170
G01 X-46.1172 Y28.6138
G01 X-46.1049 Y28.6119
G01 X-46.0925 Y28.6113
G01 X-45.4622 Y28.6112
G01 X-45.4510 Y28.6097
G01 X-45.4175 Y28.6079
G01 X-44.3361 Y28.6079
G01 X-44.3026 Y28.6097
G01 X-44.2710 Y28.6147
G01 X-44.2580 Y28.6177
G01 X-44.2249 Y28.6279
G01 X-44.1904 Y28.6429
G01 X-44.1668 Y28.6560
G01 X-44.1406 Y28.6742
G01 X-44.1132 Y28.6977
G01 X-43.0743 Y29.7364
G01 X-43.0445 Y29.7289
G01 X-43.0119 Y29.7237
G01 X-42.9700 Y29.7213
G01 X-42.0700 Y29.7213
G01 X-42.0281 Y29.7237
G01 X-41.9955 Y29.7289
G01 X-41.9686 Y29.7356
G01 X-41.9574 Y29.7390
G01 X-41.9236 Y29.7517
G01 X-41.8990 Y29.7633
G01 X-41.8652 Y29.7833
G01 X-41.8341 Y29.8066
G01 X-41.8135 Y29.8252
G01 X-41.7888 Y29.8517
G01 X-41.7814 Y29.8607
G01 X-41.7633 Y29.8852
G01 X-41.7433 Y29.9190
G01 X-41.7305 Y29.9461
G01 X-41.7190 Y29.9774
G01 X-41.7156 Y29.9886
G01 X-41.7073 Y30.0238
G01 X-41.7030 Y30.0537
G01 X-41.7013 Y30.0879
G01 X-40.7622 Y30.0879
G01 X-40.7622 Y29.9100
G01 X-40.7616 Y29.8976
G01 X-40.7597 Y29.8853
G01 X-40.7565 Y29.8734
G01 X-40.7520 Y29.8618
G01 X-40.7464 Y29.8507
G01 X-40.7396 Y29.8402
G01 X-40.7318 Y29.8305
G01 X-40.7230 Y29.8217
G01 X-40.7133 Y29.8139
G01 X-40.7028 Y29.8071
G01 X-40.6917 Y29.8015
G01 X-40.6801 Y29.7970
G01 X-40.6682 Y29.7938
G01 X-40.6559 Y29.7919
G01 X-40.6435 Y29.7913
G01 X-38.8808 Y29.7913
G01 X-38.0913 Y29.2386
G01 X-38.0848 Y29.2305
G01 X-38.0760 Y29.2217
G01 X-38.0663 Y29.2139
G01 X-38.0558 Y29.2071
G01 X-38.0447 Y29.2015
G01 X-38.0331 Y29.1970
G01 X-38.0212 Y29.1938
G01 X-38.0089 Y29.1919
G01 X-37.9965 Y29.1913
G01 X-36.1565 Y29.1913
G01 X-36.1441 Y29.1919
G01 X-36.1318 Y29.1938
G01 X-36.1199 Y29.1970
G01 X-36.1083 Y29.2015
G01 X-36.0972 Y29.2071
G01 X-36.0867 Y29.2139
G01 X-36.0770 Y29.2217
G01 X-36.0682 Y29.2305
G01 X-36.0600 Y29.2409
G01 X-35.2495 Y29.8130
G01 X-35.2407 Y29.8198
G01 X-35.2278 Y29.8327
G01 X-35.2191 Y29.8443
G01 X-35.2118 Y29.8569
G01 X-35.2061 Y29.8703
G01 X-35.2021 Y29.8842
G01 X-35.2000 Y29.8970
G01 X-35.1992 Y29.9100
G01 X-35.1992 Y30.9100
G01 X-35.2000 Y30.9230
G01 X-35.2021 Y30.9358
G01 X-35.2061 Y30.9497
G01 X-35.2118 Y30.9631
G01 X-35.2191 Y30.9757
G01 X-35.2278 Y30.9873
G01 X-35.2340 Y30.9940
G01 X-35.2495 Y31.0070
G01 X-36.0600 Y31.5791
G01 X-36.0682 Y31.5895
G01 X-36.0770 Y31.5983
G01 X-36.0867 Y31.6061
G01 X-36.0972 Y31.6129
G01 X-36.1083 Y31.6185
G01 X-36.1199 Y31.6230
G01 X-36.1318 Y31.6262
G01 X-36.1441 Y31.6281
G01 X-36.1565 Y31.6287
G01 X-37.9965 Y31.6287
G01 X-38.0089 Y31.6281
G01 X-38.0212 Y31.6262
G01 X-38.0331 Y31.6230
G01 X-38.0447 Y31.6185
G01 X-38.0558 Y31.6129
G01 X-38.0663 Y31.6061
G01 X-38.0760 Y31.5983
G01 X-38.0848 Y31.5895
G01 X-38.0913 Y31.5814
G01 X-38.8809 Y31.0287
G01 X-40.6435 Y31.0287
G01 X-40.6559 Y31.0281
G01 X-40.6682 Y31.0262
G01 X-40.6801 Y31.0230
G01 X-40.6917 Y31.0185
G01 X-40.7028 Y31.0129
G01 X-40.7133 Y31.0061
G01 X-40.7230 Y30.9983
G01 X-40.7318 Y30.9895
G01 X-40.7396 Y30.9798
G01 X-40.7464 Y30.9693
G01 X-40.7520 Y30.9582
G01 X-40.7565 Y30.9466
G01 X-40.7597 Y30.9347
G01 X-40.7616 Y30.9224
G01 X-40.7622 Y30.9100
G01 X-40.7623 Y30.7321
G01 X-41.7013 Y30.7321
G01 X-41.7026 Y30.7703
G01 X-41.7037 Y30.7819
G01 X-41.7089 Y30.8145
G01 X-41.7190 Y30.8526
G01 X-41.7305 Y30.8839
G01 X-41.7433 Y30.9110
G01 X-41.7633 Y30.9448
G01 X-41.7866 Y30.9759
G01 X-41.8093 Y31.0007
G01 X-41.8341 Y31.0234
G01 X-41.8652 Y31.0467
G01 X-41.8911 Y31.0623
G01 X-41.9261 Y31.0795
G01 X-41.9574 Y31.0910
G01 X-41.9686 Y31.0944
G01 X-42.0038 Y31.1027
G01 X-42.0337 Y31.1070
G01 X-42.0700 Y31.1087
G01 X-42.9700 Y31.1087
G01 X-43.0063 Y31.1070
G01 X-43.0362 Y31.1027
G01 X-43.0767 Y31.0930
G01 X-43.1164 Y31.0783
G01 X-43.1410 Y31.0667
G01 X-43.1699 Y31.0497
G01 X-43.2059 Y31.0234
G01 X-43.2307 Y31.0007
G01 X-43.2586 Y30.9693
G01 X-43.2767 Y30.9448
G01 X-43.2923 Y30.9189
G01 X-43.3095 Y30.8839
G01 X-43.3230 Y30.8467
G01 X-43.3304 Y30.8176
G01 X-43.3363 Y30.7819
G01 X-43.3374 Y30.7703
G01 X-43.3387 Y30.7400
G01 X-43.3388 Y30.3828
G01 X-44.4695 Y29.2521
G01 X-45.4175 Y29.2521
G01 X-45.4510 Y29.2503
G01 X-45.4622 Y29.2487
G01 X-46.0925 Y29.2487
G01 X-46.1049 Y29.2481
G01 X-46.1172 Y29.2462
G01 X-46.1291 Y29.2430
G01 X-46.1407 Y29.2385
G01 X-46.1518 Y29.2329
G01 X-46.1623 Y29.2261
G01 X-46.1720 Y29.2183
G01 X-46.1808 Y29.2095
G01 X-46.1886 Y29.1998
G01 X-46.1954 Y29.1893
G01 X-46.2010 Y29.1782
G01 X-46.2055 Y29.1666
G01 X-46.2087 Y29.1547
G01 X-46.2106 Y29.1424
G01 X-46.2112 Y29.1300
G01 X-46.2112 Y28.7300
G00 Z4.0000
G00 X-46.0362 Y30.3800
G01 F80.00
G01 Z-0.0746
G01 F350.00
G01 X-46.0362 Y29.8800
G01 X-46.0345 Y29.8437
G01 X-46.0286 Y29.8055
G01 X-46.0205 Y29.7733
G01 X-46.0070 Y29.7361
G01 X-45.9898 Y29.7011
G01 X-45.9707 Y29.6704
G01 X-45.9509 Y29.6441
G01 X-45.9240 Y29.6152
G01 X-45.9034 Y29.5966
G01 X-45.8771 Y29.5768
G01 X-45.8464 Y29.5577
G01 X-45.8114 Y29.5405
G01 X-45.7742 Y29.5270
G01 X-45.7420 Y29.5189
G01 X-45.7094 Y29.5137
G01 X-45.6978 Y29.5126
G01 X-45.6675 Y29.5113
G01 X-45.1675 Y29.5113
G01 X-45.1256 Y29.5137
G01 X-45.0899 Y29.5196
G01 X-45.0608 Y29.5270
G01 X-45.0318 Y29.5372
G01 X-44.9965 Y29.5533
G01 X-44.9627 Y29.5733
G01 X-44.9316 Y29.5966
G01 X-44.9027 Y29.6235
G01 X-44.8841 Y29.6441
G01 X-44.8643 Y29.6704
G01 X-44.8452 Y29.7011
G01 X-44.8280 Y29.7361
G01 X-44.8145 Y29.7733
G01 X-44.8064 Y29.8055
G01 X-44.8012 Y29.8381
G01 X-44.8001 Y29.8497
G01 X-44.7988 Y29.8800
G01 X-44.7988 Y30.3800
G01 X-44.8012 Y30.4219
G01 X-44.8071 Y30.4576
G01 X-44.8145 Y30.4867
G01 X-44.8247 Y30.5157
G01 X-44.8408 Y30.5510
G01 X-44.8608 Y30.5848
G01 X-44.8841 Y30.6159
G01 X-44.9110 Y30.6448
G01 X-44.9316 Y30.6634
G01 X-44.9579 Y30.6832
G01 X-44.9886 Y30.7023
G01 X-45.0236 Y30.7195
G01 X-45.0549 Y30.7310
G01 X-45.0661 Y30.7344
G01 X-45.1013 Y30.7427
G01 X-45.1312 Y30.7470
G01 X-45.1617 Y30.7486
G01 X-45.6733 Y30.7486
G01 X-45.7038 Y30.7470
G01 X-45.7337 Y30.7427
G01 X-45.7742 Y30.7330
G01 X-45.8139 Y30.7183
G01 X-45.8385 Y30.7067
G01 X-45.8723 Y30.6867
G01 X-45.9034 Y30.6634
G01 X-45.9240 Y30.6448
G01 X-45.9323 Y30.6365
G01 X-45.9561 Y30.6093
G01 X-45.9742 Y30.5848
G01 X-45.9942 Y30.5510
G01 X-46.0070 Y30.5239
G01 X-46.0185 Y30.4926
G01 X-46.0279 Y30.4576
G01 X-46.0302 Y30.4462
G01 X-46.0345 Y30.4163
G01 X-46.0362 Y30.3800
G01 X-46.0362 Y29.8800
G00 Z4.0000
G00 X-48.7675 Y23.4113
G01 F80.00
G01 Z-0.0746
G01 F350.00
G01 X-47.4675 Y23.4113
G01 X-47.4263 Y23.4133
G01 X-47.3832 Y23.4198
G01 X-47.3404 Y23.4311
G01 X-47.3045 Y23.4443
G01 X-47.2730 Y23.4592
G01 X-47.2398 Y23.4787
G01 X-47.2301 Y23.4852
G01 X-47.1999 Y23.5079
G01 X-47.1714 Y23.5339
G01 X-47.1454 Y23.5624
G01 X-47.1227 Y23.5926
G01 X-47.1162 Y23.6023
G01 X-47.0967 Y23.6355
G01 X-47.0818 Y23.6670
G01 X-47.0686 Y23.7029
G01 X-47.0581 Y23.7426
G01 X-47.0558 Y23.7541
G01 X-47.0508 Y23.7888
G01 X-47.0488 Y23.8300
G01 X-47.0488 Y24.4300
G01 X-47.0503 Y24.4652
G01 X-47.0515 Y24.4768
G01 X-47.0573 Y24.5143
G01 X-47.0686 Y24.5571
G01 X-47.0818 Y24.5930
G01 X-47.0956 Y24.6222
G01 X-47.1193 Y24.6625
G01 X-47.1454 Y24.6976
G01 X-47.1714 Y24.7261
G01 X-47.1999 Y24.7521
G01 X-47.2301 Y24.7748
G01 X-47.2398 Y24.7813
G01 X-47.2753 Y24.8019
G01 X-47.3045 Y24.8157
G01 X-47.3463 Y24.8308
G01 X-47.3916 Y24.8417
G01 X-47.4263 Y24.8467
G01 X-47.4617 Y24.8486
G01 X-47.7954 Y24.8488
G01 X-47.7954 Y30.4113
G01 X-47.4675 Y30.4113
G01 X-47.4263 Y30.4133
G01 X-47.3832 Y30.4198
G01 X-47.3463 Y30.4292
G01 X-47.3045 Y30.4443
G01 X-47.2730 Y30.4592
G01 X-47.2350 Y30.4818
G01 X-47.1974 Y30.5101
G01 X-47.1714 Y30.5339
G01 X-47.1476 Y30.5599
G01 X-47.1193 Y30.5975
G01 X-47.0956 Y30.6378
G01 X-47.0818 Y30.6670
G01 X-47.0686 Y30.7029
G01 X-47.0573 Y30.7457
G01 X-47.0515 Y30.7832
G01 X-47.0503 Y30.7948
G01 X-47.0488 Y30.8300
G01 X-47.0488 Y31.4300
G01 X-47.0515 Y31.4768
G01 X-47.0573 Y31.5143
G01 X-47.0667 Y31.5512
G01 X-47.0830 Y31.5956
G01 X-47.0967 Y31.6245
G01 X-47.1193 Y31.6625
G01 X-47.1476 Y31.7001
G01 X-47.1714 Y31.7261
G01 X-47.1974 Y31.7499
G01 X-47.2301 Y31.7748
G01 X-47.2398 Y31.7813
G01 X-47.2730 Y31.8008
G01 X-47.3019 Y31.8145
G01 X-47.3463 Y31.8308
G01 X-47.3916 Y31.8417
G01 X-47.4263 Y31.8467
G01 X-47.4675 Y31.8487
G01 X-48.7675 Y31.8487
G01 X-48.8087 Y31.8467
G01 X-48.8518 Y31.8402
G01 X-48.8946 Y31.8289
G01 X-48.9305 Y31.8157
G01 X-48.9620 Y31.8008
G01 X-48.9952 Y31.7813
G01 X-49.0049 Y31.7748
G01 X-49.0351 Y31.7521
G01 X-49.0636 Y31.7261
G01 X-49.0896 Y31.6976
G01 X-49.1123 Y31.6674
G01 X-49.1188 Y31.6577
G01 X-49.1383 Y31.6245
G01 X-49.1532 Y31.5930
G01 X-49.1664 Y31.5571
G01 X-49.1769 Y31.5174
G01 X-49.1792 Y31.5059
G01 X-49.1842 Y31.4712
G01 X-49.1863 Y31.4300
G01 X-49.1863 Y30.8300
G01 X-49.1847 Y30.7948
G01 X-49.1835 Y30.7832
G01 X-49.1777 Y30.7457
G01 X-49.1664 Y30.7029
G01 X-49.1532 Y30.6670
G01 X-49.1394 Y30.6378
G01 X-49.1157 Y30.5975
G01 X-49.0896 Y30.5624
G01 X-49.0636 Y30.5339
G01 X-49.0351 Y30.5079
G01 X-49.0049 Y30.4852
G01 X-48.9952 Y30.4787
G01 X-48.9597 Y30.4581
G01 X-48.9305 Y30.4443
G01 X-48.8887 Y30.4292
G01 X-48.8434 Y30.4183
G01 X-48.8087 Y30.4133
G01 X-48.7733 Y30.4114
G01 X-48.4396 Y30.4112
G01 X-48.4396 Y24.8487
G01 X-48.7675 Y24.8487
G01 X-48.8087 Y24.8467
G01 X-48.8518 Y24.8402
G01 X-48.8887 Y24.8308
G01 X-48.9305 Y24.8157
G01 X-48.9700 Y24.7964
G01 X-49.0049 Y24.7748
G01 X-49.0351 Y24.7521
G01 X-49.0594 Y24.7301
G01 X-49.0896 Y24.6976
G01 X-49.1123 Y24.6674
G01 X-49.1188 Y24.6577
G01 X-49.1383 Y24.6245
G01 X-49.1520 Y24.5956
G01 X-49.1683 Y24.5512
G01 X-49.1792 Y24.5059
G01 X-49.1842 Y24.4712
G01 X-49.1861 Y24.4358
G01 X-49.1861 Y23.8242
G01 X-49.1842 Y23.7888
G01 X-49.1777 Y23.7457
G01 X-49.1683 Y23.7088
G01 X-49.1532 Y23.6670
G01 X-49.1383 Y23.6355
G01 X-49.1188 Y23.6023
G01 X-49.1123 Y23.5926
G01 X-49.0896 Y23.5624
G01 X-49.0636 Y23.5339
G01 X-49.0376 Y23.5101
G01 X-49.0000 Y23.4818
G01 X-48.9620 Y23.4592
G01 X-48.9331 Y23.4455
G01 X-48.8887 Y23.4292
G01 X-48.8518 Y23.4198
G01 X-48.8143 Y23.4140
G01 X-48.7675 Y23.4113
G01 X-47.4675 Y23.4113
G00 Z4.0000
G00 X-45.3287 Y20.9300
G01 F80.00
G01 Z-0.0746
G01 F350.00
G01 X-45.3287 Y18.4300
G01 X-45.3281 Y18.4176
G01 X-45.3262 Y18.4053
G01 X-45.3230 Y18.3934
G01 X-45.3185 Y18.3818
G01 X-45.3129 Y18.3707
G01 X-45.3061 Y18.3602
G01 X-45.2983 Y18.3505
G01 X-45.2895 Y18.3417
G01 X-45.2798 Y18.3339
G01 X-45.2693 Y18.3271
G01 X-45.2582 Y18.3215
G01 X-45.2466 Y18.3170
G01 X-45.2347 Y18.3138
G01 X-45.2224 Y18.3119
G01 X-45.2100 Y18.3113
G01 X-40.1100 Y18.3113
G01 X-40.0976 Y18.3119
G01 X-40.0853 Y18.3138
G01 X-40.0734 Y18.3170
G01 X-40.0618 Y18.3215
G01 X-40.0507 Y18.3271
G01 X-40.0402 Y18.3339
G01 X-40.0305 Y18.3417
G01 X-40.0217 Y18.3505
G01 X-40.0139 Y18.3602
G01 X-40.0071 Y18.3707
G01 X-40.0015 Y18.3818
G01 X-39.9970 Y18.3934
G01 X-39.9938 Y18.4053
G01 X-39.9919 Y18.4176
G01 X-39.9913 Y18.4300
G01 X-39.9912 Y19.1801
G01 X-38.6459 Y19.1801
G01 X-38.6334 Y19.1672
G01 X-38.5770 Y19.1172
G01 X-38.5103 Y19.0701
G01 X-38.4478 Y19.0355
G01 X-38.4358 Y19.0297
G01 X-38.3723 Y19.0034
G01 X-38.3610 Y18.9996
G01 X-38.2948 Y18.9805
G01 X-38.2834 Y18.9780
G01 X-38.2079 Y18.9655
G01 X-38.1300 Y18.9613
G01 X-38.0562 Y18.9652
G01 X-38.0429 Y18.9667
G01 X-37.9652 Y18.9805
G01 X-37.8990 Y18.9996
G01 X-37.8877 Y19.0034
G01 X-37.8242 Y19.0297
G01 X-37.8122 Y19.0355
G01 X-37.7533 Y19.0680
G01 X-37.7421 Y19.0751
G01 X-37.6830 Y19.1172
G01 X-37.6266 Y19.1672
G01 X-37.6172 Y19.1766
G01 X-37.5724 Y19.2268
G01 X-37.5641 Y19.2372
G01 X-37.5201 Y19.2997
G01 X-37.4855 Y19.3622
G01 X-37.4797 Y19.3742
G01 X-37.4534 Y19.4377
G01 X-37.4496 Y19.4490
G01 X-37.4309 Y19.5136
G01 X-37.4280 Y19.5266
G01 X-37.4155 Y19.6021
G01 X-37.4113 Y19.6800
G01 X-37.4155 Y19.7579
G01 X-37.4280 Y19.8334
G01 X-37.4309 Y19.8464
G01 X-37.4496 Y19.9110
G01 X-37.4534 Y19.9223
G01 X-37.4797 Y19.9858
G01 X-37.4855 Y19.9978
G01 X-37.5180 Y20.0567
G01 X-37.5251 Y20.0679
G01 X-37.5641 Y20.1228
G01 X-37.5724 Y20.1332
G01 X-37.6218 Y20.1882
G01 X-37.6830 Y20.2428
G01 X-37.7497 Y20.2899
G01 X-37.8122 Y20.3245
G01 X-37.8242 Y20.3303
G01 X-37.8864 Y20.3560
G01 X-37.8990 Y20.3604
G01 X-37.9652 Y20.3795
G01 X-37.9766 Y20.3820
G01 X-38.0521 Y20.3945
G01 X-38.1233 Y20.3986
G01 X-38.1367 Y20.3986
G01 X-38.2079 Y20.3945
G01 X-38.2834 Y20.3820
G01 X-38.2948 Y20.3795
G01 X-38.3610 Y20.3604
G01 X-38.3736 Y20.3560
G01 X-38.4358 Y20.3303
G01 X-38.4478 Y20.3245
G01 X-38.5067 Y20.2920
G01 X-38.5179 Y20.2849
G01 X-38.5770 Y20.2428
G01 X-38.6334 Y20.1928
G01 X-38.6459 Y20.1799
G01 X-39.9913 Y20.1799
G01 X-39.9913 Y20.9300
G01 X-39.9919 Y20.9424
G01 X-39.9938 Y20.9547
G01 X-39.9970 Y20.9666
G01 X-40.0015 Y20.9782
G01 X-40.0071 Y20.9893
G01 X-40.0139 Y20.9998
G01 X-40.0217 Y21.0095
G01 X-40.0305 Y21.0183
G01 X-40.0402 Y21.0261
G01 X-40.0507 Y21.0329
G01 X-40.0618 Y21.0385
G01 X-40.0734 Y21.0430
G01 X-40.0853 Y21.0462
G01 X-40.0976 Y21.0481
G01 X-40.1100 Y21.0487
G01 X-42.1601 Y21.0488
G01 X-42.1601 Y21.4849
G01 X-41.5349 Y22.1101
G01 X-39.9438 Y22.1101
G01 X-39.9282 Y22.1015
G01 X-39.9166 Y22.0970
G01 X-39.9047 Y22.0938
G01 X-39.8924 Y22.0919
G01 X-39.8800 Y22.0913
G01 X-38.9800 Y22.0913
G01 X-38.9676 Y22.0919
G01 X-38.9553 Y22.0938
G01 X-38.9434 Y22.0970
G01 X-38.9318 Y22.1015
G01 X-38.9207 Y22.1071
G01 X-38.9102 Y22.1139
G01 X-38.9005 Y22.1217
G01 X-38.8917 Y22.1305
G01 X-38.8839 Y22.1402
G01 X-38.8771 Y22.1507
G01 X-38.8715 Y22.1618
G01 X-38.8670 Y22.1734
G01 X-38.8638 Y22.1853
G01 X-38.8619 Y22.1976
G01 X-38.8613 Y22.2100
G01 X-38.8613 Y23.0100
G01 X-38.8619 Y23.0224
G01 X-38.8638 Y23.0347
G01 X-38.8670 Y23.0466
G01 X-38.8715 Y23.0582
G01 X-38.8771 Y23.0693
G01 X-38.8839 Y23.0798
G01 X-38.8917 Y23.0895
G01 X-38.9005 Y23.0983
G01 X-38.9102 Y23.1061
G01 X-38.9207 Y23.1129
G01 X-38.9318 Y23.1185
G01 X-38.9434 Y23.1230
G01 X-38.9553 Y23.1262
G01 X-38.9676 Y23.1281
G01 X-38.9800 Y23.1287
G01 X-39.8800 Y23.1287
G01 X-39.8924 Y23.1281
G01 X-39.9047 Y23.1262
G01 X-39.9166 Y23.1230
G01 X-39.9282 Y23.1185
G01 X-39.9438 Y23.1099
G01 X-41.7420 Y23.1099
G01 X-41.7954 Y23.1071
G01 X-41.8467 Y23.0987
G01 X-41.8597 Y23.0957
G01 X-41.9120 Y23.0801
G01 X-41.9528 Y23.0632
G01 X-41.9648 Y23.0574
G01 X-42.0059 Y23.0346
G01 X-42.0526 Y23.0018
G01 X-42.0955 Y22.9635
G01 X-43.0135 Y22.0455
G01 X-43.0518 Y22.0026
G01 X-43.0846 Y21.9559
G01 X-43.1074 Y21.9148
G01 X-43.1132 Y21.9028
G01 X-43.1301 Y21.8620
G01 X-43.1462 Y21.8081
G01 X-43.1487 Y21.7967
G01 X-43.1571 Y21.7454
G01 X-43.1599 Y21.6920
G01 X-43.1599 Y21.0487
G01 X-45.2100 Y21.0487
G01 X-45.2224 Y21.0481
G01 X-45.2347 Y21.0462
G01 X-45.2466 Y21.0430
G01 X-45.2582 Y21.0385
G01 X-45.2693 Y21.0329
G01 X-45.2798 Y21.0261
G01 X-45.2895 Y21.0183
G01 X-45.2983 Y21.0095
G01 X-45.3061 Y20.9998
G01 X-45.3129 Y20.9893
G01 X-45.3185 Y20.9782
G01 X-45.3230 Y20.9666
G01 X-45.3262 Y20.9547
G01 X-45.3281 Y20.9424
G01 X-45.3287 Y20.9300
G01 X-45.3287 Y18.4300
G00 Z4.0000
G00 X-48.6498 Y15.7733
G01 F80.00
G01 Z-0.0746
G01 F350.00
G01 X-48.6471 Y15.7266
G01 X-48.6387 Y15.6753
G01 X-48.6357 Y15.6623
G01 X-48.6201 Y15.6100
G01 X-48.6032 Y15.5692
G01 X-48.5974 Y15.5572
G01 X-48.5767 Y15.5198
G01 X-48.5696 Y15.5085
G01 X-48.5449 Y15.4736
G01 X-48.5366 Y15.4632
G01 X-48.5035 Y15.4265
G01 X-47.3795 Y14.3025
G01 X-47.5841 Y13.8085
G01 X-47.5879 Y13.7973
G01 X-47.7467 Y13.2461
G01 X-47.7492 Y13.2347
G01 X-47.8462 Y12.6618
G01 X-47.8787 Y12.0800
G01 X-47.8462 Y11.4982
G01 X-47.7492 Y10.9253
G01 X-47.7467 Y10.9139
G01 X-47.5879 Y10.3627
G01 X-47.5841 Y10.3515
G01 X-47.3647 Y9.8217
G01 X-47.3589 Y9.8098
G01 X-47.0822 Y9.3092
G01 X-47.0751 Y9.2979
G01 X-46.7411 Y8.8273
G01 X-46.3502 Y8.3898
G01 X-45.9127 Y7.9989
G01 X-45.4421 Y7.6649
G01 X-45.4308 Y7.6578
G01 X-44.9302 Y7.3811
G01 X-44.9183 Y7.3753
G01 X-44.3899 Y7.1565
G01 X-44.3773 Y7.1521
G01 X-43.8261 Y6.9933
G01 X-43.8147 Y6.9908
G01 X-43.2509 Y6.8950
G01 X-43.2377 Y6.8935
G01 X-42.6600 Y6.8612
G01 X-42.0782 Y6.8938
G01 X-41.5053 Y6.9908
G01 X-41.4923 Y6.9938
G01 X-40.9427 Y7.1521
G01 X-40.9315 Y7.1559
G01 X-40.4017 Y7.3753
G01 X-40.3898 Y7.3811
G01 X-39.8855 Y7.6599
G01 X-39.4115 Y7.9958
G01 X-39.4011 Y8.0041
G01 X-39.3430 Y8.0560
G01 X-35.8885 Y4.6015
G01 X-35.8456 Y4.5632
G01 X-35.8065 Y4.5354
G01 X-35.7952 Y4.5283
G01 X-35.7578 Y4.5076
G01 X-35.7458 Y4.5018
G01 X-35.7050 Y4.4849
G01 X-35.6511 Y4.4688
G01 X-35.6397 Y4.4663
G01 X-35.5884 Y4.4579
G01 X-35.5350 Y4.4551
G01 X-34.9045 Y4.4551
G01 X-34.8832 Y4.4204
G01 X-34.8634 Y4.3941
G01 X-34.8448 Y4.3735
G01 X-34.8159 Y4.3466
G01 X-34.7799 Y4.3203
G01 X-34.7510 Y4.3033
G01 X-34.7264 Y4.2917
G01 X-34.6867 Y4.2770
G01 X-34.6462 Y4.2673
G01 X-34.6163 Y4.2630
G01 X-34.5858 Y4.2614
G01 X-33.6800 Y4.2612
G01 X-33.6437 Y4.2630
G01 X-33.6024 Y4.2696
G01 X-33.5733 Y4.2770
G01 X-33.5443 Y4.2872
G01 X-33.5090 Y4.3033
G01 X-33.4752 Y4.3233
G01 X-33.4441 Y4.3466
G01 X-33.4152 Y4.3735
G01 X-33.3966 Y4.3941
G01 X-33.3768 Y4.4204
G01 X-33.3555 Y4.4551
G01 X-33.0121 Y4.4551
G01 X-32.4737 Y3.9167
G01 X-32.4737 Y3.5800
G01 X-32.4731 Y3.5676
G01 X-32.4712 Y3.5553
G01 X-32.4680 Y3.5434
G01 X-32.4635 Y3.5318
G01 X-32.4579 Y3.5207
G01 X-32.4511 Y3.5102
G01 X-32.4433 Y3.5005
G01 X-32.4345 Y3.4917
G01 X-32.4248 Y3.4839
G01 X-32.4143 Y3.4771
G01 X-32.4032 Y3.4715
G01 X-32.3916 Y3.4670
G01 X-32.3797 Y3.4638
G01 X-32.3674 Y3.4619
G01 X-32.3550 Y3.4613
G01 X-31.5050 Y3.4613
G01 X-31.4926 Y3.4619
G01 X-31.4803 Y3.4638
G01 X-31.4684 Y3.4670
G01 X-31.4568 Y3.4715
G01 X-31.4457 Y3.4771
G01 X-31.4352 Y3.4839
G01 X-31.4255 Y3.4917
G01 X-31.4167 Y3.5005
G01 X-31.4089 Y3.5102
G01 X-31.4021 Y3.5207
G01 X-31.3965 Y3.5318
G01 X-31.3920 Y3.5434
G01 X-31.3888 Y3.5553
G01 X-31.3869 Y3.5676
G01 X-31.3862 Y3.5801
G01 X-26.1737 Y3.5801
G01 X-26.1731 Y3.5676
G01 X-26.1712 Y3.5553
G01 X-26.1680 Y3.5434
G01 X-26.1635 Y3.5318
G01 X-26.1579 Y3.5207
G01 X-26.1511 Y3.5102
G01 X-26.1433 Y3.5005
G01 X-26.1345 Y3.4917
G01 X-26.1248 Y3.4839
G01 X-26.1143 Y3.4771
G01 X-26.1032 Y3.4715
G01 X-26.0916 Y3.4670
G01 X-26.0797 Y3.4638
G01 X-26.0674 Y3.4619
G01 X-26.0550 Y3.4613
G01 X-25.2050 Y3.4613
G01 X-25.1926 Y3.4619
G01 X-25.1803 Y3.4638
G01 X-25.1684 Y3.4670
G01 X-25.1568 Y3.4715
G01 X-25.1457 Y3.4771
G01 X-25.1352 Y3.4839
G01 X-25.1255 Y3.4917
G01 X-25.1167 Y3.5005
G01 X-25.1089 Y3.5102
G01 X-25.1021 Y3.5207
G01 X-25.0965 Y3.5318
G01 X-25.0920 Y3.5434
G01 X-25.0888 Y3.5553
G01 X-25.0869 Y3.5676
G01 X-25.0863 Y3.5800
G01 X-25.0862 Y3.9167
G01 X-24.5479 Y4.4551
G01 X-24.2045 Y4.4551
G01 X-24.1832 Y4.4204
G01 X-24.1634 Y4.3941
G01 X-24.1448 Y4.3735
G01 X-24.1159 Y4.3466
G01 X-24.0848 Y4.3233
G01 X-24.0486 Y4.3022
G01 X-24.0239 Y4.2905
G01 X-23.9926 Y4.2790
G01 X-23.9545 Y4.2689
G01 X-23.9219 Y4.2637
G01 X-23.9103 Y4.2626
G01 X-23.8800 Y4.2612
G01 X-22.9800 Y4.2612
G01 X-22.9497 Y4.2626
G01 X-22.9381 Y4.2637
G01 X-22.9024 Y4.2696
G01 X-22.8733 Y4.2770
G01 X-22.8361 Y4.2905
G01 X-22.8090 Y4.3033
G01 X-22.7801 Y4.3203
G01 X-22.7441 Y4.3466
G01 X-22.7193 Y4.3693
G01 X-22.6966 Y4.3941
G01 X-22.6733 Y4.4252
G01 X-22.6533 Y4.4590
G01 X-22.6405 Y4.4861
G01 X-22.6270 Y4.5233
G01 X-22.6189 Y4.5555
G01 X-22.6137 Y4.5881
G01 X-22.6113 Y4.6300
G01 X-22.6113 Y5.2800
G01 X-22.6130 Y5.3163
G01 X-22.6173 Y5.3462
G01 X-22.6256 Y5.3814
G01 X-22.6290 Y5.3926
G01 X-22.6405 Y5.4239
G01 X-22.6533 Y5.4510
G01 X-22.6733 Y5.4848
G01 X-22.6914 Y5.5093
G01 X-22.6988 Y5.5183
G01 X-22.7235 Y5.5448
G01 X-22.7441 Y5.5634
G01 X-22.7752 Y5.5867
G01 X-22.8090 Y5.6067
G01 X-22.8336 Y5.6183
G01 X-22.8674 Y5.6310
G01 X-22.8786 Y5.6344
G01 X-22.9055 Y5.6411
G01 X-22.9437 Y5.6470
G01 X-22.9800 Y5.6488
G01 X-23.8800 Y5.6488
G01 X-23.9163 Y5.6470
G01 X-23.9576 Y5.6404
G01 X-23.9867 Y5.6330
G01 X-24.0157 Y5.6228
G01 X-24.0510 Y5.6067
G01 X-24.0848 Y5.5867
G01 X-24.1159 Y5.5634
G01 X-24.1448 Y5.5365
G01 X-24.1634 Y5.5159
G01 X-24.1832 Y5.4896
G01 X-24.2045 Y5.4549
G01 X-24.7617 Y5.4548
G01 X-24.8084 Y5.4521
G01 X-24.8597 Y5.4437
G01 X-24.8711 Y5.4412
G01 X-24.9138 Y5.4289
G01 X-24.9250 Y5.4251
G01 X-24.9658 Y5.4082
G01 X-24.9778 Y5.4024
G01 X-25.0189 Y5.3796
G01 X-25.0656 Y5.3468
G01 X-25.1037 Y5.3131
G01 X-25.7183 Y4.6988
G01 X-26.0550 Y4.6988
G01 X-26.0674 Y4.6981
G01 X-26.0797 Y4.6962
G01 X-26.0916 Y4.6930
G01 X-26.1032 Y4.6885
G01 X-26.1143 Y4.6829
G01 X-26.1248 Y4.6761
G01 X-26.1345 Y4.6683
G01 X-26.1433 Y4.6595
G01 X-26.1511 Y4.6498
G01 X-26.1579 Y4.6393
G01 X-26.1635 Y4.6282
G01 X-26.1680 Y4.6166
G01 X-26.1712 Y4.6047
G01 X-26.1731 Y4.5924
G01 X-26.1738 Y4.5799
G01 X-31.3863 Y4.5799
G01 X-31.3869 Y4.5924
G01 X-31.3888 Y4.6047
G01 X-31.3920 Y4.6166
G01 X-31.3965 Y4.6282
G01 X-31.4021 Y4.6393
G01 X-31.4089 Y4.6498
G01 X-31.4167 Y4.6595
G01 X-31.4255 Y4.6683
G01 X-31.4352 Y4.6761
G01 X-31.4457 Y4.6829
G01 X-31.4568 Y4.6885
G01 X-31.4684 Y4.6930
G01 X-31.4803 Y4.6962
G01 X-31.4926 Y4.6981
G01 X-31.5050 Y4.6988
G01 X-31.8417 Y4.6988
G01 X-32.4515 Y5.3085
G01 X-32.4882 Y5.3416
G01 X-32.4986 Y5.3499
G01 X-32.5411 Y5.3796
G01 X-32.5822 Y5.4024
G01 X-32.5942 Y5.4082
G01 X-32.6350 Y5.4251
G01 X-32.6889 Y5.4412
G01 X-32.7003 Y5.4437
G01 X-32.7516 Y5.4521
G01 X-32.8050 Y5.4549
G01 X-33.3555 Y5.4549
G01 X-33.3733 Y5.4848
G01 X-33.3914 Y5.5093
G01 X-33.4193 Y5.5407
G01 X-33.4507 Y5.5686
G01 X-33.4752 Y5.5867
G01 X-33.5011 Y5.6023
G01 X-33.5361 Y5.6195
G01 X-33.5674 Y5.6310
G01 X-33.5786 Y5.6344
G01 X-33.6055 Y5.6411
G01 X-33.6381 Y5.6463
G01 X-33.6800 Y5.6488
G01 X-34.5800 Y5.6488
G01 X-34.6163 Y5.6470
G01 X-34.6576 Y5.6404
G01 X-34.6867 Y5.6330
G01 X-34.7157 Y5.6228
G01 X-34.7510 Y5.6067
G01 X-34.7848 Y5.5867
G01 X-34.8159 Y5.5634
G01 X-34.8448 Y5.5365
G01 X-34.8634 Y5.5159
G01 X-34.8832 Y5.4896
G01 X-34.9045 Y5.4549
G01 X-35.3279 Y5.4549
G01 X-38.6360 Y8.7630
G01 X-38.5841 Y8.8211
G01 X-38.5758 Y8.8315
G01 X-38.2449 Y9.2979
G01 X-38.2378 Y9.3092
G01 X-37.9611 Y9.8098
G01 X-37.9553 Y9.8217
G01 X-37.7365 Y10.3501
G01 X-37.7321 Y10.3627
G01 X-37.5738 Y10.9123
G01 X-37.5708 Y10.9253
G01 X-37.4750 Y11.4891
G01 X-37.4735 Y11.5023
G01 X-37.4675 Y11.6101
G01 X-34.8187 Y11.6101
G01 X-34.8187 Y11.2600
G01 X-34.8181 Y11.2476
G01 X-34.8162 Y11.2353
G01 X-34.8130 Y11.2234
G01 X-34.8085 Y11.2118
G01 X-34.8029 Y11.2007
G01 X-34.7961 Y11.1902
G01 X-34.7883 Y11.1805
G01 X-34.7795 Y11.1717
G01 X-34.7698 Y11.1639
G01 X-34.7593 Y11.1571
G01 X-34.7482 Y11.1515
G01 X-34.7366 Y11.1470
G01 X-34.7247 Y11.1438
G01 X-34.7124 Y11.1419
G01 X-34.7000 Y11.1413
G01 X-33.0000 Y11.1413
G01 X-32.9876 Y11.1419
G01 X-32.9753 Y11.1438
G01 X-32.9634 Y11.1470
G01 X-32.9518 Y11.1515
G01 X-32.9407 Y11.1571
G01 X-32.9302 Y11.1639
G01 X-32.9205 Y11.1717
G01 X-32.9117 Y11.1806
G01 X-32.9039 Y11.1902
G01 X-32.8971 Y11.2007
G01 X-32.8915 Y11.2118
G01 X-32.8870 Y11.2234
G01 X-32.8838 Y11.2353
G01 X-32.8819 Y11.2476
G01 X-32.8813 Y11.2600
G01 X-32.8813 Y12.9600
G01 X-32.8819 Y12.9724
G01 X-32.8838 Y12.9847
G01 X-32.8870 Y12.9966
G01 X-32.8915 Y13.0082
G01 X-32.8971 Y13.0193
G01 X-32.9039 Y13.0298
G01 X-32.9117 Y13.0395
G01 X-32.9205 Y13.0483
G01 X-32.9302 Y13.0561
G01 X-32.9407 Y13.0629
G01 X-32.9518 Y13.0685
G01 X-32.9634 Y13.0730
G01 X-32.9753 Y13.0762
G01 X-32.9876 Y13.0781
G01 X-33.0000 Y13.0787
G01 X-34.7000 Y13.0787
G01 X-34.7124 Y13.0781
G01 X-34.7247 Y13.0762
G01 X-34.7366 Y13.0730
G01 X-34.7482 Y13.0685
G01 X-34.7593 Y13.0629
G01 X-34.7698 Y13.0561
G01 X-34.7795 Y13.0483
G01 X-34.7883 Y13.0395
G01 X-34.7961 Y13.0298
G01 X-34.8029 Y13.0193
G01 X-34.8085 Y13.0082
G01 X-34.8130 Y12.9966
G01 X-34.8162 Y12.9847
G01 X-34.8181 Y12.9724
G01 X-34.8187 Y12.9600
G01 X-34.8188 Y12.6099
G01 X-37.4708 Y12.6099
G01 X-37.4735 Y12.6577
G01 X-37.4750 Y12.6709
G01 X-37.5708 Y13.2347
G01 X-37.5733 Y13.2461
G01 X-37.7321 Y13.7973
G01 X-37.7365 Y13.8099
G01 X-37.9553 Y14.3383
G01 X-37.9611 Y14.3502
G01 X-38.2378 Y14.8508
G01 X-38.2449 Y14.8621
G01 X-38.5758 Y15.3285
G01 X-38.5841 Y15.3389
G01 X-38.9698 Y15.7702
G01 X-39.4011 Y16.1559
G01 X-39.4115 Y16.1642
G01 X-39.8855 Y16.5001
G01 X-40.3898 Y16.7789
G01 X-40.4017 Y16.7847
G01 X-40.9301 Y17.0035
G01 X-40.9427 Y17.0079
G01 X-41.4923 Y17.1662
G01 X-41.5053 Y17.1692
G01 X-42.0691 Y17.2650
G01 X-42.0823 Y17.2665
G01 X-42.6600 Y17.2987
G01 X-43.2377 Y17.2665
G01 X-43.2509 Y17.2650
G01 X-43.8147 Y17.1692
G01 X-43.8261 Y17.1667
G01 X-44.3773 Y17.0079
G01 X-44.3885 Y17.0041
G01 X-44.9183 Y16.7847
G01 X-44.9302 Y16.7789
G01 X-45.4345 Y16.5001
G01 X-45.9085 Y16.1642
G01 X-45.9189 Y16.1559
G01 X-46.3502 Y15.7702
G01 X-46.7359 Y15.3389
G01 X-46.7442 Y15.3285
G01 X-46.8468 Y15.1839
G01 X-47.6501 Y15.9871
G01 X-47.6501 Y19.1719
G01 X-46.4455 Y20.3765
G01 X-46.4124 Y20.4132
G01 X-46.4041 Y20.4236
G01 X-46.3794 Y20.4585
G01 X-46.3723 Y20.4698
G01 X-46.3516 Y20.5072
G01 X-46.3458 Y20.5192
G01 X-46.3289 Y20.5600
G01 X-46.3251 Y20.5712
G01 X-46.3128 Y20.6139
G01 X-46.3103 Y20.6253
G01 X-46.3019 Y20.6766
G01 X-46.2990 Y20.7300
G01 X-46.3012 Y20.7723
G01 X-43.3703 Y23.7033
G01 X-42.9980 Y23.7033
G01 X-42.9677 Y23.7046
G01 X-42.9561 Y23.7057
G01 X-42.9204 Y23.7116
G01 X-42.8913 Y23.7190
G01 X-42.8541 Y23.7325
G01 X-42.8191 Y23.7497
G01 X-42.7932 Y23.7653
G01 X-42.7687 Y23.7834
G01 X-42.7373 Y23.8113
G01 X-42.7146 Y23.8361
G01 X-42.6883 Y23.8721
G01 X-42.6713 Y23.9010
G01 X-42.6597 Y23.9256
G01 X-42.6450 Y23.9653
G01 X-42.6353 Y24.0058
G01 X-42.6310 Y24.0357
G01 X-42.6292 Y24.0720
G01 X-42.6292 Y24.9720
G01 X-42.6310 Y25.0083
G01 X-42.6369 Y25.0465
G01 X-42.6450 Y25.0787
G01 X-42.6585 Y25.1159
G01 X-42.6713 Y25.1430
G01 X-42.6913 Y25.1768
G01 X-42.7146 Y25.2079
G01 X-42.7373 Y25.2327
G01 X-42.7621 Y25.2554
G01 X-42.7932 Y25.2787
G01 X-42.8270 Y25.2987
G01 X-42.8541 Y25.3115
G01 X-42.8854 Y25.3230
G01 X-42.8966 Y25.3264
G01 X-42.9235 Y25.3331
G01 X-42.9617 Y25.3390
G01 X-42.9980 Y25.3407
G01 X-43.1779 Y25.3408
G01 X-43.1779 Y25.9600
G01 X-43.1797 Y25.9935
G01 X-43.1847 Y26.0251
G01 X-43.1877 Y26.0381
G01 X-43.1979 Y26.0712
G01 X-43.2129 Y26.1057
G01 X-43.2260 Y26.1293
G01 X-43.2473 Y26.1597
G01 X-43.2677 Y26.1829
G01 X-43.6423 Y26.5577
G01 X-43.6641 Y26.5775
G01 X-43.6745 Y26.5858
G01 X-43.7007 Y26.6040
G01 X-43.7243 Y26.6171
G01 X-43.7588 Y26.6321
G01 X-43.7919 Y26.6423
G01 X-43.8049 Y26.6453
G01 X-43.8365 Y26.6503
G01 X-43.8633 Y26.6519
G01 X-45.4175 Y26.6521
G01 X-45.4510 Y26.6503
G01 X-45.4622 Y26.6487
G01 X-46.0925 Y26.6487
G01 X-46.1049 Y26.6481
G01 X-46.1172 Y26.6462
G01 X-46.1291 Y26.6430
G01 X-46.1407 Y26.6385
G01 X-46.1518 Y26.6329
G01 X-46.1623 Y26.6261
G01 X-46.1720 Y26.6183
G01 X-46.1808 Y26.6095
G01 X-46.1886 Y26.5998
G01 X-46.1954 Y26.5893
G01 X-46.2027 Y26.5738
G01 X-46.2415 Y26.5738
G01 X-46.3962 Y26.7285
G01 X-46.3962 Y30.8390
G01 X-45.2549 Y31.9792
G01 X-45.2247 Y31.9713
G01 X-45.1826 Y31.9641
G01 X-45.1693 Y31.9626
G01 X-45.1200 Y31.9601
G01 X-45.0707 Y31.9626
G01 X-45.0520 Y31.9651
G01 X-43.2945 Y31.9651
G01 X-43.2767 Y31.9352
G01 X-43.2586 Y31.9107
G01 X-43.2307 Y31.8793
G01 X-43.1993 Y31.8514
G01 X-43.1748 Y31.8333
G01 X-43.1489 Y31.8177
G01 X-43.1139 Y31.8005
G01 X-43.0826 Y31.7890
G01 X-43.0714 Y31.7856
G01 X-43.0445 Y31.7789
G01 X-43.0119 Y31.7737
G01 X-42.9700 Y31.7713
G01 X-42.0700 Y31.7713
G01 X-42.0337 Y31.7730
G01 X-42.0038 Y31.7773
G01 X-41.9633 Y31.7870
G01 X-41.9261 Y31.8005
G01 X-41.8911 Y31.8177
G01 X-41.8604 Y31.8368
G01 X-41.8317 Y31.8588
G01 X-41.8093 Y31.8793
G01 X-41.7888 Y31.9017
G01 X-41.7633 Y31.9352
G01 X-41.7455 Y31.9651
G01 X-40.7587 Y31.9651
G01 X-40.7587 Y31.4100
G01 X-40.7581 Y31.3976
G01 X-40.7562 Y31.3853
G01 X-40.7530 Y31.3734
G01 X-40.7485 Y31.3618
G01 X-40.7429 Y31.3507
G01 X-40.7361 Y31.3402
G01 X-40.7283 Y31.3305
G01 X-40.7195 Y31.3217
G01 X-40.7098 Y31.3139
G01 X-40.6993 Y31.3071
G01 X-40.6882 Y31.3015
G01 X-40.6766 Y31.2970
G01 X-40.6647 Y31.2938
G01 X-40.6524 Y31.2919
G01 X-40.6400 Y31.2913
G01 X-39.1400 Y31.2913
G01 X-39.1276 Y31.2919
G01 X-39.1153 Y31.2938
G01 X-39.1034 Y31.2970
G01 X-39.0918 Y31.3015
G01 X-39.0807 Y31.3071
G01 X-39.0702 Y31.3139
G01 X-39.0605 Y31.3217
G01 X-39.0517 Y31.3305
G01 X-39.0439 Y31.3402
G01 X-39.0371 Y31.3507
G01 X-39.0315 Y31.3618
G01 X-39.0270 Y31.3734
G01 X-39.0238 Y31.3853
G01 X-39.0219 Y31.3976
G01 X-39.0213 Y31.4100
G01 X-39.0212 Y32.0717
G01 X-38.6729 Y32.4201
G01 X-35.2871 Y32.4201
G01 X-33.4599 Y30.5929
G01 X-33.4599 Y27.2151
G01 X-33.4845 Y27.2111
G01 X-33.5114 Y27.2044
G01 X-33.5457 Y27.1928
G01 X-33.5810 Y27.1767
G01 X-33.6148 Y27.1567
G01 X-33.6459 Y27.1334
G01 X-33.6748 Y27.1065
G01 X-33.6934 Y27.0859
G01 X-33.7132 Y27.0596
G01 X-33.7345 Y27.0249
G01 X-34.6455 Y27.0249
G01 X-34.6668 Y27.0596
G01 X-34.6866 Y27.0859
G01 X-34.7052 Y27.1065
G01 X-34.7341 Y27.1334
G01 X-34.7652 Y27.1567
G01 X-34.8014 Y27.1778
G01 X-34.8261 Y27.1895
G01 X-34.8574 Y27.2010
G01 X-34.8955 Y27.2111
G01 X-34.9281 Y27.2163
G01 X-34.9397 Y27.2174
G01 X-34.9700 Y27.2187
G01 X-35.8758 Y27.2186
G01 X-35.9063 Y27.2170
G01 X-35.9445 Y27.2111
G01 X-35.9767 Y27.2030
G01 X-36.0164 Y27.1883
G01 X-36.0410 Y27.1767
G01 X-36.0699 Y27.1597
G01 X-36.1059 Y27.1334
G01 X-36.1348 Y27.1065
G01 X-36.1534 Y27.0859
G01 X-36.1732 Y27.0596
G01 X-36.1797 Y27.0499
G01 X-36.1967 Y27.0210
G01 X-36.2128 Y26.9857
G01 X-36.2230 Y26.9567
G01 X-36.2304 Y26.9276
G01 X-36.2370 Y26.8863
G01 X-36.2387 Y26.8500
G01 X-36.2387 Y26.2000
G01 X-36.2370 Y26.1637
G01 X-36.2311 Y26.1255
G01 X-36.2244 Y26.0986
G01 X-36.2210 Y26.0874
G01 X-36.2095 Y26.0561
G01 X-36.1967 Y26.0290
G01 X-36.1797 Y26.0001
G01 X-36.1732 Y25.9904
G01 X-36.1512 Y25.9617
G01 X-36.1307 Y25.9393
G01 X-36.1059 Y25.9166
G01 X-36.0748 Y25.8933
G01 X-36.0410 Y25.8733
G01 X-36.0139 Y25.8605
G01 X-35.9767 Y25.8470
G01 X-35.9445 Y25.8389
G01 X-35.9063 Y25.8330
G01 X-35.8700 Y25.8313
G01 X-34.9642 Y25.8314
G01 X-34.9337 Y25.8330
G01 X-34.9038 Y25.8373
G01 X-34.8633 Y25.8470
G01 X-34.8236 Y25.8617
G01 X-34.7990 Y25.8733
G01 X-34.7701 Y25.8903
G01 X-34.7341 Y25.9166
G01 X-34.7052 Y25.9435
G01 X-34.6866 Y25.9641
G01 X-34.6668 Y25.9904
G01 X-34.6455 Y26.0251
G01 X-33.7345 Y26.0251
G01 X-33.7167 Y25.9952
G01 X-33.6934 Y25.9641
G01 X-33.6707 Y25.9393
G01 X-33.6393 Y25.9114
G01 X-33.6099 Y25.8903
G01 X-33.5810 Y25.8733
G01 X-33.5564 Y25.8617
G01 X-33.5167 Y25.8470
G01 X-33.4845 Y25.8389
G01 X-33.4463 Y25.8330
G01 X-33.4100 Y25.8313
G01 X-32.7217 Y25.8312
G01 X-30.7477 Y23.8573
G01 X-30.7197 Y23.8323
G01 X-30.6969 Y23.8160
G01 X-30.6856 Y23.8089
G01 X-30.6657 Y23.7979
G01 X-30.6326 Y23.7834
G01 X-30.5965 Y23.7722
G01 X-30.5851 Y23.7697
G01 X-30.5535 Y23.7647
G01 X-30.5200 Y23.7629
G01 X-30.4906 Y23.7644
G01 X-30.4759 Y23.7661
G01 X-27.4600 Y23.7663
G01 X-27.4476 Y23.7669
G01 X-27.4353 Y23.7688
G01 X-27.4234 Y23.7720
G01 X-27.4118 Y23.7765
G01 X-27.4007 Y23.7821
G01 X-27.3902 Y23.7889
G01 X-27.3805 Y23.7967
G01 X-27.3717 Y23.8055
G01 X-27.3639 Y23.8152
G01 X-27.3571 Y23.8257
G01 X-27.3515 Y23.8368
G01 X-27.3470 Y23.8484
G01 X-27.3438 Y23.8603
G01 X-27.3419 Y23.8726
G01 X-27.3413 Y23.8850
G01 X-27.3413 Y24.2850
G01 X-27.3419 Y24.2974
G01 X-27.3438 Y24.3097
G01 X-27.3470 Y24.3216
G01 X-27.3515 Y24.3332
G01 X-27.3571 Y24.3443
G01 X-27.3639 Y24.3548
G01 X-27.3717 Y24.3645
G01 X-27.3805 Y24.3733
G01 X-27.3902 Y24.3811
G01 X-27.4007 Y24.3879
G01 X-27.4118 Y24.3935
G01 X-27.4234 Y24.3980
G01 X-27.4353 Y24.4012
G01 X-27.4476 Y24.4031
G01 X-27.4600 Y24.4037
G01 X-30.3834 Y24.4039
G01 X-32.1431 Y26.1635
G01 X-32.1412 Y26.2000
G01 X-32.1412 Y26.8500
G01 X-32.1437 Y26.8919
G01 X-32.1489 Y26.9245
G01 X-32.1570 Y26.9567
G01 X-32.1717 Y26.9964
G01 X-32.1833 Y27.0210
G01 X-32.2033 Y27.0548
G01 X-32.2288 Y27.0883
G01 X-32.2493 Y27.1107
G01 X-32.2741 Y27.1334
G01 X-32.3101 Y27.1597
G01 X-32.3390 Y27.1767
G01 X-32.3661 Y27.1895
G01 X-32.3974 Y27.2010
G01 X-32.4086 Y27.2044
G01 X-32.4355 Y27.2111
G01 X-32.4601 Y27.2151
G01 X-32.4601 Y30.8000
G01 X-32.4629 Y30.8534
G01 X-32.4713 Y30.9047
G01 X-32.4738 Y30.9161
G01 X-32.4899 Y30.9700
G01 X-32.5068 Y31.0108
G01 X-32.5126 Y31.0228
G01 X-32.5333 Y31.0602
G01 X-32.5404 Y31.0715
G01 X-32.5682 Y31.1106
G01 X-32.6019 Y31.1487
G01 X-33.8730 Y32.4201
G01 X-27.9987 Y32.4201
G01 X-27.9987 Y31.2200
G01 X-27.9981 Y31.2076
G01 X-27.9962 Y31.1953
G01 X-27.9930 Y31.1834
G01 X-27.9885 Y31.1718
G01 X-27.9829 Y31.1607
G01 X-27.9761 Y31.1502
G01 X-27.9683 Y31.1405
G01 X-27.9595 Y31.1317
G01 X-27.9498 Y31.1239
G01 X-27.9393 Y31.1171
G01 X-27.9282 Y31.1115
G01 X-27.9166 Y31.1070
G01 X-27.9047 Y31.1038
G01 X-27.8924 Y31.1019
G01 X-27.8800 Y31.1013
G01 X-26.5800 Y31.1013
G01 X-26.5676 Y31.1019
G01 X-26.5553 Y31.1038
G01 X-26.5434 Y31.1070
G01 X-26.5318 Y31.1115
G01 X-26.5207 Y31.1171
G01 X-26.5102 Y31.1239
G01 X-26.5005 Y31.1317
G01 X-26.4917 Y31.1405
G01 X-26.4839 Y31.1502
G01 X-26.4771 Y31.1607
G01 X-26.4715 Y31.1718
G01 X-26.4670 Y31.1834
G01 X-26.4638 Y31.1953
G01 X-26.4619 Y31.2076
G01 X-26.4613 Y31.2200
G01 X-26.4613 Y34.6200
G01 X-26.4619 Y34.6324
G01 X-26.4638 Y34.6447
G01 X-26.4670 Y34.6566
G01 X-26.4715 Y34.6682
G01 X-26.4771 Y34.6793
G01 X-26.4839 Y34.6898
G01 X-26.4917 Y34.6995
G01 X-26.5005 Y34.7083
G01 X-26.5102 Y34.7161
G01 X-26.5207 Y34.7229
G01 X-26.5318 Y34.7285
G01 X-26.5434 Y34.7330
G01 X-26.5553 Y34.7362
G01 X-26.5676 Y34.7381
G01 X-26.5800 Y34.7387
G01 X-27.8800 Y34.7387
G01 X-27.8924 Y34.7381
G01 X-27.9047 Y34.7362
G01 X-27.9166 Y34.7330
G01 X-27.9282 Y34.7285
G01 X-27.9393 Y34.7229
G01 X-27.9498 Y34.7161
G01 X-27.9595 Y34.7083
G01 X-27.9683 Y34.6995
G01 X-27.9761 Y34.6898
G01 X-27.9829 Y34.6793
G01 X-27.9885 Y34.6682
G01 X-27.9930 Y34.6566
G01 X-27.9962 Y34.6447
G01 X-27.9981 Y34.6324
G01 X-27.9987 Y34.6200
G01 X-27.9988 Y33.4199
G01 X-38.8800 Y33.4199
G01 X-38.9293 Y33.4174
G01 X-38.9426 Y33.4159
G01 X-38.9961 Y33.4062
G01 X-39.0500 Y33.3901
G01 X-39.0908 Y33.3732
G01 X-39.1028 Y33.3674
G01 X-39.1402 Y33.3467
G01 X-39.1515 Y33.3396
G01 X-39.1906 Y33.3118
G01 X-39.2335 Y33.2735
G01 X-39.8900 Y32.6170
G01 X-40.0915 Y32.8185
G01 X-40.1344 Y32.8568
G01 X-40.1811 Y32.8896
G01 X-40.2222 Y32.9124
G01 X-40.2342 Y32.9182
G01 X-40.2750 Y32.9351
G01 X-40.3289 Y32.9512
G01 X-40.3403 Y32.9537
G01 X-40.3916 Y32.9621
G01 X-40.4450 Y32.9649
G01 X-41.7455 Y32.9649
G01 X-41.7668 Y32.9996
G01 X-41.7866 Y33.0259
G01 X-41.8052 Y33.0465
G01 X-41.8341 Y33.0734
G01 X-41.8701 Y33.0997
G01 X-41.8990 Y33.1167
G01 X-41.9236 Y33.1283
G01 X-41.9633 Y33.1430
G01 X-42.0038 Y33.1527
G01 X-42.0337 Y33.1570
G01 X-42.0642 Y33.1586
G01 X-42.9700 Y33.1587
G01 X-43.0063 Y33.1570
G01 X-43.0362 Y33.1527
G01 X-43.0767 Y33.1430
G01 X-43.1139 Y33.1295
G01 X-43.1489 Y33.1123
G01 X-43.1796 Y33.0932
G01 X-43.2083 Y33.0712
G01 X-43.2307 Y33.0507
G01 X-43.2512 Y33.0283
G01 X-43.2767 Y32.9948
G01 X-43.2945 Y32.9649
G01 X-45.1150 Y32.9649
G01 X-45.1684 Y32.9621
G01 X-45.2197 Y32.9537
G01 X-45.2311 Y32.9512
G01 X-45.2850 Y32.9351
G01 X-45.3258 Y32.9182
G01 X-45.3378 Y32.9124
G01 X-45.3789 Y32.8896
G01 X-45.4214 Y32.8599
G01 X-45.4318 Y32.8516
G01 X-45.4637 Y32.8231
G01 X-45.4781 Y32.8087
G01 X-45.5118 Y32.7706
G01 X-45.5396 Y32.7315
G01 X-45.5467 Y32.7202
G01 X-45.5674 Y32.6828
G01 X-45.5732 Y32.6708
G01 X-45.5895 Y32.6313
G01 X-45.5939 Y32.6188
G01 X-45.6062 Y32.5761
G01 X-45.6159 Y32.5226
G01 X-45.6174 Y32.5093
G01 X-45.6199 Y32.4600
G01 X-45.6174 Y32.4107
G01 X-45.6159 Y32.3974
G01 X-45.6087 Y32.3553
G01 X-45.6005 Y32.3243
G01 X-46.8124 Y31.1124
G01 X-46.8315 Y31.0909
G01 X-46.8498 Y31.0640
G01 X-46.8566 Y31.0517
G01 X-46.8678 Y31.0267
G01 X-46.8765 Y30.9991
G01 X-46.8825 Y30.9648
G01 X-46.8838 Y30.9400
G01 X-46.8838 Y26.6275
G01 X-46.8828 Y26.6068
G01 X-46.8813 Y26.5936
G01 X-46.8765 Y26.5684
G01 X-46.8722 Y26.5533
G01 X-46.8624 Y26.5278
G01 X-46.8477 Y26.4999
G01 X-46.8346 Y26.4808
G01 X-46.8263 Y26.4704
G01 X-46.8124 Y26.4551
G01 X-46.5149 Y26.1576
G01 X-46.4934 Y26.1385
G01 X-46.4701 Y26.1223
G01 X-46.4422 Y26.1076
