(G-CODE GENERATED BY FLATCAM v8.906 - www.flatcam.org - Version Date: 2019/01/30)

(Name: kroneum-Edge.Cuts.gbr_cutout_cnc)
(Type: G-code from Geometry)
(Units: MM)

(Created on Saturday, 02 February 2019 at 23:58)

(TOOL DIAMETER: 1.5 mm)
(Feedrate: 300.0 mm/min)
(Feedrate_Z: 80.0 mm/min)
(Feedrate rapids 80.0 mm/min)

(Z_Cut: -2.54 mm)
(DepthPerCut: 0.8 mm <=>4 passes)
(Z_Move: 4.0 mm)
(Z Toolchange: 1.0 mm)
(X,Y Toolchange: 0.0000, 0.0000 mm)
(Z Start: None mm)
(Z End: 2.0 mm)
(Steps per circle: 64)
(Postprocessor Geometry: default)
(Spindle Speed: 12000 RPM)

G21
G90
G94

G01 F300.00
G00 Z4.0000

M03 S12000
G4 P3
G00 X-24.1550 Y-0.7700
G01 F80.00
G01 Z-0.8000
G01 F300.00
G01 X0.7700 Y-0.7700
G01 X0.7700 Y40.7300
G01 X-24.1550 Y40.7300
G00 X-24.1550 Y40.7300
G01 F80.00
G01 Z-1.6000
G01 F300.00
G01 X0.7700 Y40.7300
G01 X0.7700 Y-0.7700
G01 X-24.1550 Y-0.7700
G00 X-24.1550 Y-0.7700
G01 F80.00
G01 Z-2.4000
G01 F300.00
G01 X0.7700 Y-0.7700
G01 X0.7700 Y40.7300
G01 X-24.1550 Y40.7300
G00 X-24.1550 Y40.7300
G01 F80.00
G01 Z-2.5400
G01 F300.00
G01 X0.7700 Y40.7300
G01 X0.7700 Y-0.7700
G01 X-24.1550 Y-0.7700
G00 Z4.0000
G00 X-25.8050 Y-0.7700
G01 F80.00
G01 Z-0.8000
G01 F300.00
G01 X-50.7300 Y-0.7700
G01 X-50.7300 Y40.7300
G01 X-25.8050 Y40.7300
G00 X-25.8050 Y40.7300
G01 F80.00
G01 Z-1.6000
G01 F300.00
G01 X-50.7300 Y40.7300
G01 X-50.7300 Y-0.7700
G01 X-25.8050 Y-0.7700
G00 X-25.8050 Y-0.7700
G01 F80.00
G01 Z-2.4000
G01 F300.00
G01 X-50.7300 Y-0.7700
G01 X-50.7300 Y40.7300
G01 X-25.8050 Y40.7300
G00 X-25.8050 Y40.7300
G01 F80.00
G01 Z-2.5400
G01 F300.00
G01 X-50.7300 Y40.7300
G01 X-50.7300 Y-0.7700
G01 X-25.8050 Y-0.7700
G00 Z4.0000
M05
G00 Z4.0000
G00 Z2.00
G00 X0.0 Y0.0

