(G-CODE GENERATED BY FLATCAM v8.906 - www.flatcam.org - Version Date: 2019/01/30)

(Name: kroneum-PTH.drl_cnc)
(Type: G-code from Excellon)
(Units: MM)

(Created on Saturday, 02 February 2019 at 23:53)

(Feedrate: 80.0 mm/min)
(Feedrate rapids 80.0 mm/min)

(Z_Cut: -2.54 mm)
(Z_Move: 2.5 mm)
(Z Toolchange: 1.0 mm)
(X,Y Toolchange: 0.0000, 0.0000 mm)
(Z Start: None mm)
(Z End: 2.0 mm)
(Steps per circle: 64)
(Postprocessor Excellon: default)
(Spindle Speed: 12000 RPM)

G21
G90
G94

G01 F80.00
G00 Z2.5000

M03 S12000
G4 P3
G00 X-43.1400 Y27.2100
G01 Z-2.5400
G01 Z0
G00 Z2.5000
G00 X-45.4170 Y30.1300
G01 Z-2.5400
G01 Z0
G00 Z2.5000
G00 X-48.1170 Y31.1300
G01 Z-2.5400
G01 Z0
G00 Z2.5000
G00 X-45.4170 Y25.1300
G01 Z-2.5400
G01 Z0
G00 Z2.5000
G00 X-48.1170 Y24.1300
G01 Z-2.5400
G01 Z0
G00 Z2.5000
G00 X-38.1300 Y4.4800
G01 Z-2.5400
G01 Z0
G00 Z2.5000
G00 X-33.8500 Y12.1100
G01 Z-2.5400
G01 Z0
G00 Z2.5000
G00 X-31.3100 Y12.1100
G01 Z-2.5400
G01 Z0
G00 Z2.5000
G00 X-28.7700 Y12.1100
G01 Z-2.5400
G01 Z0
G00 Z2.5000
G00 X-26.2300 Y12.1100
G01 Z-2.5400
G01 Z0
G00 Z2.5000
G00 X-23.6900 Y12.1100
G01 Z-2.5400
G01 Z0
G00 Z2.5000
G00 X-21.1500 Y12.1100
G01 Z-2.5400
G01 Z0
G00 Z2.5000
G00 X-18.6100 Y12.1100
G01 Z-2.5400
G01 Z0
G00 Z2.5000
G00 X-16.0700 Y12.1100
G01 Z-2.5400
G01 Z0
G00 Z2.5000
G00 X-32.7200 Y17.3100
G01 Z-2.5400
G01 Z0
G00 Z2.5000
G00 X-33.3200 Y19.5600
G01 Z-2.5400
G01 Z0
G00 Z2.5000
G00 X-38.1300 Y19.6800
G01 Z-2.5400
G01 Z0
G00 Z2.5000
G00 X-41.8600 Y28.0700
G01 Z-2.5400
G01 Z0
G00 Z2.5000
M05
G00 Z2.00
G00 X0.0 Y0.0

