(1001)
(T1  D=1.5 CR=0. - ZMIN=-7.5 - flat end mill)
G90
G0 G53 Z0.

(2D Contour (cutout))
T1 M6 (flat end mill D=1.5 1.5 mm Fishtail Upcut Endmill - Acrylic Max Pass Depth 0.8 mm)
S18000 M3
G64
G54
G43 H1
G0 X-28.3 Y62.5
Z15.
Z5.
G1 Z1.8 F80
Z-0.65
Y62.493 Z-0.696
Y62.471 Z-0.738
Y62.438 Z-0.771
Y62.396 Z-0.793
Y62.35 Z-0.8
Y62.2 F800
X-28.293 Y62.154
X-28.271 Y62.112
X-28.238 Y62.079
X-28.196 Y62.057
X-28.15 Y62.05
X-6.5
G2 X-4.25 Y59.8 I0. J-2.25
G1 Y6.5
G2 X-6.5 Y4.25 I-2.25 J0.
G1 X-49.8
G2 X-52.05 Y6.5 I0. J2.25
G1 Y59.8
G2 X-49.8 Y62.05 I2.25 J0.
G1 X-28.15
X-28.104 Y62.057
X-28.062 Y62.079
X-28.029 Y62.112
X-28.007 Y62.154
X-28. Y62.2
Y62.35
Y62.396 Z-0.793
Y62.438 Z-0.771
Y62.471 Z-0.738
Y62.493 Z-0.696
Y62.5 Z-0.65
G0 Z5.
X-28.3
G1 Z1. F80
Z-1.45
Y62.493 Z-1.496
Y62.471 Z-1.538
Y62.438 Z-1.571
Y62.396 Z-1.593
Y62.35 Z-1.6
Y62.2 F800
X-28.293 Y62.154
X-28.271 Y62.112
X-28.238 Y62.079
X-28.196 Y62.057
X-28.15 Y62.05
X-6.5
G2 X-4.25 Y59.8 I0. J-2.25
G1 Y6.5
G2 X-6.5 Y4.25 I-2.25 J0.
G1 X-49.8
G2 X-52.05 Y6.5 I0. J2.25
G1 Y59.8
G2 X-49.8 Y62.05 I2.25 J0.
G1 X-28.15
X-28.104 Y62.057
X-28.062 Y62.079
X-28.029 Y62.112
X-28.007 Y62.154
X-28. Y62.2
Y62.35
Y62.396 Z-1.593
Y62.438 Z-1.571
Y62.471 Z-1.538
Y62.493 Z-1.496
Y62.5 Z-1.45
G0 Z5.
X-28.3
G1 Z0.2 F80
Z-2.25
Y62.493 Z-2.296
Y62.471 Z-2.338
Y62.438 Z-2.371
Y62.396 Z-2.393
Y62.35 Z-2.4
Y62.2 F800
X-28.293 Y62.154
X-28.271 Y62.112
X-28.238 Y62.079
X-28.196 Y62.057
X-28.15 Y62.05
X-6.5
G2 X-4.25 Y59.8 I0. J-2.25
G1 Y6.5
G2 X-6.5 Y4.25 I-2.25 J0.
G1 X-49.8
G2 X-52.05 Y6.5 I0. J2.25
G1 Y59.8
G2 X-49.8 Y62.05 I2.25 J0.
G1 X-28.15
X-28.104 Y62.057
X-28.062 Y62.079
X-28.029 Y62.112
X-28.007 Y62.154
X-28. Y62.2
Y62.35
Y62.396 Z-2.393
Y62.438 Z-2.371
Y62.471 Z-2.338
Y62.493 Z-2.296
Y62.5 Z-2.25
G0 Z5.
X-28.3
G1 Z-0.6 F80
Z-3.05
Y62.493 Z-3.096
Y62.471 Z-3.138
Y62.438 Z-3.171
Y62.396 Z-3.193
Y62.35 Z-3.2
Y62.2 F800
X-28.293 Y62.154
X-28.271 Y62.112
X-28.238 Y62.079
X-28.196 Y62.057
X-28.15 Y62.05
X-6.5
G2 X-4.25 Y59.8 I0. J-2.25
G1 Y6.5
G2 X-6.5 Y4.25 I-2.25 J0.
G1 X-49.8
G2 X-52.05 Y6.5 I0. J2.25
G1 Y59.8
G2 X-49.8 Y62.05 I2.25 J0.
G1 X-28.15
X-28.104 Y62.057
X-28.062 Y62.079
X-28.029 Y62.112
X-28.007 Y62.154
X-28. Y62.2
Y62.35
Y62.396 Z-3.193
Y62.438 Z-3.171
Y62.471 Z-3.138
Y62.493 Z-3.096
Y62.5 Z-3.05
G0 Z5.
X-28.3
G1 Z-1.4 F80
Z-3.85
Y62.493 Z-3.896
Y62.471 Z-3.938
Y62.438 Z-3.971
Y62.396 Z-3.993
Y62.35 Z-4.
Y62.2 F800
X-28.293 Y62.154
X-28.271 Y62.112
X-28.238 Y62.079
X-28.196 Y62.057
X-28.15 Y62.05
X-6.5
G2 X-4.25 Y59.8 I0. J-2.25
G1 Y6.5
G2 X-6.5 Y4.25 I-2.25 J0.
G1 X-49.8
G2 X-52.05 Y6.5 I0. J2.25
G1 Y59.8
G2 X-49.8 Y62.05 I2.25 J0.
G1 X-28.15
X-28.104 Y62.057
X-28.062 Y62.079
X-28.029 Y62.112
X-28.007 Y62.154
X-28. Y62.2
Y62.35
Y62.396 Z-3.993
Y62.438 Z-3.971
Y62.471 Z-3.938
Y62.493 Z-3.896
Y62.5 Z-3.85
G0 Z5.
X-28.3
G1 Z-2.2 F80
Z-4.65
Y62.493 Z-4.696
Y62.471 Z-4.738
Y62.438 Z-4.771
Y62.396 Z-4.793
Y62.35 Z-4.8
Y62.2 F800
X-28.293 Y62.154
X-28.271 Y62.112
X-28.238 Y62.079
X-28.196 Y62.057
X-28.15 Y62.05
X-6.5
G2 X-4.25 Y59.8 I0. J-2.25
G1 Y6.5
G2 X-6.5 Y4.25 I-2.25 J0.
G1 X-49.8
G2 X-52.05 Y6.5 I0. J2.25
G1 Y59.8
G2 X-49.8 Y62.05 I2.25 J0.
G1 X-28.15
X-28.104 Y62.057
X-28.062 Y62.079
X-28.029 Y62.112
X-28.007 Y62.154
X-28. Y62.2
Y62.35
Y62.396 Z-4.793
Y62.438 Z-4.771
Y62.471 Z-4.738
Y62.493 Z-4.696
Y62.5 Z-4.65
G0 Z5.
X-28.3
G1 Z-3. F80
Z-5.45
Y62.493 Z-5.496
Y62.471 Z-5.538
Y62.438 Z-5.571
Y62.396 Z-5.593
Y62.35 Z-5.6
Y62.2 F800
X-28.293 Y62.154
X-28.271 Y62.112
X-28.238 Y62.079
X-28.196 Y62.057
X-28.15 Y62.05
X-6.5
G2 X-4.25 Y59.8 I0. J-2.25
G1 Y6.5
G2 X-6.5 Y4.25 I-2.25 J0.
G1 X-49.8
G2 X-52.05 Y6.5 I0. J2.25
G1 Y59.8
G2 X-49.8 Y62.05 I2.25 J0.
G1 X-28.15
X-28.104 Y62.057
X-28.062 Y62.079
X-28.029 Y62.112
X-28.007 Y62.154
X-28. Y62.2
Y62.35
Y62.396 Z-5.593
Y62.438 Z-5.571
Y62.471 Z-5.538
Y62.493 Z-5.496
Y62.5 Z-5.45
G0 Z5.
X-28.3
G1 Z-3.8 F80
Z-6.25
Y62.493 Z-6.296
Y62.471 Z-6.338
Y62.438 Z-6.371
Y62.396 Z-6.393
Y62.35 Z-6.4
Y62.2 F800
X-28.293 Y62.154
X-28.271 Y62.112
X-28.238 Y62.079
X-28.196 Y62.057
X-28.15 Y62.05
X-6.5
G2 X-4.25 Y59.8 I0. J-2.25
G1 Y6.5
G2 X-6.5 Y4.25 I-2.25 J0.
G1 X-49.8
G2 X-52.05 Y6.5 I0. J2.25
G1 Y59.8
G2 X-49.8 Y62.05 I2.25 J0.
G1 X-28.15
X-28.104 Y62.057
X-28.062 Y62.079
X-28.029 Y62.112
X-28.007 Y62.154
X-28. Y62.2
Y62.35
Y62.396 Z-6.393
Y62.438 Z-6.371
Y62.471 Z-6.338
Y62.493 Z-6.296
Y62.5 Z-6.25
G0 Z5.
X-28.3
G1 Z-4.6 F80
Z-7.05
Y62.493 Z-7.096
Y62.471 Z-7.138
Y62.438 Z-7.171
Y62.396 Z-7.193
Y62.35 Z-7.2
Y62.2 F800
X-28.293 Y62.154
X-28.271 Y62.112
X-28.238 Y62.079
X-28.196 Y62.057
X-28.15 Y62.05
X-19.075
Z-7.095
X-15.575
Z-7.2 F80
X-6.5 F800
G2 X-4.25 Y59.8 I0. J-2.25
G1 Y48.225
Z-7.095
Y44.725
Z-7.2 F80
Y21.575 F800
Z-7.095
Y18.075
Z-7.2 F80
Y6.5 F800
G2 X-6.5 Y4.25 I-2.25 J0.
G1 X-15.575
Z-7.095
X-19.075
Z-7.2 F80
X-37.225 F800
Z-7.095
X-40.725
Z-7.2 F80
X-49.8 F800
G2 X-52.05 Y6.5 I0. J2.25
G1 Y18.075
Z-7.095
Y21.575
Z-7.2 F80
Y44.725 F800
Z-7.095
Y48.225
Z-7.2 F80
Y59.8 F800
G2 X-49.8 Y62.05 I2.25 J0.
G1 X-40.725
Z-7.095
X-37.225
Z-7.2 F80
X-28.15 F800
X-28.104 Y62.057
X-28.062 Y62.079
X-28.029 Y62.112
X-28.007 Y62.154
X-28. Y62.2
Y62.35
Y62.396 Z-7.193
Y62.438 Z-7.171
Y62.471 Z-7.138
Y62.493 Z-7.096
Y62.5 Z-7.05
G0 Z5.
X-28.3
G1 Z-5.4 F80
Z-7.35
Y62.493 Z-7.396
Y62.471 Z-7.438
Y62.438 Z-7.471
Y62.396 Z-7.493
Y62.35 Z-7.5
Y62.2 F800
X-28.293 Y62.154
X-28.271 Y62.112
X-28.238 Y62.079
X-28.196 Y62.057
X-28.15 Y62.05
X-19.075
Z-7.095
X-15.575
Z-7.5 F80
X-6.5 F800
G2 X-4.25 Y59.8 I0. J-2.25
G1 Y48.225
Z-7.095
Y44.725
Z-7.5 F80
Y21.575 F800
Z-7.095
Y18.075
Z-7.5 F80
Y6.5 F800
G2 X-6.5 Y4.25 I-2.25 J0.
G1 X-15.575
Z-7.095
X-19.075
Z-7.5 F80
X-37.225 F800
Z-7.095
X-40.725
Z-7.5 F80
X-49.8 F800
G2 X-52.05 Y6.5 I0. J2.25
G1 Y18.075
Z-7.095
Y21.575
Z-7.5 F80
Y44.725 F800
Z-7.095
Y48.225
Z-7.5 F80
Y59.8 F800
G2 X-49.8 Y62.05 I2.25 J0.
G1 X-40.725
Z-7.095
X-37.225
Z-7.5 F80
X-28.15 F800
X-28.104 Y62.057
X-28.062 Y62.079
X-28.029 Y62.112
X-28.007 Y62.154
X-28. Y62.2
Y62.35
Y62.396 Z-7.493
Y62.438 Z-7.471
Y62.471 Z-7.438
Y62.493 Z-7.396
Y62.5 Z-7.35
G0 Z15.
M5
G53 Z0.
M30
