(1001)
(T1  D=1.5 CR=0. - ZMIN=-5.5 - flat end mill)
G90
G0 G53 Z0.

(2D Pocket5)
T1 M6 (flat end mill D=1.5 1.5 mm Fishtail Upcut Endmill - Acrylic Max Pass Depth 0.8 mm)
S18000 M3
G64
G54
G43 H1
G0 X-20.858 Y62.204
Z15.
Z5.
G1 Z1.8 F800
Z-0.65
Y62.197 Z-0.696
Y62.175 Z-0.738
Y62.142 Z-0.771
Y62.1 Z-0.793
Y62.054 Z-0.8
X-20.856 Y58.3
G2 X-25.925 Y53.231 I-5.069 J0.
G1 X-28.027 Y53.236
G3 X-32.6 Y48.687 I-0.012 J-4.561
X-31.413 Y45.605 I4.561 J-0.012
G2 X-28.4 Y37.82 I-8.555 J-7.786
G1 Y28.188
G3 X-28.15 Y27.938 I0.25 J0.
X-27.9 Y28.188 I0. J0.25
G1 Y38.165
G3 X-28.135 Y38.4 I-0.235 J0.
G1 X-28.165
G3 X-28.4 Y38.165 I0. J-0.235
G1 Y37.82
G2 X-28.659 Y37.431 I-0.421 J0.
G3 X-28.918 Y37.042 I0.162 J-0.389
G1 Y27.701
G3 X-28.599 Y27.382 I0.319 J0.
G1 X-27.701
G3 X-27.382 Y27.701 I0. J0.319
G1 Y38.599
G3 X-27.701 Y38.918 I-0.319 J0.
G1 X-28.599
G3 X-28.918 Y38.599 I0. J-0.319
G1 Y37.042
G2 X-29.493 Y36.181 I-0.933 J0.
G3 X-30.067 Y35.32 I0.359 J-0.861
G1 Y26.553
G3 X-29.747 Y26.233 I0.319 J0.
G1 X-26.553
G3 X-26.233 Y26.553 I0. J0.319
G1 Y39.747
G3 X-26.553 Y40.067 I-0.319 J0.
G1 X-29.747
G3 X-30.067 Y39.747 I0. J-0.319
G1 Y35.32
G2 X-30.641 Y34.459 I-0.933 J0.
G3 X-31.215 Y33.598 I0.359 J-0.861
G1 Y25.404
G3 X-30.896 Y25.085 I0.319 J0.
G1 X-25.404
G3 X-25.085 Y25.404 I0. J0.319
G1 Y40.918
G3 X-25.178 Y41.137 I-0.305 J0.
X-25.4 Y41.223 I-0.213 J-0.219
G2 X-28.148 Y41.198 I-1.957 J63.611
G3 X-30.896 Y41.215 I-2.748 J-220.972
X-31.215 Y40.896 I0. J-0.319
G1 Y33.598
G2 X-31.781 Y32.748 I-0.92 J0.
G3 X-32.348 Y31.898 I0.354 J-0.85
G1 Y24.272
G3 X-32.028 Y23.952 I0.319 J0.
G1 X-24.272
G3 X-23.952 Y24.272 I0. J0.319
G1 Y42.156
G3 X-24.045 Y42.364 I-0.28 J0.
X-24.262 Y42.435 I-0.187 J-0.208
G2 X-28.144 Y42.29 I-3.019 J28.79
G3 X-32.028 Y42.348 I-3.885 J-130.141
X-32.348 Y42.028 I0. J-0.319
G1 Y31.898
G2 X-32.904 Y31.064 I-0.904 J0.
G3 X-33.46 Y30.23 I0.348 J-0.834
G1 Y23.159
G3 X-33.141 Y22.84 I0.319 J0.
G1 X-23.159
G3 X-22.84 Y23.159 I0. J0.319
G1 Y43.473
G3 X-23.095 Y43.728 I-0.255 J0.
X-23.143 Y43.723 I0. J-0.255
G2 X-24.527 Y43.504 I-4.218 J22.1
X-25.925 Y43.415 I-1.398 J11.012
G1 X-33.141 Y43.46
G3 X-33.46 Y43.141 I0. J-0.319
G1 Y30.23
G2 X-34.004 Y29.414 I-0.884 J0.
G3 X-34.548 Y28.598 I0.34 J-0.816
G1 Y22.072
G3 X-34.228 Y21.752 I0.319 J0.
G1 X-22.072
G3 X-21.752 Y22.072 I0. J0.319
G1 Y44.884
G3 X-21.983 Y45.115 I-0.23 J0.
X-22.048 Y45.106 I0. J-0.23
G2 X-23.965 Y44.665 I-4.616 J15.709
X-25.925 Y44.503 I-1.96 J11.728
G1 X-34.228 Y44.548
G3 X-34.548 Y44.228 I0. J-0.319
G1 Y28.598
G2 X-35.077 Y27.804 I-0.86 J0.
G3 X-35.607 Y27.01 I0.331 J-0.794
G1 Y21.013
G3 X-35.287 Y20.693 I0.319 J0.
G1 X-21.013
G3 X-20.693 Y21.013 I0. J0.319
G1 Y46.42
G3 X-20.899 Y46.626 I-0.206 J0.
X-20.98 Y46.61 I0. J-0.206
G2 X-23.4 Y45.837 I-5.426 J12.827
X-25.925 Y45.562 I-2.525 J11.424
G1 X-35.287 Y45.607
G3 X-35.607 Y45.287 I0. J-0.319
G1 Y27.01
G2 X-36.147 Y26.199 I-0.878 J0.
G3 X-36.687 Y25.389 I0.338 J-0.811
G1 Y19.932
G3 X-36.368 Y19.613 I0.319 J0.
G1 X-19.932
G3 X-19.613 Y19.932 I0. J0.319
G1 Y47.23
G3 X-19.952 Y47.761 I-0.585 J0.
G1 X-20.169 Y47.864
G3 X-20.831 I-0.331 J-0.678
G2 X-23.308 Y46.963 I-5.509 J11.285
X-25.925 Y46.642 I-2.617 J10.52
G1 X-36.368 Y46.687
G3 X-36.687 Y46.368 I0. J-0.319
G1 Y25.389
G2 X-37.262 Y24.528 I-0.933 J0.
G3 X-37.836 Y23.666 I0.359 J-0.861
G1 Y18.784
G3 X-37.516 Y18.464 I0.319 J0.
G1 X-18.784
G3 X-18.464 Y18.784 I0. J0.319
G1 Y48.034
G3 X-18.8 Y48.521 I-0.521 J0.
G2 X-20.158 Y49.153 I3.725 J9.779
G3 X-20.842 I-0.342 J-0.616
G2 X-23.297 Y48.148 I-5.448 J9.804
X-25.925 Y47.791 I-2.628 J9.491
G1 X-37.516 Y47.836
G3 X-37.836 Y47.516 I0. J-0.319
G1 Y23.666
G2 X-38.41 Y22.805 I-0.933 J0.
G3 X-38.984 Y21.944 I0.359 J-0.861
G1 Y17.635
G3 X-38.665 Y17.316 I0.319 J0.
G1 X-17.635
G3 X-17.316 Y17.635 I0. J0.319
G1 Y48.907
G3 X-17.647 Y49.346 I-0.457 J0.
G2 X-20.202 Y50.522 I2.572 J8.954
G3 X-20.798 I-0.298 J-0.452
G2 X-23.245 Y49.354 I-5.437 J8.249
X-25.925 Y48.939 I-2.68 J8.439
G1 X-38.665 Y48.984
G3 X-38.984 Y48.665 I0. J-0.319
G1 Y21.944
G2 X-39.558 Y21.083 I-0.933 J0.
G3 X-40.132 Y20.221 I0.359 J-0.861
G1 Y16.487
G3 X-39.813 Y16.168 I0.319 J0.
G1 X-16.487
G3 X-16.168 Y16.487 I0. J0.319
G1 Y49.87
G3 X-16.492 Y50.256 I-0.393 J0.
G2 X-20.248 Y51.979 I1.417 J8.044
G3 X-20.752 I-0.252 J-0.308
G2 X-23.175 Y50.585 I-5.429 J6.633
X-25.925 Y50.087 I-2.75 J7.344
G1 X-39.813 Y50.132
G3 X-40.132 Y49.813 I0. J-0.319
G1 Y20.221
G2 X-40.706 Y19.36 I-0.933 J0.
G3 X-41.281 Y18.499 I0.359 J-0.861
G1 Y15.339
G3 X-40.961 Y15.019 I0.319 J0.
G1 X-15.339
G3 X-15.019 Y15.339 I0. J0.319
G1 Y50.958
G3 X-15.335 Y51.285 I-0.328 J0.
G2 X-20.297 Y53.61 I0.26 J7.015
G3 X-20.5 Y53.7 I-0.203 J-0.182
X-20.703 Y53.61 I0. J-0.272
G2 X-23.061 Y51.867 I-5.422 J4.869
X-25.925 Y51.236 I-2.864 J6.182
G1 X-40.961 Y51.281
G3 X-41.281 Y50.961 I0. J-0.319
G1 Y18.499
G2 X-41.821 Y17.688 I-0.878 J0.
G3 X-42.362 Y16.877 I0.338 J-0.811
G1 Y14.251
G3 X-42.049 Y13.938 I0.313 J0.
G1 X-14.251
G3 X-13.938 Y14.251 I0. J0.313
G1 Y52.049
G3 X-14.251 Y52.362 I-0.313 J0.
X-14.663 Y52.349 I0. J-6.596
G2 X-15.075 Y52.336 I-0.412 J6.583
X-18.171 Y53.217 I0. J5.877
X-20.355 Y55.582 I3.175 J5.123
G3 X-20.575 Y55.652 I-0.145 J-0.075
X-20.645 Y55.582 I0.075 J-0.145
G2 X-22.827 Y53.208 I-5.417 J2.788
X-25.925 Y52.318 I-3.098 J4.944
G1 X-42.049 Y52.362
G3 X-42.362 Y52.049 I0. J-0.313
G1 Y16.877
X-42.361 Y16.863 Z-0.799
X-42.359 Y16.848 Z-0.797
X-42.355 Y16.834 Z-0.794
X-42.351 Y16.821 Z-0.789
X-42.345 Y16.809 Z-0.782
X-42.339 Y16.798 Z-0.775
X-42.333 Y16.788 Z-0.766
X-42.326 Y16.78 Z-0.756
X-42.319 Y16.773 Z-0.745
X-42.313 Y16.767 Z-0.733
X-42.307 Y16.762 Z-0.721
X-42.302 Y16.758 Z-0.707
X-42.298 Y16.755 Z-0.694
X-42.295 Y16.753 Z-0.679
X-42.293 Y16.752 Z-0.665
Y16.751 Z-0.65
G0 Z5.
X-20.86 Y63.847
G1 Z-0.65 F800
Y63.84 Z-0.696
Y63.819 Z-0.738
Y63.786 Z-0.771
X-20.859 Y63.744 Z-0.793
Y63.697 Z-0.8
X-20.858 Y62.048
X-20.856 Y58.3
G2 X-25.925 Y53.231 I-5.069 J0.
G1 X-42.957 Y53.276
G3 X-43.276 Y52.957 I0. J-0.319
G1 Y13.343
G3 X-42.957 Y13.024 I0.319 J0.
G1 X-13.343
G3 X-13.024 Y13.343 I0. J0.319
G1 Y52.957
G3 X-13.343 Y53.276 I-0.319 J0.
X-14.209 Y53.253 I0. J-16.668
G2 X-15.075 Y53.231 I-0.866 J16.646
X-20.144 Y58.3 I0. J5.069
G1 X-20.142 Y62.048
X-20.147 Y62.077
X-20.164 Y62.101
X-20.188 Y62.117
X-20.217 Y62.123
X-21.607
X-21.636 Y62.117
X-21.661 Y62.101
X-21.677 Y62.077
X-21.682 Y62.048
X-21.68 Y58.3
G2 X-25.925 Y54.055 I-4.245 J0.
G1 X-43.781 Y54.1
G3 X-44.1 Y53.781 I0. J-0.319
G1 Y12.519
G3 X-43.781 Y12.2 I0.319 J0.
G1 X-12.519
G3 X-12.2 Y12.519 I0. J0.319
G1 Y53.781
G3 X-12.519 Y54.1 I-0.319 J0.
X-13.797 Y54.078 I0. J-36.297
G2 X-15.075 Y54.055 I-1.278 J36.275
X-19.32 Y58.3 I0. J4.245
G1 X-19.318 Y62.048
X-19.323 Y62.077
X-19.339 Y62.101
X-19.364 Y62.117
X-19.393 Y62.123
X-22.756
X-22.784 Y62.117
X-22.809 Y62.101
X-22.825 Y62.077
X-22.831 Y62.048
X-22.828 Y58.3
G2 X-25.925 Y55.203 I-3.097 J0.
G1 X-44.929 Y55.248
G3 X-45.248 Y54.929 I0. J-0.319
G1 Y11.371
G3 X-44.929 Y11.052 I0.319 J0.
G1 X-11.371
G3 X-11.052 Y11.371 I0. J0.319
G1 Y54.929
G3 X-11.371 Y55.248 I-0.319 J0.
G1 X-15.075 Y55.203
G2 X-18.172 Y58.3 I0. J3.097
G1 X-18.169 Y62.048
X-18.175 Y62.077
X-18.191 Y62.101
X-18.216 Y62.117
X-18.244 Y62.123
X-23.904
X-23.933 Y62.117
X-23.957 Y62.101
X-23.973 Y62.077
X-23.979 Y62.048
X-23.977 Y58.3
G2 X-25.925 Y56.352 I-1.948 J0.
G1 X-46.077 Y56.397
G3 X-46.397 Y56.077 I0. J-0.319
G1 Y10.223
G3 X-46.077 Y9.903 I0.319 J0.
G1 X-10.223
G3 X-9.903 Y10.223 I0. J0.319
G1 Y56.077
G3 X-10.223 Y56.397 I-0.319 J0.
G1 X-15.075 Y56.352
G2 X-17.023 Y58.3 I0. J1.948
G1 X-17.021 Y62.048
X-17.027 Y62.077
X-17.043 Y62.101
X-17.067 Y62.117
X-17.096 Y62.123
X-25.1
X-25.129 Y62.117
X-25.153 Y62.101
X-25.169 Y62.077
X-25.175 Y62.048
Y58.3
G2 X-25.925 Y57.55 I-0.75 J0.
G1 X-47.55
Y8.75
X-8.75
Y57.55
X-15.075
G2 X-15.825 Y58.3 I0. J0.75
G1 Y61.3
Y62.048
G3 X-16.538 Y62.76 Z-0.823 I-0.713 J0.
X-17.21 Y62.282 Z-0.841 I0. J-0.712
G1 X-28.823 Y28.885 Z-1.572
G3 X-28.384 Y27.978 Z-1.595 I0.673 J-0.234
X-28.15 Y27.938 Z-1.6 I0.234 J0.673
X-27.9 Y28.188 I0. J0.25
G1 Y38.165
G3 X-28.135 Y38.4 I-0.235 J0.
G1 X-28.165
G3 X-28.4 Y38.165 I0. J-0.235
G1 Y28.188
G3 X-28.15 Y27.938 I0.25 J0.
G2 X-27.831 Y27.646 I0. J-0.321
G3 X-27.59 Y27.445 I0.221 J0.02
X-27.402 Y27.588 I-0.02 J0.221
G1 X-27.387 Y27.643
X-27.382 Y27.701
Y38.599
G3 X-27.701 Y38.918 I-0.319 J0.
G1 X-28.599
G3 X-28.918 Y38.599 I0. J-0.319
G1 Y27.701
G3 X-28.599 Y27.382 I0.319 J0.
G1 X-27.701
G3 X-27.402 Y27.588 I0. J0.319
G2 X-26.753 Y28.251 I1.082 J-0.41
G3 X-26.233 Y29.02 I-0.31 J0.769
G1 Y39.747
G3 X-26.553 Y40.067 I-0.319 J0.
G1 X-29.747
G3 X-30.067 Y39.747 I0. J-0.319
G1 Y26.553
G3 X-29.747 Y26.233 I0.319 J0.
G1 X-26.553
G3 X-26.233 Y26.553 I0. J0.319
G1 Y29.02
G2 X-25.659 Y29.881 I0.933 J0.
G3 X-25.085 Y30.742 I-0.359 J0.861
G1 Y40.918
G3 X-25.178 Y41.137 I-0.305 J0.
X-25.4 Y41.223 I-0.213 J-0.219
G2 X-28.148 Y41.198 I-1.957 J63.611
G3 X-30.896 Y41.215 I-2.748 J-220.972
X-31.215 Y40.896 I0. J-0.319
G1 Y25.404
G3 X-30.896 Y25.085 I0.319 J0.
G1 X-25.404
G3 X-25.085 Y25.404 I0. J0.319
G1 Y30.742
G2 X-24.519 Y31.592 I0.92 J0.
G3 X-23.952 Y32.441 I-0.354 J0.85
G1 Y42.156
G3 X-24.045 Y42.364 I-0.28 J0.
X-24.262 Y42.435 I-0.187 J-0.208
G2 X-28.144 Y42.29 I-3.019 J28.79
G3 X-32.028 Y42.348 I-3.885 J-130.141
X-32.348 Y42.028 I0. J-0.319
G1 Y24.272
G3 X-32.028 Y23.952 I0.319 J0.
G1 X-24.272
G3 X-23.952 Y24.272 I0. J0.319
G1 Y32.441
G2 X-23.396 Y33.275 I0.904 J0.
G3 X-22.84 Y34.11 I-0.348 J0.834
G1 Y43.473
G3 X-23.095 Y43.728 I-0.255 J0.
X-23.143 Y43.723 I0. J-0.255
G2 X-24.527 Y43.504 I-4.218 J22.1
X-25.925 Y43.415 I-1.398 J11.012
G1 X-33.141 Y43.46
G3 X-33.46 Y43.141 I0. J-0.319
G1 Y23.159
G3 X-33.141 Y22.84 I0.319 J0.
G1 X-23.159
G3 X-22.84 Y23.159 I0. J0.319
G1 Y34.11
G2 X-22.296 Y34.925 I0.884 J0.
G3 X-21.752 Y35.741 I-0.34 J0.816
G1 Y44.884
G3 X-21.983 Y45.115 I-0.23 J0.
X-22.048 Y45.106 I0. J-0.23
G2 X-23.965 Y44.665 I-4.616 J15.709
X-25.925 Y44.503 I-1.96 J11.728
G1 X-34.228 Y44.548
G3 X-34.548 Y44.228 I0. J-0.319
G1 Y22.072
G3 X-34.228 Y21.752 I0.319 J0.
G1 X-22.072
G3 X-21.752 Y22.072 I0. J0.319
G1 Y35.741
G2 X-21.223 Y36.535 I0.86 J0.
G3 X-20.693 Y37.329 I-0.331 J0.794
G1 Y46.42
G3 X-20.899 Y46.626 I-0.206 J0.
X-20.98 Y46.61 I0. J-0.206
G2 X-23.4 Y45.837 I-5.426 J12.827
X-25.925 Y45.562 I-2.525 J11.424
G1 X-35.287 Y45.607
G3 X-35.607 Y45.287 I0. J-0.319
G1 Y21.013
G3 X-35.287 Y20.693 I0.319 J0.
G1 X-21.013
G3 X-20.693 Y21.013 I0. J0.319
G1 Y37.329
G2 X-20.153 Y38.14 I0.878 J0.
G3 X-19.613 Y38.951 I-0.338 J0.811
G1 Y47.23
G3 X-19.952 Y47.761 I-0.585 J0.
G1 X-20.169 Y47.864
G3 X-20.831 I-0.331 J-0.678
G2 X-23.308 Y46.963 I-5.509 J11.285
X-25.925 Y46.642 I-2.617 J10.52
G1 X-36.368 Y46.687
G3 X-36.687 Y46.368 I0. J-0.319
G1 Y19.932
G3 X-36.368 Y19.613 I0.319 J0.
G1 X-19.932
G3 X-19.613 Y19.932 I0. J0.319
G1 Y38.951
G2 X-19.038 Y39.812 I0.933 J0.
G3 X-18.464 Y40.673 I-0.359 J0.861
G1 Y48.034
G3 X-18.8 Y48.521 I-0.521 J0.
G2 X-20.158 Y49.153 I3.725 J9.779
G3 X-20.842 I-0.342 J-0.616
G2 X-23.297 Y48.148 I-5.448 J9.804
X-25.925 Y47.791 I-2.628 J9.491
G1 X-37.516 Y47.836
G3 X-37.836 Y47.516 I0. J-0.319
G1 Y18.784
G3 X-37.516 Y18.464 I0.319 J0.
G1 X-18.784
G3 X-18.464 Y18.784 I0. J0.319
G1 Y40.673
G2 X-17.89 Y41.534 I0.933 J0.
G3 X-17.316 Y42.396 I-0.359 J0.861
G1 Y48.907
G3 X-17.647 Y49.346 I-0.457 J0.
G2 X-20.202 Y50.522 I2.572 J8.954
G3 X-20.798 I-0.298 J-0.452
G2 X-23.245 Y49.354 I-5.437 J8.249
X-25.925 Y48.939 I-2.68 J8.439
G1 X-38.665 Y48.984
G3 X-38.984 Y48.665 I0. J-0.319
G1 Y17.635
G3 X-38.665 Y17.316 I0.319 J0.
G1 X-17.635
G3 X-17.316 Y17.635 I0. J0.319
G1 Y42.396
G2 X-16.742 Y43.257 I0.933 J0.
G3 X-16.168 Y44.118 I-0.359 J0.861
G1 Y49.87
G3 X-16.492 Y50.256 I-0.393 J0.
G2 X-20.248 Y51.979 I1.417 J8.044
G3 X-20.752 I-0.252 J-0.308
G2 X-23.175 Y50.585 I-5.429 J6.633
X-25.925 Y50.087 I-2.75 J7.344
G1 X-39.813 Y50.132
G3 X-40.132 Y49.813 I0. J-0.319
G1 Y16.487
G3 X-39.813 Y16.168 I0.319 J0.
G1 X-16.487
G3 X-16.168 Y16.487 I0. J0.319
G1 Y44.118
G2 X-15.594 Y44.979 I0.933 J0.
G3 X-15.019 Y45.841 I-0.359 J0.861
G1 Y50.958
G3 X-15.335 Y51.285 I-0.328 J0.
G2 X-20.297 Y53.61 I0.26 J7.015
G3 X-20.5 Y53.7 I-0.203 J-0.182
X-20.703 Y53.61 I0. J-0.272
G2 X-23.061 Y51.867 I-5.422 J4.869
X-25.925 Y51.236 I-2.864 J6.182
G1 X-40.961 Y51.281
G3 X-41.281 Y50.961 I0. J-0.319
G1 Y15.339
G3 X-40.961 Y15.019 I0.319 J0.
G1 X-15.339
G3 X-15.019 Y15.339 I0. J0.319
G1 Y45.841
G2 X-14.479 Y46.651 I0.878 J0.
G3 X-13.938 Y47.462 I-0.338 J0.811
G1 Y52.049
G3 X-14.251 Y52.362 I-0.313 J0.
X-14.663 Y52.349 I0. J-6.596
G2 X-15.075 Y52.336 I-0.412 J6.583
X-18.171 Y53.217 I0. J5.877
X-20.355 Y55.582 I3.175 J5.123
G3 X-20.575 Y55.652 I-0.145 J-0.075
X-20.645 Y55.582 I0.075 J-0.145
G2 X-22.827 Y53.208 I-5.417 J2.788
X-25.925 Y52.318 I-3.098 J4.944
G1 X-42.049 Y52.362
G3 X-42.362 Y52.049 I0. J-0.313
G1 Y14.251
G3 X-42.049 Y13.938 I0.313 J0.
G1 X-14.251
G3 X-13.938 Y14.251 I0. J0.313
G1 Y47.462
X-13.944 Y47.492
X-13.962 Y47.517
X-20.082 Y53.305
X-20.099 Y53.328
X-20.106 Y53.356
X-20.484 Y61.69
X-20.487 Y61.709
X-20.495 Y61.726
X-20.72 Y62.088
X-20.742 Y62.111
X-20.772 Y62.122
X-20.804 Y62.12
X-20.832 Y62.105
X-20.852 Y62.079
X-20.858 Y62.048
X-20.856 Y58.3
G2 X-25.925 Y53.231 I-5.069 J0.
G1 X-42.957 Y53.276
G3 X-43.276 Y52.957 I0. J-0.319
G1 Y13.343
G3 X-42.957 Y13.024 I0.319 J0.
G1 X-13.343
G3 X-13.024 Y13.343 I0. J0.319
G1 Y52.957
G3 X-13.343 Y53.276 I-0.319 J0.
X-14.209 Y53.253 I0. J-16.668
G2 X-15.075 Y53.231 I-0.866 J16.646
X-20.144 Y58.3 I0. J5.069
G1 X-20.142 Y62.048
X-20.147 Y62.077
X-20.164 Y62.101
X-20.188 Y62.117
X-20.217 Y62.123
X-21.607
X-21.636 Y62.117
X-21.661 Y62.101
X-21.677 Y62.077
X-21.682 Y62.048
X-21.68 Y58.3
G2 X-25.925 Y54.055 I-4.245 J0.
G1 X-43.781 Y54.1
G3 X-44.1 Y53.781 I0. J-0.319
G1 Y12.519
G3 X-43.781 Y12.2 I0.319 J0.
G1 X-12.519
G3 X-12.2 Y12.519 I0. J0.319
G1 Y53.781
G3 X-12.519 Y54.1 I-0.319 J0.
X-13.797 Y54.078 I0. J-36.297
G2 X-15.075 Y54.055 I-1.278 J36.275
X-19.32 Y58.3 I0. J4.245
G1 X-19.318 Y62.048
X-19.323 Y62.077
X-19.339 Y62.101
X-19.364 Y62.117
X-19.393 Y62.123
X-22.756
X-22.784 Y62.117
X-22.809 Y62.101
X-22.825 Y62.077
X-22.831 Y62.048
X-22.828 Y58.3
G2 X-25.925 Y55.203 I-3.097 J0.
G1 X-44.929 Y55.248
G3 X-45.248 Y54.929 I0. J-0.319
G1 Y11.371
G3 X-44.929 Y11.052 I0.319 J0.
G1 X-11.371
G3 X-11.052 Y11.371 I0. J0.319
G1 Y54.929
G3 X-11.371 Y55.248 I-0.319 J0.
G1 X-15.075 Y55.203
G2 X-18.172 Y58.3 I0. J3.097
G1 X-18.169 Y62.048
X-18.175 Y62.077
X-18.191 Y62.101
X-18.216 Y62.117
X-18.244 Y62.123
X-23.904
X-23.933 Y62.117
X-23.957 Y62.101
X-23.973 Y62.077
X-23.979 Y62.048
X-23.977 Y58.3
G2 X-25.925 Y56.352 I-1.948 J0.
G1 X-46.077 Y56.397
G3 X-46.397 Y56.077 I0. J-0.319
G1 Y10.223
G3 X-46.077 Y9.903 I0.319 J0.
G1 X-10.223
G3 X-9.903 Y10.223 I0. J0.319
G1 Y56.077
G3 X-10.223 Y56.397 I-0.319 J0.
G1 X-15.075 Y56.352
G2 X-17.023 Y58.3 I0. J1.948
G1 X-17.021 Y62.048
X-17.027 Y62.077
X-17.043 Y62.101
X-17.067 Y62.117
X-17.096 Y62.123
X-25.1
X-25.129 Y62.117
X-25.153 Y62.101
X-25.169 Y62.077
X-25.175 Y62.048
Y58.3
G2 X-25.925 Y57.55 I-0.75 J0.
G1 X-47.55
Y8.75
X-8.75
Y57.55
X-15.075
G2 X-15.825 Y58.3 I0. J0.75
G1 Y61.3
Y62.048
G3 X-16.538 Y62.76 Z-1.623 I-0.713 J0.
X-17.21 Y62.282 Z-1.641 I0. J-0.712
G1 X-28.823 Y28.885 Z-2.372
G3 X-28.384 Y27.978 Z-2.395 I0.673 J-0.234
X-28.15 Y27.938 Z-2.4 I0.234 J0.673
X-27.9 Y28.188 I0. J0.25
G1 Y38.165
G3 X-28.135 Y38.4 I-0.235 J0.
G1 X-28.165
G3 X-28.4 Y38.165 I0. J-0.235
G1 Y28.188
G3 X-28.15 Y27.938 I0.25 J0.
G2 X-27.831 Y27.646 I0. J-0.321
G3 X-27.59 Y27.445 I0.221 J0.02
X-27.402 Y27.588 I-0.02 J0.221
G1 X-27.387 Y27.643
X-27.382 Y27.701
Y38.599
G3 X-27.701 Y38.918 I-0.319 J0.
G1 X-28.599
G3 X-28.918 Y38.599 I0. J-0.319
G1 Y27.701
G3 X-28.599 Y27.382 I0.319 J0.
G1 X-27.701
G3 X-27.402 Y27.588 I0. J0.319
G2 X-26.753 Y28.251 I1.082 J-0.41
G3 X-26.233 Y29.02 I-0.31 J0.769
G1 Y39.747
G3 X-26.553 Y40.067 I-0.319 J0.
G1 X-29.747
G3 X-30.067 Y39.747 I0. J-0.319
G1 Y26.553
G3 X-29.747 Y26.233 I0.319 J0.
G1 X-26.553
G3 X-26.233 Y26.553 I0. J0.319
G1 Y29.02
G2 X-25.659 Y29.881 I0.933 J0.
G3 X-25.085 Y30.742 I-0.359 J0.861
G1 Y40.918
G3 X-25.178 Y41.137 I-0.305 J0.
X-25.4 Y41.223 I-0.213 J-0.219
G2 X-28.148 Y41.198 I-1.957 J63.611
G3 X-30.896 Y41.215 I-2.748 J-220.972
X-31.215 Y40.896 I0. J-0.319
G1 Y25.404
G3 X-30.896 Y25.085 I0.319 J0.
G1 X-25.404
G3 X-25.085 Y25.404 I0. J0.319
G1 Y30.742
G2 X-24.519 Y31.592 I0.92 J0.
G3 X-23.952 Y32.441 I-0.354 J0.85
G1 Y42.156
G3 X-24.045 Y42.364 I-0.28 J0.
X-24.262 Y42.435 I-0.187 J-0.208
G2 X-28.144 Y42.29 I-3.019 J28.79
G3 X-32.028 Y42.348 I-3.885 J-130.141
X-32.348 Y42.028 I0. J-0.319
G1 Y24.272
G3 X-32.028 Y23.952 I0.319 J0.
G1 X-24.272
G3 X-23.952 Y24.272 I0. J0.319
G1 Y32.441
G2 X-23.396 Y33.275 I0.904 J0.
G3 X-22.84 Y34.11 I-0.348 J0.834
G1 Y43.473
G3 X-23.095 Y43.728 I-0.255 J0.
X-23.143 Y43.723 I0. J-0.255
G2 X-24.527 Y43.504 I-4.218 J22.1
X-25.925 Y43.415 I-1.398 J11.012
G1 X-33.141 Y43.46
G3 X-33.46 Y43.141 I0. J-0.319
G1 Y23.159
G3 X-33.141 Y22.84 I0.319 J0.
G1 X-23.159
G3 X-22.84 Y23.159 I0. J0.319
G1 Y34.11
G2 X-22.296 Y34.925 I0.884 J0.
G3 X-21.752 Y35.741 I-0.34 J0.816
G1 Y44.884
G3 X-21.983 Y45.115 I-0.23 J0.
X-22.048 Y45.106 I0. J-0.23
G2 X-23.965 Y44.665 I-4.616 J15.709
X-25.925 Y44.503 I-1.96 J11.728
G1 X-34.228 Y44.548
G3 X-34.548 Y44.228 I0. J-0.319
G1 Y22.072
G3 X-34.228 Y21.752 I0.319 J0.
G1 X-22.072
G3 X-21.752 Y22.072 I0. J0.319
G1 Y35.741
G2 X-21.223 Y36.535 I0.86 J0.
G3 X-20.693 Y37.329 I-0.331 J0.794
G1 Y46.42
G3 X-20.899 Y46.626 I-0.206 J0.
X-20.98 Y46.61 I0. J-0.206
G2 X-23.4 Y45.837 I-5.426 J12.827
X-25.925 Y45.562 I-2.525 J11.424
G1 X-35.287 Y45.607
G3 X-35.607 Y45.287 I0. J-0.319
G1 Y21.013
G3 X-35.287 Y20.693 I0.319 J0.
G1 X-21.013
G3 X-20.693 Y21.013 I0. J0.319
G1 Y37.329
G2 X-20.153 Y38.14 I0.878 J0.
G3 X-19.613 Y38.951 I-0.338 J0.811
G1 Y47.23
G3 X-19.952 Y47.761 I-0.585 J0.
G1 X-20.169 Y47.864
G3 X-20.831 I-0.331 J-0.678
G2 X-23.308 Y46.963 I-5.509 J11.285
X-25.925 Y46.642 I-2.617 J10.52
G1 X-36.368 Y46.687
G3 X-36.687 Y46.368 I0. J-0.319
G1 Y19.932
G3 X-36.368 Y19.613 I0.319 J0.
G1 X-19.932
G3 X-19.613 Y19.932 I0. J0.319
G1 Y38.951
G2 X-19.038 Y39.812 I0.933 J0.
G3 X-18.464 Y40.673 I-0.359 J0.861
G1 Y48.034
G3 X-18.8 Y48.521 I-0.521 J0.
G2 X-20.158 Y49.153 I3.725 J9.779
G3 X-20.842 I-0.342 J-0.616
G2 X-23.297 Y48.148 I-5.448 J9.804
X-25.925 Y47.791 I-2.628 J9.491
G1 X-37.516 Y47.836
G3 X-37.836 Y47.516 I0. J-0.319
G1 Y18.784
G3 X-37.516 Y18.464 I0.319 J0.
G1 X-18.784
G3 X-18.464 Y18.784 I0. J0.319
G1 Y40.673
G2 X-17.89 Y41.534 I0.933 J0.
G3 X-17.316 Y42.396 I-0.359 J0.861
G1 Y48.907
G3 X-17.647 Y49.346 I-0.457 J0.
G2 X-20.202 Y50.522 I2.572 J8.954
G3 X-20.798 I-0.298 J-0.452
G2 X-23.245 Y49.354 I-5.437 J8.249
X-25.925 Y48.939 I-2.68 J8.439
G1 X-38.665 Y48.984
G3 X-38.984 Y48.665 I0. J-0.319
G1 Y17.635
G3 X-38.665 Y17.316 I0.319 J0.
G1 X-17.635
G3 X-17.316 Y17.635 I0. J0.319
G1 Y42.396
G2 X-16.742 Y43.257 I0.933 J0.
G3 X-16.168 Y44.118 I-0.359 J0.861
G1 Y49.87
G3 X-16.492 Y50.256 I-0.393 J0.
G2 X-20.248 Y51.979 I1.417 J8.044
G3 X-20.752 I-0.252 J-0.308
G2 X-23.175 Y50.585 I-5.429 J6.633
X-25.925 Y50.087 I-2.75 J7.344
G1 X-39.813 Y50.132
G3 X-40.132 Y49.813 I0. J-0.319
G1 Y16.487
G3 X-39.813 Y16.168 I0.319 J0.
G1 X-16.487
G3 X-16.168 Y16.487 I0. J0.319
G1 Y44.118
G2 X-15.594 Y44.979 I0.933 J0.
G3 X-15.019 Y45.841 I-0.359 J0.861
G1 Y50.958
G3 X-15.335 Y51.285 I-0.328 J0.
G2 X-20.297 Y53.61 I0.26 J7.015
G3 X-20.5 Y53.7 I-0.203 J-0.182
X-20.703 Y53.61 I0. J-0.272
G2 X-23.061 Y51.867 I-5.422 J4.869
X-25.925 Y51.236 I-2.864 J6.182
G1 X-40.961 Y51.281
G3 X-41.281 Y50.961 I0. J-0.319
G1 Y15.339
G3 X-40.961 Y15.019 I0.319 J0.
G1 X-15.339
G3 X-15.019 Y15.339 I0. J0.319
G1 Y45.841
G2 X-14.479 Y46.651 I0.878 J0.
G3 X-13.938 Y47.462 I-0.338 J0.811
G1 Y52.049
G3 X-14.251 Y52.362 I-0.313 J0.
X-14.663 Y52.349 I0. J-6.596
G2 X-15.075 Y52.336 I-0.412 J6.583
X-18.171 Y53.217 I0. J5.877
X-20.355 Y55.582 I3.175 J5.123
G3 X-20.575 Y55.652 I-0.145 J-0.075
X-20.645 Y55.582 I0.075 J-0.145
G2 X-22.827 Y53.208 I-5.417 J2.788
X-25.925 Y52.318 I-3.098 J4.944
G1 X-42.049 Y52.362
G3 X-42.362 Y52.049 I0. J-0.313
G1 Y14.251
G3 X-42.049 Y13.938 I0.313 J0.
G1 X-14.251
G3 X-13.938 Y14.251 I0. J0.313
G1 Y47.462
X-13.944 Y47.492
X-13.962 Y47.517
X-20.082 Y53.305
X-20.099 Y53.328
X-20.106 Y53.356
X-20.484 Y61.69
X-20.487 Y61.709
X-20.495 Y61.726
X-20.72 Y62.088
X-20.742 Y62.111
X-20.772 Y62.122
X-20.804 Y62.12
X-20.832 Y62.105
X-20.852 Y62.079
X-20.858 Y62.048
X-20.856 Y58.3
G2 X-25.925 Y53.231 I-5.069 J0.
G1 X-42.957 Y53.276
G3 X-43.276 Y52.957 I0. J-0.319
G1 Y13.343
G3 X-42.957 Y13.024 I0.319 J0.
G1 X-13.343
G3 X-13.024 Y13.343 I0. J0.319
G1 Y52.957
G3 X-13.343 Y53.276 I-0.319 J0.
X-14.209 Y53.253 I0. J-16.668
G2 X-15.075 Y53.231 I-0.866 J16.646
X-20.144 Y58.3 I0. J5.069
G1 X-20.142 Y62.048
X-20.147 Y62.077
X-20.164 Y62.101
X-20.188 Y62.117
X-20.217 Y62.123
X-21.607
X-21.636 Y62.117
X-21.661 Y62.101
X-21.677 Y62.077
X-21.682 Y62.048
X-21.68 Y58.3
G2 X-25.925 Y54.055 I-4.245 J0.
G1 X-43.781 Y54.1
G3 X-44.1 Y53.781 I0. J-0.319
G1 Y12.519
G3 X-43.781 Y12.2 I0.319 J0.
G1 X-12.519
G3 X-12.2 Y12.519 I0. J0.319
G1 Y53.781
G3 X-12.519 Y54.1 I-0.319 J0.
X-13.797 Y54.078 I0. J-36.297
G2 X-15.075 Y54.055 I-1.278 J36.275
X-19.32 Y58.3 I0. J4.245
G1 X-19.318 Y62.048
X-19.323 Y62.077
X-19.339 Y62.101
X-19.364 Y62.117
X-19.393 Y62.123
X-22.756
X-22.784 Y62.117
X-22.809 Y62.101
X-22.825 Y62.077
X-22.831 Y62.048
X-22.828 Y58.3
G2 X-25.925 Y55.203 I-3.097 J0.
G1 X-44.929 Y55.248
G3 X-45.248 Y54.929 I0. J-0.319
G1 Y11.371
G3 X-44.929 Y11.052 I0.319 J0.
G1 X-11.371
G3 X-11.052 Y11.371 I0. J0.319
G1 Y54.929
G3 X-11.371 Y55.248 I-0.319 J0.
G1 X-15.075 Y55.203
G2 X-18.172 Y58.3 I0. J3.097
G1 X-18.169 Y62.048
X-18.175 Y62.077
X-18.191 Y62.101
X-18.216 Y62.117
X-18.244 Y62.123
X-23.904
X-23.933 Y62.117
X-23.957 Y62.101
X-23.973 Y62.077
X-23.979 Y62.048
X-23.977 Y58.3
G2 X-25.925 Y56.352 I-1.948 J0.
G1 X-46.077 Y56.397
G3 X-46.397 Y56.077 I0. J-0.319
G1 Y10.223
G3 X-46.077 Y9.903 I0.319 J0.
G1 X-10.223
G3 X-9.903 Y10.223 I0. J0.319
G1 Y56.077
G3 X-10.223 Y56.397 I-0.319 J0.
G1 X-15.075 Y56.352
G2 X-17.023 Y58.3 I0. J1.948
G1 X-17.021 Y62.048
X-17.027 Y62.077
X-17.043 Y62.101
X-17.067 Y62.117
X-17.096 Y62.123
X-25.1
X-25.129 Y62.117
X-25.153 Y62.101
X-25.169 Y62.077
X-25.175 Y62.048
Y58.3
G2 X-25.925 Y57.55 I-0.75 J0.
G1 X-47.55
Y8.75
X-8.75
Y57.55
X-15.075
G2 X-15.825 Y58.3 I0. J0.75
G1 Y61.3
Y62.048
G3 X-16.538 Y62.76 Z-2.423 I-0.713 J0.
X-17.21 Y62.282 Z-2.441 I0. J-0.712
G1 X-28.823 Y28.885 Z-3.172
G3 X-28.384 Y27.978 Z-3.195 I0.673 J-0.234
X-28.15 Y27.938 Z-3.2 I0.234 J0.673
X-27.9 Y28.188 I0. J0.25
G1 Y38.165
G3 X-28.135 Y38.4 I-0.235 J0.
G1 X-28.165
G3 X-28.4 Y38.165 I0. J-0.235
G1 Y28.188
G3 X-28.15 Y27.938 I0.25 J0.
G2 X-27.831 Y27.646 I0. J-0.321
G3 X-27.59 Y27.445 I0.221 J0.02
X-27.402 Y27.588 I-0.02 J0.221
G1 X-27.387 Y27.643
X-27.382 Y27.701
Y38.599
G3 X-27.701 Y38.918 I-0.319 J0.
G1 X-28.599
G3 X-28.918 Y38.599 I0. J-0.319
G1 Y27.701
G3 X-28.599 Y27.382 I0.319 J0.
G1 X-27.701
G3 X-27.402 Y27.588 I0. J0.319
G2 X-26.753 Y28.251 I1.082 J-0.41
G3 X-26.233 Y29.02 I-0.31 J0.769
G1 Y39.747
G3 X-26.553 Y40.067 I-0.319 J0.
G1 X-29.747
G3 X-30.067 Y39.747 I0. J-0.319
G1 Y26.553
G3 X-29.747 Y26.233 I0.319 J0.
G1 X-26.553
G3 X-26.233 Y26.553 I0. J0.319
G1 Y29.02
G2 X-25.659 Y29.881 I0.933 J0.
G3 X-25.085 Y30.742 I-0.359 J0.861
G1 Y40.918
G3 X-25.178 Y41.137 I-0.305 J0.
X-25.4 Y41.223 I-0.213 J-0.219
G2 X-28.148 Y41.198 I-1.957 J63.611
G3 X-30.896 Y41.215 I-2.748 J-220.972
X-31.215 Y40.896 I0. J-0.319
G1 Y25.404
G3 X-30.896 Y25.085 I0.319 J0.
G1 X-25.404
G3 X-25.085 Y25.404 I0. J0.319
G1 Y30.742
G2 X-24.519 Y31.592 I0.92 J0.
G3 X-23.952 Y32.441 I-0.354 J0.85
G1 Y42.156
G3 X-24.045 Y42.364 I-0.28 J0.
X-24.262 Y42.435 I-0.187 J-0.208
G2 X-28.144 Y42.29 I-3.019 J28.79
G3 X-32.028 Y42.348 I-3.885 J-130.141
X-32.348 Y42.028 I0. J-0.319
G1 Y24.272
G3 X-32.028 Y23.952 I0.319 J0.
G1 X-24.272
G3 X-23.952 Y24.272 I0. J0.319
G1 Y32.441
G2 X-23.396 Y33.275 I0.904 J0.
G3 X-22.84 Y34.11 I-0.348 J0.834
G1 Y43.473
G3 X-23.095 Y43.728 I-0.255 J0.
X-23.143 Y43.723 I0. J-0.255
G2 X-24.527 Y43.504 I-4.218 J22.1
X-25.925 Y43.415 I-1.398 J11.012
G1 X-33.141 Y43.46
G3 X-33.46 Y43.141 I0. J-0.319
G1 Y23.159
G3 X-33.141 Y22.84 I0.319 J0.
G1 X-23.159
G3 X-22.84 Y23.159 I0. J0.319
G1 Y34.11
G2 X-22.296 Y34.925 I0.884 J0.
G3 X-21.752 Y35.741 I-0.34 J0.816
G1 Y44.884
G3 X-21.983 Y45.115 I-0.23 J0.
X-22.048 Y45.106 I0. J-0.23
G2 X-23.965 Y44.665 I-4.616 J15.709
X-25.925 Y44.503 I-1.96 J11.728
G1 X-34.228 Y44.548
G3 X-34.548 Y44.228 I0. J-0.319
G1 Y22.072
G3 X-34.228 Y21.752 I0.319 J0.
G1 X-22.072
G3 X-21.752 Y22.072 I0. J0.319
G1 Y35.741
G2 X-21.223 Y36.535 I0.86 J0.
G3 X-20.693 Y37.329 I-0.331 J0.794
G1 Y46.42
G3 X-20.899 Y46.626 I-0.206 J0.
X-20.98 Y46.61 I0. J-0.206
G2 X-23.4 Y45.837 I-5.426 J12.827
X-25.925 Y45.562 I-2.525 J11.424
G1 X-35.287 Y45.607
G3 X-35.607 Y45.287 I0. J-0.319
G1 Y21.013
G3 X-35.287 Y20.693 I0.319 J0.
G1 X-21.013
G3 X-20.693 Y21.013 I0. J0.319
G1 Y37.329
G2 X-20.153 Y38.14 I0.878 J0.
G3 X-19.613 Y38.951 I-0.338 J0.811
G1 Y47.23
G3 X-19.952 Y47.761 I-0.585 J0.
G1 X-20.169 Y47.864
G3 X-20.831 I-0.331 J-0.678
G2 X-23.308 Y46.963 I-5.509 J11.285
X-25.925 Y46.642 I-2.617 J10.52
G1 X-36.368 Y46.687
G3 X-36.687 Y46.368 I0. J-0.319
G1 Y19.932
G3 X-36.368 Y19.613 I0.319 J0.
G1 X-19.932
G3 X-19.613 Y19.932 I0. J0.319
G1 Y38.951
G2 X-19.038 Y39.812 I0.933 J0.
G3 X-18.464 Y40.673 I-0.359 J0.861
G1 Y48.034
G3 X-18.8 Y48.521 I-0.521 J0.
G2 X-20.158 Y49.153 I3.725 J9.779
G3 X-20.842 I-0.342 J-0.616
G2 X-23.297 Y48.148 I-5.448 J9.804
X-25.925 Y47.791 I-2.628 J9.491
G1 X-37.516 Y47.836
G3 X-37.836 Y47.516 I0. J-0.319
G1 Y18.784
G3 X-37.516 Y18.464 I0.319 J0.
G1 X-18.784
G3 X-18.464 Y18.784 I0. J0.319
G1 Y40.673
G2 X-17.89 Y41.534 I0.933 J0.
G3 X-17.316 Y42.396 I-0.359 J0.861
G1 Y48.907
G3 X-17.647 Y49.346 I-0.457 J0.
G2 X-20.202 Y50.522 I2.572 J8.954
G3 X-20.798 I-0.298 J-0.452
G2 X-23.245 Y49.354 I-5.437 J8.249
X-25.925 Y48.939 I-2.68 J8.439
G1 X-38.665 Y48.984
G3 X-38.984 Y48.665 I0. J-0.319
G1 Y17.635
G3 X-38.665 Y17.316 I0.319 J0.
G1 X-17.635
G3 X-17.316 Y17.635 I0. J0.319
G1 Y42.396
G2 X-16.742 Y43.257 I0.933 J0.
G3 X-16.168 Y44.118 I-0.359 J0.861
G1 Y49.87
G3 X-16.492 Y50.256 I-0.393 J0.
G2 X-20.248 Y51.979 I1.417 J8.044
G3 X-20.752 I-0.252 J-0.308
G2 X-23.175 Y50.585 I-5.429 J6.633
X-25.925 Y50.087 I-2.75 J7.344
G1 X-39.813 Y50.132
G3 X-40.132 Y49.813 I0. J-0.319
G1 Y16.487
G3 X-39.813 Y16.168 I0.319 J0.
G1 X-16.487
G3 X-16.168 Y16.487 I0. J0.319
G1 Y44.118
G2 X-15.594 Y44.979 I0.933 J0.
G3 X-15.019 Y45.841 I-0.359 J0.861
G1 Y50.958
G3 X-15.335 Y51.285 I-0.328 J0.
G2 X-20.297 Y53.61 I0.26 J7.015
G3 X-20.5 Y53.7 I-0.203 J-0.182
X-20.703 Y53.61 I0. J-0.272
G2 X-23.061 Y51.867 I-5.422 J4.869
X-25.925 Y51.236 I-2.864 J6.182
G1 X-40.961 Y51.281
G3 X-41.281 Y50.961 I0. J-0.319
G1 Y15.339
G3 X-40.961 Y15.019 I0.319 J0.
G1 X-15.339
G3 X-15.019 Y15.339 I0. J0.319
G1 Y45.841
G2 X-14.479 Y46.651 I0.878 J0.
G3 X-13.938 Y47.462 I-0.338 J0.811
G1 Y52.049
G3 X-14.251 Y52.362 I-0.313 J0.
X-14.663 Y52.349 I0. J-6.596
G2 X-15.075 Y52.336 I-0.412 J6.583
X-18.171 Y53.217 I0. J5.877
X-20.355 Y55.582 I3.175 J5.123
G3 X-20.575 Y55.652 I-0.145 J-0.075
X-20.645 Y55.582 I0.075 J-0.145
G2 X-22.827 Y53.208 I-5.417 J2.788
X-25.925 Y52.318 I-3.098 J4.944
G1 X-42.049 Y52.362
G3 X-42.362 Y52.049 I0. J-0.313
G1 Y14.251
G3 X-42.049 Y13.938 I0.313 J0.
G1 X-14.251
G3 X-13.938 Y14.251 I0. J0.313
G1 Y47.462
X-13.944 Y47.492
X-13.962 Y47.517
X-20.082 Y53.305
X-20.099 Y53.328
X-20.106 Y53.356
X-20.484 Y61.69
X-20.487 Y61.709
X-20.495 Y61.726
X-20.72 Y62.088
X-20.742 Y62.111
X-20.772 Y62.122
X-20.804 Y62.12
X-20.832 Y62.105
X-20.852 Y62.079
X-20.858 Y62.048
X-20.856 Y58.3
G2 X-25.925 Y53.231 I-5.069 J0.
G1 X-42.957 Y53.276
G3 X-43.276 Y52.957 I0. J-0.319
G1 Y13.343
G3 X-42.957 Y13.024 I0.319 J0.
G1 X-13.343
G3 X-13.024 Y13.343 I0. J0.319
G1 Y52.957
G3 X-13.343 Y53.276 I-0.319 J0.
X-14.209 Y53.253 I0. J-16.668
G2 X-15.075 Y53.231 I-0.866 J16.646
X-20.144 Y58.3 I0. J5.069
G1 X-20.142 Y62.048
X-20.147 Y62.077
X-20.164 Y62.101
X-20.188 Y62.117
X-20.217 Y62.123
X-21.607
X-21.636 Y62.117
X-21.661 Y62.101
X-21.677 Y62.077
X-21.682 Y62.048
X-21.68 Y58.3
G2 X-25.925 Y54.055 I-4.245 J0.
G1 X-43.781 Y54.1
G3 X-44.1 Y53.781 I0. J-0.319
G1 Y12.519
G3 X-43.781 Y12.2 I0.319 J0.
G1 X-12.519
G3 X-12.2 Y12.519 I0. J0.319
G1 Y53.781
G3 X-12.519 Y54.1 I-0.319 J0.
X-13.797 Y54.078 I0. J-36.297
G2 X-15.075 Y54.055 I-1.278 J36.275
X-19.32 Y58.3 I0. J4.245
G1 X-19.318 Y62.048
X-19.323 Y62.077
X-19.339 Y62.101
X-19.364 Y62.117
X-19.393 Y62.123
X-22.756
X-22.784 Y62.117
X-22.809 Y62.101
X-22.825 Y62.077
X-22.831 Y62.048
X-22.828 Y58.3
G2 X-25.925 Y55.203 I-3.097 J0.
G1 X-44.929 Y55.248
G3 X-45.248 Y54.929 I0. J-0.319
G1 Y11.371
G3 X-44.929 Y11.052 I0.319 J0.
G1 X-11.371
G3 X-11.052 Y11.371 I0. J0.319
G1 Y54.929
G3 X-11.371 Y55.248 I-0.319 J0.
G1 X-15.075 Y55.203
G2 X-18.172 Y58.3 I0. J3.097
G1 X-18.169 Y62.048
X-18.175 Y62.077
X-18.191 Y62.101
X-18.216 Y62.117
X-18.244 Y62.123
X-23.904
X-23.933 Y62.117
X-23.957 Y62.101
X-23.973 Y62.077
X-23.979 Y62.048
X-23.977 Y58.3
G2 X-25.925 Y56.352 I-1.948 J0.
G1 X-46.077 Y56.397
G3 X-46.397 Y56.077 I0. J-0.319
G1 Y10.223
G3 X-46.077 Y9.903 I0.319 J0.
G1 X-10.223
G3 X-9.903 Y10.223 I0. J0.319
G1 Y56.077
G3 X-10.223 Y56.397 I-0.319 J0.
G1 X-15.075 Y56.352
G2 X-17.023 Y58.3 I0. J1.948
G1 X-17.021 Y62.048
X-17.027 Y62.077
X-17.043 Y62.101
X-17.067 Y62.117
X-17.096 Y62.123
X-25.1
X-25.129 Y62.117
X-25.153 Y62.101
X-25.169 Y62.077
X-25.175 Y62.048
Y58.3
G2 X-25.925 Y57.55 I-0.75 J0.
G1 X-47.55
Y8.75
X-8.75
Y57.55
X-15.075
G2 X-15.825 Y58.3 I0. J0.75
G1 Y61.3
Y62.048
G3 X-16.538 Y62.76 Z-3.223 I-0.713 J0.
X-17.21 Y62.282 Z-3.241 I0. J-0.712
G1 X-28.823 Y28.885 Z-3.972
G3 X-28.384 Y27.978 Z-3.995 I0.673 J-0.234
X-28.15 Y27.938 Z-4. I0.234 J0.673
X-27.9 Y28.188 I0. J0.25
G1 Y38.165
G3 X-28.135 Y38.4 I-0.235 J0.
G1 X-28.165
G3 X-28.4 Y38.165 I0. J-0.235
G1 Y28.188
G3 X-28.15 Y27.938 I0.25 J0.
G2 X-27.831 Y27.646 I0. J-0.321
G3 X-27.59 Y27.445 I0.221 J0.02
X-27.402 Y27.588 I-0.02 J0.221
G1 X-27.387 Y27.643
X-27.382 Y27.701
Y38.599
G3 X-27.701 Y38.918 I-0.319 J0.
G1 X-28.599
G3 X-28.918 Y38.599 I0. J-0.319
G1 Y27.701
G3 X-28.599 Y27.382 I0.319 J0.
G1 X-27.701
G3 X-27.402 Y27.588 I0. J0.319
G2 X-26.753 Y28.251 I1.082 J-0.41
G3 X-26.233 Y29.02 I-0.31 J0.769
G1 Y39.747
G3 X-26.553 Y40.067 I-0.319 J0.
G1 X-29.747
G3 X-30.067 Y39.747 I0. J-0.319
G1 Y26.553
G3 X-29.747 Y26.233 I0.319 J0.
G1 X-26.553
G3 X-26.233 Y26.553 I0. J0.319
G1 Y29.02
G2 X-25.659 Y29.881 I0.933 J0.
G3 X-25.085 Y30.742 I-0.359 J0.861
G1 Y40.918
G3 X-25.178 Y41.137 I-0.305 J0.
X-25.4 Y41.223 I-0.213 J-0.219
G2 X-28.148 Y41.198 I-1.957 J63.611
G3 X-30.896 Y41.215 I-2.748 J-220.972
X-31.215 Y40.896 I0. J-0.319
G1 Y25.404
G3 X-30.896 Y25.085 I0.319 J0.
G1 X-25.404
G3 X-25.085 Y25.404 I0. J0.319
G1 Y30.742
G2 X-24.519 Y31.592 I0.92 J0.
G3 X-23.952 Y32.441 I-0.354 J0.85
G1 Y42.156
G3 X-24.045 Y42.364 I-0.28 J0.
X-24.262 Y42.435 I-0.187 J-0.208
G2 X-28.144 Y42.29 I-3.019 J28.79
G3 X-32.028 Y42.348 I-3.885 J-130.141
X-32.348 Y42.028 I0. J-0.319
G1 Y24.272
G3 X-32.028 Y23.952 I0.319 J0.
G1 X-24.272
G3 X-23.952 Y24.272 I0. J0.319
G1 Y32.441
G2 X-23.396 Y33.275 I0.904 J0.
G3 X-22.84 Y34.11 I-0.348 J0.834
G1 Y43.473
G3 X-23.095 Y43.728 I-0.255 J0.
X-23.143 Y43.723 I0. J-0.255
G2 X-24.527 Y43.504 I-4.218 J22.1
X-25.925 Y43.415 I-1.398 J11.012
G1 X-33.141 Y43.46
G3 X-33.46 Y43.141 I0. J-0.319
G1 Y23.159
G3 X-33.141 Y22.84 I0.319 J0.
G1 X-23.159
G3 X-22.84 Y23.159 I0. J0.319
G1 Y34.11
G2 X-22.296 Y34.925 I0.884 J0.
G3 X-21.752 Y35.741 I-0.34 J0.816
G1 Y44.884
G3 X-21.983 Y45.115 I-0.23 J0.
X-22.048 Y45.106 I0. J-0.23
G2 X-23.965 Y44.665 I-4.616 J15.709
X-25.925 Y44.503 I-1.96 J11.728
G1 X-34.228 Y44.548
G3 X-34.548 Y44.228 I0. J-0.319
G1 Y22.072
G3 X-34.228 Y21.752 I0.319 J0.
G1 X-22.072
G3 X-21.752 Y22.072 I0. J0.319
G1 Y35.741
G2 X-21.223 Y36.535 I0.86 J0.
G3 X-20.693 Y37.329 I-0.331 J0.794
G1 Y46.42
G3 X-20.899 Y46.626 I-0.206 J0.
X-20.98 Y46.61 I0. J-0.206
G2 X-23.4 Y45.837 I-5.426 J12.827
X-25.925 Y45.562 I-2.525 J11.424
G1 X-35.287 Y45.607
G3 X-35.607 Y45.287 I0. J-0.319
G1 Y21.013
G3 X-35.287 Y20.693 I0.319 J0.
G1 X-21.013
G3 X-20.693 Y21.013 I0. J0.319
G1 Y37.329
G2 X-20.153 Y38.14 I0.878 J0.
G3 X-19.613 Y38.951 I-0.338 J0.811
G1 Y47.23
G3 X-19.952 Y47.761 I-0.585 J0.
G1 X-20.169 Y47.864
G3 X-20.831 I-0.331 J-0.678
G2 X-23.308 Y46.963 I-5.509 J11.285
X-25.925 Y46.642 I-2.617 J10.52
G1 X-36.368 Y46.687
G3 X-36.687 Y46.368 I0. J-0.319
G1 Y19.932
G3 X-36.368 Y19.613 I0.319 J0.
G1 X-19.932
G3 X-19.613 Y19.932 I0. J0.319
G1 Y38.951
G2 X-19.038 Y39.812 I0.933 J0.
G3 X-18.464 Y40.673 I-0.359 J0.861
G1 Y48.034
G3 X-18.8 Y48.521 I-0.521 J0.
G2 X-20.158 Y49.153 I3.725 J9.779
G3 X-20.842 I-0.342 J-0.616
G2 X-23.297 Y48.148 I-5.448 J9.804
X-25.925 Y47.791 I-2.628 J9.491
G1 X-37.516 Y47.836
G3 X-37.836 Y47.516 I0. J-0.319
G1 Y18.784
G3 X-37.516 Y18.464 I0.319 J0.
G1 X-18.784
G3 X-18.464 Y18.784 I0. J0.319
G1 Y40.673
G2 X-17.89 Y41.534 I0.933 J0.
G3 X-17.316 Y42.396 I-0.359 J0.861
G1 Y48.907
G3 X-17.647 Y49.346 I-0.457 J0.
G2 X-20.202 Y50.522 I2.572 J8.954
G3 X-20.798 I-0.298 J-0.452
G2 X-23.245 Y49.354 I-5.437 J8.249
X-25.925 Y48.939 I-2.68 J8.439
G1 X-38.665 Y48.984
G3 X-38.984 Y48.665 I0. J-0.319
G1 Y17.635
G3 X-38.665 Y17.316 I0.319 J0.
G1 X-17.635
G3 X-17.316 Y17.635 I0. J0.319
G1 Y42.396
G2 X-16.742 Y43.257 I0.933 J0.
G3 X-16.168 Y44.118 I-0.359 J0.861
G1 Y49.87
G3 X-16.492 Y50.256 I-0.393 J0.
G2 X-20.248 Y51.979 I1.417 J8.044
G3 X-20.752 I-0.252 J-0.308
G2 X-23.175 Y50.585 I-5.429 J6.633
X-25.925 Y50.087 I-2.75 J7.344
G1 X-39.813 Y50.132
G3 X-40.132 Y49.813 I0. J-0.319
G1 Y16.487
G3 X-39.813 Y16.168 I0.319 J0.
G1 X-16.487
G3 X-16.168 Y16.487 I0. J0.319
G1 Y44.118
G2 X-15.594 Y44.979 I0.933 J0.
G3 X-15.019 Y45.841 I-0.359 J0.861
G1 Y50.958
G3 X-15.335 Y51.285 I-0.328 J0.
G2 X-20.297 Y53.61 I0.26 J7.015
G3 X-20.5 Y53.7 I-0.203 J-0.182
X-20.703 Y53.61 I0. J-0.272
G2 X-23.061 Y51.867 I-5.422 J4.869
X-25.925 Y51.236 I-2.864 J6.182
G1 X-40.961 Y51.281
G3 X-41.281 Y50.961 I0. J-0.319
G1 Y15.339
G3 X-40.961 Y15.019 I0.319 J0.
G1 X-15.339
G3 X-15.019 Y15.339 I0. J0.319
G1 Y45.841
G2 X-14.479 Y46.651 I0.878 J0.
G3 X-13.938 Y47.462 I-0.338 J0.811
G1 Y52.049
G3 X-14.251 Y52.362 I-0.313 J0.
X-14.663 Y52.349 I0. J-6.596
G2 X-15.075 Y52.336 I-0.412 J6.583
X-18.171 Y53.217 I0. J5.877
X-20.355 Y55.582 I3.175 J5.123
G3 X-20.575 Y55.652 I-0.145 J-0.075
X-20.645 Y55.582 I0.075 J-0.145
G2 X-22.827 Y53.208 I-5.417 J2.788
X-25.925 Y52.318 I-3.098 J4.944
G1 X-42.049 Y52.362
G3 X-42.362 Y52.049 I0. J-0.313
G1 Y14.251
G3 X-42.049 Y13.938 I0.313 J0.
G1 X-14.251
G3 X-13.938 Y14.251 I0. J0.313
G1 Y47.462
X-13.944 Y47.492
X-13.962 Y47.517
X-20.082 Y53.305
X-20.099 Y53.328
X-20.106 Y53.356
X-20.484 Y61.69
X-20.487 Y61.709
X-20.495 Y61.726
X-20.72 Y62.088
X-20.742 Y62.111
X-20.772 Y62.122
X-20.804 Y62.12
X-20.832 Y62.105
X-20.852 Y62.079
X-20.858 Y62.048
X-20.856 Y58.3
G2 X-25.925 Y53.231 I-5.069 J0.
G1 X-42.957 Y53.276
G3 X-43.276 Y52.957 I0. J-0.319
G1 Y13.343
G3 X-42.957 Y13.024 I0.319 J0.
G1 X-13.343
G3 X-13.024 Y13.343 I0. J0.319
G1 Y52.957
G3 X-13.343 Y53.276 I-0.319 J0.
X-14.209 Y53.253 I0. J-16.668
G2 X-15.075 Y53.231 I-0.866 J16.646
X-20.144 Y58.3 I0. J5.069
G1 X-20.142 Y62.048
X-20.147 Y62.077
X-20.164 Y62.101
X-20.188 Y62.117
X-20.217 Y62.123
X-21.607
X-21.636 Y62.117
X-21.661 Y62.101
X-21.677 Y62.077
X-21.682 Y62.048
X-21.68 Y58.3
G2 X-25.925 Y54.055 I-4.245 J0.
G1 X-43.781 Y54.1
G3 X-44.1 Y53.781 I0. J-0.319
G1 Y12.519
G3 X-43.781 Y12.2 I0.319 J0.
G1 X-12.519
G3 X-12.2 Y12.519 I0. J0.319
G1 Y53.781
G3 X-12.519 Y54.1 I-0.319 J0.
X-13.797 Y54.078 I0. J-36.297
G2 X-15.075 Y54.055 I-1.278 J36.275
X-19.32 Y58.3 I0. J4.245
G1 X-19.318 Y62.048
X-19.323 Y62.077
X-19.339 Y62.101
X-19.364 Y62.117
X-19.393 Y62.123
X-22.756
X-22.784 Y62.117
X-22.809 Y62.101
X-22.825 Y62.077
X-22.831 Y62.048
X-22.828 Y58.3
G2 X-25.925 Y55.203 I-3.097 J0.
G1 X-44.929 Y55.248
G3 X-45.248 Y54.929 I0. J-0.319
G1 Y11.371
G3 X-44.929 Y11.052 I0.319 J0.
G1 X-11.371
G3 X-11.052 Y11.371 I0. J0.319
G1 Y54.929
G3 X-11.371 Y55.248 I-0.319 J0.
G1 X-15.075 Y55.203
G2 X-18.172 Y58.3 I0. J3.097
G1 X-18.169 Y62.048
X-18.175 Y62.077
X-18.191 Y62.101
X-18.216 Y62.117
X-18.244 Y62.123
X-23.904
X-23.933 Y62.117
X-23.957 Y62.101
X-23.973 Y62.077
X-23.979 Y62.048
X-23.977 Y58.3
G2 X-25.925 Y56.352 I-1.948 J0.
G1 X-46.077 Y56.397
G3 X-46.397 Y56.077 I0. J-0.319
G1 Y10.223
G3 X-46.077 Y9.903 I0.319 J0.
G1 X-10.223
G3 X-9.903 Y10.223 I0. J0.319
G1 Y56.077
G3 X-10.223 Y56.397 I-0.319 J0.
G1 X-15.075 Y56.352
G2 X-17.023 Y58.3 I0. J1.948
G1 X-17.021 Y62.048
X-17.027 Y62.077
X-17.043 Y62.101
X-17.067 Y62.117
X-17.096 Y62.123
X-25.1
X-25.129 Y62.117
X-25.153 Y62.101
X-25.169 Y62.077
X-25.175 Y62.048
Y58.3
G2 X-25.925 Y57.55 I-0.75 J0.
G1 X-47.55
Y8.75
X-8.75
Y57.55
X-15.075
G2 X-15.825 Y58.3 I0. J0.75
G1 Y61.3
Y62.048
G3 X-16.538 Y62.76 Z-4.023 I-0.713 J0.
X-17.21 Y62.282 Z-4.041 I0. J-0.712
G1 X-28.823 Y28.885 Z-4.772
G3 X-28.384 Y27.978 Z-4.795 I0.673 J-0.234
X-28.15 Y27.938 Z-4.8 I0.234 J0.673
X-27.9 Y28.188 I0. J0.25
G1 Y38.165
G3 X-28.135 Y38.4 I-0.235 J0.
G1 X-28.165
G3 X-28.4 Y38.165 I0. J-0.235
G1 Y28.188
G3 X-28.15 Y27.938 I0.25 J0.
G2 X-27.831 Y27.646 I0. J-0.321
G3 X-27.59 Y27.445 I0.221 J0.02
X-27.402 Y27.588 I-0.02 J0.221
G1 X-27.387 Y27.643
X-27.382 Y27.701
Y38.599
G3 X-27.701 Y38.918 I-0.319 J0.
G1 X-28.599
G3 X-28.918 Y38.599 I0. J-0.319
G1 Y27.701
G3 X-28.599 Y27.382 I0.319 J0.
G1 X-27.701
G3 X-27.402 Y27.588 I0. J0.319
G2 X-26.753 Y28.251 I1.082 J-0.41
G3 X-26.233 Y29.02 I-0.31 J0.769
G1 Y39.747
G3 X-26.553 Y40.067 I-0.319 J0.
G1 X-29.747
G3 X-30.067 Y39.747 I0. J-0.319
G1 Y26.553
G3 X-29.747 Y26.233 I0.319 J0.
G1 X-26.553
G3 X-26.233 Y26.553 I0. J0.319
G1 Y29.02
G2 X-25.659 Y29.881 I0.933 J0.
G3 X-25.085 Y30.742 I-0.359 J0.861
G1 Y40.918
G3 X-25.178 Y41.137 I-0.305 J0.
X-25.4 Y41.223 I-0.213 J-0.219
G2 X-28.148 Y41.198 I-1.957 J63.611
G3 X-30.896 Y41.215 I-2.748 J-220.972
X-31.215 Y40.896 I0. J-0.319
G1 Y25.404
G3 X-30.896 Y25.085 I0.319 J0.
G1 X-25.404
G3 X-25.085 Y25.404 I0. J0.319
G1 Y30.742
G2 X-24.519 Y31.592 I0.92 J0.
G3 X-23.952 Y32.441 I-0.354 J0.85
G1 Y42.156
G3 X-24.045 Y42.364 I-0.28 J0.
X-24.262 Y42.435 I-0.187 J-0.208
G2 X-28.144 Y42.29 I-3.019 J28.79
G3 X-32.028 Y42.348 I-3.885 J-130.141
X-32.348 Y42.028 I0. J-0.319
G1 Y24.272
G3 X-32.028 Y23.952 I0.319 J0.
G1 X-24.272
G3 X-23.952 Y24.272 I0. J0.319
G1 Y32.441
G2 X-23.396 Y33.275 I0.904 J0.
G3 X-22.84 Y34.11 I-0.348 J0.834
G1 Y43.473
G3 X-23.095 Y43.728 I-0.255 J0.
X-23.143 Y43.723 I0. J-0.255
G2 X-24.527 Y43.504 I-4.218 J22.1
X-25.925 Y43.415 I-1.398 J11.012
G1 X-33.141 Y43.46
G3 X-33.46 Y43.141 I0. J-0.319
G1 Y23.159
G3 X-33.141 Y22.84 I0.319 J0.
G1 X-23.159
G3 X-22.84 Y23.159 I0. J0.319
G1 Y34.11
G2 X-22.296 Y34.925 I0.884 J0.
G3 X-21.752 Y35.741 I-0.34 J0.816
G1 Y44.884
G3 X-21.983 Y45.115 I-0.23 J0.
X-22.048 Y45.106 I0. J-0.23
G2 X-23.965 Y44.665 I-4.616 J15.709
X-25.925 Y44.503 I-1.96 J11.728
G1 X-34.228 Y44.548
G3 X-34.548 Y44.228 I0. J-0.319
G1 Y22.072
G3 X-34.228 Y21.752 I0.319 J0.
G1 X-22.072
G3 X-21.752 Y22.072 I0. J0.319
G1 Y35.741
G2 X-21.223 Y36.535 I0.86 J0.
G3 X-20.693 Y37.329 I-0.331 J0.794
G1 Y46.42
G3 X-20.899 Y46.626 I-0.206 J0.
X-20.98 Y46.61 I0. J-0.206
G2 X-23.4 Y45.837 I-5.426 J12.827
X-25.925 Y45.562 I-2.525 J11.424
G1 X-35.287 Y45.607
G3 X-35.607 Y45.287 I0. J-0.319
G1 Y21.013
G3 X-35.287 Y20.693 I0.319 J0.
G1 X-21.013
G3 X-20.693 Y21.013 I0. J0.319
G1 Y37.329
G2 X-20.153 Y38.14 I0.878 J0.
G3 X-19.613 Y38.951 I-0.338 J0.811
G1 Y47.23
G3 X-19.952 Y47.761 I-0.585 J0.
G1 X-20.169 Y47.864
G3 X-20.831 I-0.331 J-0.678
G2 X-23.308 Y46.963 I-5.509 J11.285
X-25.925 Y46.642 I-2.617 J10.52
G1 X-36.368 Y46.687
G3 X-36.687 Y46.368 I0. J-0.319
G1 Y19.932
G3 X-36.368 Y19.613 I0.319 J0.
G1 X-19.932
G3 X-19.613 Y19.932 I0. J0.319
G1 Y38.951
G2 X-19.038 Y39.812 I0.933 J0.
G3 X-18.464 Y40.673 I-0.359 J0.861
G1 Y48.034
G3 X-18.8 Y48.521 I-0.521 J0.
G2 X-20.158 Y49.153 I3.725 J9.779
G3 X-20.842 I-0.342 J-0.616
G2 X-23.297 Y48.148 I-5.448 J9.804
X-25.925 Y47.791 I-2.628 J9.491
G1 X-37.516 Y47.836
G3 X-37.836 Y47.516 I0. J-0.319
G1 Y18.784
G3 X-37.516 Y18.464 I0.319 J0.
G1 X-18.784
G3 X-18.464 Y18.784 I0. J0.319
G1 Y40.673
G2 X-17.89 Y41.534 I0.933 J0.
G3 X-17.316 Y42.396 I-0.359 J0.861
G1 Y48.907
G3 X-17.647 Y49.346 I-0.457 J0.
G2 X-20.202 Y50.522 I2.572 J8.954
G3 X-20.798 I-0.298 J-0.452
G2 X-23.245 Y49.354 I-5.437 J8.249
X-25.925 Y48.939 I-2.68 J8.439
G1 X-38.665 Y48.984
G3 X-38.984 Y48.665 I0. J-0.319
G1 Y17.635
G3 X-38.665 Y17.316 I0.319 J0.
G1 X-17.635
G3 X-17.316 Y17.635 I0. J0.319
G1 Y42.396
G2 X-16.742 Y43.257 I0.933 J0.
G3 X-16.168 Y44.118 I-0.359 J0.861
G1 Y49.87
G3 X-16.492 Y50.256 I-0.393 J0.
G2 X-20.248 Y51.979 I1.417 J8.044
G3 X-20.752 I-0.252 J-0.308
G2 X-23.175 Y50.585 I-5.429 J6.633
X-25.925 Y50.087 I-2.75 J7.344
G1 X-39.813 Y50.132
G3 X-40.132 Y49.813 I0. J-0.319
G1 Y16.487
G3 X-39.813 Y16.168 I0.319 J0.
G1 X-16.487
G3 X-16.168 Y16.487 I0. J0.319
G1 Y44.118
G2 X-15.594 Y44.979 I0.933 J0.
G3 X-15.019 Y45.841 I-0.359 J0.861
G1 Y50.958
G3 X-15.335 Y51.285 I-0.328 J0.
G2 X-20.297 Y53.61 I0.26 J7.015
G3 X-20.5 Y53.7 I-0.203 J-0.182
X-20.703 Y53.61 I0. J-0.272
G2 X-23.061 Y51.867 I-5.422 J4.869
X-25.925 Y51.236 I-2.864 J6.182
G1 X-40.961 Y51.281
G3 X-41.281 Y50.961 I0. J-0.319
G1 Y15.339
G3 X-40.961 Y15.019 I0.319 J0.
G1 X-15.339
G3 X-15.019 Y15.339 I0. J0.319
G1 Y45.841
G2 X-14.479 Y46.651 I0.878 J0.
G3 X-13.938 Y47.462 I-0.338 J0.811
G1 Y52.049
G3 X-14.251 Y52.362 I-0.313 J0.
X-14.663 Y52.349 I0. J-6.596
G2 X-15.075 Y52.336 I-0.412 J6.583
X-18.171 Y53.217 I0. J5.877
X-20.355 Y55.582 I3.175 J5.123
G3 X-20.575 Y55.652 I-0.145 J-0.075
X-20.645 Y55.582 I0.075 J-0.145
G2 X-22.827 Y53.208 I-5.417 J2.788
X-25.925 Y52.318 I-3.098 J4.944
G1 X-42.049 Y52.362
G3 X-42.362 Y52.049 I0. J-0.313
G1 Y14.251
G3 X-42.049 Y13.938 I0.313 J0.
G1 X-14.251
G3 X-13.938 Y14.251 I0. J0.313
G1 Y47.462
X-13.944 Y47.492
X-13.962 Y47.517
X-20.082 Y53.305
X-20.099 Y53.328
X-20.106 Y53.356
X-20.484 Y61.69
X-20.487 Y61.709
X-20.495 Y61.726
X-20.72 Y62.088
X-20.742 Y62.111
X-20.772 Y62.122
X-20.804 Y62.12
X-20.832 Y62.105
X-20.852 Y62.079
X-20.858 Y62.048
X-20.856 Y58.3
G2 X-25.925 Y53.231 I-5.069 J0.
G1 X-42.957 Y53.276
G3 X-43.276 Y52.957 I0. J-0.319
G1 Y13.343
G3 X-42.957 Y13.024 I0.319 J0.
G1 X-13.343
G3 X-13.024 Y13.343 I0. J0.319
G1 Y52.957
G3 X-13.343 Y53.276 I-0.319 J0.
X-14.209 Y53.253 I0. J-16.668
G2 X-15.075 Y53.231 I-0.866 J16.646
X-20.144 Y58.3 I0. J5.069
G1 X-20.142 Y62.048
X-20.147 Y62.077
X-20.164 Y62.101
X-20.188 Y62.117
X-20.217 Y62.123
X-21.607
X-21.636 Y62.117
X-21.661 Y62.101
X-21.677 Y62.077
X-21.682 Y62.048
X-21.68 Y58.3
G2 X-25.925 Y54.055 I-4.245 J0.
G1 X-43.781 Y54.1
G3 X-44.1 Y53.781 I0. J-0.319
G1 Y12.519
G3 X-43.781 Y12.2 I0.319 J0.
G1 X-12.519
G3 X-12.2 Y12.519 I0. J0.319
G1 Y53.781
G3 X-12.519 Y54.1 I-0.319 J0.
X-13.797 Y54.078 I0. J-36.297
G2 X-15.075 Y54.055 I-1.278 J36.275
X-19.32 Y58.3 I0. J4.245
G1 X-19.318 Y62.048
X-19.323 Y62.077
X-19.339 Y62.101
X-19.364 Y62.117
X-19.393 Y62.123
X-22.756
X-22.784 Y62.117
X-22.809 Y62.101
X-22.825 Y62.077
X-22.831 Y62.048
X-22.828 Y58.3
G2 X-25.925 Y55.203 I-3.097 J0.
G1 X-44.929 Y55.248
G3 X-45.248 Y54.929 I0. J-0.319
G1 Y11.371
G3 X-44.929 Y11.052 I0.319 J0.
G1 X-11.371
G3 X-11.052 Y11.371 I0. J0.319
G1 Y54.929
G3 X-11.371 Y55.248 I-0.319 J0.
G1 X-15.075 Y55.203
G2 X-18.172 Y58.3 I0. J3.097
G1 X-18.169 Y62.048
X-18.175 Y62.077
X-18.191 Y62.101
X-18.216 Y62.117
X-18.244 Y62.123
X-23.904
X-23.933 Y62.117
X-23.957 Y62.101
X-23.973 Y62.077
X-23.979 Y62.048
X-23.977 Y58.3
G2 X-25.925 Y56.352 I-1.948 J0.
G1 X-46.077 Y56.397
G3 X-46.397 Y56.077 I0. J-0.319
G1 Y10.223
G3 X-46.077 Y9.903 I0.319 J0.
G1 X-10.223
G3 X-9.903 Y10.223 I0. J0.319
G1 Y56.077
G3 X-10.223 Y56.397 I-0.319 J0.
G1 X-15.075 Y56.352
G2 X-17.023 Y58.3 I0. J1.948
G1 X-17.021 Y62.048
X-17.027 Y62.077
X-17.043 Y62.101
X-17.067 Y62.117
X-17.096 Y62.123
X-25.1
X-25.129 Y62.117
X-25.153 Y62.101
X-25.169 Y62.077
X-25.175 Y62.048
Y58.3
G2 X-25.925 Y57.55 I-0.75 J0.
G1 X-47.55
Y8.75
X-8.75
Y57.55
X-15.075
G2 X-15.825 Y58.3 I0. J0.75
G1 Y61.3
Y62.048
G3 X-16.538 Y62.76 Z-4.82 I-0.713 J0.
X-17.21 Y62.282 Z-4.836 I0. J-0.712
G1 X-28.823 Y28.885 Z-5.475
G3 X-28.384 Y27.978 Z-5.496 I0.673 J-0.234
X-28.15 Y27.938 Z-5.5 I0.234 J0.673
X-27.9 Y28.188 I0. J0.25
G1 Y38.165
G3 X-28.135 Y38.4 I-0.235 J0.
G1 X-28.165
G3 X-28.4 Y38.165 I0. J-0.235
G1 Y28.188
G3 X-28.15 Y27.938 I0.25 J0.
G2 X-27.831 Y27.646 I0. J-0.321
G3 X-27.59 Y27.445 I0.221 J0.02
X-27.402 Y27.588 I-0.02 J0.221
G1 X-27.387 Y27.643
X-27.382 Y27.701
Y38.599
G3 X-27.701 Y38.918 I-0.319 J0.
G1 X-28.599
G3 X-28.918 Y38.599 I0. J-0.319
G1 Y27.701
G3 X-28.599 Y27.382 I0.319 J0.
G1 X-27.701
G3 X-27.402 Y27.588 I0. J0.319
G2 X-26.753 Y28.251 I1.082 J-0.41
G3 X-26.233 Y29.02 I-0.31 J0.769
G1 Y39.747
G3 X-26.553 Y40.067 I-0.319 J0.
G1 X-29.747
G3 X-30.067 Y39.747 I0. J-0.319
G1 Y26.553
G3 X-29.747 Y26.233 I0.319 J0.
G1 X-26.553
G3 X-26.233 Y26.553 I0. J0.319
G1 Y29.02
G2 X-25.659 Y29.881 I0.933 J0.
G3 X-25.085 Y30.742 I-0.359 J0.861
G1 Y40.918
G3 X-25.178 Y41.137 I-0.305 J0.
X-25.4 Y41.223 I-0.213 J-0.219
G2 X-28.148 Y41.198 I-1.957 J63.611
G3 X-30.896 Y41.215 I-2.748 J-220.972
X-31.215 Y40.896 I0. J-0.319
G1 Y25.404
G3 X-30.896 Y25.085 I0.319 J0.
G1 X-25.404
G3 X-25.085 Y25.404 I0. J0.319
G1 Y30.742
G2 X-24.519 Y31.592 I0.92 J0.
G3 X-23.952 Y32.441 I-0.354 J0.85
G1 Y42.156
G3 X-24.045 Y42.364 I-0.28 J0.
X-24.262 Y42.435 I-0.187 J-0.208
G2 X-28.144 Y42.29 I-3.019 J28.79
G3 X-32.028 Y42.348 I-3.885 J-130.141
X-32.348 Y42.028 I0. J-0.319
G1 Y24.272
G3 X-32.028 Y23.952 I0.319 J0.
G1 X-24.272
G3 X-23.952 Y24.272 I0. J0.319
G1 Y32.441
G2 X-23.396 Y33.275 I0.904 J0.
G3 X-22.84 Y34.11 I-0.348 J0.834
G1 Y43.473
G3 X-23.095 Y43.728 I-0.255 J0.
X-23.143 Y43.723 I0. J-0.255
G2 X-24.527 Y43.504 I-4.218 J22.1
X-25.925 Y43.415 I-1.398 J11.012
G1 X-33.141 Y43.46
G3 X-33.46 Y43.141 I0. J-0.319
G1 Y23.159
G3 X-33.141 Y22.84 I0.319 J0.
G1 X-23.159
G3 X-22.84 Y23.159 I0. J0.319
G1 Y34.11
G2 X-22.296 Y34.925 I0.884 J0.
G3 X-21.752 Y35.741 I-0.34 J0.816
G1 Y44.884
G3 X-21.983 Y45.115 I-0.23 J0.
X-22.048 Y45.106 I0. J-0.23
G2 X-23.965 Y44.665 I-4.616 J15.709
X-25.925 Y44.503 I-1.96 J11.728
G1 X-34.228 Y44.548
G3 X-34.548 Y44.228 I0. J-0.319
G1 Y22.072
G3 X-34.228 Y21.752 I0.319 J0.
G1 X-22.072
G3 X-21.752 Y22.072 I0. J0.319
G1 Y35.741
G2 X-21.223 Y36.535 I0.86 J0.
G3 X-20.693 Y37.329 I-0.331 J0.794
G1 Y46.42
G3 X-20.899 Y46.626 I-0.206 J0.
X-20.98 Y46.61 I0. J-0.206
G2 X-23.4 Y45.837 I-5.426 J12.827
X-25.925 Y45.562 I-2.525 J11.424
G1 X-35.287 Y45.607
G3 X-35.607 Y45.287 I0. J-0.319
G1 Y21.013
G3 X-35.287 Y20.693 I0.319 J0.
G1 X-21.013
G3 X-20.693 Y21.013 I0. J0.319
G1 Y37.329
G2 X-20.153 Y38.14 I0.878 J0.
G3 X-19.613 Y38.951 I-0.338 J0.811
G1 Y47.23
G3 X-19.952 Y47.761 I-0.585 J0.
G1 X-20.169 Y47.864
G3 X-20.831 I-0.331 J-0.678
G2 X-23.308 Y46.963 I-5.509 J11.285
X-25.925 Y46.642 I-2.617 J10.52
G1 X-36.368 Y46.687
G3 X-36.687 Y46.368 I0. J-0.319
G1 Y19.932
G3 X-36.368 Y19.613 I0.319 J0.
G1 X-19.932
G3 X-19.613 Y19.932 I0. J0.319
G1 Y38.951
G2 X-19.038 Y39.812 I0.933 J0.
G3 X-18.464 Y40.673 I-0.359 J0.861
G1 Y48.034
G3 X-18.8 Y48.521 I-0.521 J0.
G2 X-20.158 Y49.153 I3.725 J9.779
G3 X-20.842 I-0.342 J-0.616
G2 X-23.297 Y48.148 I-5.448 J9.804
X-25.925 Y47.791 I-2.628 J9.491
G1 X-37.516 Y47.836
G3 X-37.836 Y47.516 I0. J-0.319
G1 Y18.784
G3 X-37.516 Y18.464 I0.319 J0.
G1 X-18.784
G3 X-18.464 Y18.784 I0. J0.319
G1 Y40.673
G2 X-17.89 Y41.534 I0.933 J0.
G3 X-17.316 Y42.396 I-0.359 J0.861
G1 Y48.907
G3 X-17.647 Y49.346 I-0.457 J0.
G2 X-20.202 Y50.522 I2.572 J8.954
G3 X-20.798 I-0.298 J-0.452
G2 X-23.245 Y49.354 I-5.437 J8.249
X-25.925 Y48.939 I-2.68 J8.439
G1 X-38.665 Y48.984
G3 X-38.984 Y48.665 I0. J-0.319
G1 Y17.635
G3 X-38.665 Y17.316 I0.319 J0.
G1 X-17.635
G3 X-17.316 Y17.635 I0. J0.319
G1 Y42.396
G2 X-16.742 Y43.257 I0.933 J0.
G3 X-16.168 Y44.118 I-0.359 J0.861
G1 Y49.87
G3 X-16.492 Y50.256 I-0.393 J0.
G2 X-20.248 Y51.979 I1.417 J8.044
G3 X-20.752 I-0.252 J-0.308
G2 X-23.175 Y50.585 I-5.429 J6.633
X-25.925 Y50.087 I-2.75 J7.344
G1 X-39.813 Y50.132
G3 X-40.132 Y49.813 I0. J-0.319
G1 Y16.487
G3 X-39.813 Y16.168 I0.319 J0.
G1 X-16.487
G3 X-16.168 Y16.487 I0. J0.319
G1 Y44.118
G2 X-15.594 Y44.979 I0.933 J0.
G3 X-15.019 Y45.841 I-0.359 J0.861
G1 Y50.958
G3 X-15.335 Y51.285 I-0.328 J0.
G2 X-20.297 Y53.61 I0.26 J7.015
G3 X-20.5 Y53.7 I-0.203 J-0.182
X-20.703 Y53.61 I0. J-0.272
G2 X-23.061 Y51.867 I-5.422 J4.869
X-25.925 Y51.236 I-2.864 J6.182
G1 X-40.961 Y51.281
G3 X-41.281 Y50.961 I0. J-0.319
G1 Y15.339
G3 X-40.961 Y15.019 I0.319 J0.
G1 X-15.339
G3 X-15.019 Y15.339 I0. J0.319
G1 Y45.841
G2 X-14.479 Y46.651 I0.878 J0.
G3 X-13.938 Y47.462 I-0.338 J0.811
G1 Y52.049
G3 X-14.251 Y52.362 I-0.313 J0.
X-14.663 Y52.349 I0. J-6.596
G2 X-15.075 Y52.336 I-0.412 J6.583
X-18.171 Y53.217 I0. J5.877
X-20.355 Y55.582 I3.175 J5.123
G3 X-20.575 Y55.652 I-0.145 J-0.075
X-20.645 Y55.582 I0.075 J-0.145
G2 X-22.827 Y53.208 I-5.417 J2.788
X-25.925 Y52.318 I-3.098 J4.944
G1 X-42.049 Y52.362
G3 X-42.362 Y52.049 I0. J-0.313
G1 Y14.251
G3 X-42.049 Y13.938 I0.313 J0.
G1 X-14.251
G3 X-13.938 Y14.251 I0. J0.313
G1 Y47.462
X-13.944 Y47.492
X-13.962 Y47.517
X-20.082 Y53.305
X-20.099 Y53.328
X-20.106 Y53.356
X-20.484 Y61.69
X-20.487 Y61.709
X-20.495 Y61.726
X-20.72 Y62.088
X-20.742 Y62.111
X-20.772 Y62.122
X-20.804 Y62.12
X-20.832 Y62.105
X-20.852 Y62.079
X-20.858 Y62.048
X-20.856 Y58.3
G2 X-25.925 Y53.231 I-5.069 J0.
G1 X-42.957 Y53.276
G3 X-43.276 Y52.957 I0. J-0.319
G1 Y13.343
G3 X-42.957 Y13.024 I0.319 J0.
G1 X-13.343
G3 X-13.024 Y13.343 I0. J0.319
G1 Y52.957
G3 X-13.343 Y53.276 I-0.319 J0.
X-14.209 Y53.253 I0. J-16.668
G2 X-15.075 Y53.231 I-0.866 J16.646
X-20.144 Y58.3 I0. J5.069
G1 X-20.142 Y62.048
X-20.147 Y62.077
X-20.164 Y62.101
X-20.188 Y62.117
X-20.217 Y62.123
X-21.607
X-21.636 Y62.117
X-21.661 Y62.101
X-21.677 Y62.077
X-21.682 Y62.048
X-21.68 Y58.3
G2 X-25.925 Y54.055 I-4.245 J0.
G1 X-43.781 Y54.1
G3 X-44.1 Y53.781 I0. J-0.319
G1 Y12.519
G3 X-43.781 Y12.2 I0.319 J0.
G1 X-12.519
G3 X-12.2 Y12.519 I0. J0.319
G1 Y53.781
G3 X-12.519 Y54.1 I-0.319 J0.
X-13.797 Y54.078 I0. J-36.297
G2 X-15.075 Y54.055 I-1.278 J36.275
X-19.32 Y58.3 I0. J4.245
G1 X-19.318 Y62.048
X-19.323 Y62.077
X-19.339 Y62.101
X-19.364 Y62.117
X-19.393 Y62.123
X-22.756
X-22.784 Y62.117
X-22.809 Y62.101
X-22.825 Y62.077
X-22.831 Y62.048
X-22.828 Y58.3
G2 X-25.925 Y55.203 I-3.097 J0.
G1 X-44.929 Y55.248
G3 X-45.248 Y54.929 I0. J-0.319
G1 Y11.371
G3 X-44.929 Y11.052 I0.319 J0.
G1 X-11.371
G3 X-11.052 Y11.371 I0. J0.319
G1 Y54.929
G3 X-11.371 Y55.248 I-0.319 J0.
G1 X-15.075 Y55.203
G2 X-18.172 Y58.3 I0. J3.097
G1 X-18.169 Y62.048
X-18.175 Y62.077
X-18.191 Y62.101
X-18.216 Y62.117
X-18.244 Y62.123
X-23.904
X-23.933 Y62.117
X-23.957 Y62.101
X-23.973 Y62.077
X-23.979 Y62.048
X-23.977 Y58.3
G2 X-25.925 Y56.352 I-1.948 J0.
G1 X-46.077 Y56.397
G3 X-46.397 Y56.077 I0. J-0.319
G1 Y10.223
G3 X-46.077 Y9.903 I0.319 J0.
G1 X-10.223
G3 X-9.903 Y10.223 I0. J0.319
G1 Y56.077
G3 X-10.223 Y56.397 I-0.319 J0.
G1 X-15.075 Y56.352
G2 X-17.023 Y58.3 I0. J1.948
G1 X-17.021 Y62.048
X-17.027 Y62.077
X-17.043 Y62.101
X-17.067 Y62.117
X-17.096 Y62.123
X-25.1
X-25.129 Y62.117
X-25.153 Y62.101
X-25.169 Y62.077
X-25.175 Y62.048
Y58.3
G2 X-25.925 Y57.55 I-0.75 J0.
G1 X-47.55
Y8.75
X-8.75
Y57.55
X-15.075
G2 X-15.825 Y58.3 I0. J0.75
G1 Y61.3
Y62.048
X-15.827 Y62.071
X-15.944 Y62.812
X-15.951 Y62.858 Z-5.493
X-15.958 Y62.899 Z-5.471
X-15.963 Y62.932 Z-5.438
X-15.966 Y62.953 Z-5.396
X-15.968 Y62.96 Z-5.35
G0 Z15.
M5
G53 Z0.
M30
