(1001)
(T1  D=1.5 CR=0. - ZMIN=-3. - flat end mill)
G90
G0 G53 Z0.

(2D Adaptive (outside pocket))
T1 M6 (flat end mill D=1.5 1.5 mm Fishtail Upcut Endmill - Acrylic Max Pass Depth 0.8 mm)
S18000 M3
G64
G54
G43 H1
G0 X-4.145 Y59.222
Z15.
Z5.
Z2.501
G3 X-3.758 Y60.152 Z2.462 I-0.271 J0.659 F800
X-4.688 Y60.54 Z2.423 I-0.659 J-0.271
X-5.075 Y59.61 Z2.384 I0.271 J-0.659
X-4.145 Y59.222 Z2.345 I0.659 J0.271
X-3.758 Y60.152 Z2.306 I-0.271 J0.659
X-4.688 Y60.54 Z2.267 I-0.659 J-0.271
X-5.075 Y59.61 Z2.227 I0.271 J-0.659
X-4.145 Y59.222 Z2.188 I0.659 J0.271
X-3.758 Y60.152 Z2.149 I-0.271 J0.659
X-4.688 Y60.54 Z2.11 I-0.659 J-0.271
X-5.075 Y59.61 Z2.071 I0.271 J-0.659
X-4.145 Y59.222 Z2.032 I0.659 J0.271
X-3.758 Y60.152 Z1.993 I-0.271 J0.659
X-4.688 Y60.54 Z1.954 I-0.659 J-0.271
X-5.075 Y59.61 Z1.915 I0.271 J-0.659
X-4.145 Y59.222 Z1.876 I0.659 J0.271
X-3.758 Y60.152 Z1.837 I-0.271 J0.659
X-4.688 Y60.54 Z1.798 I-0.659 J-0.271
X-5.075 Y59.61 Z1.758 I0.271 J-0.659
X-4.145 Y59.222 Z1.719 I0.659 J0.271
X-3.758 Y60.152 Z1.68 I-0.271 J0.659
X-4.688 Y60.54 Z1.641 I-0.659 J-0.271
X-5.075 Y59.61 Z1.602 I0.271 J-0.659
X-4.145 Y59.222 Z1.563 I0.659 J0.271
X-3.758 Y60.152 Z1.524 I-0.271 J0.659
X-4.688 Y60.54 Z1.485 I-0.659 J-0.271
X-5.075 Y59.61 Z1.446 I0.271 J-0.659
X-4.145 Y59.222 Z1.407 I0.659 J0.271
X-3.758 Y60.152 Z1.368 I-0.271 J0.659
X-4.688 Y60.54 Z1.329 I-0.659 J-0.271
X-5.075 Y59.61 Z1.289 I0.271 J-0.659
X-4.145 Y59.222 Z1.25 I0.659 J0.271
X-3.758 Y60.152 Z1.211 I-0.271 J0.659
X-4.688 Y60.54 Z1.172 I-0.659 J-0.271
X-5.075 Y59.61 Z1.133 I0.271 J-0.659
X-4.145 Y59.222 Z1.094 I0.659 J0.271
X-3.758 Y60.152 Z1.055 I-0.271 J0.659
X-4.688 Y60.54 Z1.016 I-0.659 J-0.271
X-5.075 Y59.61 Z0.977 I0.271 J-0.659
X-4.145 Y59.222 Z0.938 I0.659 J0.271
X-3.758 Y60.152 Z0.899 I-0.271 J0.659
X-4.688 Y60.54 Z0.86 I-0.659 J-0.271
X-5.075 Y59.61 Z0.82 I0.271 J-0.659
X-4.145 Y59.222 Z0.781 I0.659 J0.271
X-3.758 Y60.152 Z0.742 I-0.271 J0.659
X-4.688 Y60.54 Z0.703 I-0.659 J-0.271
X-5.075 Y59.61 Z0.664 I0.271 J-0.659
X-4.145 Y59.222 Z0.625 I0.659 J0.271
X-3.758 Y60.152 Z0.586 I-0.271 J0.659
X-4.688 Y60.54 Z0.547 I-0.659 J-0.271
X-5.075 Y59.61 Z0.508 I0.271 J-0.659
X-4.145 Y59.222 Z0.469 I0.659 J0.271
X-3.758 Y60.152 Z0.43 I-0.271 J0.659
X-4.688 Y60.54 Z0.391 I-0.659 J-0.271
X-5.075 Y59.61 Z0.351 I0.271 J-0.659
X-4.145 Y59.222 Z0.312 I0.659 J0.271
X-3.758 Y60.152 Z0.273 I-0.271 J0.659
X-4.688 Y60.54 Z0.234 I-0.659 J-0.271
X-5.075 Y59.61 Z0.195 I0.271 J-0.659
X-4.145 Y59.222 Z0.156 I0.659 J0.271
X-3.758 Y60.152 Z0.117 I-0.271 J0.659
X-4.688 Y60.54 Z0.078 I-0.659 J-0.271
X-5.075 Y59.61 Z0.039 I0.271 J-0.659
X-4.145 Y59.222 Z0. I0.659 J0.271
X-3.758 Y60.152 Z-0.039 I-0.271 J0.659
X-4.688 Y60.54 Z-0.078 I-0.659 J-0.271
X-5.075 Y59.61 Z-0.118 I0.271 J-0.659
X-4.145 Y59.222 Z-0.157 I0.659 J0.271
X-3.758 Y60.152 Z-0.196 I-0.271 J0.659
X-4.688 Y60.54 Z-0.235 I-0.659 J-0.271
X-5.075 Y59.61 Z-0.274 I0.271 J-0.659
X-4.145 Y59.222 Z-0.313 I0.659 J0.271
X-3.758 Y60.152 Z-0.352 I-0.271 J0.659
X-4.688 Y60.54 Z-0.391 I-0.659 J-0.271
X-5.075 Y59.61 Z-0.43 I0.271 J-0.659
X-4.145 Y59.222 Z-0.469 I0.659 J0.271
X-3.758 Y60.152 Z-0.508 I-0.271 J0.659
X-4.688 Y60.54 Z-0.547 I-0.659 J-0.271
X-5.075 Y59.61 Z-0.587 I0.271 J-0.659
X-4.145 Y59.222 Z-0.626 I0.659 J0.271
X-3.758 Y60.152 Z-0.665 I-0.271 J0.659
X-4.688 Y60.54 Z-0.704 I-0.659 J-0.271
X-5.075 Y59.61 Z-0.743 I0.271 J-0.659
X-4.145 Y59.222 Z-0.782 I0.659 J0.271
X-3.758 Y60.152 Z-0.821 I-0.271 J0.659
X-4.688 Y60.54 Z-0.86 I-0.659 J-0.271
X-5.075 Y59.61 Z-0.899 I0.271 J-0.659
X-4.145 Y59.222 Z-0.938 I0.659 J0.271
X-3.758 Y60.152 Z-0.977 I-0.271 J0.659
X-4.688 Y60.54 Z-1.016 I-0.659 J-0.271
X-5.075 Y59.61 Z-1.056 I0.271 J-0.659
X-4.145 Y59.222 Z-1.095 I0.659 J0.271
X-3.758 Y60.152 Z-1.134 I-0.271 J0.659
X-4.688 Y60.54 Z-1.173 I-0.659 J-0.271
X-5.075 Y59.61 Z-1.212 I0.271 J-0.659
X-4.145 Y59.222 Z-1.251 I0.659 J0.271
X-3.758 Y60.152 Z-1.29 I-0.271 J0.659
X-4.688 Y60.54 Z-1.329 I-0.659 J-0.271
X-5.075 Y59.61 Z-1.368 I0.271 J-0.659
X-4.145 Y59.222 Z-1.407 I0.659 J0.271
X-3.758 Y60.152 Z-1.446 I-0.271 J0.659
X-4.688 Y60.54 Z-1.485 I-0.659 J-0.271
X-5.075 Y59.61 Z-1.525 I0.271 J-0.659
X-4.145 Y59.222 Z-1.564 I0.659 J0.271
X-3.758 Y60.152 Z-1.603 I-0.271 J0.659
X-4.688 Y60.54 Z-1.642 I-0.659 J-0.271
X-5.075 Y59.61 Z-1.681 I0.271 J-0.659
X-4.145 Y59.222 Z-1.72 I0.659 J0.271
X-3.758 Y60.152 Z-1.759 I-0.271 J0.659
X-4.688 Y60.54 Z-1.798 I-0.659 J-0.271
X-5.075 Y59.61 Z-1.837 I0.271 J-0.659
X-4.145 Y59.222 Z-1.876 I0.659 J0.271
X-3.758 Y60.152 Z-1.915 I-0.271 J0.659
X-4.688 Y60.54 Z-1.954 I-0.659 J-0.271
X-5.075 Y59.61 Z-1.994 I0.271 J-0.659
X-4.145 Y59.222 Z-2.033 I0.659 J0.271
X-3.758 Y60.152 Z-2.072 I-0.271 J0.659
X-4.688 Y60.54 Z-2.111 I-0.659 J-0.271
X-5.075 Y59.61 Z-2.15 I0.271 J-0.659
X-4.145 Y59.222 Z-2.189 I0.659 J0.271
X-3.758 Y60.152 Z-2.228 I-0.271 J0.659
X-4.688 Y60.54 Z-2.267 I-0.659 J-0.271
X-5.075 Y59.61 Z-2.306 I0.271 J-0.659
X-4.145 Y59.222 Z-2.345 I0.659 J0.271
X-3.758 Y60.152 Z-2.384 I-0.271 J0.659
X-4.688 Y60.54 Z-2.423 I-0.659 J-0.271
X-5.075 Y59.61 Z-2.463 I0.271 J-0.659
X-4.145 Y59.222 Z-2.502 I0.659 J0.271
X-3.758 Y60.152 Z-2.541 I-0.271 J0.659
X-4.688 Y60.54 Z-2.58 I-0.659 J-0.271
X-5.075 Y59.61 Z-2.619 I0.271 J-0.659
X-4.145 Y59.222 Z-2.658 I0.659 J0.271
X-3.758 Y60.152 Z-2.697 I-0.271 J0.659
X-4.688 Y60.54 Z-2.736 I-0.659 J-0.271
X-5.075 Y59.61 Z-2.775 I0.271 J-0.659
X-4.145 Y59.222 Z-2.814 I0.659 J0.271
X-3.758 Y60.152 Z-2.853 I-0.271 J0.659
X-4.688 Y60.54 Z-2.892 I-0.659 J-0.271
X-5.075 Y59.61 Z-2.932 I0.271 J-0.659
X-4.145 Y59.222 Z-2.971 I0.659 J0.271
X-3.704 Y59.881 Z-3. I-0.271 J0.659
X-4.416 Y60.594 I-0.712 J0.
X-5.129 Y59.881 I0. J-0.712
X-4.416 Y59.169 I0.712 J0.
X-3.704 Y59.881 I0. J0.712
G1 Y59.944
X-3.693 Y60.006
X-3.67 Y60.065
X-3.654 Y60.092
X-3.644 Y60.113
X-3.634 Y60.137
X-3.626 Y60.164
X-3.619 Y60.195
X-3.614 Y60.229
X-3.612 Y60.266
X-3.613 Y60.305
X-3.617 Y60.347
X-3.626 Y60.392
X-3.638 Y60.438
X-3.655 Y60.486
X-3.677 Y60.534
X-3.704 Y60.583
X-3.737 Y60.632
X-3.774 Y60.68
X-3.817 Y60.726
X-3.863 Y60.769
X-3.913 Y60.808
X-3.965 Y60.843
X-4.019 Y60.874
X-4.076 Y60.902
X-4.134 Y60.925
X-4.194 Y60.945
X-4.255 Y60.96
X-4.317 Y60.972
X-4.379 Y60.98
X-4.442 Y60.983
X-4.505
X-4.568 Y60.979
X-4.63 Y60.971
X-4.692 Y60.959
X-4.753 Y60.944
X-4.813 Y60.925
X-4.872 Y60.902
X-4.929 Y60.876
X-4.985 Y60.847
X-5.039 Y60.815
X-5.09 Y60.779
X-5.14 Y60.741
X-5.188 Y60.7
X-5.233 Y60.656
X-5.275 Y60.609
X-5.315 Y60.561
X-5.352 Y60.51
X-5.386 Y60.457
X-5.417 Y60.402
X-5.445 Y60.346
X-5.47 Y60.288
X-5.491 Y60.229
X-5.509 Y60.169
X-5.524 Y60.107
X-5.535 Y60.045
X-5.542 Y59.983
X-5.547 Y59.92
Y59.857
X-5.544 Y59.794
X-5.538 Y59.732
X-5.528 Y59.67
X-5.515 Y59.608
X-5.498 Y59.548
X-5.478 Y59.488
X-5.454 Y59.43
X-5.428 Y59.373
X-5.398 Y59.317
X-5.365 Y59.264
X-5.33 Y59.212
X-5.291 Y59.162
X-5.25 Y59.115
X-5.206 Y59.069
X-5.16 Y59.027
X-5.111 Y58.987
X-5.06 Y58.95
X-5.008 Y58.915
X-4.953 Y58.884
X-4.897 Y58.856
X-4.839 Y58.831
X-4.78 Y58.809
X-4.72 Y58.79
X-4.659 Y58.775
X-4.598 Y58.763
X-4.535 Y58.755
X-4.472 Y58.75
X-4.41 Y58.749
X-4.347 Y58.751
X-4.284 Y58.756
X-4.222 Y58.765
X-4.16 Y58.778
X-4.099 Y58.794
X-4.039 Y58.813
X-3.981 Y58.836
X-3.923 Y58.861
X-3.868 Y58.89
X-3.813 Y58.922
X-3.761 Y58.957
X-3.711 Y58.995
X-3.663 Y59.036
X-3.617 Y59.079
X-3.574 Y59.124
X-3.533 Y59.172
X-3.495 Y59.223
X-3.46 Y59.275
X-3.427 Y59.329
X-3.395 Y59.383
X-3.365 Y59.438
X-3.336 Y59.493
X-3.308 Y59.55
X-3.282 Y59.607
X-3.258 Y59.665
X-3.236 Y59.724
X-3.217 Y59.784
X-3.2 Y59.845
X-3.186 Y59.906
X-3.174 Y59.968
X-3.166 Y60.03
X-3.16 Y60.093
X-3.158 Y60.156
X-3.159 Y60.219
X-3.163 Y60.281
X-3.17 Y60.344
X-3.181 Y60.406
X-3.195 Y60.467
X-3.212 Y60.528
X-3.232 Y60.587
X-3.255 Y60.646
X-3.281 Y60.703
X-3.31 Y60.759
X-3.341 Y60.813
X-3.376 Y60.866
X-3.413 Y60.917
X-3.453 Y60.966
X-3.495 Y61.012
X-3.539 Y61.057
X-3.586 Y61.099
X-3.634 Y61.14
X-3.684 Y61.177
X-3.736 Y61.213
X-3.79 Y61.245
X-3.845 Y61.276
X-3.902 Y61.303
X-3.959 Y61.328
X-4.018 Y61.35
X-4.078 Y61.37
X-4.139 Y61.387
X-4.2 Y61.401
X-4.262 Y61.412
X-4.324 Y61.421
X-4.387 Y61.427
X-4.45 Y61.43
X-4.512
X-4.575 Y61.428
X-4.638 Y61.423
X-4.7 Y61.415
X-4.762 Y61.405
X-4.824 Y61.392
X-4.885 Y61.376
X-4.945 Y61.358
X-5.005 Y61.337
X-5.063 Y61.314
X-5.12 Y61.289
X-5.177 Y61.261
X-5.232 Y61.23
X-5.286 Y61.198
X-5.338 Y61.163
X-5.389 Y61.126
X-5.439 Y61.087
X-5.487 Y61.047
X-5.533 Y61.004
X-5.577 Y60.959
X-5.62 Y60.913
X-5.66 Y60.865
X-5.699 Y60.815
X-5.735 Y60.764
X-5.77 Y60.711
X-5.802 Y60.657
X-5.832 Y60.602
X-5.86 Y60.546
X-5.886 Y60.488
X-5.909 Y60.43
X-5.93 Y60.371
X-5.948 Y60.31
X-5.965 Y60.25
X-5.978 Y60.188
X-5.989 Y60.126
X-5.998 Y60.064
X-6.005 Y60.002
X-6.008 Y59.939
X-6.01 Y59.876
X-6.008 Y59.813
X-6.005 Y59.75
X-5.998 Y59.688
X-5.99 Y59.625
X-5.979 Y59.563
X-5.965 Y59.502
X-5.949 Y59.441
X-5.931 Y59.381
X-5.91 Y59.322
X-5.887 Y59.263
X-5.861 Y59.206
X-5.834 Y59.149
X-5.804 Y59.094
X-5.772 Y59.04
X-5.737 Y58.987
X-5.701 Y58.935
X-5.663 Y58.885
X-5.623 Y58.837
X-5.581 Y58.79
X-5.537 Y58.745
X-5.491 Y58.702
X-5.444 Y58.66
X-5.395 Y58.621
X-5.345 Y58.583
X-5.293 Y58.547
X-5.24 Y58.514
X-5.185 Y58.483
X-5.13 Y58.453
X-5.073 Y58.426
X-5.015 Y58.402
X-4.956 Y58.379
X-4.897 Y58.359
X-4.836 Y58.341
X-4.775 Y58.326
X-4.714 Y58.313
X-4.652 Y58.302
X-4.589 Y58.294
X-4.527 Y58.289
X-4.464 Y58.286
X-4.401 Y58.285
X-4.338 Y58.287
X-4.275 Y58.291
X-4.213 Y58.298
X-4.151 Y58.307
X-4.089 Y58.319
X-4.027 Y58.333
X-3.967 Y58.349
X-3.907 Y58.368
X-3.848 Y58.39
X-3.789 Y58.413
X-3.732 Y58.439
X-3.676 Y58.467
X-3.62 Y58.497
X-3.567 Y58.53
X-3.514 Y58.564
X-3.463 Y58.601
X-3.413 Y58.639
X-3.365 Y58.68
X-3.318 Y58.722
X-3.273 Y58.765
X-3.229 Y58.81
X-3.186 Y58.857
X-3.145 Y58.904
X-3.105 Y58.953
X-3.067 Y59.003
X-3.03 Y59.054
X-2.995 Y59.106
X-2.962 Y59.159
X-2.93 Y59.213
X-2.899 Y59.269
X-2.871 Y59.325
X-2.844 Y59.382
X-2.819 Y59.439
X-2.796 Y59.498
X-2.775 Y59.557
X-2.767 Y59.584
X-2.757 Y59.619
X-2.752 Y59.655
X-2.75 Y59.691
Y60.307
X-2.753 Y60.37
X-2.757 Y60.433
X-2.764 Y60.496
X-2.773 Y60.558
X-2.786 Y60.619
X-2.801 Y60.681
X-2.818 Y60.741
X-2.838 Y60.801
X-2.861 Y60.859
X-2.886 Y60.917
X-2.913 Y60.974
X-2.943 Y61.029
X-2.974 Y61.083
X-3.008 Y61.137
X-3.044 Y61.188
X-3.082 Y61.238
X-3.122 Y61.287
X-3.163 Y61.334
X-3.206 Y61.38
X-3.251 Y61.424
X-3.298 Y61.466
X-3.299 Y61.467
X-3.339 Y61.496
X-3.382 Y61.519
X-3.428 Y61.536
X-3.476 Y61.547
X-3.525 Y61.55
G3 X-3.67 Y61.395 I0.005 J-0.15
X-3.65 Y61.326 I0.15 J0.005
G1 X-3.414 Y60.911
X-3.227 Y60.583
X-3.03 Y60.238
G3 X-2.826 Y60.182 I0.13 J0.074
X-2.75 Y60.307 I-0.074 J0.13
G1 Y61.117
Y61.142
Y61.148
X-2.752 Y61.184
X-2.76 Y61.247
X-2.766 Y61.273
X-2.783 Y61.33
X-2.809 Y61.383
X-2.845 Y61.431
X-2.888 Y61.472
X-2.937 Y61.505
X-2.991 Y61.53
X-3.049 Y61.545
X-3.108 Y61.55
G3 X-3.253 Y61.395 I0.005 J-0.15
X-3.219 Y61.305 I0.15 J0.005
G1 X-3.016 Y61.058
G3 X-2.805 Y61.038 I0.116 J0.095
X-2.75 Y61.148 I-0.095 J0.116
G1 Y61.387
X-2.751 Y61.41
X-2.754 Y61.432
X-2.757 Y61.44
X-2.764 Y61.459
X-2.774 Y61.477
X-2.786 Y61.494
X-2.802 Y61.511
X-2.815 Y61.522
X-2.831 Y61.532
X-2.847 Y61.539
X-2.869 Y61.546
X-2.892 Y61.55
X-2.937
X-3.476
X-5.141
X-5.204 Y61.547
X-5.267 Y61.542
X-5.329 Y61.532
X-5.39 Y61.519
X-5.451 Y61.501
X-5.51 Y61.48
X-5.568 Y61.456
X-5.624 Y61.428
X-5.68 Y61.398
X-5.733 Y61.365
X-5.785 Y61.33
X-5.836 Y61.292
X-5.884 Y61.252
X-5.931 Y61.211
X-5.977 Y61.167
X-6.02 Y61.121
X-6.062 Y61.074
X-6.102 Y61.026
X-6.14 Y60.976
X-6.176 Y60.924
X-6.21 Y60.871
X-6.242 Y60.817
X-6.273 Y60.762
X-6.301 Y60.706
X-6.328 Y60.649
X-6.353 Y60.591
X-6.375 Y60.533
X-6.396 Y60.473
X-6.415 Y60.413
X-6.432 Y60.353
X-6.447 Y60.292
X-6.459 Y60.23
X-6.47 Y60.168
X-6.473 Y60.151
X-6.476 Y60.098
X-6.472 Y60.046
X-6.459 Y59.995
X-6.44 Y59.946
X-6.413 Y59.901
X-6.379 Y59.86
X-6.377 Y59.858
X-6.356 Y59.835
X-6.335 Y59.813
X-6.311 Y59.786
X-6.295 Y59.768
X-6.266 Y59.732
X-6.258 Y59.723
X-6.221 Y59.676
X-6.187 Y59.633
X-6.176 Y59.616
X-6.156 Y59.588
X-6.125 Y59.543
X-6.096 Y59.498
X-6.086 Y59.481
X-6.069 Y59.453
X-6.041 Y59.406
X-6.017 Y59.363
X-5.996 Y59.321
X-5.972 Y59.273
X-5.951 Y59.229
X-5.95 Y59.228
X-5.931 Y59.183
X-5.906 Y59.121
X-5.895 Y59.093
X-5.878 Y59.048
X-5.861 Y58.995
X-5.849 Y58.958
X-5.835 Y58.913
X-5.824 Y58.868
X-5.812 Y58.823
X-5.802 Y58.778
X-5.793 Y58.733
X-5.778 Y58.671
X-5.761 Y58.615
X-5.739 Y58.556
X-5.711 Y58.5
X-5.68 Y58.445
X-5.645 Y58.393
X-5.607 Y58.343
X-5.566 Y58.295
X-5.523 Y58.249
X-5.477 Y58.206
X-5.429 Y58.165
X-5.38 Y58.126
X-5.329 Y58.09
X-5.276 Y58.056
X-5.221 Y58.024
X-5.166 Y57.994
X-5.109 Y57.967
X-5.052 Y57.942
X-4.993 Y57.919
X-4.934 Y57.898
X-4.873 Y57.88
X-4.813 Y57.864
X-4.751 Y57.85
X-4.69 Y57.838
X-4.628 Y57.828
X-4.565 Y57.82
X-4.502 Y57.814
X-4.44 Y57.811
X-4.377 Y57.81
X-4.314
X-4.251 Y57.813
X-4.188 Y57.818
X-4.126 Y57.824
X-4.063 Y57.833
X-4.001 Y57.844
X-3.94 Y57.856
X-3.879 Y57.871
X-3.818 Y57.887
X-3.758 Y57.906
X-3.698 Y57.926
X-3.639 Y57.948
X-3.581 Y57.972
X-3.524 Y57.998
X-3.467 Y58.025
X-3.411 Y58.054
X-3.356 Y58.085
X-3.302 Y58.117
X-3.249 Y58.151
X-3.197 Y58.186
X-3.146 Y58.223
X-3.096 Y58.261
X-3.047 Y58.3
X-2.999 Y58.341
X-2.952 Y58.383
X-2.907 Y58.426
X-2.862 Y58.471
X-2.847 Y58.487
X-2.813 Y58.528
X-2.786 Y58.574
X-2.766 Y58.623
X-2.754 Y58.675
X-2.75 Y58.728
Y59.633
X-2.758 Y59.675
X-2.777 Y59.714
X-2.807 Y59.745
X-3.321 Y60.151
X-4.511 Y61.09
X-5.053 Y61.518
X-5.095 Y61.541
X-5.141 Y61.55
X-5.771
X-5.834 Y61.547
X-5.888 Y61.541
X-5.947 Y61.53
X-6.008 Y61.514
X-6.067 Y61.493
X-6.125 Y61.468
X-6.181 Y61.439
X-6.235 Y61.407
X-6.288 Y61.372
X-6.338 Y61.335
X-6.386 Y61.295
X-6.433 Y61.252
X-6.478 Y61.208
X-6.52 Y61.162
X-6.561 Y61.114
X-6.6 Y61.065
X-6.637 Y61.014
X-6.672 Y60.961
X-6.705 Y60.908
X-6.736 Y60.853
X-6.766 Y60.798
X-6.793 Y60.741
X-6.819 Y60.684
X-6.841 Y60.625
X-6.861 Y60.565
X-6.868 Y60.541
X-6.879 Y60.488
X-6.882 Y60.433
X-6.876 Y60.38
X-6.862 Y60.327
X-6.839 Y60.278
X-6.81 Y60.232
X-6.774 Y60.192
X-6.732 Y60.157
X-6.689 Y60.127
X-6.671 Y60.115
X-6.628 Y60.083
X-6.572 Y60.038
X-6.536 Y60.008
X-6.518 Y59.993
X-6.491 Y59.968
X-6.469 Y59.948
X-6.446 Y59.926
X-6.406 Y59.901
X-6.36 Y59.89
X-6.313 Y59.893
X-6.27 Y59.911
X-6.234 Y59.941
X-6.209 Y59.981
X-6.015 Y60.444
X-5.83 Y60.885
X-5.638 Y61.342
X-5.627 Y61.389
X-5.631 Y61.437
X-5.65 Y61.481
X-5.682 Y61.517
X-5.724 Y61.541
X-5.771 Y61.55
X-6.311
X-6.374 Y61.547
X-6.424 Y61.541
X-6.479 Y61.53
X-6.539 Y61.514
X-6.598 Y61.492
X-6.656 Y61.466
X-6.711 Y61.436
X-6.764 Y61.403
X-6.816 Y61.367
X-6.865 Y61.328
X-6.913 Y61.286
X-6.958 Y61.243
X-7.001 Y61.197
X-7.042 Y61.149
X-7.08 Y61.099
X-7.116 Y61.048
X-7.149 Y60.994
X-7.179 Y60.939
X-7.206 Y60.882
X-7.229 Y60.823
X-7.248 Y60.763
X-7.252 Y60.746
X-7.262 Y60.687
X-7.261 Y60.627
X-7.25 Y60.568
X-7.229 Y60.512
X-7.199 Y60.46
X-7.161 Y60.415
X-7.115 Y60.376
X-7.064 Y60.345
X-7.031 Y60.33
X-6.986 Y60.307
X-6.941 Y60.285
X-6.9 Y60.262
X-6.851 Y60.233
X-6.824 Y60.217
X-6.785 Y60.203
X-6.743 Y60.199
X-6.702 Y60.208
X-6.665 Y60.227
X-6.635 Y60.256
X-6.614 Y60.292
X-6.409 Y60.784
X-6.368 Y60.884
X-6.177 Y61.343
X-6.166 Y61.389
X-6.171 Y61.437
X-6.19 Y61.481
X-6.222 Y61.517
X-6.264 Y61.541
X-6.311 Y61.55
X-6.851
X-6.892 Y61.548
X-6.941 Y61.542
X-6.994 Y61.53
X-7.049 Y61.514
X-7.107 Y61.491
X-7.164 Y61.464
X-7.218 Y61.432
X-7.27 Y61.396
X-7.319 Y61.358
X-7.366 Y61.316
X-7.41 Y61.271
X-7.451 Y61.223
X-7.489 Y61.172
X-7.523 Y61.119
X-7.553 Y61.064
X-7.579 Y61.007
X-7.6 Y60.948
X-7.617 Y60.887
X-7.622 Y60.867
X-7.628 Y60.809
X-7.626 Y60.752
X-7.613 Y60.695
X-7.592 Y60.642
X-7.562 Y60.592
X-7.525 Y60.549
X-7.481 Y60.511
X-7.431 Y60.482
X-7.377 Y60.461
X-7.346 Y60.452
X-7.315 Y60.442
X-7.256 Y60.423
X-7.211 Y60.407
X-7.187 Y60.397
X-7.121 Y60.37
X-7.079 Y60.361
X-7.037 Y60.364
X-6.998 Y60.378
X-6.963 Y60.403
X-6.938 Y60.436
X-6.922 Y60.476
X-6.831 Y60.86
X-6.71 Y61.365
X-6.706 Y61.409
X-6.715 Y61.452
X-6.737 Y61.491
X-6.768 Y61.522
X-6.807 Y61.542
X-6.851 Y61.55
X-7.301
X-7.357 Y61.547
X-7.397 Y61.542
X-7.441 Y61.532
X-7.489 Y61.518
X-7.537 Y61.5
X-7.586 Y61.476
X-7.636 Y61.446
X-7.687 Y61.41
X-7.734 Y61.371
X-7.779 Y61.327
X-7.82 Y61.281
X-7.857 Y61.231
X-7.889 Y61.18
X-7.917 Y61.125
X-7.94 Y61.071
X-7.958 Y61.013
X-7.972 Y60.956
X-7.977 Y60.927
X-7.981 Y60.866
X-7.974 Y60.805
X-7.957 Y60.746
X-7.929 Y60.69
X-7.893 Y60.641
X-7.848 Y60.599
X-7.797 Y60.565
X-7.74 Y60.541
X-7.68 Y60.527
X-7.66 Y60.524
X-7.615 Y60.516
X-7.57 Y60.508
X-7.525 Y60.499
X-7.48 Y60.489
X-7.436 Y60.477
X-7.394 Y60.474
X-7.354 Y60.482
X-7.317 Y60.501
X-7.287 Y60.529
X-7.265 Y60.565
X-7.255 Y60.605
X-7.224 Y60.849
X-7.157 Y61.381
Y61.423
X-7.169 Y61.462
X-7.192 Y61.497
X-7.222 Y61.525
X-7.26 Y61.543
X-7.301 Y61.55
X-7.73
X-7.761 Y61.548
X-7.798 Y61.544
X-7.837 Y61.535
X-7.877 Y61.523
X-7.92 Y61.507
X-7.963 Y61.486
X-8.007 Y61.46
X-8.051 Y61.429
X-8.093 Y61.394
X-8.134 Y61.354
X-8.171 Y61.312
X-8.204 Y61.267
X-8.234 Y61.219
X-8.259 Y61.17
X-8.282 Y61.117
X-8.298 Y61.065
X-8.312 Y61.009
X-8.32 Y60.955
X-8.325 Y60.898
Y60.897
X-8.319 Y60.837
X-8.303 Y60.779
X-8.278 Y60.725
X-8.243 Y60.675
X-8.201 Y60.632
X-8.152 Y60.598
X-8.097 Y60.572
X-8.039 Y60.555
X-7.979 Y60.549
X-7.975
X-7.93 Y60.548
X-7.885 Y60.546
X-7.84 Y60.544
X-7.795 Y60.54
X-7.75 Y60.535
X-7.71 Y60.538
X-7.671 Y60.551
X-7.638 Y60.575
X-7.612 Y60.606
X-7.595 Y60.644
X-7.59 Y60.684
X-7.589 Y60.845
X-7.585 Y61.399
Y61.4
X-7.592 Y61.445
X-7.613 Y61.487
X-7.645 Y61.52
X-7.685 Y61.541
X-7.73 Y61.55
X-8.11
X-8.131 Y61.549
X-8.164 Y61.545
X-8.2 Y61.537
X-8.237 Y61.526
X-8.276 Y61.511
X-8.317 Y61.491
X-8.357 Y61.467
X-8.398 Y61.438
X-8.438 Y61.405
X-8.478 Y61.366
X-8.513 Y61.326
X-8.547 Y61.281
X-8.575 Y61.235
X-8.6 Y61.186
X-8.622 Y61.135
X-8.639 Y61.083
X-8.652 Y61.029
X-8.66 Y60.976
X-8.664 Y60.919
Y60.898
X-8.658 Y60.837
X-8.642 Y60.779
X-8.616 Y60.724
X-8.581 Y60.674
X-8.538 Y60.631
X-8.488 Y60.597
X-8.433 Y60.571
X-8.375 Y60.555
X-8.314 Y60.55
X-8.02
X-7.98 Y60.557
X-7.942 Y60.575
X-7.911 Y60.603
X-7.889 Y60.638
X-7.877 Y60.678
Y60.719
X-7.894 Y60.85
X-7.967 Y61.419
X-7.978 Y61.46
X-8. Y61.496
X-8.031 Y61.524
X-8.069 Y61.543
X-8.11 Y61.55
X-8.45
X-8.481 Y61.548
X-8.513 Y61.544
X-8.548 Y61.537
X-8.585 Y61.526
X-8.622 Y61.511
X-8.661 Y61.492
X-8.701 Y61.469
X-8.74 Y61.441
X-8.779 Y61.409
X-8.818 Y61.371
X-8.853 Y61.331
X-8.886 Y61.286
X-8.915 Y61.239
X-8.941 Y61.19
X-8.962 Y61.138
X-8.979 Y61.087
X-8.992 Y61.032
X-9.001 Y60.979
X-9.005 Y60.922
Y60.898
X-8.999 Y60.837
X-8.983 Y60.779
X-8.957 Y60.724
X-8.922 Y60.674
X-8.879 Y60.631
X-8.829 Y60.597
X-8.774 Y60.571
X-8.715 Y60.555
X-8.655 Y60.55
X-8.335
X-8.294 Y60.557
X-8.256 Y60.576
X-8.225 Y60.605
X-8.203 Y60.641
X-8.192 Y60.682
X-8.193 Y60.724
X-8.214 Y60.853
X-8.307 Y61.424
X-8.319 Y61.464
X-8.342 Y61.498
X-8.373 Y61.525
X-8.41 Y61.543
X-8.45 Y61.55
X-8.785
X-8.824 Y61.548
X-8.856 Y61.544
X-8.89 Y61.537
X-8.927 Y61.526
X-8.964 Y61.511
X-9.002 Y61.492
X-9.042 Y61.469
X-9.081 Y61.441
X-9.12 Y61.409
X-9.159 Y61.372
X-9.194 Y61.331
X-9.227 Y61.286
X-9.256 Y61.239
X-9.282 Y61.19
X-9.303 Y61.139
X-9.32 Y61.087
X-9.333 Y61.032
X-9.342 Y60.979
X-9.346 Y60.922
Y60.898
X-9.34 Y60.837
X-9.324 Y60.779
X-9.298 Y60.724
X-9.263 Y60.674
X-9.22 Y60.631
X-9.17 Y60.597
X-9.115 Y60.571
X-9.056 Y60.555
X-8.996 Y60.55
X-8.695
X-8.654 Y60.557
X-8.617 Y60.575
X-8.586 Y60.603
X-8.564 Y60.638
X-8.552 Y60.678
Y60.719
X-8.568 Y60.85
X-8.642 Y61.419
X-8.653 Y61.46
X-8.675 Y61.496
X-8.706 Y61.524
X-8.744 Y61.543
X-8.785 Y61.55
X-9.145
X-9.165 Y61.549
X-9.196 Y61.545
X-9.231 Y61.538
X-9.267 Y61.527
X-9.304 Y61.512
X-9.343 Y61.493
X-9.383 Y61.47
X-9.422 Y61.442
X-9.461 Y61.41
X-9.5 Y61.372
X-9.535 Y61.332
X-9.568 Y61.287
X-9.598 Y61.24
X-9.623 Y61.191
X-9.644 Y61.139
X-9.661 Y61.088
X-9.675 Y61.032
X-9.683 Y60.979
X-9.687 Y60.922
Y60.898
X-9.681 Y60.837
X-9.665 Y60.779
X-9.639 Y60.724
X-9.604 Y60.674
X-9.561 Y60.631
X-9.511 Y60.597
X-9.456 Y60.571
X-9.398 Y60.555
X-9.337 Y60.55
X-9.055
X-9.014 Y60.557
X-8.977 Y60.575
X-8.946 Y60.603
X-8.924 Y60.638
X-8.912 Y60.678
Y60.719
X-8.928 Y60.85
X-9.002 Y61.419
X-9.013 Y61.46
X-9.035 Y61.496
X-9.066 Y61.524
X-9.104 Y61.543
X-9.145 Y61.55
X-9.46
X-9.507 Y61.548
X-9.539 Y61.544
X-9.572 Y61.536
X-9.609 Y61.525
X-9.646 Y61.511
X-9.685 Y61.492
X-9.724 Y61.469
X-9.764 Y61.441
X-9.802 Y61.409
X-9.841 Y61.371
X-9.876 Y61.331
X-9.91 Y61.286
X-9.939 Y61.239
X-9.964 Y61.19
X-9.985 Y61.139
X-10.002 Y61.087
X-10.016 Y61.032
X-10.024 Y60.979
X-10.028 Y60.922
Y60.898
X-10.022 Y60.837
X-10.006 Y60.779
X-9.98 Y60.724
X-9.945 Y60.674
X-9.902 Y60.631
X-9.852 Y60.597
X-9.797 Y60.571
X-9.738 Y60.555
X-9.678 Y60.55
X-9.37
X-9.329 Y60.557
X-9.292 Y60.575
X-9.261 Y60.603
X-9.239 Y60.638
X-9.227 Y60.678
Y60.719
X-9.243 Y60.85
X-9.316 Y61.419
X-9.328 Y61.46
X-9.35 Y61.496
X-9.381 Y61.524
X-9.419 Y61.543
X-9.46 Y61.55
X-9.82
X-9.847 Y61.549
X-9.879 Y61.544
X-9.913 Y61.537
X-9.95 Y61.526
X-9.987 Y61.512
X-10.025 Y61.493
X-10.065 Y61.469
X-10.105 Y61.442
X-10.143 Y61.41
X-10.182 Y61.372
X-10.217 Y61.332
X-10.251 Y61.286
X-10.28 Y61.24
X-10.305 Y61.191
X-10.327 Y61.139
X-10.343 Y61.087
X-10.357 Y61.032
X-10.365 Y60.979
X-10.369 Y60.922
Y60.898
X-10.363 Y60.837
X-10.347 Y60.779
X-10.321 Y60.724
X-10.286 Y60.674
X-10.243 Y60.631
X-10.193 Y60.597
X-10.138 Y60.571
X-10.08 Y60.555
X-10.019 Y60.55
X-9.73
X-9.689 Y60.557
X-9.652 Y60.575
X-9.621 Y60.603
X-9.599 Y60.638
X-9.587 Y60.678
X-9.586 Y60.719
X-9.603 Y60.85
X-9.676 Y61.419
X-9.688 Y61.46
X-9.71 Y61.496
X-9.741 Y61.524
X-9.778 Y61.543
X-9.82 Y61.55
X-10.16
X-10.188 Y61.549
X-10.22 Y61.544
X-10.254 Y61.537
X-10.291 Y61.526
X-10.328 Y61.512
X-10.366 Y61.493
X-10.406 Y61.469
X-10.446 Y61.442
X-10.484 Y61.41
X-10.523 Y61.372
X-10.558 Y61.332
X-10.592 Y61.286
X-10.621 Y61.24
X-10.646 Y61.191
X-10.668 Y61.139
X-10.685 Y61.087
X-10.698 Y61.032
X-10.706 Y60.979
X-10.71 Y60.922
Y60.898
X-10.705 Y60.837
X-10.689 Y60.779
X-10.663 Y60.724
X-10.628 Y60.674
X-10.584 Y60.631
X-10.535 Y60.597
X-10.479 Y60.571
X-10.421 Y60.555
X-10.36 Y60.55
X-10.045
X-10.003 Y60.557
X-9.965 Y60.576
X-9.934 Y60.605
X-9.912 Y60.641
X-9.901 Y60.682
X-9.902 Y60.724
X-9.923 Y60.853
X-10.017 Y61.424
X-10.029 Y61.464
X-10.051 Y61.498
X-10.082 Y61.525
X-10.119 Y61.543
X-10.16 Y61.55
X-10.495
X-10.53 Y61.548
X-10.561 Y61.544
X-10.595 Y61.537
X-10.632 Y61.526
X-10.669 Y61.511
X-10.708 Y61.493
X-10.748 Y61.469
X-10.787 Y61.442
X-10.826 Y61.409
X-10.864 Y61.372
X-10.899 Y61.331
X-10.933 Y61.286
X-10.962 Y61.24
X-10.987 Y61.191
X-11.009 Y61.139
X-11.026 Y61.087
X-11.039 Y61.032
X-11.047 Y60.979
X-11.051 Y60.922
Y60.898
X-11.046 Y60.837
X-11.03 Y60.779
X-11.004 Y60.724
X-10.969 Y60.674
X-10.926 Y60.631
X-10.876 Y60.597
X-10.821 Y60.571
X-10.762 Y60.555
X-10.701 Y60.55
X-10.405
X-10.364 Y60.557
X-10.327 Y60.575
X-10.296 Y60.603
X-10.273 Y60.638
X-10.262 Y60.678
X-10.261 Y60.719
X-10.278 Y60.85
X-10.351 Y61.419
X-10.362 Y61.46
X-10.384 Y61.496
X-10.416 Y61.524
X-10.453 Y61.543
X-10.495 Y61.55
X-10.834
X-10.871 Y61.548
X-10.902 Y61.544
X-10.936 Y61.537
X-10.973 Y61.526
X-11.01 Y61.511
X-11.049 Y61.493
X-11.089 Y61.469
X-11.128 Y61.441
X-11.167 Y61.409
X-11.205 Y61.372
X-11.24 Y61.331
X-11.274 Y61.286
X-11.303 Y61.24
X-11.328 Y61.19
X-11.35 Y61.139
X-11.367 Y61.087
X-11.38 Y61.032
X-11.388 Y60.979
X-11.392 Y60.922
Y60.898
X-11.387 Y60.837
X-11.371 Y60.779
X-11.345 Y60.724
X-11.31 Y60.674
X-11.267 Y60.631
X-11.217 Y60.597
X-11.162 Y60.571
X-11.103 Y60.555
X-11.042 Y60.55
X-10.765
X-10.725 Y60.557
X-10.688 Y60.574
X-10.657 Y60.601
X-10.635 Y60.635
X-10.622 Y60.674
X-10.621 Y60.715
X-10.634 Y60.848
X-10.69 Y61.415
X-10.701 Y61.457
X-10.722 Y61.494
X-10.754 Y61.523
X-10.792 Y61.542
X-10.834 Y61.55
X-11.17
X-11.212 Y61.548
X-11.244 Y61.544
X-11.278 Y61.536
X-11.314 Y61.525
X-11.351 Y61.511
X-11.39 Y61.492
X-11.43 Y61.469
X-11.469 Y61.441
X-11.508 Y61.409
X-11.546 Y61.371
X-11.581 Y61.331
X-11.615 Y61.286
X-11.644 Y61.239
X-11.669 Y61.19
X-11.691 Y61.139
X-11.708 Y61.087
X-11.721 Y61.032
X-11.729 Y60.979
X-11.733 Y60.922
Y60.898
X-11.728 Y60.837
X-11.712 Y60.779
X-11.686 Y60.724
X-11.651 Y60.674
X-11.608 Y60.631
X-11.558 Y60.597
X-11.503 Y60.571
X-11.444 Y60.555
X-11.383 Y60.55
X-11.08
X-11.039 Y60.557
X-11.001 Y60.575
X-10.971 Y60.603
X-10.948 Y60.638
X-10.937 Y60.678
X-10.936 Y60.719
X-10.953 Y60.85
X-11.026 Y61.419
X-11.037 Y61.46
X-11.059 Y61.496
X-11.09 Y61.524
X-11.128 Y61.543
X-11.17 Y61.55
X-11.53
X-11.552 Y61.549
X-11.584 Y61.545
X-11.618 Y61.537
X-11.655 Y61.526
X-11.692 Y61.512
X-11.731 Y61.493
X-11.771 Y61.47
X-11.81 Y61.442
X-11.849 Y61.41
X-11.887 Y61.372
X-11.923 Y61.332
X-11.956 Y61.287
X-11.985 Y61.24
X-12.01 Y61.191
X-12.032 Y61.139
X-12.049 Y61.088
X-12.062 Y61.032
X-12.07 Y60.979
X-12.075 Y60.922
X-12.074 Y60.898
X-12.069 Y60.837
X-12.053 Y60.779
X-12.027 Y60.724
X-11.992 Y60.674
X-11.949 Y60.631
X-11.899 Y60.597
X-11.844 Y60.571
X-11.785 Y60.555
X-11.724 Y60.55
X-11.44
X-11.399 Y60.557
X-11.361 Y60.575
X-11.33 Y60.603
X-11.308 Y60.638
X-11.296 Y60.678
Y60.719
X-11.313 Y60.85
X-11.386 Y61.419
X-11.397 Y61.46
X-11.419 Y61.496
X-11.45 Y61.524
X-11.488 Y61.543
X-11.53 Y61.55
X-11.869
X-11.894 Y61.549
X-11.925 Y61.545
X-11.959 Y61.537
X-11.996 Y61.526
X-12.033 Y61.512
X-12.072 Y61.493
X-12.112 Y61.47
X-12.151 Y61.442
X-12.19 Y61.41
X-12.228 Y61.372
X-12.264 Y61.332
X-12.297 Y61.287
X-12.326 Y61.24
X-12.351 Y61.191
X-12.373 Y61.139
X-12.39 Y61.088
X-12.403 Y61.032
X-12.411 Y60.979
X-12.416 Y60.922
Y60.898
X-12.41 Y60.837
X-12.394 Y60.779
X-12.368 Y60.724
X-12.333 Y60.674
X-12.29 Y60.631
X-12.24 Y60.597
X-12.185 Y60.571
X-12.126 Y60.555
X-12.066 Y60.55
X-11.754
X-11.713 Y60.557
X-11.675 Y60.576
X-11.644 Y60.605
X-11.622 Y60.641
X-11.611 Y60.682
X-11.612 Y60.724
X-11.633 Y60.853
X-11.726 Y61.424
X-11.739 Y61.464
X-11.761 Y61.498
X-11.792 Y61.525
X-11.829 Y61.543
X-11.869 Y61.55
X-12.204
X-12.235 Y61.548
X-12.267 Y61.544
X-12.301 Y61.537
X-12.337 Y61.526
X-12.375 Y61.512
X-12.413 Y61.493
X-12.453 Y61.469
X-12.492 Y61.442
X-12.531 Y61.41
X-12.57 Y61.372
X-12.605 Y61.332
X-12.638 Y61.286
X-12.667 Y61.24
X-12.693 Y61.191
X-12.714 Y61.139
X-12.731 Y61.087
X-12.744 Y61.032
X-12.753 Y60.979
X-12.757 Y60.922
Y60.898
X-12.751 Y60.837
X-12.735 Y60.779
X-12.709 Y60.724
X-12.674 Y60.674
X-12.631 Y60.631
X-12.581 Y60.597
X-12.526 Y60.571
X-12.467 Y60.555
X-12.407 Y60.55
X-12.114
X-12.074 Y60.557
X-12.036 Y60.575
X-12.005 Y60.603
X-11.983 Y60.638
X-11.971 Y60.678
Y60.719
X-11.988 Y60.85
X-12.061 Y61.419
X-12.072 Y61.46
X-12.094 Y61.496
X-12.125 Y61.524
X-12.163 Y61.543
X-12.204 Y61.55
X-12.544
X-12.576 Y61.548
X-12.608 Y61.544
X-12.642 Y61.537
X-12.679 Y61.526
X-12.716 Y61.512
X-12.754 Y61.493
X-12.794 Y61.469
X-12.833 Y61.442
X-12.872 Y61.41
X-12.911 Y61.372
X-12.946 Y61.332
X-12.979 Y61.286
X-13.008 Y61.24
X-13.034 Y61.191
X-13.055 Y61.139
X-13.072 Y61.087
X-13.085 Y61.032
X-13.094 Y60.979
X-13.098 Y60.922
Y60.898
X-13.092 Y60.837
X-13.076 Y60.779
X-13.05 Y60.724
X-13.015 Y60.674
X-12.972 Y60.631
X-12.922 Y60.597
X-12.867 Y60.571
X-12.808 Y60.555
X-12.748 Y60.55
X-12.429
X-12.388 Y60.557
X-12.35 Y60.576
X-12.319 Y60.605
X-12.297 Y60.641
X-12.286 Y60.682
X-12.287 Y60.724
X-12.308 Y60.853
X-12.401 Y61.424
X-12.413 Y61.464
X-12.436 Y61.498
X-12.467 Y61.525
X-12.504 Y61.543
X-12.544 Y61.55
X-12.879
X-12.917 Y61.548
X-12.949 Y61.544
X-12.983 Y61.537
X-13.02 Y61.526
X-13.057 Y61.511
X-13.095 Y61.493
X-13.135 Y61.469
X-13.175 Y61.441
X-13.213 Y61.409
X-13.252 Y61.372
X-13.287 Y61.331
X-13.32 Y61.286
X-13.349 Y61.239
X-13.375 Y61.19
X-13.396 Y61.139
X-13.413 Y61.087
X-13.426 Y61.032
X-13.435 Y60.979
X-13.439 Y60.922
Y60.898
X-13.433 Y60.837
X-13.417 Y60.779
X-13.391 Y60.724
X-13.356 Y60.674
X-13.313 Y60.631
X-13.263 Y60.597
X-13.208 Y60.571
X-13.149 Y60.555
X-13.089 Y60.55
X-12.789
X-12.748 Y60.557
X-12.711 Y60.575
X-12.68 Y60.603
X-12.658 Y60.638
X-12.646 Y60.678
Y60.719
X-12.662 Y60.85
X-12.736 Y61.419
X-12.747 Y61.46
X-12.769 Y61.496
X-12.8 Y61.524
X-12.838 Y61.543
X-12.879 Y61.55
X-13.219
X-13.258 Y61.548
X-13.29 Y61.544
X-13.324 Y61.537
X-13.361 Y61.526
X-13.398 Y61.511
X-13.436 Y61.492
X-13.476 Y61.469
X-13.516 Y61.441
X-13.554 Y61.409
X-13.593 Y61.372
X-13.628 Y61.331
X-13.661 Y61.286
X-13.69 Y61.239
X-13.716 Y61.19
X-13.737 Y61.139
X-13.754 Y61.087
X-13.767 Y61.032
X-13.776 Y60.979
X-13.78 Y60.922
Y60.898
X-13.774 Y60.837
X-13.758 Y60.779
X-13.732 Y60.724
X-13.697 Y60.674
X-13.654 Y60.631
X-13.604 Y60.597
X-13.549 Y60.571
X-13.49 Y60.555
X-13.43 Y60.55
X-13.149
X-13.109 Y60.557
X-13.072 Y60.574
X-13.041 Y60.601
X-13.019 Y60.635
X-13.007 Y60.674
X-13.005 Y60.715
X-13.018 Y60.848
X-13.075 Y61.415
X-13.085 Y61.457
X-13.107 Y61.494
X-13.138 Y61.523
X-13.177 Y61.542
X-13.219 Y61.55
X-13.554
X-13.6 Y61.548
X-13.631 Y61.544
X-13.665 Y61.536
X-13.702 Y61.525
X-13.739 Y61.511
X-13.777 Y61.492
X-13.817 Y61.469
X-13.857 Y61.441
X-13.895 Y61.409
X-13.934 Y61.371
X-13.969 Y61.331
X-14.002 Y61.286
X-14.031 Y61.239
X-14.057 Y61.19
X-14.078 Y61.139
X-14.095 Y61.087
X-14.108 Y61.032
X-14.117 Y60.979
X-14.121 Y60.922
Y60.898
X-14.115 Y60.837
X-14.099 Y60.779
X-14.073 Y60.724
X-14.038 Y60.674
X-13.995 Y60.631
X-13.945 Y60.597
X-13.89 Y60.571
X-13.831 Y60.555
X-13.771 Y60.55
X-13.464
X-13.423 Y60.557
X-13.386 Y60.575
X-13.355 Y60.603
X-13.333 Y60.638
X-13.321 Y60.678
Y60.719
X-13.337 Y60.85
X-13.411 Y61.419
X-13.422 Y61.46
X-13.444 Y61.496
X-13.475 Y61.524
X-13.513 Y61.543
X-13.554 Y61.55
X-13.914
X-13.94 Y61.549
X-13.972 Y61.545
X-14.006 Y61.537
X-14.042 Y61.526
X-14.079 Y61.512
X-14.118 Y61.493
X-14.158 Y61.47
X-14.197 Y61.442
X-14.236 Y61.41
X-14.275 Y61.372
X-14.31 Y61.332
X-14.343 Y61.287
X-14.372 Y61.24
X-14.398 Y61.191
X-14.419 Y61.139
X-14.436 Y61.087
X-14.449 Y61.032
X-14.458 Y60.979
X-14.462 Y60.922
Y60.898
X-14.456 Y60.837
X-14.44 Y60.779
X-14.414 Y60.724
X-14.379 Y60.674
X-14.336 Y60.631
X-14.286 Y60.597
X-14.231 Y60.571
X-14.172 Y60.555
X-14.112 Y60.55
X-13.824
X-13.783 Y60.557
X-13.746 Y60.575
X-13.715 Y60.603
X-13.693 Y60.638
X-13.681 Y60.678
X-13.68 Y60.719
X-13.697 Y60.85
X-13.77 Y61.419
X-13.782 Y61.46
X-13.804 Y61.496
X-13.835 Y61.524
X-13.873 Y61.543
X-13.914 Y61.55
X-14.254
X-14.281 Y61.549
X-14.313 Y61.544
X-14.347 Y61.537
X-14.384 Y61.526
X-14.421 Y61.512
X-14.459 Y61.493
X-14.499 Y61.47
X-14.539 Y61.442
X-14.577 Y61.41
X-14.616 Y61.372
X-14.651 Y61.332
X-14.685 Y61.287
X-14.714 Y61.24
X-14.739 Y61.191
X-14.761 Y61.139
X-14.777 Y61.088
X-14.791 Y61.032
X-14.799 Y60.979
X-14.803 Y60.926
X-14.802 Y60.869
X-14.793 Y60.812
X-14.774 Y60.758
X-14.746 Y60.707
X-14.71 Y60.662
X-14.668 Y60.623
X-14.62 Y60.592
X-14.567 Y60.569
X-14.511 Y60.555
X-14.454 Y60.55
X-14.139
X-14.097 Y60.557
X-14.059 Y60.576
X-14.028 Y60.605
X-14.006 Y60.641
X-13.995 Y60.682
X-13.996 Y60.724
X-14.017 Y60.853
X-14.111 Y61.424
X-14.123 Y61.464
X-14.145 Y61.498
X-14.176 Y61.525
X-14.213 Y61.543
X-14.254 Y61.55
X-14.589
X-14.623 Y61.548
X-14.654 Y61.544
X-14.688 Y61.537
X-14.725 Y61.526
X-14.762 Y61.511
X-14.801 Y61.493
X-14.84 Y61.469
X-14.88 Y61.442
X-14.918 Y61.41
X-14.957 Y61.372
X-14.994 Y61.33
X-15.026 Y61.286
X-15.056 Y61.239
X-15.081 Y61.19
X-15.102 Y61.139
X-15.119 Y61.086
X-15.132 Y61.032
X-15.141 Y60.978
X-15.145 Y60.922
Y60.898
X-15.139 Y60.837
X-15.123 Y60.779
X-15.097 Y60.724
X-15.062 Y60.674
X-15.019 Y60.631
X-14.969 Y60.597
X-14.914 Y60.571
X-14.855 Y60.555
X-14.795 Y60.55
X-14.499
X-14.458 Y60.557
X-14.421 Y60.575
X-14.39 Y60.603
X-14.368 Y60.638
X-14.356 Y60.678
X-14.355 Y60.719
X-14.372 Y60.85
X-14.445 Y61.419
X-14.456 Y61.46
X-14.478 Y61.496
X-14.51 Y61.524
X-14.547 Y61.543
X-14.589 Y61.55
X-14.928
X-14.964 Y61.548
X-14.996 Y61.544
X-15.03 Y61.537
X-15.066 Y61.526
X-15.103 Y61.511
X-15.142 Y61.493
X-15.182 Y61.469
X-15.221 Y61.441
X-15.26 Y61.409
X-15.299 Y61.372
X-15.334 Y61.331
X-15.367 Y61.286
X-15.396 Y61.239
X-15.422 Y61.19
X-15.443 Y61.139
X-15.46 Y61.087
X-15.473 Y61.032
X-15.482 Y60.979
X-15.486 Y60.922
Y60.898
X-15.48 Y60.837
X-15.464 Y60.779
X-15.438 Y60.724
X-15.403 Y60.674
X-15.36 Y60.631
X-15.31 Y60.597
X-15.255 Y60.571
X-15.196 Y60.555
X-15.136 Y60.55
X-14.859
X-14.819 Y60.557
X-14.782 Y60.574
X-14.751 Y60.601
X-14.729 Y60.635
X-14.716 Y60.674
X-14.715 Y60.715
X-14.728 Y60.848
X-14.784 Y61.415
X-14.795 Y61.457
X-14.817 Y61.494
X-14.848 Y61.523
X-14.886 Y61.542
X-14.928 Y61.55
X-15.264
X-15.305 Y61.548
X-15.337 Y61.544
X-15.371 Y61.536
X-15.408 Y61.526
X-15.445 Y61.511
X-15.483 Y61.492
X-15.523 Y61.469
X-15.562 Y61.441
X-15.601 Y61.409
X-15.64 Y61.372
X-15.675 Y61.331
X-15.708 Y61.286
X-15.737 Y61.239
X-15.763 Y61.19
X-15.784 Y61.139
X-15.801 Y61.087
X-15.814 Y61.032
X-15.823 Y60.979
X-15.827 Y60.922
Y60.898
X-15.821 Y60.837
X-15.805 Y60.779
X-15.779 Y60.724
X-15.744 Y60.674
X-15.701 Y60.631
X-15.651 Y60.597
X-15.596 Y60.571
X-15.537 Y60.555
X-15.477 Y60.55
X-15.174
X-15.133 Y60.557
X-15.096 Y60.575
X-15.065 Y60.603
X-15.042 Y60.638
X-15.031 Y60.678
X-15.03 Y60.719
X-15.047 Y60.85
X-15.12 Y61.419
X-15.131 Y61.46
X-15.153 Y61.496
X-15.184 Y61.524
X-15.222 Y61.543
X-15.264 Y61.55
X-15.624
X-15.646 Y61.549
X-15.677 Y61.545
X-15.712 Y61.537
X-15.748 Y61.526
X-15.785 Y61.512
X-15.824 Y61.493
X-15.864 Y61.47
X-15.903 Y61.442
X-15.942 Y61.41
X-15.981 Y61.372
X-16.016 Y61.332
X-16.049 Y61.287
X-16.078 Y61.24
X-16.104 Y61.191
X-16.125 Y61.139
X-16.142 Y61.088
X-16.155 Y61.032
X-16.164 Y60.979
X-16.168 Y60.922
Y60.898
X-16.162 Y60.837
X-16.146 Y60.779
X-16.12 Y60.724
X-16.085 Y60.674
X-16.042 Y60.631
X-15.992 Y60.597
X-15.937 Y60.571
X-15.878 Y60.555
X-15.818 Y60.55
X-15.534
X-15.493 Y60.557
X-15.455 Y60.575
X-15.424 Y60.603
X-15.402 Y60.638
X-15.39 Y60.678
Y60.719
X-15.407 Y60.85
X-15.48 Y61.419
X-15.491 Y61.46
X-15.513 Y61.496
X-15.544 Y61.524
X-15.582 Y61.543
X-15.624 Y61.55
X-15.963
X-15.987 Y61.549
X-16.019 Y61.545
X-16.053 Y61.537
X-16.09 Y61.526
X-16.127 Y61.512
X-16.165 Y61.493
X-16.205 Y61.47
X-16.245 Y61.442
X-16.283 Y61.41
X-16.322 Y61.372
X-16.357 Y61.332
X-16.391 Y61.287
X-16.42 Y61.24
X-16.445 Y61.191
X-16.467 Y61.139
X-16.483 Y61.088
X-16.497 Y61.032
X-16.505 Y60.979
X-16.509 Y60.922
Y60.898
X-16.503 Y60.837
X-16.487 Y60.779
X-16.462 Y60.724
X-16.426 Y60.674
X-16.383 Y60.631
X-16.333 Y60.597
X-16.278 Y60.571
X-16.22 Y60.555
X-16.159 Y60.55
X-15.849
X-15.807 Y60.557
X-15.769 Y60.576
X-15.738 Y60.605
X-15.716 Y60.641
X-15.705 Y60.682
X-15.706 Y60.724
X-15.727 Y60.853
X-15.82 Y61.424
X-15.833 Y61.464
X-15.855 Y61.498
X-15.886 Y61.525
X-15.923 Y61.543
X-15.963 Y61.55
X-16.298
X-16.329 Y61.548
X-16.36 Y61.544
X-16.394 Y61.537
X-16.431 Y61.526
X-16.468 Y61.512
X-16.507 Y61.493
X-16.546 Y61.469
X-16.586 Y61.442
X-16.624 Y61.41
X-16.663 Y61.372
X-16.698 Y61.332
X-16.732 Y61.286
X-16.761 Y61.24
X-16.786 Y61.191
X-16.808 Y61.139
X-16.825 Y61.087
X-16.838 Y61.032
X-16.846 Y60.979
X-16.85 Y60.922
Y60.898
X-16.845 Y60.837
X-16.829 Y60.779
X-16.803 Y60.724
X-16.768 Y60.674
X-16.724 Y60.631
X-16.675 Y60.597
X-16.619 Y60.571
X-16.561 Y60.555
X-16.5 Y60.55
X-16.208
X-16.168 Y60.557
X-16.13 Y60.575
X-16.099 Y60.603
X-16.077 Y60.638
X-16.065 Y60.678
Y60.719
X-16.082 Y60.85
X-16.155 Y61.419
X-16.166 Y61.46
X-16.188 Y61.496
X-16.219 Y61.524
X-16.257 Y61.543
X-16.298 Y61.55
X-16.638
X-16.67 Y61.548
X-16.701 Y61.544
X-16.735 Y61.537
X-16.772 Y61.526
X-16.809 Y61.512
X-16.848 Y61.493
X-16.888 Y61.469
X-16.927 Y61.442
X-16.966 Y61.41
X-17.004 Y61.372
X-17.039 Y61.332
X-17.073 Y61.286
X-17.102 Y61.24
X-17.127 Y61.191
X-17.149 Y61.139
X-17.166 Y61.087
X-17.179 Y61.032
X-17.187 Y60.979
X-17.191 Y60.922
Y60.898
X-17.186 Y60.837
X-17.17 Y60.779
X-17.144 Y60.724
X-17.109 Y60.674
X-17.066 Y60.631
X-17.016 Y60.597
X-16.961 Y60.571
X-16.902 Y60.555
X-16.841 Y60.55
X-16.523
X-16.482 Y60.557
X-16.444 Y60.576
X-16.413 Y60.605
X-16.391 Y60.641
X-16.38 Y60.682
X-16.381 Y60.724
X-16.402 Y60.853
X-16.495 Y61.424
X-16.507 Y61.464
X-16.53 Y61.498
X-16.561 Y61.525
X-16.598 Y61.543
X-16.638 Y61.55
X-16.973
X-17.011 Y61.548
X-17.042 Y61.544
X-17.077 Y61.537
X-17.113 Y61.526
X-17.15 Y61.511
X-17.189 Y61.493
X-17.229 Y61.469
X-17.268 Y61.441
X-17.307 Y61.409
X-17.345 Y61.372
X-17.381 Y61.331
X-17.414 Y61.286
X-17.443 Y61.24
X-17.468 Y61.19
X-17.49 Y61.139
X-17.507 Y61.087
X-17.52 Y61.032
X-17.528 Y60.979
X-17.532 Y60.922
Y60.898
X-17.527 Y60.837
X-17.511 Y60.779
X-17.485 Y60.724
X-17.45 Y60.674
X-17.407 Y60.631
X-17.357 Y60.597
X-17.302 Y60.571
X-17.243 Y60.555
X-17.182 Y60.55
X-16.883
X-16.842 Y60.557
X-16.805 Y60.575
X-16.774 Y60.603
X-16.752 Y60.638
X-16.74 Y60.678
Y60.719
X-16.757 Y60.85
X-16.83 Y61.419
X-16.841 Y61.46
X-16.863 Y61.496
X-16.894 Y61.524
X-16.932 Y61.543
X-16.973 Y61.55
X-17.313
X-17.352 Y61.548
X-17.384 Y61.544
X-17.418 Y61.537
X-17.454 Y61.526
X-17.491 Y61.511
X-17.53 Y61.493
X-17.57 Y61.469
X-17.609 Y61.441
X-17.648 Y61.409
X-17.686 Y61.372
X-17.722 Y61.331
X-17.755 Y61.286
X-17.784 Y61.239
X-17.809 Y61.19
X-17.831 Y61.139
X-17.848 Y61.087
X-17.861 Y61.032
X-17.869 Y60.979
X-17.873 Y60.922
Y60.898
X-17.868 Y60.837
X-17.852 Y60.779
X-17.826 Y60.724
X-17.791 Y60.674
X-17.748 Y60.631
X-17.698 Y60.597
X-17.643 Y60.571
X-17.584 Y60.555
X-17.523 Y60.55
X-17.243
X-17.203 Y60.557
X-17.166 Y60.574
X-17.135 Y60.601
X-17.113 Y60.635
X-17.101 Y60.674
X-17.099 Y60.715
X-17.112 Y60.848
X-17.169 Y61.415
X-17.179 Y61.457
X-17.201 Y61.494
X-17.232 Y61.523
X-17.271 Y61.542
X-17.313 Y61.55
X-17.648
X-17.693 Y61.548
X-17.725 Y61.544
X-17.759 Y61.536
X-17.795 Y61.525
X-17.832 Y61.511
X-17.871 Y61.492
X-17.911 Y61.469
X-17.95 Y61.441
X-17.989 Y61.409
X-18.027 Y61.371
X-18.063 Y61.331
X-18.096 Y61.286
X-18.125 Y61.239
X-18.15 Y61.19
X-18.172 Y61.139
X-18.189 Y61.087
X-18.202 Y61.032
X-18.21 Y60.979
X-18.214 Y60.922
Y60.898
X-18.209 Y60.837
X-18.193 Y60.779
X-18.167 Y60.724
X-18.132 Y60.674
X-18.089 Y60.631
X-18.039 Y60.597
X-17.984 Y60.571
X-17.925 Y60.555
X-17.864 Y60.55
X-17.558
X-17.517 Y60.557
X-17.48 Y60.575
X-17.449 Y60.603
X-17.427 Y60.638
X-17.415 Y60.678
Y60.719
X-17.431 Y60.85
X-17.505 Y61.419
X-17.516 Y61.46
X-17.538 Y61.496
X-17.569 Y61.524
X-17.607 Y61.543
X-17.648 Y61.55
X-18.008
X-18.033 Y61.549
X-18.065 Y61.545
X-18.099 Y61.537
X-18.136 Y61.526
X-18.173 Y61.512
X-18.212 Y61.493
X-18.252 Y61.47
X-18.291 Y61.442
X-18.33 Y61.41
X-18.368 Y61.372
X-18.404 Y61.332
X-18.437 Y61.287
X-18.466 Y61.24
X-18.491 Y61.191
X-18.513 Y61.139
X-18.53 Y61.088
X-18.543 Y61.032
X-18.551 Y60.979
X-18.556 Y60.922
X-18.555 Y60.898
X-18.55 Y60.837
X-18.534 Y60.779
X-18.508 Y60.724
X-18.473 Y60.674
X-18.43 Y60.631
X-18.38 Y60.597
X-18.325 Y60.571
X-18.266 Y60.555
X-18.205 Y60.55
X-17.918
X-17.877 Y60.557
X-17.84 Y60.575
X-17.809 Y60.603
X-17.787 Y60.638
X-17.775 Y60.678
X-17.774 Y60.719
X-17.791 Y60.85
X-17.864 Y61.419
X-17.876 Y61.46
X-17.898 Y61.496
X-17.929 Y61.524
X-17.967 Y61.543
X-18.008 Y61.55
X-18.348
X-18.375 Y61.549
X-18.406 Y61.544
X-18.44 Y61.537
X-18.477 Y61.526
X-18.514 Y61.512
X-18.553 Y61.493
X-18.593 Y61.47
X-18.632 Y61.442
X-18.671 Y61.41
X-18.709 Y61.372
X-18.745 Y61.332
X-18.778 Y61.287
X-18.807 Y61.24
X-18.832 Y61.191
X-18.854 Y61.139
X-18.871 Y61.088
X-18.884 Y61.032
X-18.892 Y60.979
X-18.897 Y60.922
Y60.898
X-18.891 Y60.837
X-18.875 Y60.779
X-18.849 Y60.724
X-18.814 Y60.674
X-18.771 Y60.631
X-18.721 Y60.597
X-18.666 Y60.571
X-18.607 Y60.555
X-18.547 Y60.55
X-18.233
X-18.191 Y60.557
X-18.153 Y60.576
X-18.122 Y60.605
X-18.1 Y60.641
X-18.089 Y60.682
X-18.09 Y60.724
X-18.111 Y60.853
X-18.205 Y61.424
X-18.217 Y61.464
X-18.239 Y61.498
X-18.27 Y61.525
X-18.307 Y61.543
X-18.348 Y61.55
X-18.683
X-18.716 Y61.548
X-18.748 Y61.544
X-18.782 Y61.537
X-18.818 Y61.526
X-18.855 Y61.511
X-18.894 Y61.493
X-18.934 Y61.469
X-18.973 Y61.442
X-19.012 Y61.41
X-19.051 Y61.372
X-19.086 Y61.331
X-19.119 Y61.286
X-19.148 Y61.24
X-19.174 Y61.191
X-19.195 Y61.139
X-19.212 Y61.087
X-19.225 Y61.032
X-19.234 Y60.979
X-19.238 Y60.922
Y60.898
X-19.232 Y60.837
X-19.216 Y60.779
X-19.19 Y60.724
X-19.155 Y60.674
X-19.112 Y60.631
X-19.062 Y60.597
X-19.007 Y60.571
X-18.948 Y60.555
X-18.888 Y60.55
X-18.593
X-18.552 Y60.557
X-18.515 Y60.575
X-18.484 Y60.603
X-18.462 Y60.638
X-18.45 Y60.678
X-18.449 Y60.719
X-18.466 Y60.85
X-18.539 Y61.419
X-18.55 Y61.46
X-18.572 Y61.496
X-18.604 Y61.524
X-18.641 Y61.543
X-18.683 Y61.55
X-19.023
X-19.057 Y61.548
X-19.089 Y61.544
X-19.123 Y61.537
X-19.159 Y61.526
X-19.197 Y61.511
X-19.235 Y61.493
X-19.275 Y61.469
X-19.314 Y61.442
X-19.353 Y61.409
X-19.392 Y61.372
X-19.427 Y61.331
X-19.46 Y61.286
X-19.489 Y61.24
X-19.515 Y61.191
X-19.536 Y61.139
X-19.553 Y61.087
X-19.566 Y61.032
X-19.575 Y60.979
X-19.579 Y60.922
Y60.898
X-19.573 Y60.837
X-19.557 Y60.779
X-19.531 Y60.724
X-19.496 Y60.674
X-19.453 Y60.631
X-19.403 Y60.597
X-19.348 Y60.571
X-19.289 Y60.555
X-19.229 Y60.55
X-18.953
X-18.913 Y60.557
X-18.876 Y60.574
X-18.845 Y60.601
X-18.823 Y60.635
X-18.81 Y60.674
X-18.809 Y60.715
X-18.822 Y60.848
X-18.878 Y61.415
X-18.889 Y61.457
X-18.911 Y61.494
X-18.942 Y61.523
X-18.98 Y61.542
X-19.023 Y61.55
X-19.358
X-19.398 Y61.548
X-19.43 Y61.544
X-19.464 Y61.537
X-19.501 Y61.526
X-19.538 Y61.511
X-19.576 Y61.492
X-19.616 Y61.469
X-19.655 Y61.441
X-19.694 Y61.409
X-19.733 Y61.372
X-19.768 Y61.331
X-19.801 Y61.286
X-19.83 Y61.239
X-19.856 Y61.19
X-19.877 Y61.139
X-19.894 Y61.087
X-19.907 Y61.032
X-19.916 Y60.979
X-19.92 Y60.922
Y60.898
X-19.914 Y60.837
X-19.898 Y60.779
X-19.872 Y60.724
X-19.837 Y60.674
X-19.794 Y60.631
X-19.744 Y60.597
X-19.689 Y60.571
X-19.63 Y60.555
X-19.57 Y60.55
X-19.268
X-19.227 Y60.557
X-19.19 Y60.575
X-19.159 Y60.603
X-19.136 Y60.638
X-19.125 Y60.678
X-19.124 Y60.719
X-19.141 Y60.85
X-19.214 Y61.419
X-19.225 Y61.46
X-19.247 Y61.496
X-19.278 Y61.524
X-19.316 Y61.543
X-19.358 Y61.55
X-19.718
X-19.739 Y61.549
X-19.77 Y61.545
X-19.805 Y61.537
X-19.841 Y61.526
X-19.878 Y61.512
X-19.917 Y61.493
X-19.957 Y61.47
X-19.996 Y61.442
X-20.035 Y61.41
X-20.074 Y61.372
X-20.109 Y61.332
X-20.142 Y61.287
X-20.171 Y61.24
X-20.197 Y61.191
X-20.218 Y61.139
X-20.235 Y61.088
X-20.248 Y61.032
X-20.257 Y60.979
X-20.261 Y60.922
Y60.898
X-20.255 Y60.837
X-20.239 Y60.779
X-20.213 Y60.724
X-20.178 Y60.674
X-20.135 Y60.631
X-20.085 Y60.597
X-20.03 Y60.571
X-19.971 Y60.555
X-19.911 Y60.55
X-19.628
X-19.587 Y60.557
X-19.549 Y60.575
X-19.519 Y60.603
X-19.496 Y60.638
X-19.485 Y60.678
X-19.484 Y60.719
X-19.501 Y60.85
X-19.574 Y61.419
X-19.585 Y61.46
X-19.607 Y61.496
X-19.638 Y61.524
X-19.676 Y61.543
X-19.718 Y61.55
X-20.057
X-20.08 Y61.549
X-20.112 Y61.545
X-20.146 Y61.537
X-20.183 Y61.526
X-20.22 Y61.512
X-20.258 Y61.493
X-20.298 Y61.47
X-20.338 Y61.442
X-20.376 Y61.41
X-20.415 Y61.372
X-20.45 Y61.332
X-20.484 Y61.287
X-20.513 Y61.24
X-20.538 Y61.191
X-20.56 Y61.139
X-20.576 Y61.088
X-20.59 Y61.032
X-20.598 Y60.979
X-20.602 Y60.922
Y60.898
X-20.596 Y60.837
X-20.58 Y60.779
X-20.555 Y60.724
X-20.52 Y60.674
X-20.476 Y60.631
X-20.427 Y60.597
X-20.371 Y60.571
X-20.313 Y60.555
X-20.252 Y60.55
X-19.943
X-19.901 Y60.557
X-19.863 Y60.576
X-19.832 Y60.605
X-19.81 Y60.641
X-19.799 Y60.682
X-19.8 Y60.724
X-19.821 Y60.853
X-19.914 Y61.424
X-19.927 Y61.464
X-19.949 Y61.498
X-19.98 Y61.525
X-20.017 Y61.543
X-20.057 Y61.55
X-20.392
X-20.422 Y61.549
X-20.453 Y61.544
X-20.487 Y61.537
X-20.524 Y61.526
X-20.561 Y61.512
X-20.6 Y61.493
X-20.639 Y61.469
X-20.679 Y61.442
X-20.717 Y61.41
X-20.756 Y61.372
X-20.791 Y61.332
X-20.825 Y61.287
X-20.854 Y61.24
X-20.879 Y61.191
X-20.901 Y61.139
X-20.918 Y61.087
X-20.931 Y61.032
X-20.939 Y60.979
X-20.943 Y60.922
Y60.898
X-20.938 Y60.837
X-20.922 Y60.779
X-20.896 Y60.724
X-20.861 Y60.674
X-20.818 Y60.631
X-20.768 Y60.597
X-20.713 Y60.571
X-20.654 Y60.555
X-20.593 Y60.55
X-20.302
X-20.262 Y60.557
X-20.224 Y60.575
X-20.193 Y60.603
X-20.171 Y60.638
X-20.159 Y60.678
Y60.719
X-20.176 Y60.85
X-20.249 Y61.419
X-20.26 Y61.46
X-20.282 Y61.496
X-20.313 Y61.524
X-20.351 Y61.543
X-20.392 Y61.55
X-20.732
X-20.763 Y61.548
X-20.794 Y61.544
X-20.828 Y61.537
X-20.865 Y61.526
X-20.902 Y61.512
X-20.941 Y61.493
X-20.981 Y61.469
X-21.02 Y61.442
X-21.059 Y61.41
X-21.097 Y61.372
X-21.132 Y61.332
X-21.166 Y61.286
X-21.195 Y61.24
X-21.22 Y61.191
X-21.242 Y61.139
X-21.259 Y61.087
X-21.272 Y61.032
X-21.28 Y60.979
X-21.284 Y60.922
Y60.898
X-21.279 Y60.837
X-21.263 Y60.779
X-21.237 Y60.724
X-21.202 Y60.674
X-21.159 Y60.631
X-21.109 Y60.597
X-21.054 Y60.571
X-20.995 Y60.555
X-20.934 Y60.55
X-20.617
X-20.576 Y60.557
X-20.538 Y60.576
X-20.507 Y60.605
X-20.485 Y60.641
X-20.474 Y60.682
X-20.475 Y60.724
X-20.496 Y60.853
X-20.589 Y61.424
X-20.601 Y61.464
X-20.624 Y61.498
X-20.655 Y61.525
X-20.692 Y61.543
X-20.732 Y61.55
X-21.067
X-21.104 Y61.548
X-21.136 Y61.544
X-21.17 Y61.537
X-21.206 Y61.526
X-21.243 Y61.511
X-21.282 Y61.493
X-21.322 Y61.469
X-21.361 Y61.441
X-21.4 Y61.409
X-21.438 Y61.372
X-21.474 Y61.331
X-21.507 Y61.286
X-21.536 Y61.24
X-21.561 Y61.19
X-21.583 Y61.139
X-21.6 Y61.087
X-21.613 Y61.032
X-21.621 Y60.979
X-21.626 Y60.922
X-21.625 Y60.898
X-21.62 Y60.837
X-21.604 Y60.779
X-21.578 Y60.724
X-21.543 Y60.674
X-21.5 Y60.631
X-21.45 Y60.597
X-21.395 Y60.571
X-21.336 Y60.555
X-21.275 Y60.55
X-20.977
X-20.936 Y60.557
X-20.899 Y60.575
X-20.868 Y60.603
X-20.846 Y60.638
X-20.834 Y60.678
Y60.719
X-20.851 Y60.85
X-20.924 Y61.419
X-20.935 Y61.46
X-20.957 Y61.496
X-20.988 Y61.524
X-21.026 Y61.543
X-21.067 Y61.55
X-21.407
X-21.445 Y61.548
X-21.477 Y61.544
X-21.511 Y61.537
X-21.547 Y61.526
X-21.584 Y61.511
X-21.623 Y61.493
X-21.663 Y61.469
X-21.702 Y61.441
X-21.741 Y61.409
X-21.779 Y61.372
X-21.815 Y61.331
X-21.848 Y61.286
X-21.877 Y61.239
X-21.902 Y61.19
X-21.924 Y61.139
X-21.941 Y61.087
X-21.954 Y61.032
X-21.962 Y60.979
X-21.967 Y60.922
X-21.966 Y60.898
X-21.961 Y60.837
X-21.945 Y60.779
X-21.919 Y60.724
X-21.884 Y60.674
X-21.841 Y60.631
X-21.791 Y60.597
X-21.736 Y60.571
X-21.677 Y60.555
X-21.616 Y60.55
X-21.337
X-21.297 Y60.557
X-21.26 Y60.574
X-21.23 Y60.601
X-21.207 Y60.635
X-21.195 Y60.674
X-21.193 Y60.715
X-21.206 Y60.848
X-21.263 Y61.415
X-21.273 Y61.457
X-21.295 Y61.494
X-21.326 Y61.523
X-21.365 Y61.542
X-21.407 Y61.55
X-21.742
X-21.786 Y61.548
X-21.818 Y61.544
X-21.852 Y61.536
X-21.888 Y61.525
X-21.925 Y61.511
X-21.964 Y61.492
X-22.004 Y61.469
X-22.043 Y61.441
X-22.082 Y61.409
X-22.12 Y61.371
X-22.156 Y61.331
X-22.189 Y61.286
X-22.218 Y61.239
X-22.243 Y61.19
X-22.265 Y61.139
X-22.282 Y61.087
X-22.295 Y61.032
X-22.303 Y60.979
X-22.307 Y60.922
Y60.898
X-22.302 Y60.837
X-22.286 Y60.779
X-22.26 Y60.724
X-22.225 Y60.674
X-22.182 Y60.631
X-22.132 Y60.597
X-22.077 Y60.571
X-22.018 Y60.555
X-21.957 Y60.55
X-21.652
X-21.611 Y60.557
X-21.574 Y60.575
X-21.543 Y60.603
X-21.521 Y60.638
X-21.509 Y60.678
Y60.719
X-21.525 Y60.85
X-21.599 Y61.419
X-21.61 Y61.46
X-21.632 Y61.496
X-21.663 Y61.524
X-21.701 Y61.543
X-21.742 Y61.55
X-22.102
X-22.126 Y61.549
X-22.158 Y61.545
X-22.192 Y61.537
X-22.229 Y61.526
X-22.266 Y61.512
X-22.305 Y61.493
X-22.345 Y61.47
X-22.384 Y61.442
X-22.423 Y61.41
X-22.461 Y61.372
X-22.497 Y61.332
X-22.53 Y61.287
X-22.559 Y61.24
X-22.584 Y61.191
X-22.606 Y61.139
X-22.623 Y61.088
X-22.636 Y61.032
X-22.644 Y60.979
X-22.649 Y60.922
Y60.898
X-22.643 Y60.837
X-22.627 Y60.779
X-22.601 Y60.724
X-22.566 Y60.674
X-22.523 Y60.631
X-22.473 Y60.597
X-22.418 Y60.571
X-22.359 Y60.555
X-22.299 Y60.55
X-22.012
X-21.971 Y60.557
X-21.934 Y60.575
X-21.903 Y60.603
X-21.881 Y60.638
X-21.869 Y60.678
Y60.719
X-21.885 Y60.85
X-21.958 Y61.419
X-21.97 Y61.46
X-21.992 Y61.496
X-22.023 Y61.524
X-22.061 Y61.543
X-22.102 Y61.55
X-22.442
X-22.468 Y61.549
X-22.499 Y61.545
X-22.534 Y61.537
X-22.57 Y61.526
X-22.607 Y61.512
X-22.646 Y61.493
X-22.686 Y61.47
X-22.725 Y61.442
X-22.764 Y61.41
X-22.803 Y61.372
X-22.838 Y61.332
X-22.871 Y61.287
X-22.9 Y61.24
X-22.926 Y61.191
X-22.947 Y61.139
X-22.964 Y61.088
X-22.977 Y61.032
X-22.986 Y60.979
X-22.99 Y60.922
Y60.898
X-22.984 Y60.837
X-22.968 Y60.779
X-22.942 Y60.724
X-22.907 Y60.674
X-22.864 Y60.631
X-22.814 Y60.597
X-22.759 Y60.571
X-22.7 Y60.555
X-22.64 Y60.55
X-22.327
X-22.285 Y60.557
X-22.247 Y60.576
X-22.216 Y60.605
X-22.194 Y60.641
X-22.183 Y60.682
X-22.184 Y60.724
X-22.205 Y60.853
X-22.299 Y61.424
X-22.311 Y61.464
X-22.333 Y61.498
X-22.364 Y61.525
X-22.401 Y61.543
X-22.442 Y61.55
X-22.777
X-22.809 Y61.548
X-22.841 Y61.544
X-22.875 Y61.537
X-22.911 Y61.526
X-22.949 Y61.512
X-22.987 Y61.493
X-23.027 Y61.469
X-23.066 Y61.442
X-23.105 Y61.41
X-23.144 Y61.372
X-23.179 Y61.332
X-23.212 Y61.286
X-23.241 Y61.24
X-23.267 Y61.191
X-23.288 Y61.139
X-23.305 Y61.087
X-23.318 Y61.032
X-23.327 Y60.979
X-23.331 Y60.922
Y60.898
X-23.325 Y60.837
X-23.309 Y60.779
X-23.283 Y60.724
X-23.248 Y60.674
X-23.205 Y60.631
X-23.155 Y60.597
X-23.1 Y60.571
X-23.041 Y60.555
X-22.981 Y60.55
X-22.687
X-22.646 Y60.557
X-22.609 Y60.575
X-22.578 Y60.603
X-22.556 Y60.638
X-22.544 Y60.678
X-22.543 Y60.719
X-22.56 Y60.85
X-22.633 Y61.419
X-22.644 Y61.46
X-22.667 Y61.496
X-22.698 Y61.524
X-22.735 Y61.543
X-22.777 Y61.55
X-23.117
X-23.15 Y61.548
X-23.182 Y61.544
X-23.216 Y61.537
X-23.253 Y61.526
X-23.29 Y61.511
X-23.328 Y61.493
X-23.368 Y61.469
X-23.407 Y61.442
X-23.446 Y61.409
X-23.485 Y61.372
X-23.52 Y61.331
X-23.553 Y61.286
X-23.582 Y61.24
X-23.608 Y61.191
X-23.629 Y61.139
X-23.646 Y61.087
X-23.659 Y61.032
X-23.668 Y60.979
X-23.672 Y60.922
Y60.898
X-23.666 Y60.837
X-23.65 Y60.779
X-23.624 Y60.724
X-23.589 Y60.674
X-23.546 Y60.631
X-23.496 Y60.597
X-23.441 Y60.571
X-23.382 Y60.555
X-23.322 Y60.55
X-23.002
X-22.96 Y60.557
X-22.922 Y60.576
X-22.891 Y60.605
X-22.869 Y60.641
X-22.858 Y60.682
X-22.859 Y60.724
X-22.88 Y60.853
X-22.974 Y61.424
X-22.986 Y61.464
X-23.008 Y61.498
X-23.039 Y61.525
X-23.076 Y61.543
X-23.117 Y61.55
X-23.452
X-23.491 Y61.548
X-23.523 Y61.544
X-23.557 Y61.537
X-23.594 Y61.526
X-23.631 Y61.511
X-23.669 Y61.492
X-23.709 Y61.469
X-23.749 Y61.441
X-23.787 Y61.409
X-23.826 Y61.372
X-23.861 Y61.331
X-23.894 Y61.286
X-23.923 Y61.239
X-23.949 Y61.19
X-23.97 Y61.139
X-23.987 Y61.087
X-24. Y61.032
X-24.009 Y60.979
X-24.013 Y60.922
Y60.898
X-24.007 Y60.837
X-23.991 Y60.779
X-23.965 Y60.724
X-23.93 Y60.674
X-23.887 Y60.631
X-23.837 Y60.597
X-23.782 Y60.571
X-23.723 Y60.555
X-23.663 Y60.55
X-23.362
X-23.321 Y60.557
X-23.284 Y60.575
X-23.253 Y60.603
X-23.23 Y60.638
X-23.219 Y60.678
X-23.218 Y60.719
X-23.235 Y60.85
X-23.308 Y61.419
X-23.319 Y61.46
X-23.341 Y61.496
X-23.372 Y61.524
X-23.41 Y61.543
X-23.452 Y61.55
X-23.812
X-23.832 Y61.549
X-23.864 Y61.545
X-23.898 Y61.538
X-23.934 Y61.527
X-23.972 Y61.512
X-24.01 Y61.493
X-24.05 Y61.47
X-24.089 Y61.442
X-24.128 Y61.41
X-24.167 Y61.372
X-24.202 Y61.332
X-24.236 Y61.287
X-24.265 Y61.24
X-24.29 Y61.191
X-24.312 Y61.139
X-24.328 Y61.088
X-24.342 Y61.032
X-24.35 Y60.979
X-24.354 Y60.922
Y60.898
X-24.348 Y60.837
X-24.332 Y60.779
X-24.306 Y60.724
X-24.271 Y60.674
X-24.228 Y60.631
X-24.178 Y60.597
X-24.123 Y60.571
X-24.065 Y60.555
X-24.004 Y60.55
X-23.722
X-23.681 Y60.557
X-23.643 Y60.575
X-23.613 Y60.603
X-23.59 Y60.638
X-23.579 Y60.678
X-23.578 Y60.719
X-23.595 Y60.85
X-23.668 Y61.419
X-23.679 Y61.46
X-23.701 Y61.496
X-23.732 Y61.524
X-23.77 Y61.543
X-23.812 Y61.55
X-24.127
X-24.174 Y61.548
X-24.206 Y61.543
X-24.24 Y61.536
X-24.276 Y61.525
X-24.313 Y61.511
X-24.352 Y61.492
X-24.392 Y61.469
X-24.431 Y61.441
X-24.47 Y61.409
X-24.508 Y61.371
X-24.543 Y61.331
X-24.577 Y61.286
X-24.606 Y61.239
X-24.631 Y61.19
X-24.653 Y61.139
X-24.669 Y61.087
X-24.683 Y61.032
X-24.691 Y60.979
X-24.695 Y60.922
Y60.898
X-24.689 Y60.837
X-24.673 Y60.779
X-24.647 Y60.724
X-24.612 Y60.674
X-24.569 Y60.631
X-24.519 Y60.597
X-24.464 Y60.571
X-24.406 Y60.555
X-24.345 Y60.55
X-24.037
X-23.996 Y60.557
X-23.958 Y60.575
X-23.927 Y60.603
X-23.905 Y60.638
X-23.893 Y60.678
Y60.719
X-23.91 Y60.85
X-23.983 Y61.419
X-23.994 Y61.46
X-24.016 Y61.496
X-24.047 Y61.524
X-24.085 Y61.543
X-24.127 Y61.55
X-24.486
X-24.514 Y61.549
X-24.546 Y61.544
X-24.58 Y61.537
X-24.617 Y61.526
X-24.654 Y61.512
X-24.692 Y61.493
X-24.732 Y61.469
X-24.772 Y61.442
X-24.81 Y61.41
X-24.849 Y61.372
X-24.884 Y61.332
X-24.918 Y61.286
X-24.947 Y61.24
X-24.972 Y61.191
X-24.994 Y61.139
X-25.01 Y61.087
X-25.024 Y61.032
X-25.032 Y60.979
X-25.036 Y60.922
Y60.898
X-25.03 Y60.837
X-25.014 Y60.779
X-24.989 Y60.724
X-24.954 Y60.674
X-24.91 Y60.631
X-24.861 Y60.597
X-24.805 Y60.571
X-24.747 Y60.555
X-24.686 Y60.55
X-24.396
X-24.356 Y60.557
X-24.318 Y60.575
X-24.287 Y60.603
X-24.265 Y60.638
X-24.253 Y60.678
Y60.719
X-24.27 Y60.85
X-24.343 Y61.419
X-24.354 Y61.46
X-24.376 Y61.496
X-24.407 Y61.524
X-24.445 Y61.543
X-24.486 Y61.55
X-24.826
X-24.855 Y61.549
X-24.887 Y61.544
X-24.921 Y61.537
X-24.958 Y61.526
X-24.995 Y61.512
X-25.034 Y61.493
X-25.073 Y61.469
X-25.113 Y61.442
X-25.152 Y61.41
X-25.19 Y61.372
X-25.225 Y61.332
X-25.259 Y61.286
X-25.288 Y61.24
X-25.313 Y61.191
X-25.335 Y61.139
X-25.352 Y61.087
X-25.365 Y61.032
X-25.373 Y60.979
X-25.377 Y60.922
Y60.898
X-25.372 Y60.837
X-25.356 Y60.779
X-25.33 Y60.724
X-25.295 Y60.674
X-25.252 Y60.631
X-25.202 Y60.597
X-25.147 Y60.571
X-25.088 Y60.555
X-25.027 Y60.55
X-24.711
X-24.67 Y60.557
X-24.632 Y60.576
X-24.601 Y60.605
X-24.579 Y60.641
X-24.568 Y60.682
X-24.569 Y60.724
X-24.59 Y60.853
X-24.683 Y61.424
X-24.695 Y61.464
X-24.718 Y61.498
X-24.749 Y61.525
X-24.786 Y61.543
X-24.826 Y61.55
X-25.161
X-25.197 Y61.548
X-25.228 Y61.544
X-25.262 Y61.537
X-25.299 Y61.526
X-25.336 Y61.511
X-25.375 Y61.493
X-25.415 Y61.469
X-25.454 Y61.442
X-25.493 Y61.409
X-25.531 Y61.372
X-25.566 Y61.331
X-25.6 Y61.286
X-25.629 Y61.24
X-25.654 Y61.191
X-25.676 Y61.139
X-25.693 Y61.087
X-25.706 Y61.032
X-25.714 Y60.979
X-25.718 Y60.922
Y60.898
X-25.713 Y60.837
X-25.697 Y60.779
X-25.671 Y60.724
X-25.636 Y60.674
X-25.593 Y60.631
X-25.543 Y60.597
X-25.488 Y60.571
X-25.429 Y60.555
X-25.368 Y60.55
X-25.071
X-25.03 Y60.557
X-24.993 Y60.575
X-24.962 Y60.603
X-24.94 Y60.638
X-24.928 Y60.678
Y60.719
X-24.945 Y60.85
X-25.018 Y61.419
X-25.029 Y61.46
X-25.051 Y61.496
X-25.082 Y61.524
X-25.12 Y61.543
X-25.161 Y61.55
X-25.501
X-25.538 Y61.548
X-25.569 Y61.544
X-25.603 Y61.537
X-25.64 Y61.526
X-25.677 Y61.511
X-25.716 Y61.493
X-25.756 Y61.469
X-25.795 Y61.441
X-25.834 Y61.409
X-25.872 Y61.372
X-25.908 Y61.331
X-25.941 Y61.286
X-25.97 Y61.24
X-25.995 Y61.19
X-26.017 Y61.139
X-26.034 Y61.087
X-26.047 Y61.032
X-26.055 Y60.979
X-26.059 Y60.922
Y60.898
X-26.054 Y60.837
X-26.038 Y60.779
X-26.012 Y60.724
X-25.977 Y60.674
X-25.934 Y60.631
X-25.884 Y60.597
X-25.829 Y60.571
X-25.77 Y60.555
X-25.709 Y60.55
X-25.431
X-25.391 Y60.557
X-25.354 Y60.574
X-25.324 Y60.601
X-25.301 Y60.635
X-25.289 Y60.674
X-25.287 Y60.715
X-25.3 Y60.848
X-25.357 Y61.415
X-25.367 Y61.457
X-25.389 Y61.494
X-25.42 Y61.523
X-25.459 Y61.542
X-25.501 Y61.55
X-25.836
X-25.879 Y61.548
X-25.911 Y61.544
X-25.945 Y61.536
X-25.981 Y61.525
X-26.018 Y61.511
X-26.057 Y61.492
X-26.097 Y61.469
X-26.136 Y61.441
X-26.175 Y61.409
X-26.213 Y61.371
X-26.249 Y61.331
X-26.282 Y61.286
X-26.311 Y61.239
X-26.336 Y61.19
X-26.358 Y61.139
X-26.375 Y61.087
X-26.388 Y61.032
X-26.396 Y60.979
X-26.4 Y60.922
Y60.898
X-26.395 Y60.837
X-26.379 Y60.779
X-26.353 Y60.724
X-26.318 Y60.674
X-26.275 Y60.631
X-26.225 Y60.597
X-26.17 Y60.571
X-26.111 Y60.555
X-26.05 Y60.55
X-25.746
X-25.705 Y60.557
X-25.668 Y60.575
X-25.637 Y60.603
X-25.615 Y60.638
X-25.603 Y60.678
Y60.719
X-25.619 Y60.85
X-25.693 Y61.419
X-25.704 Y61.46
X-25.726 Y61.496
X-25.757 Y61.524
X-25.795 Y61.543
X-25.836 Y61.55
X-26.196
X-26.219 Y61.549
X-26.251 Y61.545
X-26.285 Y61.537
X-26.322 Y61.526
X-26.359 Y61.512
X-26.398 Y61.493
X-26.438 Y61.47
X-26.477 Y61.442
X-26.516 Y61.41
X-26.554 Y61.372
X-26.59 Y61.332
X-26.623 Y61.287
X-26.652 Y61.24
X-26.677 Y61.191
X-26.699 Y61.139
X-26.716 Y61.088
X-26.729 Y61.032
X-26.737 Y60.979
X-26.742 Y60.922
X-26.741 Y60.898
X-26.736 Y60.837
X-26.72 Y60.779
X-26.694 Y60.724
X-26.659 Y60.674
X-26.616 Y60.631
X-26.566 Y60.597
X-26.511 Y60.571
X-26.452 Y60.555
X-26.391 Y60.55
X-26.106
X-26.065 Y60.557
X-26.028 Y60.575
X-25.997 Y60.603
X-25.975 Y60.638
X-25.963 Y60.678
Y60.719
X-25.979 Y60.85
X-26.053 Y61.419
X-26.064 Y61.46
X-26.086 Y61.496
X-26.117 Y61.524
X-26.155 Y61.543
X-26.196 Y61.55
X-26.536
X-26.561 Y61.549
X-26.592 Y61.545
X-26.626 Y61.537
X-26.663 Y61.526
X-26.7 Y61.512
X-26.739 Y61.493
X-26.779 Y61.47
X-26.818 Y61.442
X-26.857 Y61.41
X-26.895 Y61.372
X-26.931 Y61.332
X-26.964 Y61.287
X-26.993 Y61.24
X-27.019 Y61.191
X-27.04 Y61.139
X-27.057 Y61.088
X-27.07 Y61.032
X-27.078 Y60.979
X-27.083 Y60.922
Y60.898
X-27.077 Y60.837
X-27.061 Y60.779
X-27.035 Y60.724
X-27. Y60.674
X-26.957 Y60.631
X-26.907 Y60.597
X-26.852 Y60.571
X-26.793 Y60.555
X-26.733 Y60.55
X-26.421
X-26.379 Y60.557
X-26.341 Y60.576
X-26.31 Y60.605
X-26.288 Y60.641
X-26.277 Y60.682
X-26.278 Y60.724
X-26.299 Y60.853
X-26.393 Y61.424
X-26.405 Y61.464
X-26.427 Y61.498
X-26.458 Y61.525
X-26.495 Y61.543
X-26.536 Y61.55
X-26.871
X-26.902 Y61.548
X-26.934 Y61.544
X-26.968 Y61.537
X-27.004 Y61.526
X-27.042 Y61.512
X-27.08 Y61.493
X-27.12 Y61.469
X-27.159 Y61.442
X-27.198 Y61.41
X-27.237 Y61.372
X-27.272 Y61.332
X-27.305 Y61.286
X-27.334 Y61.24
X-27.36 Y61.191
X-27.381 Y61.139
X-27.398 Y61.087
X-27.411 Y61.032
X-27.42 Y60.979
X-27.424 Y60.922
Y60.898
X-27.418 Y60.837
X-27.402 Y60.779
X-27.376 Y60.724
X-27.341 Y60.674
X-27.298 Y60.631
X-27.248 Y60.597
X-27.193 Y60.571
X-27.134 Y60.555
X-27.074 Y60.55
X-26.781
X-26.74 Y60.557
X-26.703 Y60.575
X-26.672 Y60.603
X-26.65 Y60.638
X-26.638 Y60.678
X-26.637 Y60.719
X-26.654 Y60.85
X-26.727 Y61.419
X-26.739 Y61.46
X-26.761 Y61.496
X-26.792 Y61.524
X-26.829 Y61.543
X-26.871 Y61.55
X-27.211
X-27.243 Y61.548
X-27.275 Y61.544
X-27.309 Y61.537
X-27.346 Y61.526
X-27.383 Y61.512
X-27.421 Y61.493
X-27.461 Y61.469
X-27.5 Y61.442
X-27.539 Y61.41
X-27.578 Y61.372
X-27.613 Y61.331
X-27.646 Y61.286
X-27.675 Y61.24
X-27.701 Y61.191
X-27.722 Y61.139
X-27.739 Y61.087
X-27.752 Y61.032
X-27.761 Y60.979
X-27.765 Y60.922
Y60.898
X-27.759 Y60.837
X-27.743 Y60.779
X-27.717 Y60.724
X-27.682 Y60.674
X-27.639 Y60.631
X-27.589 Y60.597
X-27.534 Y60.571
X-27.475 Y60.555
X-27.415 Y60.55
X-27.096
X-27.054 Y60.557
X-27.016 Y60.576
X-26.985 Y60.605
X-26.963 Y60.641
X-26.952 Y60.682
X-26.953 Y60.724
X-26.974 Y60.853
X-27.068 Y61.424
X-27.08 Y61.464
X-27.102 Y61.498
X-27.133 Y61.525
X-27.17 Y61.543
X-27.211 Y61.55
X-27.546
X-27.584 Y61.548
X-27.616 Y61.544
X-27.65 Y61.537
X-27.687 Y61.526
X-27.724 Y61.511
X-27.762 Y61.493
X-27.802 Y61.469
X-27.842 Y61.441
X-27.88 Y61.409
X-27.919 Y61.372
X-27.954 Y61.331
X-27.987 Y61.286
X-28.016 Y61.239
X-28.042 Y61.19
X-28.063 Y61.139
X-28.08 Y61.087
X-28.093 Y61.032
X-28.102 Y60.979
X-28.106 Y60.922
Y60.898
X-28.1 Y60.837
X-28.084 Y60.779
X-28.058 Y60.724
X-28.023 Y60.674
X-27.98 Y60.631
X-27.93 Y60.597
X-27.875 Y60.571
X-27.816 Y60.555
X-27.756 Y60.55
X-27.456
X-27.415 Y60.557
X-27.378 Y60.575
X-27.347 Y60.603
X-27.324 Y60.638
X-27.313 Y60.678
X-27.312 Y60.719
X-27.329 Y60.85
X-27.402 Y61.419
X-27.413 Y61.46
X-27.435 Y61.496
X-27.467 Y61.524
X-27.504 Y61.543
X-27.546 Y61.55
X-27.906
X-27.925 Y61.549
X-27.957 Y61.545
X-27.991 Y61.538
X-28.027 Y61.527
X-28.065 Y61.512
X-28.103 Y61.493
X-28.143 Y61.47
X-28.182 Y61.442
X-28.221 Y61.41
X-28.26 Y61.372
X-28.295 Y61.332
X-28.329 Y61.287
X-28.358 Y61.24
X-28.383 Y61.191
X-28.405 Y61.139
X-28.421 Y61.088
X-28.435 Y61.032
X-28.443 Y60.979
X-28.447 Y60.922
Y60.898
X-28.441 Y60.837
X-28.425 Y60.779
X-28.4 Y60.724
X-28.364 Y60.674
X-28.321 Y60.631
X-28.271 Y60.597
X-28.216 Y60.571
X-28.158 Y60.555
X-28.097 Y60.55
X-27.816
X-27.775 Y60.557
X-27.738 Y60.575
X-27.707 Y60.603
X-27.684 Y60.638
X-27.673 Y60.678
X-27.672 Y60.719
X-27.689 Y60.85
X-27.762 Y61.419
X-27.773 Y61.46
X-27.795 Y61.496
X-27.826 Y61.524
X-27.864 Y61.543
X-27.906 Y61.55
X-28.221
X-28.267 Y61.548
X-28.299 Y61.544
X-28.333 Y61.536
X-28.369 Y61.525
X-28.406 Y61.511
X-28.445 Y61.492
X-28.485 Y61.469
X-28.524 Y61.441
X-28.563 Y61.409
X-28.601 Y61.371
X-28.636 Y61.331
X-28.67 Y61.286
X-28.699 Y61.239
X-28.724 Y61.19
X-28.746 Y61.139
X-28.762 Y61.087
X-28.776 Y61.032
X-28.784 Y60.979
X-28.788 Y60.922
Y60.898
X-28.782 Y60.837
X-28.766 Y60.779
X-28.74 Y60.724
X-28.705 Y60.674
X-28.662 Y60.631
X-28.612 Y60.597
X-28.557 Y60.571
X-28.499 Y60.555
X-28.438 Y60.55
X-28.131
X-28.09 Y60.557
X-28.052 Y60.575
X-28.021 Y60.603
X-27.999 Y60.638
X-27.988 Y60.678
X-27.987 Y60.719
X-28.004 Y60.85
X-28.077 Y61.419
X-28.088 Y61.46
X-28.11 Y61.496
X-28.141 Y61.524
X-28.179 Y61.543
X-28.221 Y61.55
X-28.58
X-28.607 Y61.549
X-28.639 Y61.545
X-28.673 Y61.537
X-28.71 Y61.526
X-28.747 Y61.512
X-28.785 Y61.493
X-28.825 Y61.47
X-28.865 Y61.442
X-28.903 Y61.41
X-28.942 Y61.372
X-28.977 Y61.332
X-29.011 Y61.286
X-29.04 Y61.24
X-29.065 Y61.191
X-29.087 Y61.139
X-29.103 Y61.087
X-29.117 Y61.032
X-29.125 Y60.979
X-29.129 Y60.922
Y60.898
X-29.124 Y60.837
X-29.108 Y60.779
X-29.082 Y60.724
X-29.047 Y60.674
X-29.003 Y60.631
X-28.954 Y60.597
X-28.898 Y60.571
X-28.84 Y60.555
X-28.779 Y60.55
X-28.491
X-28.45 Y60.557
X-28.412 Y60.575
X-28.381 Y60.603
X-28.359 Y60.638
X-28.347 Y60.678
Y60.719
X-28.364 Y60.85
X-28.437 Y61.419
X-28.448 Y61.46
X-28.47 Y61.496
X-28.501 Y61.524
X-28.539 Y61.543
X-28.58 Y61.55
X-28.92
X-28.948 Y61.549
X-28.98 Y61.544
X-29.014 Y61.537
X-29.051 Y61.526
X-29.088 Y61.512
X-29.127 Y61.493
X-29.166 Y61.469
X-29.206 Y61.442
X-29.245 Y61.41
X-29.283 Y61.372
X-29.318 Y61.332
X-29.352 Y61.287
X-29.381 Y61.24
X-29.406 Y61.191
X-29.428 Y61.139
X-29.445 Y61.087
X-29.458 Y61.032
X-29.466 Y60.979
X-29.47 Y60.926
Y60.869
X-29.46 Y60.812
X-29.441 Y60.758
X-29.413 Y60.707
X-29.378 Y60.662
X-29.335 Y60.623
X-29.287 Y60.592
X-29.234 Y60.569
X-29.178 Y60.555
X-29.121 Y60.55
X-28.805
X-28.764 Y60.557
X-28.726 Y60.576
X-28.695 Y60.605
X-28.673 Y60.641
X-28.662 Y60.682
X-28.663 Y60.724
X-28.684 Y60.853
X-28.777 Y61.424
X-28.789 Y61.464
X-28.812 Y61.498
X-28.843 Y61.525
X-28.88 Y61.543
X-28.92 Y61.55
X-29.255
X-29.29 Y61.548
X-29.321 Y61.544
X-29.355 Y61.537
X-29.392 Y61.526
X-29.429 Y61.511
X-29.468 Y61.493
X-29.508 Y61.469
X-29.547 Y61.442
X-29.586 Y61.409
X-29.624 Y61.372
X-29.661 Y61.33
X-29.693 Y61.286
X-29.723 Y61.239
X-29.748 Y61.19
X-29.769 Y61.138
X-29.786 Y61.086
X-29.799 Y61.032
X-29.808 Y60.978
X-29.812 Y60.922
Y60.898
X-29.806 Y60.837
X-29.79 Y60.779
X-29.764 Y60.724
X-29.729 Y60.674
X-29.686 Y60.631
X-29.636 Y60.597
X-29.581 Y60.571
X-29.522 Y60.555
X-29.462 Y60.55
X-29.165
X-29.125 Y60.557
X-29.087 Y60.575
X-29.056 Y60.603
X-29.034 Y60.638
X-29.022 Y60.678
Y60.719
X-29.039 Y60.85
X-29.112 Y61.419
X-29.123 Y61.46
X-29.145 Y61.496
X-29.176 Y61.524
X-29.214 Y61.543
X-29.255 Y61.55
X-29.595
X-29.631 Y61.548
X-29.663 Y61.544
X-29.697 Y61.537
X-29.734 Y61.526
X-29.771 Y61.511
X-29.809 Y61.493
X-29.849 Y61.469
X-29.889 Y61.441
X-29.927 Y61.409
X-29.966 Y61.372
X-30.001 Y61.331
X-30.035 Y61.286
X-30.064 Y61.239
X-30.089 Y61.19
X-30.11 Y61.139
X-30.127 Y61.087
X-30.141 Y61.032
X-30.149 Y60.979
X-30.153 Y60.922
Y60.898
X-30.147 Y60.837
X-30.131 Y60.779
X-30.105 Y60.724
X-30.07 Y60.674
X-30.027 Y60.631
X-29.977 Y60.597
X-29.922 Y60.571
X-29.864 Y60.555
X-29.803 Y60.55
X-29.525
X-29.485 Y60.557
X-29.448 Y60.574
X-29.418 Y60.601
X-29.395 Y60.635
X-29.383 Y60.674
X-29.381 Y60.715
X-29.394 Y60.848
X-29.451 Y61.415
X-29.461 Y61.457
X-29.483 Y61.494
X-29.514 Y61.523
X-29.553 Y61.542
X-29.595 Y61.55
X-29.93
X-29.973 Y61.548
X-30.004 Y61.544
X-30.038 Y61.536
X-30.075 Y61.525
X-30.112 Y61.511
X-30.15 Y61.492
X-30.19 Y61.469
X-30.23 Y61.441
X-30.268 Y61.409
X-30.307 Y61.371
X-30.342 Y61.331
X-30.376 Y61.286
X-30.405 Y61.239
X-30.43 Y61.19
X-30.451 Y61.139
X-30.468 Y61.087
X-30.481 Y61.032
X-30.49 Y60.979
X-30.494 Y60.922
Y60.898
X-30.488 Y60.837
X-30.472 Y60.779
X-30.446 Y60.724
X-30.411 Y60.674
X-30.368 Y60.631
X-30.318 Y60.597
X-30.263 Y60.571
X-30.204 Y60.555
X-30.144 Y60.55
X-29.84
X-29.799 Y60.557
X-29.762 Y60.575
X-29.731 Y60.603
X-29.709 Y60.638
X-29.697 Y60.678
Y60.719
X-29.713 Y60.85
X-29.787 Y61.419
X-29.798 Y61.46
X-29.82 Y61.496
X-29.851 Y61.524
X-29.889 Y61.543
X-29.93 Y61.55
X-30.29
X-30.313 Y61.549
X-30.345 Y61.545
X-30.379 Y61.537
X-30.415 Y61.526
X-30.453 Y61.512
X-30.491 Y61.493
X-30.531 Y61.47
X-30.571 Y61.442
X-30.609 Y61.41
X-30.648 Y61.372
X-30.683 Y61.332
X-30.717 Y61.287
X-30.746 Y61.24
X-30.771 Y61.191
X-30.793 Y61.139
X-30.809 Y61.088
X-30.823 Y61.032
X-30.831 Y60.979
X-30.835 Y60.922
Y60.898
X-30.829 Y60.837
X-30.813 Y60.779
X-30.788 Y60.724
X-30.752 Y60.674
X-30.709 Y60.631
X-30.66 Y60.597
X-30.604 Y60.571
X-30.546 Y60.555
X-30.485 Y60.55
X-30.2
X-30.159 Y60.557
X-30.122 Y60.575
X-30.091 Y60.603
X-30.069 Y60.638
X-30.057 Y60.678
Y60.719
X-30.073 Y60.85
X-30.147 Y61.419
X-30.158 Y61.46
X-30.18 Y61.496
X-30.211 Y61.524
X-30.249 Y61.543
X-30.29 Y61.55
X-30.63
X-30.654 Y61.549
X-30.686 Y61.545
X-30.72 Y61.537
X-30.757 Y61.526
X-30.794 Y61.512
X-30.832 Y61.493
X-30.872 Y61.47
X-30.912 Y61.442
X-30.95 Y61.41
X-30.989 Y61.372
X-31.024 Y61.332
X-31.058 Y61.287
X-31.087 Y61.24
X-31.112 Y61.191
X-31.134 Y61.139
X-31.151 Y61.088
X-31.164 Y61.032
X-31.172 Y60.979
X-31.176 Y60.922
Y60.898
X-31.171 Y60.837
X-31.155 Y60.779
X-31.129 Y60.724
X-31.094 Y60.674
X-31.051 Y60.631
X-31.001 Y60.597
X-30.946 Y60.571
X-30.887 Y60.555
X-30.826 Y60.55
X-30.515
X-30.473 Y60.557
X-30.435 Y60.576
X-30.404 Y60.605
X-30.382 Y60.641
X-30.371 Y60.682
X-30.372 Y60.724
X-30.393 Y60.853
X-30.487 Y61.424
X-30.499 Y61.464
X-30.521 Y61.498
X-30.552 Y61.525
X-30.589 Y61.543
X-30.63 Y61.55
X-30.965
X-30.996 Y61.548
X-31.027 Y61.544
X-31.061 Y61.537
X-31.098 Y61.526
X-31.135 Y61.512
X-31.174 Y61.493
X-31.214 Y61.469
X-31.253 Y61.442
X-31.292 Y61.41
X-31.33 Y61.372
X-31.366 Y61.332
X-31.399 Y61.286
X-31.428 Y61.24
X-31.453 Y61.191
X-31.475 Y61.139
X-31.492 Y61.087
X-31.505 Y61.032
X-31.513 Y60.979
X-31.518 Y60.922
X-31.517 Y60.898
X-31.512 Y60.837
X-31.496 Y60.779
X-31.47 Y60.724
X-31.435 Y60.674
X-31.392 Y60.631
X-31.342 Y60.597
X-31.287 Y60.571
X-31.228 Y60.555
X-31.167 Y60.55
X-30.875
X-30.834 Y60.557
X-30.797 Y60.575
X-30.766 Y60.603
X-30.744 Y60.638
X-30.732 Y60.678
X-30.731 Y60.719
X-30.748 Y60.85
X-30.821 Y61.419
X-30.833 Y61.46
X-30.855 Y61.496
X-30.886 Y61.524
X-30.923 Y61.543
X-30.965 Y61.55
X-31.305
X-31.337 Y61.548
X-31.368 Y61.544
X-31.403 Y61.537
X-31.439 Y61.526
X-31.476 Y61.512
X-31.515 Y61.493
X-31.555 Y61.469
X-31.594 Y61.442
X-31.633 Y61.41
X-31.671 Y61.372
X-31.707 Y61.331
X-31.74 Y61.286
X-31.769 Y61.24
X-31.794 Y61.191
X-31.816 Y61.139
X-31.833 Y61.087
X-31.846 Y61.032
X-31.854 Y60.979
X-31.859 Y60.922
X-31.858 Y60.898
X-31.853 Y60.837
X-31.837 Y60.779
X-31.811 Y60.724
X-31.776 Y60.674
X-31.733 Y60.631
X-31.683 Y60.597
X-31.628 Y60.571
X-31.569 Y60.555
X-31.508 Y60.55
X-31.19
X-31.148 Y60.557
X-31.11 Y60.576
X-31.079 Y60.605
X-31.057 Y60.641
X-31.046 Y60.682
X-31.047 Y60.724
X-31.068 Y60.853
X-31.162 Y61.424
X-31.174 Y61.464
X-31.196 Y61.498
X-31.227 Y61.525
X-31.264 Y61.543
X-31.305 Y61.55
X-31.64
X-31.678 Y61.548
X-31.71 Y61.544
X-31.744 Y61.537
X-31.78 Y61.526
X-31.817 Y61.511
X-31.856 Y61.493
X-31.896 Y61.469
X-31.935 Y61.441
X-31.974 Y61.409
X-32.012 Y61.372
X-32.048 Y61.331
X-32.081 Y61.286
X-32.11 Y61.239
X-32.135 Y61.19
X-32.157 Y61.139
X-32.174 Y61.087
X-32.187 Y61.032
X-32.195 Y60.979
X-32.2 Y60.922
X-32.199 Y60.898
X-32.194 Y60.837
X-32.178 Y60.779
X-32.152 Y60.724
X-32.117 Y60.674
X-32.074 Y60.631
X-32.024 Y60.597
X-31.969 Y60.571
X-31.91 Y60.555
X-31.849 Y60.55
X-31.55
X-31.509 Y60.557
X-31.472 Y60.575
X-31.441 Y60.603
X-31.418 Y60.638
X-31.407 Y60.678
X-31.406 Y60.719
X-31.423 Y60.85
X-31.496 Y61.419
X-31.507 Y61.46
X-31.529 Y61.496
X-31.561 Y61.524
X-31.598 Y61.543
X-31.64 Y61.55
X-31.979
X-32.019 Y61.548
X-32.051 Y61.544
X-32.085 Y61.537
X-32.121 Y61.526
X-32.158 Y61.511
X-32.197 Y61.492
X-32.237 Y61.469
X-32.276 Y61.441
X-32.315 Y61.409
X-32.353 Y61.372
X-32.389 Y61.331
X-32.422 Y61.286
X-32.451 Y61.239
X-32.476 Y61.19
X-32.498 Y61.139
X-32.515 Y61.087
X-32.528 Y61.032
X-32.536 Y60.979
X-32.541 Y60.922
X-32.54 Y60.898
X-32.535 Y60.837
X-32.519 Y60.779
X-32.493 Y60.724
X-32.458 Y60.674
X-32.415 Y60.631
X-32.365 Y60.597
X-32.31 Y60.571
X-32.251 Y60.555
X-32.19 Y60.55
X-31.91
X-31.87 Y60.557
X-31.833 Y60.574
X-31.802 Y60.601
X-31.78 Y60.635
X-31.767 Y60.674
X-31.766 Y60.715
X-31.779 Y60.848
X-31.835 Y61.415
X-31.846 Y61.457
X-31.867 Y61.494
X-31.899 Y61.523
X-31.937 Y61.542
X-31.979 Y61.55
X-32.315
X-32.36 Y61.548
X-32.392 Y61.544
X-32.426 Y61.536
X-32.462 Y61.525
X-32.5 Y61.511
X-32.538 Y61.492
X-32.578 Y61.469
X-32.617 Y61.441
X-32.656 Y61.409
X-32.694 Y61.371
X-32.73 Y61.331
X-32.763 Y61.286
X-32.792 Y61.239
X-32.817 Y61.19
X-32.839 Y61.139
X-32.856 Y61.087
X-32.869 Y61.032
X-32.877 Y60.979
X-32.882 Y60.922
X-32.881 Y60.898
X-32.876 Y60.837
X-32.86 Y60.779
X-32.834 Y60.724
X-32.799 Y60.674
X-32.756 Y60.631
X-32.706 Y60.597
X-32.651 Y60.571
X-32.592 Y60.555
X-32.531 Y60.55
X-32.225
X-32.184 Y60.557
X-32.146 Y60.575
X-32.116 Y60.603
X-32.093 Y60.638
X-32.082 Y60.678
X-32.081 Y60.719
X-32.098 Y60.85
X-32.171 Y61.419
X-32.182 Y61.46
X-32.204 Y61.496
X-32.235 Y61.524
X-32.273 Y61.543
X-32.315 Y61.55
X-32.675
X-32.7 Y61.549
X-32.732 Y61.545
X-32.766 Y61.537
X-32.803 Y61.526
X-32.84 Y61.512
X-32.879 Y61.493
X-32.919 Y61.47
X-32.958 Y61.442
X-32.997 Y61.41
X-33.035 Y61.372
X-33.071 Y61.332
X-33.104 Y61.287
X-33.133 Y61.24
X-33.158 Y61.191
X-33.18 Y61.139
X-33.197 Y61.087
X-33.21 Y61.032
X-33.218 Y60.979
X-33.223 Y60.922
Y60.898
X-33.217 Y60.837
X-33.201 Y60.779
X-33.175 Y60.724
X-33.14 Y60.674
X-33.097 Y60.631
X-33.047 Y60.597
X-32.992 Y60.571
X-32.933 Y60.555
X-32.873 Y60.55
X-32.585
X-32.544 Y60.557
X-32.506 Y60.575
X-32.475 Y60.603
X-32.453 Y60.638
X-32.441 Y60.678
Y60.719
X-32.458 Y60.85
X-32.531 Y61.419
X-32.542 Y61.46
X-32.564 Y61.496
X-32.595 Y61.524
X-32.633 Y61.543
X-32.675 Y61.55
X-33.014
X-33.042 Y61.549
X-33.074 Y61.544
X-33.108 Y61.537
X-33.144 Y61.526
X-33.181 Y61.512
X-33.22 Y61.493
X-33.26 Y61.47
X-33.299 Y61.442
X-33.338 Y61.41
X-33.377 Y61.372
X-33.412 Y61.332
X-33.445 Y61.287
X-33.474 Y61.24
X-33.5 Y61.191
X-33.521 Y61.139
X-33.538 Y61.088
X-33.551 Y61.032
X-33.56 Y60.979
X-33.564 Y60.926
X-33.563 Y60.869
X-33.553 Y60.812
X-33.534 Y60.758
X-33.507 Y60.707
X-33.471 Y60.662
X-33.429 Y60.623
X-33.38 Y60.592
X-33.328 Y60.569
X-33.272 Y60.555
X-33.215 Y60.55
X-32.899
X-32.858 Y60.557
X-32.82 Y60.576
X-32.789 Y60.605
X-32.767 Y60.641
X-32.756 Y60.682
X-32.757 Y60.724
X-32.778 Y60.853
X-32.871 Y61.424
X-32.884 Y61.464
X-32.906 Y61.498
X-32.937 Y61.525
X-32.974 Y61.543
X-33.014 Y61.55
X-33.349
X-33.383 Y61.548
X-33.415 Y61.544
X-33.449 Y61.537
X-33.486 Y61.526
X-33.523 Y61.511
X-33.561 Y61.493
X-33.601 Y61.469
X-33.64 Y61.442
X-33.679 Y61.41
X-33.717 Y61.372
X-33.754 Y61.33
X-33.787 Y61.286
X-33.816 Y61.239
X-33.841 Y61.19
X-33.863 Y61.139
X-33.88 Y61.086
X-33.893 Y61.032
X-33.901 Y60.978
X-33.905 Y60.922
Y60.898
X-33.9 Y60.837
X-33.884 Y60.779
X-33.858 Y60.724
X-33.823 Y60.674
X-33.78 Y60.631
X-33.73 Y60.597
X-33.675 Y60.571
X-33.616 Y60.555
X-33.555 Y60.55
X-33.259
X-33.219 Y60.557
X-33.181 Y60.575
X-33.15 Y60.603
X-33.128 Y60.638
X-33.116 Y60.678
Y60.719
X-33.133 Y60.85
X-33.206 Y61.419
X-33.217 Y61.46
X-33.239 Y61.496
X-33.27 Y61.524
X-33.308 Y61.543
X-33.349 Y61.55
X-33.689
X-33.725 Y61.548
X-33.756 Y61.544
X-33.79 Y61.537
X-33.827 Y61.526
X-33.864 Y61.511
X-33.903 Y61.493
X-33.943 Y61.469
X-33.982 Y61.441
X-34.021 Y61.409
X-34.059 Y61.372
X-34.095 Y61.331
X-34.128 Y61.286
X-34.157 Y61.239
X-34.182 Y61.19
X-34.204 Y61.139
X-34.221 Y61.087
X-34.234 Y61.032
X-34.242 Y60.979
X-34.247 Y60.922
X-34.246 Y60.898
X-34.241 Y60.837
X-34.225 Y60.779
X-34.199 Y60.724
X-34.164 Y60.674
X-34.121 Y60.631
X-34.071 Y60.597
X-34.016 Y60.571
X-33.957 Y60.555
X-33.896 Y60.55
X-33.619
X-33.579 Y60.557
X-33.542 Y60.574
X-33.512 Y60.601
X-33.489 Y60.635
X-33.477 Y60.674
X-33.475 Y60.715
X-33.489 Y60.848
X-33.545 Y61.415
X-33.555 Y61.457
X-33.577 Y61.494
X-33.608 Y61.523
X-33.647 Y61.542
X-33.689 Y61.55
X-34.024
X-34.066 Y61.548
X-34.098 Y61.544
X-34.132 Y61.536
X-34.168 Y61.526
X-34.205 Y61.511
X-34.244 Y61.492
X-34.284 Y61.469
X-34.323 Y61.441
X-34.362 Y61.409
X-34.4 Y61.372
X-34.436 Y61.331
X-34.469 Y61.286
X-34.498 Y61.239
X-34.523 Y61.19
X-34.545 Y61.139
X-34.562 Y61.087
X-34.575 Y61.032
X-34.583 Y60.979
X-34.587 Y60.922
Y60.898
X-34.582 Y60.837
X-34.566 Y60.779
X-34.54 Y60.724
X-34.505 Y60.674
X-34.462 Y60.631
X-34.412 Y60.597
X-34.357 Y60.571
X-34.298 Y60.555
X-34.237 Y60.55
X-33.934
X-33.893 Y60.557
X-33.856 Y60.575
X-33.825 Y60.603
X-33.803 Y60.638
X-33.791 Y60.678
Y60.719
X-33.807 Y60.85
X-33.881 Y61.419
X-33.892 Y61.46
X-33.914 Y61.496
X-33.945 Y61.524
X-33.983 Y61.543
X-34.024 Y61.55
X-34.384
X-34.406 Y61.549
X-34.438 Y61.545
X-34.472 Y61.537
X-34.509 Y61.526
X-34.546 Y61.512
X-34.585 Y61.493
X-34.625 Y61.47
X-34.664 Y61.442
X-34.703 Y61.41
X-34.741 Y61.372
X-34.777 Y61.332
X-34.81 Y61.287
X-34.839 Y61.24
X-34.864 Y61.191
X-34.886 Y61.139
X-34.903 Y61.088
X-34.916 Y61.032
X-34.924 Y60.979
X-34.929 Y60.922
Y60.898
X-34.923 Y60.837
X-34.907 Y60.779
X-34.881 Y60.724
X-34.846 Y60.674
X-34.803 Y60.631
X-34.753 Y60.597
X-34.698 Y60.571
X-34.639 Y60.555
X-34.579 Y60.55
X-34.294
X-34.253 Y60.557
X-34.216 Y60.575
X-34.185 Y60.603
X-34.163 Y60.638
X-34.151 Y60.678
Y60.719
X-34.167 Y60.85
X-34.241 Y61.419
X-34.252 Y61.46
X-34.274 Y61.496
X-34.305 Y61.524
X-34.343 Y61.543
X-34.384 Y61.55
X-34.724
X-34.748 Y61.549
X-34.779 Y61.545
X-34.814 Y61.537
X-34.85 Y61.526
X-34.887 Y61.512
X-34.926 Y61.493
X-34.966 Y61.47
X-35.005 Y61.442
X-35.044 Y61.41
X-35.083 Y61.372
X-35.118 Y61.332
X-35.151 Y61.287
X-35.18 Y61.24
X-35.206 Y61.191
X-35.227 Y61.139
X-35.244 Y61.088
X-35.257 Y61.032
X-35.266 Y60.979
X-35.27 Y60.922
Y60.898
X-35.264 Y60.837
X-35.248 Y60.779
X-35.222 Y60.724
X-35.187 Y60.674
X-35.144 Y60.631
X-35.094 Y60.597
X-35.039 Y60.571
X-34.98 Y60.555
X-34.92 Y60.55
X-34.609
X-34.567 Y60.557
X-34.529 Y60.576
X-34.498 Y60.605
X-34.476 Y60.641
X-34.465 Y60.682
X-34.466 Y60.724
X-34.487 Y60.853
X-34.581 Y61.424
X-34.593 Y61.464
X-34.615 Y61.498
X-34.646 Y61.525
X-34.683 Y61.543
X-34.724 Y61.55
X-35.059
X-35.089 Y61.548
X-35.121 Y61.544
X-35.155 Y61.537
X-35.192 Y61.526
X-35.229 Y61.512
X-35.267 Y61.493
X-35.307 Y61.469
X-35.346 Y61.442
X-35.385 Y61.41
X-35.424 Y61.372
X-35.459 Y61.332
X-35.492 Y61.286
X-35.521 Y61.24
X-35.547 Y61.191
X-35.568 Y61.139
X-35.585 Y61.087
X-35.598 Y61.032
X-35.607 Y60.979
X-35.611 Y60.922
Y60.898
X-35.605 Y60.837
X-35.589 Y60.779
X-35.563 Y60.724
X-35.528 Y60.674
X-35.485 Y60.631
X-35.435 Y60.597
X-35.38 Y60.571
X-35.321 Y60.555
X-35.261 Y60.55
X-34.969
X-34.928 Y60.557
X-34.891 Y60.575
X-34.86 Y60.603
X-34.838 Y60.638
X-34.826 Y60.678
X-34.825 Y60.719
X-34.842 Y60.85
X-34.915 Y61.419
X-34.927 Y61.46
X-34.949 Y61.496
X-34.98 Y61.524
X-35.018 Y61.543
X-35.059 Y61.55
X-35.399
X-35.43 Y61.548
X-35.462 Y61.544
X-35.496 Y61.537
X-35.533 Y61.526
X-35.57 Y61.512
X-35.608 Y61.493
X-35.648 Y61.469
X-35.688 Y61.442
X-35.726 Y61.41
X-35.765 Y61.372
X-35.8 Y61.332
X-35.833 Y61.286
X-35.863 Y61.24
X-35.888 Y61.191
X-35.909 Y61.139
X-35.926 Y61.087
X-35.94 Y61.032
X-35.948 Y60.979
X-35.952 Y60.922
Y60.898
X-35.946 Y60.837
X-35.93 Y60.779
X-35.904 Y60.724
X-35.869 Y60.674
X-35.826 Y60.631
X-35.776 Y60.597
X-35.721 Y60.571
X-35.662 Y60.555
X-35.602 Y60.55
X-35.284
X-35.242 Y60.557
X-35.204 Y60.576
X-35.173 Y60.605
X-35.151 Y60.641
X-35.14 Y60.682
X-35.141 Y60.724
X-35.162 Y60.853
X-35.256 Y61.424
X-35.268 Y61.464
X-35.29 Y61.498
X-35.321 Y61.525
X-35.358 Y61.543
X-35.399 Y61.55
X-35.734
X-35.771 Y61.548
X-35.803 Y61.544
X-35.837 Y61.537
X-35.874 Y61.526
X-35.911 Y61.511
X-35.949 Y61.493
X-35.989 Y61.469
X-36.029 Y61.441
X-36.067 Y61.409
X-36.106 Y61.372
X-36.141 Y61.331
X-36.175 Y61.286
X-36.204 Y61.24
X-36.229 Y61.19
X-36.25 Y61.139
X-36.267 Y61.087
X-36.281 Y61.032
X-36.289 Y60.979
X-36.293 Y60.922
Y60.898
X-36.287 Y60.837
X-36.271 Y60.779
X-36.245 Y60.724
X-36.21 Y60.674
X-36.167 Y60.631
X-36.117 Y60.597
X-36.062 Y60.571
X-36.004 Y60.555
X-35.943 Y60.55
X-35.644
X-35.603 Y60.557
X-35.566 Y60.575
X-35.535 Y60.603
X-35.513 Y60.638
X-35.501 Y60.678
X-35.5 Y60.719
X-35.517 Y60.85
X-35.59 Y61.419
X-35.601 Y61.46
X-35.623 Y61.496
X-35.655 Y61.524
X-35.692 Y61.543
X-35.734 Y61.55
X-36.073
X-36.112 Y61.548
X-36.144 Y61.544
X-36.178 Y61.537
X-36.215 Y61.526
X-36.252 Y61.511
X-36.29 Y61.493
X-36.33 Y61.469
X-36.37 Y61.441
X-36.408 Y61.409
X-36.447 Y61.372
X-36.482 Y61.331
X-36.516 Y61.286
X-36.545 Y61.239
X-36.57 Y61.19
X-36.591 Y61.139
X-36.608 Y61.087
X-36.622 Y61.032
X-36.63 Y60.979
X-36.634 Y60.922
Y60.898
X-36.628 Y60.837
X-36.612 Y60.779
X-36.586 Y60.724
X-36.551 Y60.674
X-36.508 Y60.631
X-36.458 Y60.597
X-36.403 Y60.571
X-36.345 Y60.555
X-36.284 Y60.55
X-36.004
X-35.964 Y60.557
X-35.927 Y60.574
X-35.896 Y60.601
X-35.874 Y60.635
X-35.861 Y60.674
X-35.86 Y60.715
X-35.873 Y60.848
X-35.929 Y61.415
X-35.94 Y61.457
X-35.961 Y61.494
X-35.993 Y61.523
X-36.031 Y61.542
X-36.073 Y61.55
X-36.409
X-36.454 Y61.548
X-36.485 Y61.544
X-36.519 Y61.536
X-36.556 Y61.525
X-36.593 Y61.511
X-36.632 Y61.492
X-36.671 Y61.469
X-36.711 Y61.441
X-36.749 Y61.409
X-36.788 Y61.371
X-36.823 Y61.331
X-36.857 Y61.286
X-36.886 Y61.239
X-36.911 Y61.19
X-36.932 Y61.139
X-36.949 Y61.087
X-36.962 Y61.032
X-36.971 Y60.979
X-36.975 Y60.922
Y60.898
X-36.969 Y60.837
X-36.953 Y60.779
X-36.927 Y60.724
X-36.892 Y60.674
X-36.849 Y60.631
X-36.799 Y60.597
X-36.744 Y60.571
X-36.685 Y60.555
X-36.625 Y60.55
X-36.319
X-36.278 Y60.557
X-36.241 Y60.575
X-36.21 Y60.603
X-36.187 Y60.638
X-36.176 Y60.678
X-36.175 Y60.719
X-36.192 Y60.85
X-36.265 Y61.419
X-36.276 Y61.46
X-36.298 Y61.496
X-36.329 Y61.524
X-36.367 Y61.543
X-36.409 Y61.55
X-36.769
X-36.794 Y61.549
X-36.826 Y61.545
X-36.86 Y61.537
X-36.896 Y61.526
X-36.934 Y61.512
X-36.972 Y61.493
X-37.012 Y61.47
X-37.052 Y61.442
X-37.09 Y61.41
X-37.129 Y61.372
X-37.164 Y61.332
X-37.198 Y61.287
X-37.227 Y61.24
X-37.252 Y61.191
X-37.274 Y61.139
X-37.29 Y61.088
X-37.304 Y61.032
X-37.312 Y60.979
X-37.316 Y60.922
Y60.898
X-37.31 Y60.837
X-37.294 Y60.779
X-37.268 Y60.724
X-37.233 Y60.674
X-37.19 Y60.631
X-37.14 Y60.597
X-37.085 Y60.571
X-37.027 Y60.555
X-36.966 Y60.55
X-36.679
X-36.638 Y60.557
X-36.6 Y60.575
X-36.569 Y60.603
X-36.547 Y60.638
X-36.535 Y60.678
Y60.719
X-36.552 Y60.85
X-36.625 Y61.419
X-36.636 Y61.46
X-36.658 Y61.496
X-36.689 Y61.524
X-36.727 Y61.543
X-36.769 Y61.55
X-37.108
X-37.135 Y61.549
X-37.167 Y61.544
X-37.201 Y61.537
X-37.238 Y61.526
X-37.275 Y61.512
X-37.313 Y61.493
X-37.353 Y61.47
X-37.393 Y61.442
X-37.431 Y61.41
X-37.47 Y61.372
X-37.505 Y61.332
X-37.539 Y61.287
X-37.568 Y61.24
X-37.593 Y61.191
X-37.615 Y61.139
X-37.632 Y61.088
X-37.645 Y61.032
X-37.653 Y60.979
X-37.657 Y60.922
Y60.898
X-37.652 Y60.837
X-37.636 Y60.779
X-37.61 Y60.724
X-37.575 Y60.674
X-37.531 Y60.631
X-37.482 Y60.597
X-37.426 Y60.571
X-37.368 Y60.555
X-37.307 Y60.55
X-36.993
X-36.952 Y60.557
X-36.914 Y60.576
X-36.883 Y60.605
X-36.861 Y60.641
X-36.85 Y60.682
X-36.851 Y60.724
X-36.872 Y60.853
X-36.965 Y61.424
X-36.978 Y61.464
X-37. Y61.498
X-37.031 Y61.525
X-37.068 Y61.543
X-37.108 Y61.55
X-37.443
X-37.477 Y61.548
X-37.508 Y61.544
X-37.542 Y61.537
X-37.579 Y61.526
X-37.616 Y61.511
X-37.655 Y61.493
X-37.695 Y61.469
X-37.734 Y61.442
X-37.773 Y61.41
X-37.811 Y61.372
X-37.846 Y61.331
X-37.88 Y61.286
X-37.909 Y61.24
X-37.934 Y61.191
X-37.956 Y61.139
X-37.973 Y61.087
X-37.986 Y61.032
X-37.994 Y60.979
X-37.998 Y60.922
Y60.898
X-37.993 Y60.837
X-37.977 Y60.779
X-37.951 Y60.724
X-37.916 Y60.674
X-37.873 Y60.631
X-37.823 Y60.597
X-37.768 Y60.571
X-37.709 Y60.555
X-37.648 Y60.55
X-37.353
X-37.313 Y60.557
X-37.275 Y60.575
X-37.244 Y60.603
X-37.222 Y60.638
X-37.21 Y60.678
Y60.719
X-37.227 Y60.85
X-37.3 Y61.419
X-37.311 Y61.46
X-37.333 Y61.496
X-37.364 Y61.524
X-37.402 Y61.543
X-37.443 Y61.55
X-37.783
X-37.818 Y61.548
X-37.849 Y61.544
X-37.883 Y61.537
X-37.92 Y61.526
X-37.957 Y61.511
X-37.996 Y61.493
X-38.036 Y61.469
X-38.075 Y61.442
X-38.114 Y61.409
X-38.152 Y61.372
X-38.188 Y61.331
X-38.221 Y61.286
X-38.25 Y61.24
X-38.275 Y61.191
X-38.297 Y61.139
X-38.314 Y61.087
X-38.327 Y61.032
X-38.335 Y60.979
X-38.339 Y60.922
Y60.898
X-38.334 Y60.837
X-38.318 Y60.779
X-38.292 Y60.724
X-38.257 Y60.674
X-38.214 Y60.631
X-38.164 Y60.597
X-38.109 Y60.571
X-38.05 Y60.555
X-37.989 Y60.55
X-37.713
X-37.673 Y60.557
X-37.636 Y60.574
X-37.606 Y60.601
X-37.583 Y60.635
X-37.571 Y60.674
X-37.569 Y60.715
X-37.583 Y60.848
X-37.639 Y61.415
X-37.649 Y61.457
X-37.671 Y61.494
X-37.702 Y61.523
X-37.741 Y61.542
X-37.783 Y61.55
X-38.118
X-38.159 Y61.548
X-38.191 Y61.544
X-38.225 Y61.537
X-38.261 Y61.526
X-38.298 Y61.511
X-38.337 Y61.492
X-38.377 Y61.469
X-38.416 Y61.441
X-38.455 Y61.409
X-38.493 Y61.372
X-38.529 Y61.331
X-38.562 Y61.286
X-38.591 Y61.239
X-38.616 Y61.19
X-38.638 Y61.139
X-38.655 Y61.087
X-38.668 Y61.032
X-38.676 Y60.979
X-38.68 Y60.922
Y60.898
X-38.675 Y60.837
X-38.659 Y60.779
X-38.633 Y60.724
X-38.598 Y60.674
X-38.555 Y60.631
X-38.505 Y60.597
X-38.45 Y60.571
X-38.391 Y60.555
X-38.33 Y60.55
X-38.028
X-37.987 Y60.557
X-37.95 Y60.575
X-37.919 Y60.603
X-37.897 Y60.638
X-37.885 Y60.678
Y60.719
X-37.902 Y60.85
X-37.975 Y61.419
X-37.986 Y61.46
X-38.008 Y61.496
X-38.039 Y61.524
X-38.077 Y61.543
X-38.118 Y61.55
X-38.478
X-38.499 Y61.549
X-38.531 Y61.545
X-38.565 Y61.537
X-38.602 Y61.526
X-38.639 Y61.512
X-38.678 Y61.493
X-38.718 Y61.47
X-38.757 Y61.442
X-38.796 Y61.41
X-38.834 Y61.372
X-38.87 Y61.332
X-38.903 Y61.287
X-38.932 Y61.24
X-38.957 Y61.191
X-38.979 Y61.139
X-38.996 Y61.088
X-39.009 Y61.032
X-39.017 Y60.979
X-39.022 Y60.922
Y60.898
X-39.016 Y60.837
X-39. Y60.779
X-38.974 Y60.724
X-38.939 Y60.674
X-38.896 Y60.631
X-38.846 Y60.597
X-38.791 Y60.571
X-38.732 Y60.555
X-38.672 Y60.55
X-38.388
X-38.347 Y60.557
X-38.31 Y60.575
X-38.279 Y60.603
X-38.257 Y60.638
X-38.245 Y60.678
Y60.719
X-38.261 Y60.85
X-38.335 Y61.419
X-38.346 Y61.46
X-38.368 Y61.496
X-38.399 Y61.524
X-38.437 Y61.543
X-38.478 Y61.55
X-38.818
X-38.841 Y61.549
X-38.872 Y61.545
X-38.907 Y61.537
X-38.943 Y61.526
X-38.98 Y61.512
X-39.019 Y61.493
X-39.059 Y61.47
X-39.098 Y61.442
X-39.137 Y61.41
X-39.176 Y61.372
X-39.211 Y61.332
X-39.244 Y61.287
X-39.273 Y61.24
X-39.299 Y61.191
X-39.32 Y61.139
X-39.337 Y61.088
X-39.35 Y61.032
X-39.359 Y60.979
X-39.363 Y60.922
Y60.898
X-39.357 Y60.837
X-39.341 Y60.779
X-39.315 Y60.724
X-39.28 Y60.674
X-39.237 Y60.631
X-39.187 Y60.597
X-39.132 Y60.571
X-39.073 Y60.555
X-39.013 Y60.55
X-38.703
X-38.661 Y60.557
X-38.624 Y60.576
X-38.592 Y60.605
X-38.57 Y60.641
X-38.559 Y60.682
X-38.56 Y60.724
X-38.581 Y60.853
X-38.675 Y61.424
X-38.687 Y61.464
X-38.709 Y61.498
X-38.74 Y61.525
X-38.777 Y61.543
X-38.818 Y61.55
X-39.153
X-39.182 Y61.549
X-39.214 Y61.544
X-39.248 Y61.537
X-39.285 Y61.526
X-39.322 Y61.512
X-39.36 Y61.493
X-39.4 Y61.469
X-39.439 Y61.442
X-39.478 Y61.41
X-39.517 Y61.372
X-39.552 Y61.332
X-39.585 Y61.287
X-39.614 Y61.24
X-39.64 Y61.191
X-39.661 Y61.139
X-39.678 Y61.087
X-39.691 Y61.032
X-39.7 Y60.979
X-39.704 Y60.922
Y60.898
X-39.698 Y60.837
X-39.682 Y60.779
X-39.656 Y60.724
X-39.621 Y60.674
X-39.578 Y60.631
X-39.528 Y60.597
X-39.473 Y60.571
X-39.414 Y60.555
X-39.354 Y60.55
X-39.063
X-39.022 Y60.557
X-38.985 Y60.575
X-38.954 Y60.603
X-38.932 Y60.638
X-38.92 Y60.678
X-38.919 Y60.719
X-38.936 Y60.85
X-39.009 Y61.419
X-39.021 Y61.46
X-39.043 Y61.496
X-39.074 Y61.524
X-39.112 Y61.543
X-39.153 Y61.55
X-39.493
X-39.523 Y61.548
X-39.555 Y61.544
X-39.589 Y61.537
X-39.626 Y61.526
X-39.663 Y61.512
X-39.701 Y61.493
X-39.741 Y61.469
X-39.781 Y61.442
X-39.819 Y61.41
X-39.858 Y61.372
X-39.893 Y61.332
X-39.926 Y61.286
X-39.956 Y61.24
X-39.981 Y61.191
X-40.002 Y61.139
X-40.019 Y61.087
X-40.033 Y61.032
X-40.041 Y60.979
X-40.045 Y60.922
Y60.898
X-40.039 Y60.837
X-40.023 Y60.779
X-39.997 Y60.724
X-39.962 Y60.674
X-39.919 Y60.631
X-39.869 Y60.597
X-39.814 Y60.571
X-39.756 Y60.555
X-39.695 Y60.55
X-39.378
X-39.336 Y60.557
X-39.298 Y60.576
X-39.267 Y60.605
X-39.245 Y60.641
X-39.234 Y60.682
X-39.235 Y60.724
X-39.256 Y60.853
X-39.35 Y61.424
X-39.362 Y61.464
X-39.384 Y61.498
X-39.415 Y61.525
X-39.452 Y61.543
X-39.493 Y61.55
X-39.828
X-39.865 Y61.548
X-39.896 Y61.544
X-39.93 Y61.537
X-39.967 Y61.526
X-40.004 Y61.511
X-40.042 Y61.493
X-40.082 Y61.469
X-40.122 Y61.441
X-40.16 Y61.409
X-40.199 Y61.372
X-40.234 Y61.331
X-40.268 Y61.286
X-40.297 Y61.24
X-40.322 Y61.19
X-40.344 Y61.139
X-40.36 Y61.087
X-40.374 Y61.032
X-40.382 Y60.979
X-40.386 Y60.922
Y60.898
X-40.38 Y60.837
X-40.364 Y60.779
X-40.338 Y60.724
X-40.303 Y60.674
X-40.26 Y60.631
X-40.21 Y60.597
X-40.155 Y60.571
X-40.097 Y60.555
X-40.036 Y60.55
X-39.738
X-39.697 Y60.557
X-39.66 Y60.575
X-39.629 Y60.603
X-39.607 Y60.638
X-39.595 Y60.678
X-39.594 Y60.719
X-39.611 Y60.85
X-39.684 Y61.419
X-39.695 Y61.46
X-39.717 Y61.496
X-39.749 Y61.524
X-39.786 Y61.543
X-39.828 Y61.55
X-40.167
X-40.206 Y61.548
X-40.237 Y61.544
X-40.271 Y61.537
X-40.308 Y61.526
X-40.345 Y61.511
X-40.383 Y61.493
X-40.423 Y61.469
X-40.463 Y61.441
X-40.501 Y61.409
X-40.54 Y61.372
X-40.575 Y61.331
X-40.609 Y61.286
X-40.638 Y61.239
X-40.663 Y61.19
X-40.685 Y61.139
X-40.701 Y61.087
X-40.715 Y61.032
X-40.723 Y60.979
X-40.727 Y60.922
Y60.898
X-40.721 Y60.837
X-40.705 Y60.779
X-40.679 Y60.724
X-40.644 Y60.674
X-40.601 Y60.631
X-40.551 Y60.597
X-40.496 Y60.571
X-40.438 Y60.555
X-40.377 Y60.55
X-40.098
X-40.058 Y60.557
X-40.021 Y60.574
X-39.99 Y60.601
X-39.968 Y60.635
X-39.955 Y60.674
X-39.954 Y60.715
X-39.967 Y60.848
X-40.023 Y61.415
X-40.034 Y61.457
X-40.056 Y61.494
X-40.087 Y61.523
X-40.125 Y61.542
X-40.167 Y61.55
X-40.503
X-40.547 Y61.548
X-40.578 Y61.544
X-40.612 Y61.536
X-40.649 Y61.525
X-40.686 Y61.511
X-40.725 Y61.492
X-40.764 Y61.469
X-40.804 Y61.441
X-40.842 Y61.409
X-40.881 Y61.371
X-40.916 Y61.331
X-40.95 Y61.286
X-40.979 Y61.239
X-41.004 Y61.19
X-41.025 Y61.139
X-41.042 Y61.087
X-41.056 Y61.032
X-41.064 Y60.979
X-41.068 Y60.922
Y60.898
X-41.062 Y60.837
X-41.046 Y60.779
X-41.02 Y60.724
X-40.985 Y60.674
X-40.942 Y60.631
X-40.892 Y60.597
X-40.837 Y60.571
X-40.779 Y60.555
X-40.718 Y60.55
X-40.413
X-40.372 Y60.557
X-40.335 Y60.575
X-40.304 Y60.603
X-40.281 Y60.638
X-40.27 Y60.678
X-40.269 Y60.719
X-40.286 Y60.85
X-40.359 Y61.419
X-40.37 Y61.46
X-40.392 Y61.496
X-40.423 Y61.524
X-40.461 Y61.543
X-40.503 Y61.55
X-40.863
X-40.887 Y61.549
X-40.919 Y61.545
X-40.953 Y61.537
X-40.99 Y61.526
X-41.027 Y61.512
X-41.065 Y61.493
X-41.105 Y61.47
X-41.145 Y61.442
X-41.183 Y61.41
X-41.222 Y61.372
X-41.257 Y61.332
X-41.291 Y61.287
X-41.32 Y61.24
X-41.345 Y61.191
X-41.367 Y61.139
X-41.383 Y61.088
X-41.397 Y61.032
X-41.405 Y60.979
X-41.409 Y60.922
Y60.898
X-41.404 Y60.837
X-41.387 Y60.779
X-41.362 Y60.724
X-41.327 Y60.674
X-41.283 Y60.631
X-41.234 Y60.597
X-41.178 Y60.571
X-41.12 Y60.555
X-41.059 Y60.55
X-40.773
X-40.732 Y60.557
X-40.694 Y60.575
X-40.663 Y60.603
X-40.641 Y60.638
X-40.63 Y60.678
X-40.629 Y60.719
X-40.646 Y60.85
X-40.719 Y61.419
X-40.73 Y61.46
X-40.752 Y61.496
X-40.783 Y61.524
X-40.821 Y61.543
X-40.863 Y61.55
X-41.202
X-41.228 Y61.549
X-41.26 Y61.545
X-41.294 Y61.537
X-41.331 Y61.526
X-41.368 Y61.512
X-41.407 Y61.493
X-41.446 Y61.47
X-41.486 Y61.442
X-41.525 Y61.41
X-41.563 Y61.372
X-41.598 Y61.332
X-41.632 Y61.287
X-41.661 Y61.24
X-41.686 Y61.191
X-41.708 Y61.139
X-41.725 Y61.088
X-41.738 Y61.032
X-41.746 Y60.979
X-41.75 Y60.922
Y60.898
X-41.745 Y60.837
X-41.729 Y60.779
X-41.703 Y60.724
X-41.668 Y60.674
X-41.625 Y60.631
X-41.575 Y60.597
X-41.52 Y60.571
X-41.461 Y60.555
X-41.4 Y60.55
X-41.088
X-41.046 Y60.557
X-41.008 Y60.576
X-40.977 Y60.605
X-40.955 Y60.641
X-40.944 Y60.682
X-40.945 Y60.724
X-40.966 Y60.853
X-41.059 Y61.424
X-41.072 Y61.464
X-41.094 Y61.498
X-41.125 Y61.525
X-41.162 Y61.543
X-41.202 Y61.55
X-41.537
X-41.57 Y61.548
X-41.601 Y61.544
X-41.635 Y61.537
X-41.672 Y61.526
X-41.709 Y61.512
X-41.748 Y61.493
X-41.788 Y61.469
X-41.827 Y61.442
X-41.866 Y61.41
X-41.904 Y61.372
X-41.94 Y61.332
X-41.973 Y61.286
X-42.002 Y61.24
X-42.027 Y61.191
X-42.049 Y61.139
X-42.066 Y61.087
X-42.079 Y61.032
X-42.087 Y60.979
X-42.092 Y60.922
X-42.091 Y60.898
X-42.086 Y60.837
X-42.07 Y60.779
X-42.044 Y60.724
X-42.009 Y60.674
X-41.966 Y60.631
X-41.916 Y60.597
X-41.861 Y60.571
X-41.802 Y60.555
X-41.741 Y60.55
X-41.447
X-41.407 Y60.557
X-41.369 Y60.575
X-41.338 Y60.603
X-41.316 Y60.638
X-41.304 Y60.678
Y60.719
X-41.321 Y60.85
X-41.394 Y61.419
X-41.405 Y61.46
X-41.427 Y61.496
X-41.458 Y61.524
X-41.496 Y61.543
X-41.537 Y61.55
X-41.877
X-41.911 Y61.548
X-41.942 Y61.544
X-41.977 Y61.537
X-42.013 Y61.526
X-42.05 Y61.511
X-42.089 Y61.493
X-42.129 Y61.469
X-42.168 Y61.442
X-42.207 Y61.409
X-42.245 Y61.372
X-42.281 Y61.331
X-42.314 Y61.286
X-42.343 Y61.24
X-42.368 Y61.191
X-42.39 Y61.139
X-42.407 Y61.087
X-42.42 Y61.032
X-42.428 Y60.979
X-42.433 Y60.922
X-42.432 Y60.898
X-42.427 Y60.837
X-42.411 Y60.779
X-42.385 Y60.724
X-42.35 Y60.674
X-42.307 Y60.631
X-42.257 Y60.597
X-42.202 Y60.571
X-42.143 Y60.555
X-42.082 Y60.55
X-41.762
X-41.721 Y60.557
X-41.683 Y60.576
X-41.652 Y60.605
X-41.63 Y60.641
X-41.619 Y60.682
X-41.62 Y60.724
X-41.641 Y60.853
X-41.734 Y61.424
X-41.746 Y61.464
X-41.769 Y61.498
X-41.8 Y61.525
X-41.837 Y61.543
X-41.877 Y61.55
X-42.212
X-42.252 Y61.548
X-42.284 Y61.544
X-42.318 Y61.537
X-42.354 Y61.526
X-42.391 Y61.511
X-42.43 Y61.492
X-42.47 Y61.469
X-42.509 Y61.441
X-42.548 Y61.409
X-42.586 Y61.372
X-42.622 Y61.331
X-42.655 Y61.286
X-42.684 Y61.239
X-42.709 Y61.19
X-42.731 Y61.139
X-42.748 Y61.087
X-42.761 Y61.032
X-42.769 Y60.979
X-42.774 Y60.922
X-42.773 Y60.898
X-42.768 Y60.837
X-42.752 Y60.779
X-42.726 Y60.724
X-42.691 Y60.674
X-42.648 Y60.631
X-42.598 Y60.597
X-42.543 Y60.571
X-42.484 Y60.555
X-42.423 Y60.55
X-42.122
X-42.081 Y60.557
X-42.044 Y60.575
X-42.013 Y60.603
X-41.991 Y60.638
X-41.979 Y60.678
Y60.719
X-41.996 Y60.85
X-42.069 Y61.419
X-42.08 Y61.46
X-42.102 Y61.496
X-42.133 Y61.524
X-42.171 Y61.543
X-42.212 Y61.55
X-42.572
X-42.592 Y61.549
X-42.624 Y61.545
X-42.658 Y61.538
X-42.695 Y61.527
X-42.732 Y61.512
X-42.771 Y61.493
X-42.811 Y61.47
X-42.85 Y61.442
X-42.889 Y61.41
X-42.927 Y61.372
X-42.963 Y61.332
X-42.996 Y61.287
X-43.025 Y61.24
X-43.051 Y61.191
X-43.072 Y61.139
X-43.089 Y61.088
X-43.102 Y61.032
X-43.111 Y60.979
X-43.115 Y60.922
Y60.898
X-43.109 Y60.837
X-43.093 Y60.779
X-43.067 Y60.724
X-43.032 Y60.674
X-42.989 Y60.631
X-42.939 Y60.597
X-42.884 Y60.571
X-42.825 Y60.555
X-42.765 Y60.55
X-42.482
X-42.441 Y60.557
X-42.404 Y60.575
X-42.373 Y60.603
X-42.351 Y60.638
X-42.339 Y60.678
Y60.719
X-42.355 Y60.85
X-42.429 Y61.419
X-42.44 Y61.46
X-42.462 Y61.496
X-42.493 Y61.524
X-42.531 Y61.543
X-42.572 Y61.55
X-42.912
X-42.934 Y61.549
X-42.966 Y61.545
X-43. Y61.537
X-43.036 Y61.526
X-43.073 Y61.512
X-43.112 Y61.493
X-43.152 Y61.47
X-43.191 Y61.442
X-43.23 Y61.41
X-43.269 Y61.372
X-43.304 Y61.332
X-43.337 Y61.287
X-43.366 Y61.24
X-43.392 Y61.191
X-43.413 Y61.139
X-43.43 Y61.088
X-43.443 Y61.032
X-43.452 Y60.979
X-43.456 Y60.922
Y60.898
X-43.45 Y60.837
X-43.434 Y60.779
X-43.408 Y60.724
X-43.373 Y60.674
X-43.33 Y60.631
X-43.28 Y60.597
X-43.225 Y60.571
X-43.166 Y60.555
X-43.106 Y60.55
X-42.797
X-42.755 Y60.557
X-42.718 Y60.576
X-42.686 Y60.605
X-42.664 Y60.641
X-42.653 Y60.682
X-42.654 Y60.724
X-42.675 Y60.853
X-42.769 Y61.424
X-42.781 Y61.464
X-42.803 Y61.498
X-42.834 Y61.525
X-42.871 Y61.543
X-42.912 Y61.55
X-43.247
X-43.275 Y61.549
X-43.307 Y61.544
X-43.341 Y61.537
X-43.378 Y61.526
X-43.415 Y61.512
X-43.453 Y61.493
X-43.493 Y61.47
X-43.533 Y61.442
X-43.571 Y61.41
X-43.61 Y61.372
X-43.645 Y61.332
X-43.679 Y61.287
X-43.708 Y61.24
X-43.733 Y61.191
X-43.755 Y61.139
X-43.771 Y61.088
X-43.785 Y61.032
X-43.793 Y60.979
X-43.797 Y60.922
Y60.898
X-43.791 Y60.837
X-43.775 Y60.779
X-43.749 Y60.724
X-43.714 Y60.674
X-43.671 Y60.631
X-43.621 Y60.597
X-43.566 Y60.571
X-43.508 Y60.555
X-43.447 Y60.55
X-43.157
X-43.116 Y60.557
X-43.079 Y60.575
X-43.048 Y60.603
X-43.026 Y60.638
X-43.014 Y60.678
X-43.013 Y60.719
X-43.03 Y60.85
X-43.103 Y61.419
X-43.115 Y61.46
X-43.137 Y61.496
X-43.168 Y61.524
X-43.206 Y61.543
X-43.247 Y61.55
X-43.587
X-43.616 Y61.549
X-43.648 Y61.544
X-43.682 Y61.537
X-43.719 Y61.526
X-43.756 Y61.512
X-43.794 Y61.493
X-43.834 Y61.469
X-43.874 Y61.442
X-43.912 Y61.41
X-43.951 Y61.372
X-43.986 Y61.332
X-44.02 Y61.286
X-44.049 Y61.24
X-44.074 Y61.191
X-44.096 Y61.139
X-44.112 Y61.087
X-44.126 Y61.032
X-44.134 Y60.979
X-44.138 Y60.922
Y60.898
X-44.133 Y60.837
X-44.117 Y60.779
X-44.091 Y60.724
X-44.056 Y60.674
X-44.012 Y60.631
X-43.963 Y60.597
X-43.907 Y60.571
X-43.849 Y60.555
X-43.788 Y60.55
X-43.472
X-43.43 Y60.557
X-43.392 Y60.576
X-43.361 Y60.605
X-43.339 Y60.641
X-43.328 Y60.682
X-43.329 Y60.724
X-43.35 Y60.853
X-43.444 Y61.424
X-43.456 Y61.464
X-43.478 Y61.498
X-43.509 Y61.525
X-43.546 Y61.543
X-43.587 Y61.55
X-43.922
X-43.958 Y61.548
X-43.989 Y61.544
X-44.023 Y61.537
X-44.06 Y61.526
X-44.097 Y61.511
X-44.136 Y61.493
X-44.176 Y61.469
X-44.215 Y61.442
X-44.254 Y61.409
X-44.292 Y61.372
X-44.327 Y61.331
X-44.361 Y61.286
X-44.39 Y61.24
X-44.415 Y61.191
X-44.437 Y61.139
X-44.454 Y61.087
X-44.467 Y61.032
X-44.475 Y60.979
X-44.479 Y60.922
Y60.898
X-44.474 Y60.837
X-44.458 Y60.779
X-44.432 Y60.724
X-44.397 Y60.674
X-44.354 Y60.631
X-44.304 Y60.597
X-44.249 Y60.571
X-44.19 Y60.555
X-44.129 Y60.55
X-43.832
X-43.791 Y60.557
X-43.754 Y60.575
X-43.723 Y60.603
X-43.701 Y60.638
X-43.689 Y60.678
X-43.688 Y60.719
X-43.705 Y60.85
X-43.778 Y61.419
X-43.789 Y61.46
X-43.812 Y61.496
X-43.843 Y61.524
X-43.88 Y61.543
X-43.922 Y61.55
X-44.262
X-44.299 Y61.548
X-44.33 Y61.544
X-44.364 Y61.537
X-44.401 Y61.526
X-44.438 Y61.511
X-44.477 Y61.493
X-44.517 Y61.469
X-44.556 Y61.441
X-44.595 Y61.409
X-44.633 Y61.372
X-44.668 Y61.331
X-44.702 Y61.286
X-44.731 Y61.24
X-44.756 Y61.19
X-44.778 Y61.139
X-44.795 Y61.087
X-44.808 Y61.032
X-44.816 Y60.979
X-44.82 Y60.922
Y60.898
X-44.815 Y60.837
X-44.799 Y60.779
X-44.773 Y60.724
X-44.738 Y60.674
X-44.695 Y60.631
X-44.645 Y60.597
X-44.59 Y60.571
X-44.531 Y60.555
X-44.47 Y60.55
X-44.192
X-44.152 Y60.557
X-44.115 Y60.574
X-44.084 Y60.601
X-44.062 Y60.635
X-44.049 Y60.674
X-44.048 Y60.715
X-44.061 Y60.848
X-44.117 Y61.415
X-44.128 Y61.457
X-44.15 Y61.494
X-44.181 Y61.523
X-44.219 Y61.542
X-44.262 Y61.55
X-44.597
X-44.64 Y61.548
X-44.672 Y61.544
X-44.706 Y61.536
X-44.742 Y61.525
X-44.779 Y61.511
X-44.818 Y61.492
X-44.858 Y61.469
X-44.897 Y61.441
X-44.936 Y61.409
X-44.974 Y61.371
X-45.009 Y61.331
X-45.043 Y61.286
X-45.072 Y61.239
X-45.097 Y61.19
X-45.119 Y61.139
X-45.136 Y61.087
X-45.149 Y61.032
X-45.157 Y60.979
X-45.161 Y60.922
Y60.898
X-45.156 Y60.837
X-45.14 Y60.779
X-45.114 Y60.724
X-45.079 Y60.674
X-45.035 Y60.631
X-44.986 Y60.597
X-44.93 Y60.571
X-44.872 Y60.555
X-44.811 Y60.55
X-44.507
X-44.466 Y60.557
X-44.429 Y60.575
X-44.398 Y60.603
X-44.375 Y60.638
X-44.364 Y60.678
X-44.363 Y60.719
X-44.38 Y60.85
X-44.453 Y61.419
X-44.464 Y61.46
X-44.486 Y61.496
X-44.517 Y61.524
X-44.555 Y61.543
X-44.597 Y61.55
X-44.957
X-44.98 Y61.549
X-45.012 Y61.545
X-45.046 Y61.537
X-45.083 Y61.526
X-45.12 Y61.512
X-45.158 Y61.493
X-45.198 Y61.47
X-45.238 Y61.442
X-45.277 Y61.41
X-45.315 Y61.372
X-45.35 Y61.332
X-45.384 Y61.287
X-45.413 Y61.24
X-45.438 Y61.191
X-45.46 Y61.139
X-45.477 Y61.088
X-45.49 Y61.032
X-45.498 Y60.979
X-45.502 Y60.922
Y60.898
X-45.497 Y60.837
X-45.481 Y60.779
