(G-CODE GENERATED BY FLATCAM v8.91 - www.flatcam.org - Version Date: 2019/02/23)

(Name: kroneum-PTH.drl_cnc)
(Type: G-code from Excellon)
(Units: MM)

(Created on Sunday, 03 March 2019 at 17:33)

(Feedrate: 80.0 mm/min)
(Feedrate rapids 80.0 mm/min)

(Z_Cut: -2.0 mm)
(Z_Move: 2.5 mm)
(Z Toolchange: 1.0 mm)
(X,Y Toolchange: 0.0000, 0.0000 mm)
(Z Start: None mm)
(Z End: 2.0 mm)
(Steps per circle: 64)
(Postprocessor Excellon: default)

(X range:  -42.2380 ...  -12.0750  mm)
(Y range:    1.2800 ...   36.4500  mm)

(Spindle Speed: 12000.0 RPM)

G21
G90
G94

G01 F80.00
M03 S12000.0
G4 P3.0
G00 X-39.0000 Y24.6300
G01 Z-2.0000
G01 Z0
G00 Z2.5000
G00 X-41.7880 Y29.0000
G01 Z-2.0000
G01 Z0
G00 Z2.5000
G00 X-39.0870 Y30.0000
G01 Z-2.0000
G01 Z0
G00 Z2.5000
G00 X-41.7880 Y36.0000
G01 Z-2.0000
G01 Z0
G00 Z2.5000
G00 X-39.0870 Y35.0000
G01 Z-2.0000
G01 Z0
G00 Z2.5000
G00 X-35.6000 Y33.4500
G01 Z-2.0000
G01 Z0
G00 Z2.5000
G00 X-35.9250 Y31.5500
G01 Z-2.0000
G01 Z0
G00 Z2.5000
G00 X-24.0000 Y21.7750
G01 Z-2.0000
G01 Z0
G00 Z2.5000
G00 X-24.0000 Y19.8250
G01 Z-2.0000
G01 Z0
G00 Z2.5000
G00 X-39.0000 Y1.7300
G01 Z-2.0000
G01 Z0
G00 Z2.5000
M03 S12000.0
G4 P3.0
G00 X-15.5750 Y16.0000
G01 Z-2.0000
G01 Z0
G00 Z2.5000
G00 X-12.5750 Y16.0000
G01 Z-2.0000
G01 Z0
G00 Z2.5000
G00 X-20.5000 Y16.0000
G01 Z-2.0000
G01 Z0
G00 Z2.5000
G00 X-23.5000 Y16.0000
G01 Z-2.0000
G01 Z0
G00 Z2.5000
M05
G00 Z2.00
G00 X0.0 Y0.0

