(1001)
(T6  D=6. CR=0. - ZMIN=-7.7 - flat end mill)
G90
G0 G53 Z0.

(2D Adaptive (base))
T6 M6 (flat end mill D=6. 6mm Flat Endmill - Acryl)
S16000 M3
G64
G54
M8
G43 H6
G0 X23.401 Y25.423
Z15.
Z5.
Z2.5
G3 X19.865 Y23.489 Z2.344 I-0.801 J-2.735 F700
X21.799 Y19.953 Z2.187 I2.735 J-0.801
X25.335 Y21.886 Z2.031 I0.801 J2.735
X23.401 Y25.423 Z1.875 I-2.735 J0.801
X19.865 Y23.489 Z1.718 I-0.801 J-2.735
X21.799 Y19.953 Z1.562 I2.735 J-0.801
X25.335 Y21.886 Z1.406 I0.801 J2.735
X23.401 Y25.423 Z1.249 I-2.735 J0.801
X19.865 Y23.489 Z1.093 I-0.801 J-2.735
X21.799 Y19.953 Z0.937 I2.735 J-0.801
X25.335 Y21.886 Z0.78 I0.801 J2.735
X23.401 Y25.423 Z0.624 I-2.735 J0.801
X19.865 Y23.489 Z0.468 I-0.801 J-2.735
X21.799 Y19.953 Z0.311 I2.735 J-0.801
X25.335 Y21.886 Z0.155 I0.801 J2.735
X23.401 Y25.423 Z-0.001 I-2.735 J0.801
X19.865 Y23.489 Z-0.158 I-0.801 J-2.735
X21.799 Y19.953 Z-0.314 I2.735 J-0.801
X25.335 Y21.886 Z-0.47 I0.801 J2.735
X23.401 Y25.423 Z-0.627 I-2.735 J0.801
X19.865 Y23.489 Z-0.783 I-0.801 J-2.735
X21.799 Y19.953 Z-0.939 I2.735 J-0.801
X25.335 Y21.886 Z-1.096 I0.801 J2.735
X23.401 Y25.423 Z-1.252 I-2.735 J0.801
X19.865 Y23.489 Z-1.408 I-0.801 J-2.735
X21.799 Y19.953 Z-1.565 I2.735 J-0.801
X25.335 Y21.886 Z-1.721 I0.801 J2.735
X23.401 Y25.423 Z-1.877 I-2.735 J0.801
X19.865 Y23.489 Z-2.034 I-0.801 J-2.735
X21.799 Y19.953 Z-2.19 I2.735 J-0.801
X25.335 Y21.886 Z-2.346 I0.801 J2.735
X23.401 Y25.423 Z-2.503 I-2.735 J0.801
X19.865 Y23.489 Z-2.659 I-0.801 J-2.735
X21.799 Y19.953 Z-2.815 I2.735 J-0.801
X25.335 Y21.886 Z-2.972 I0.801 J2.735
X25.45 Y22.688 Z-3. I-2.735 J0.801
X22.6 Y25.538 I-2.85 J0.
X19.75 Y22.688 I0. J-2.85
X22.6 Y19.838 I2.85 J0.
X25.45 Y22.688 I0. J2.85
G1 Y22.813
X25.461 Y22.939
X25.484 Y23.063
X25.517 Y23.184
X25.562 Y23.302
X25.617 Y23.415
X25.633 Y23.442
X25.656 Y23.479
X25.66 Y23.485
X25.664 Y23.492
X25.668 Y23.499
X25.673 Y23.506
X25.677 Y23.513
X25.681 Y23.52
X25.685 Y23.528
X25.689 Y23.535
X25.693 Y23.543
X25.697 Y23.55
X25.701 Y23.558
X25.705 Y23.566
X25.709 Y23.574
X25.713 Y23.582
X25.717 Y23.59
X25.721 Y23.598
X25.725 Y23.607
X25.729 Y23.615
X25.733 Y23.624
X25.737 Y23.632
X25.74 Y23.641
X25.744 Y23.65
X25.748 Y23.659
X25.752 Y23.668
X25.755 Y23.678
X25.759 Y23.687
X25.762 Y23.696
X25.766 Y23.706
X25.77 Y23.716
X25.773 Y23.725
X25.777 Y23.735
X25.78 Y23.745
X25.783 Y23.755
X25.787 Y23.766
X25.79 Y23.776
X25.793 Y23.786
X25.796 Y23.797
X25.799 Y23.808
X25.802 Y23.818
X25.805 Y23.829
X25.808 Y23.84
X25.811 Y23.851
X25.814 Y23.863
X25.817 Y23.874
X25.819 Y23.885
X25.822 Y23.897
X25.825 Y23.908
X25.827 Y23.92
X25.83 Y23.932
X25.832 Y23.944
X25.834 Y23.956
X25.836 Y23.968
X25.839 Y23.981
X25.841 Y23.993
X25.843 Y24.005
X25.845 Y24.018
X25.846 Y24.031
X25.848 Y24.043
X25.85 Y24.056
X25.851 Y24.069
X25.853 Y24.082
X25.854 Y24.096
X25.856 Y24.109
X25.857 Y24.122
X25.858 Y24.136
X25.859 Y24.149
X25.86 Y24.163
X25.861 Y24.177
X25.862 Y24.191
Y24.205
X25.863 Y24.219
X25.864 Y24.233
Y24.247
Y24.262
Y24.276
Y24.291
Y24.305
Y24.32
Y24.335
Y24.35
X25.863 Y24.365
Y24.38
X25.862 Y24.395
X25.861 Y24.41
X25.86 Y24.425
X25.859 Y24.441
X25.858 Y24.456
X25.857 Y24.472
X25.855 Y24.488
X25.854 Y24.503
X25.852 Y24.519
X25.85 Y24.535
X25.848 Y24.551
X25.846 Y24.567
X25.844 Y24.583
X25.842 Y24.6
X25.839 Y24.616
X25.837 Y24.632
X25.834 Y24.649
X25.831 Y24.665
X25.828 Y24.682
X25.825 Y24.698
X25.822 Y24.715
X25.818 Y24.732
X25.815 Y24.749
X25.811 Y24.765
X25.807 Y24.782
X25.803 Y24.799
X25.799 Y24.817
X25.795 Y24.834
X25.79 Y24.851
X25.786 Y24.868
X25.781 Y24.885
X25.776 Y24.903
X25.771 Y24.92
X25.766 Y24.938
X25.76 Y24.955
X25.755 Y24.973
X25.749 Y24.99
X25.744 Y25.008
X25.738 Y25.026
X25.731 Y25.043
X25.725 Y25.061
X25.719 Y25.079
X25.712 Y25.097
X25.705 Y25.115
X25.698 Y25.132
X25.691 Y25.15
X25.684 Y25.168
X25.677 Y25.186
X25.669 Y25.204
X25.661 Y25.222
X25.653 Y25.24
X25.645 Y25.259
X25.637 Y25.277
X25.629 Y25.295
X25.62 Y25.313
X25.611 Y25.331
X25.602 Y25.349
X25.593 Y25.367
X25.584 Y25.386
X25.574 Y25.404
X25.565 Y25.422
X25.555 Y25.44
X25.545 Y25.459
X25.535 Y25.477
X25.524 Y25.495
X25.514 Y25.513
X25.503 Y25.531
X25.492 Y25.55
X25.481 Y25.568
X25.47 Y25.586
X25.458 Y25.604
X25.447 Y25.622
X25.435 Y25.641
X25.423 Y25.659
X25.411 Y25.677
X25.399 Y25.695
X25.386 Y25.713
X25.373 Y25.731
X25.361 Y25.749
X25.348 Y25.767
X25.334 Y25.785
X25.321 Y25.803
X25.307 Y25.821
X25.294 Y25.839
X25.28 Y25.857
X25.266 Y25.875
X25.251 Y25.893
X25.237 Y25.91
X25.222 Y25.928
X25.207 Y25.946
X25.192 Y25.963
X25.177 Y25.981
X25.162 Y25.998
X25.146 Y26.016
X25.13 Y26.033
X25.114 Y26.051
X25.098 Y26.068
X25.082 Y26.085
X25.065 Y26.102
X25.049 Y26.119
X25.032 Y26.136
X25.015 Y26.153
X24.997 Y26.17
X24.98 Y26.187
X24.963 Y26.204
X24.945 Y26.22
X24.927 Y26.237
X24.909 Y26.253
X24.89 Y26.27
X24.872 Y26.286
X24.853 Y26.302
X24.835 Y26.319
X24.816 Y26.335
X24.796 Y26.351
X24.777 Y26.367
X24.758 Y26.382
X24.738 Y26.398
X24.718 Y26.414
X24.698 Y26.429
X24.678 Y26.444
X24.657 Y26.46
X24.637 Y26.475
X24.616 Y26.49
X24.595 Y26.505
X24.574 Y26.52
X24.553 Y26.535
X24.532 Y26.549
X24.51 Y26.564
X24.488 Y26.578
X24.467 Y26.592
X24.445 Y26.606
X24.422 Y26.62
X24.4 Y26.634
X24.377 Y26.648
X24.355 Y26.662
X24.332 Y26.675
X24.309 Y26.688
X24.286 Y26.702
X24.263 Y26.715
X24.239 Y26.728
X24.216 Y26.74
X24.192 Y26.753
X24.168 Y26.766
X24.144 Y26.778
X24.12 Y26.79
X24.095 Y26.802
X24.071 Y26.814
X24.046 Y26.826
X24.021 Y26.838
X23.997 Y26.849
X23.972 Y26.86
X23.946 Y26.871
X23.921 Y26.882
X23.896 Y26.893
X23.87 Y26.904
X23.844 Y26.914
X23.818 Y26.925
X23.792 Y26.935
X23.766 Y26.945
X23.74 Y26.954
X23.714 Y26.964
X23.687 Y26.974
X23.661 Y26.983
X23.634 Y26.992
X23.607 Y27.001
X23.58 Y27.01
X23.553 Y27.018
X23.526 Y27.027
X23.498 Y27.035
X23.471 Y27.043
X23.444 Y27.051
X23.416 Y27.058
X23.388 Y27.066
X23.36 Y27.073
X23.332 Y27.08
X23.304 Y27.087
X23.276 Y27.094
X23.248 Y27.1
X23.219 Y27.106
X23.191 Y27.112
X23.162 Y27.118
X23.134 Y27.124
X23.105 Y27.129
X23.076 Y27.135
X23.047 Y27.14
X23.018 Y27.145
X22.989 Y27.149
X22.96 Y27.154
X22.931 Y27.158
X22.902 Y27.162
X22.872 Y27.166
X22.843 Y27.17
X22.813 Y27.173
X22.784 Y27.176
X22.754 Y27.179
X22.724 Y27.182
X22.695 Y27.185
X22.665 Y27.187
X22.635 Y27.189
X22.605 Y27.191
X22.575 Y27.193
X22.545 Y27.194
X22.515 Y27.195
X22.485 Y27.196
X22.454 Y27.197
X22.424 Y27.198
X22.394
X22.363
X22.333
X22.303
X22.272
X22.242 Y27.197
X22.211 Y27.196
X22.18 Y27.195
X22.15 Y27.193
X22.119 Y27.192
X22.089 Y27.19
X22.058 Y27.188
X22.027 Y27.185
X21.996 Y27.183
X21.966 Y27.18
X21.935 Y27.177
X21.904 Y27.174
X21.873 Y27.17
X21.843 Y27.167
X21.812 Y27.163
X21.781 Y27.159
X21.75 Y27.154
X21.72 Y27.15
X21.689 Y27.145
X21.658 Y27.14
X21.627 Y27.134
X21.596 Y27.129
X21.566 Y27.123
X21.535 Y27.117
X21.504 Y27.111
X21.474 Y27.104
X21.443 Y27.098
X21.412 Y27.091
X21.382 Y27.084
X21.351 Y27.076
X21.32 Y27.069
X21.29 Y27.061
X21.259 Y27.053
X21.229 Y27.044
X21.198 Y27.036
X21.168 Y27.027
X21.137 Y27.018
X21.107 Y27.009
X21.077 Y26.999
X21.046 Y26.99
X21.016 Y26.98
X20.986 Y26.969
X20.956 Y26.959
X20.926 Y26.948
X20.896 Y26.938
X20.866 Y26.926
X20.836 Y26.915
X20.806 Y26.904
X20.776 Y26.892
X20.747 Y26.88
X20.717 Y26.868
X20.687 Y26.855
X20.658 Y26.843
X20.628 Y26.83
X20.599 Y26.817
X20.57 Y26.803
X20.54 Y26.79
X20.511 Y26.776
X20.482 Y26.762
X20.453 Y26.748
X20.424 Y26.733
X20.396 Y26.718
X20.367 Y26.703
X20.338 Y26.688
X20.31 Y26.673
X20.281 Y26.657
X20.253 Y26.642
X20.225 Y26.626
X20.197 Y26.609
X20.169 Y26.593
X20.141 Y26.576
X20.113 Y26.56
X20.085 Y26.542
X20.058 Y26.525
X20.03 Y26.508
X20.003 Y26.49
X19.975 Y26.472
X19.948 Y26.454
X19.921 Y26.436
X19.894 Y26.417
X19.868 Y26.398
X19.841 Y26.379
X19.814 Y26.36
X19.788 Y26.341
X19.762 Y26.321
X19.736 Y26.301
X19.71 Y26.281
X19.684 Y26.261
X19.658 Y26.241
X19.632 Y26.22
X19.607 Y26.199
X19.582 Y26.179
X19.556 Y26.157
X19.531 Y26.136
X19.507 Y26.114
X19.482 Y26.093
X19.457 Y26.071
X19.433 Y26.049
X19.408 Y26.026
X19.384 Y26.004
X19.36 Y25.981
X19.337 Y25.958
X19.313 Y25.935
X19.289 Y25.912
X19.266 Y25.889
X19.243 Y25.865
X19.22 Y25.841
X19.197 Y25.817
X19.174 Y25.793
X19.152 Y25.769
X19.129 Y25.744
X19.107 Y25.72
X19.085 Y25.695
X19.063 Y25.67
X19.042 Y25.645
X19.02 Y25.619
X18.999 Y25.594
X18.978 Y25.568
X18.957 Y25.542
X18.936 Y25.516
X18.916 Y25.49
X18.895 Y25.464
X18.875 Y25.437
X18.855 Y25.411
X18.835 Y25.384
X18.816 Y25.357
X18.796 Y25.33
X18.777 Y25.303
X18.758 Y25.275
X18.739 Y25.248
X18.721 Y25.22
X18.702 Y25.192
X18.684 Y25.164
X18.666 Y25.136
X18.648 Y25.108
X18.63 Y25.08
X18.613 Y25.051
X18.596 Y25.022
X18.579 Y24.994
X18.562 Y24.965
X18.545 Y24.936
X18.529 Y24.907
X18.513 Y24.877
X18.497 Y24.848
X18.481 Y24.818
X18.465 Y24.789
X18.45 Y24.759
X18.435 Y24.729
X18.42 Y24.699
X18.405 Y24.669
X18.391 Y24.638
X18.376 Y24.608
X18.362 Y24.578
X18.349 Y24.547
X18.335 Y24.516
X18.322 Y24.485
X18.308 Y24.455
X18.295 Y24.423
X18.283 Y24.392
X18.27 Y24.361
X18.258 Y24.33
X18.246 Y24.298
X18.234 Y24.267
X18.223 Y24.235
X18.211 Y24.204
X18.2 Y24.172
X18.189 Y24.14
X18.179 Y24.108
X18.168 Y24.076
X18.158 Y24.044
X18.148 Y24.012
X18.138 Y23.979
X18.129 Y23.947
X18.12 Y23.915
X18.111 Y23.882
X18.102 Y23.85
X18.094 Y23.817
X18.085 Y23.784
X18.077 Y23.752
X18.069 Y23.719
X18.062 Y23.686
X18.054 Y23.653
X18.047 Y23.62
X18.041 Y23.587
X18.034 Y23.554
X18.028 Y23.52
X18.021 Y23.487
X18.016 Y23.454
X18.01 Y23.421
X18.005 Y23.387
X17.999 Y23.354
X17.995 Y23.32
X17.99 Y23.287
X17.985 Y23.253
X17.981 Y23.22
X17.977 Y23.186
X17.974 Y23.153
X17.97 Y23.119
X17.967 Y23.085
X17.964 Y23.051
X17.962 Y23.018
X17.959 Y22.984
X17.957 Y22.95
X17.955 Y22.916
X17.953 Y22.883
X17.952 Y22.849
X17.951 Y22.815
X17.95 Y22.781
X17.949 Y22.747
Y22.713
X17.948 Y22.679
Y22.645
X17.949 Y22.612
Y22.578
X17.95 Y22.544
X17.951 Y22.51
X17.952 Y22.476
X17.954 Y22.442
X17.956 Y22.408
X17.958 Y22.374
X17.96 Y22.34
X17.962 Y22.307
X17.965 Y22.273
X17.968 Y22.239
X17.972 Y22.205
X17.975 Y22.171
X17.979 Y22.138
X17.983 Y22.104
X17.987 Y22.07
X17.992 Y22.037
X17.996 Y22.003
X18.001 Y21.969
X18.007 Y21.936
X18.012 Y21.902
X18.018 Y21.869
X18.024 Y21.835
X18.03 Y21.802
X18.037 Y21.769
X18.043 Y21.735
X18.05 Y21.702
X18.058 Y21.669
X18.065 Y21.636
X18.073 Y21.603
X18.081 Y21.57
X18.089 Y21.537
X18.097 Y21.504
X18.106 Y21.471
X18.115 Y21.438
X18.124 Y21.405
X18.134 Y21.372
X18.143 Y21.34
X18.153 Y21.307
X18.163 Y21.275
X18.174 Y21.242
X18.184 Y21.21
X18.195 Y21.178
X18.206 Y21.146
X18.217 Y21.114
X18.229 Y21.082
X18.241 Y21.05
X18.253 Y21.018
X18.265 Y20.986
X18.278 Y20.954
X18.29 Y20.923
X18.303 Y20.891
X18.316 Y20.86
X18.33 Y20.829
X18.343 Y20.797
X18.357 Y20.766
X18.371 Y20.735
X18.386 Y20.704
X18.4 Y20.674
X18.415 Y20.643
X18.43 Y20.612
X18.445 Y20.582
X18.461 Y20.551
X18.476 Y20.521
X18.492 Y20.491
X18.508 Y20.461
X18.525 Y20.431
X18.541 Y20.401
X18.558 Y20.372
X18.575 Y20.342
X18.592 Y20.313
X18.61 Y20.283
X18.627 Y20.254
X18.645 Y20.225
X18.663 Y20.196
X18.682 Y20.168
X18.7 Y20.139
X18.719 Y20.11
X18.738 Y20.082
X18.757 Y20.054
X18.776 Y20.026
X18.796 Y19.998
X18.816 Y19.97
X18.836 Y19.942
X18.856 Y19.915
X18.876 Y19.888
X18.897 Y19.86
X18.917 Y19.833
X18.938 Y19.806
X18.959 Y19.78
X18.981 Y19.753
X19.002 Y19.727
X19.024 Y19.7
X19.046 Y19.674
X19.068 Y19.648
X19.09 Y19.622
X19.113 Y19.597
X19.136 Y19.571
X19.159 Y19.546
X19.182 Y19.521
X19.205 Y19.496
X19.228 Y19.471
X19.252 Y19.446
X19.276 Y19.422
X19.3 Y19.398
X19.324 Y19.374
X19.348 Y19.35
X19.373 Y19.326
X19.397 Y19.302
X19.422 Y19.279
X19.447 Y19.256
X19.472 Y19.233
X19.498 Y19.21
X19.523 Y19.187
X19.549 Y19.165
X19.575 Y19.142
X19.601 Y19.12
X19.627 Y19.098
X19.654 Y19.077
X19.68 Y19.055
X19.707 Y19.034
X19.734 Y19.013
X19.761 Y18.992
X19.788 Y18.971
X19.815 Y18.951
X19.842 Y18.93
X19.87 Y18.91
X19.898 Y18.89
X19.926 Y18.871
X19.954 Y18.851
X19.982 Y18.832
X20.01 Y18.813
X20.039 Y18.794
X20.067 Y18.775
X20.096 Y18.757
X20.125 Y18.738
X20.154 Y18.72
X20.183 Y18.702
X20.212 Y18.685
X20.241 Y18.667
X20.271 Y18.65
X20.301 Y18.633
X20.33 Y18.616
X20.36 Y18.6
X20.39 Y18.584
X20.42 Y18.567
X20.451 Y18.552
X20.481 Y18.536
X20.511 Y18.52
X20.542 Y18.505
X20.573 Y18.49
X20.604 Y18.475
X20.634 Y18.461
X20.665 Y18.447
X20.697 Y18.433
X20.728 Y18.419
X20.759 Y18.405
X20.791 Y18.392
X20.822 Y18.378
X20.854 Y18.366
X20.885 Y18.353
X20.917 Y18.34
X20.949 Y18.328
X20.981 Y18.316
X21.013 Y18.304
X21.045 Y18.293
X21.078 Y18.282
X21.11 Y18.27
X21.142 Y18.26
X21.175 Y18.249
X21.208 Y18.239
X21.24 Y18.229
X21.273 Y18.219
X21.306 Y18.209
X21.339 Y18.2
X21.371 Y18.191
X21.404 Y18.182
X21.438 Y18.173
X21.471 Y18.165
X21.504 Y18.156
X21.537 Y18.149
X21.57 Y18.141
X21.604 Y18.133
X21.637 Y18.126
X21.671 Y18.119
X21.704 Y18.113
X21.738 Y18.106
X21.771 Y18.1
X21.805 Y18.094
X21.839 Y18.088
X21.872 Y18.083
X21.906 Y18.078
X21.94 Y18.073
X21.974 Y18.068
X22.008 Y18.063
X22.042 Y18.059
X22.076 Y18.055
X22.11 Y18.051
X22.144 Y18.048
X22.178 Y18.045
X22.212 Y18.042
X22.246 Y18.039
X22.28 Y18.036
X22.314 Y18.034
X22.348 Y18.032
X22.382 Y18.031
X22.416 Y18.029
X22.451 Y18.028
X22.485 Y18.027
X22.519 Y18.026
X22.553
X22.587 Y18.025
X22.622
X22.656 Y18.026
X22.69
X22.724 Y18.027
X22.758 Y18.028
X22.792 Y18.029
X22.827 Y18.031
X22.861 Y18.033
X22.895 Y18.035
X22.929 Y18.037
X22.963 Y18.039
X22.997 Y18.042
X23.031 Y18.045
X23.065 Y18.049
X23.099 Y18.052
X23.133 Y18.056
X23.167 Y18.06
X23.201 Y18.064
X23.235 Y18.069
X23.269 Y18.073
X23.303 Y18.078
X23.336 Y18.084
X23.37 Y18.089
X23.404 Y18.095
X23.438 Y18.101
X23.471 Y18.107
X23.505 Y18.114
X23.538 Y18.121
X23.572 Y18.128
X23.605 Y18.135
X23.639 Y18.142
X23.672 Y18.15
X23.705 Y18.158
X23.738 Y18.166
X23.771 Y18.175
X23.805 Y18.183
X23.838 Y18.192
X23.87 Y18.202
X23.903 Y18.211
X23.936 Y18.221
X23.969 Y18.231
X24.002 Y18.241
X24.034 Y18.251
X24.067 Y18.262
X24.099 Y18.273
X24.131 Y18.284
X24.164 Y18.295
X24.196 Y18.307
X24.228 Y18.318
X24.26 Y18.331
X24.292 Y18.343
X24.324 Y18.355
X24.355 Y18.368
X24.387 Y18.381
X24.419 Y18.394
X24.45 Y18.408
X24.481 Y18.421
X24.513 Y18.435
X24.544 Y18.449
X24.575 Y18.464
X24.606 Y18.478
X24.637 Y18.493
X24.667 Y18.508
X24.698 Y18.524
X24.728 Y18.539
X24.759 Y18.555
X24.789 Y18.571
X24.819 Y18.587
X24.849 Y18.603
X24.879 Y18.62
X24.909 Y18.637
X24.938 Y18.654
X24.968 Y18.671
X24.997 Y18.688
X25.027 Y18.706
X25.056 Y18.724
X25.085 Y18.742
X25.114 Y18.761
X25.142 Y18.779
X25.171 Y18.798
X25.2 Y18.817
X25.228 Y18.836
X25.256 Y18.855
X25.284 Y18.875
X25.312 Y18.895
X25.34 Y18.915
X25.367 Y18.935
X25.395 Y18.955
X25.422 Y18.976
X25.449 Y18.997
X25.476 Y19.018
X25.503 Y19.039
X25.53 Y19.06
X25.556 Y19.082
X25.583 Y19.104
X25.609 Y19.126
X25.635 Y19.148
X25.661 Y19.17
X25.687 Y19.193
X25.712 Y19.215
X25.738 Y19.238
X25.763 Y19.261
X25.788 Y19.285
X25.813 Y19.308
X25.837 Y19.332
X25.862 Y19.356
X25.886 Y19.38
X25.91 Y19.404
X25.934 Y19.428
X25.958 Y19.453
X25.982 Y19.478
X26.005 Y19.502
X26.029 Y19.528
X26.052 Y19.553
X26.075 Y19.578
X26.097 Y19.604
X26.12 Y19.629
X26.142 Y19.655
X26.164 Y19.681
X26.186 Y19.708
X26.208 Y19.734
X26.23 Y19.761
X26.251 Y19.787
X26.272 Y19.814
X26.293 Y19.841
X26.314 Y19.868
X26.335 Y19.896
X26.355 Y19.923
X26.375 Y19.951
X26.395 Y19.979
X26.415 Y20.006
X26.434 Y20.035
X26.454 Y20.063
X26.506 Y20.141
X26.57 Y20.237
X26.628 Y20.324
X26.679 Y20.404
X26.727 Y20.48
X26.772 Y20.551
X26.813 Y20.619
X26.853 Y20.685
X26.89 Y20.748
X26.926 Y20.808
X26.96 Y20.868
X26.992 Y20.925
X27.023 Y20.981
X27.053 Y21.036
X27.082 Y21.09
X27.11 Y21.143
X27.137 Y21.195
X27.163 Y21.246
X27.188 Y21.296
X27.212 Y21.346
X27.235 Y21.394
X27.258 Y21.443
X27.28 Y21.49
X27.301 Y21.538
X27.322 Y21.584
X27.342 Y21.631
X27.362 Y21.676
X27.381 Y21.722
X27.399 Y21.767
X27.417 Y21.811
X27.435 Y21.856
X27.452 Y21.9
X27.468 Y21.943
X27.484 Y21.987
X27.499 Y22.03
X27.515 Y22.073
X27.529 Y22.116
X27.543 Y22.158
X27.557 Y22.2
X27.571 Y22.242
X27.583 Y22.284
X27.596 Y22.326
X27.608 Y22.367
X27.62 Y22.408
X27.632 Y22.45
X27.643 Y22.491
X27.653 Y22.531
X27.664 Y22.572
X27.674 Y22.613
X27.683 Y22.653
X27.693 Y22.693
X27.702 Y22.733
X27.71 Y22.773
X27.719 Y22.813
X27.727 Y22.853
X27.734 Y22.893
X27.742 Y22.932
X27.749 Y22.972
X27.755 Y23.011
X27.762 Y23.05
X27.768 Y23.09
X27.774 Y23.129
X27.779 Y23.168
X27.784 Y23.207
X27.789 Y23.246
X27.794 Y23.284
X27.798 Y23.323
X27.802 Y23.362
X27.806 Y23.4
X27.809 Y23.439
X27.812 Y23.477
X27.815 Y23.516
X27.818 Y23.554
X27.82 Y23.592
X27.822 Y23.631
X27.823 Y23.669
X27.825 Y23.707
X27.826 Y23.745
X27.827 Y23.783
Y23.821
X27.828 Y23.859
Y23.896
X27.827 Y23.934
Y23.972
X27.826 Y24.009
X27.825 Y24.047
X27.823 Y24.084
X27.822 Y24.122
X27.82 Y24.159
X27.818 Y24.197
X27.815 Y24.234
X27.813 Y24.271
X27.809 Y24.308
X27.806 Y24.346
X27.803 Y24.383
X27.799 Y24.42
X27.795 Y24.457
X27.79 Y24.494
X27.786 Y24.531
X27.781 Y24.567
X27.776 Y24.604
X27.77 Y24.641
X27.765 Y24.678
X27.759 Y24.714
X27.752 Y24.751
X27.746 Y24.787
X27.739 Y24.824
X27.732 Y24.86
X27.725 Y24.896
X27.717 Y24.933
X27.709 Y24.969
X27.701 Y25.005
X27.693 Y25.041
X27.684 Y25.077
X27.676 Y25.113
X27.666 Y25.149
X27.657 Y25.185
X27.647 Y25.221
X27.637 Y25.256
X27.627 Y25.292
X27.617 Y25.328
X27.606 Y25.363
X27.595 Y25.399
X27.584 Y25.434
X27.572 Y25.469
X27.56 Y25.505
X27.548 Y25.54
X27.536 Y25.575
X27.523 Y25.61
X27.511 Y25.645
X27.498 Y25.68
X27.484 Y25.714
X27.471 Y25.749
X27.457 Y25.784
X27.443 Y25.818
X27.428 Y25.853
X27.413 Y25.887
X27.399 Y25.921
X27.383 Y25.955
X27.368 Y25.989
X27.352 Y26.023
X27.336 Y26.057
X27.32 Y26.091
X27.303 Y26.125
X27.287 Y26.159
X27.27 Y26.192
X27.252 Y26.226
X27.235 Y26.259
X27.217 Y26.292
X27.199 Y26.325
X27.181 Y26.358
X27.162 Y26.391
X27.143 Y26.424
X27.124 Y26.457
X27.105 Y26.489
X27.085 Y26.522
X27.066 Y26.554
X27.045 Y26.586
X27.025 Y26.618
X27.004 Y26.65
X26.984 Y26.682
X26.963 Y26.714
X26.941 Y26.746
X26.92 Y26.777
X26.898 Y26.808
X26.875 Y26.84
X26.853 Y26.871
X26.83 Y26.902
X26.808 Y26.933
X26.784 Y26.963
X26.761 Y26.994
X26.737 Y27.024
X26.714 Y27.055
X26.689 Y27.085
X26.665 Y27.115
X26.64 Y27.145
X26.616 Y27.174
X26.59 Y27.204
X26.565 Y27.233
X26.54 Y27.263
X26.514 Y27.292
X26.488 Y27.321
X26.461 Y27.349
X26.435 Y27.378
X26.408 Y27.406
X26.381 Y27.435
X26.354 Y27.463
X26.326 Y27.491
X26.298 Y27.519
X26.27 Y27.546
X26.242 Y27.574
X26.214 Y27.601
X26.185 Y27.628
X26.156 Y27.655
X26.127 Y27.682
X26.097 Y27.708
X26.068 Y27.734
X26.038 Y27.761
X26.008 Y27.787
X25.978 Y27.812
X25.947 Y27.838
X25.916 Y27.863
X25.885 Y27.889
X25.854 Y27.914
X25.823 Y27.938
X25.791 Y27.963
X25.759 Y27.987
X25.727 Y28.012
X25.695 Y28.036
X25.662 Y28.059
X25.63 Y28.083
X25.597 Y28.106
X25.564 Y28.129
X25.53 Y28.152
X25.497 Y28.175
X25.463 Y28.197
X25.429 Y28.22
X25.395 Y28.242
X25.36 Y28.264
X25.326 Y28.285
X25.291 Y28.307
X25.256 Y28.328
X25.221 Y28.349
X25.186 Y28.369
X25.15 Y28.39
X25.114 Y28.41
X25.078 Y28.43
X25.042 Y28.45
X25.006 Y28.469
X24.97 Y28.488
X24.933 Y28.507
X24.896 Y28.526
X24.859 Y28.544
X24.822 Y28.563
X24.784 Y28.581
X24.747 Y28.598
X24.709 Y28.616
X24.671 Y28.633
X24.633 Y28.65
X24.595 Y28.667
X24.556 Y28.683
X24.518 Y28.699
X24.479 Y28.715
X24.44 Y28.731
X24.401 Y28.746
X24.362 Y28.761
X24.323 Y28.776
X24.283 Y28.791
X24.243 Y28.805
X24.203 Y28.819
X24.164 Y28.833
X24.123 Y28.846
X24.083 Y28.859
X24.043 Y28.872
X24.002 Y28.885
X23.962 Y28.897
X23.921 Y28.909
X23.88 Y28.921
X23.839 Y28.932
X23.798 Y28.944
X23.756 Y28.955
X23.715 Y28.965
X23.673 Y28.975
X23.632 Y28.985
X23.59 Y28.995
X23.548 Y29.005
X23.506 Y29.014
X23.464 Y29.022
X23.421 Y29.031
X23.379 Y29.039
X23.337 Y29.047
X23.294 Y29.055
X23.251 Y29.062
X23.209 Y29.069
X23.166 Y29.076
X23.123 Y29.082
X23.08 Y29.088
X23.037 Y29.094
X22.994 Y29.099
X22.95 Y29.104
X22.907 Y29.109
X22.863 Y29.114
X22.82 Y29.118
X22.776 Y29.122
X22.733 Y29.125
X22.689 Y29.129
X22.645 Y29.132
X22.601 Y29.134
X22.557 Y29.136
X22.513 Y29.138
X22.469 Y29.14
X22.425 Y29.141
X22.381 Y29.142
X22.337 Y29.143
X22.293
X22.249
X22.204
X22.16
X22.116 Y29.142
X22.071 Y29.14
X22.027 Y29.139
X21.983 Y29.137
X21.938 Y29.135
X21.894 Y29.132
X21.849 Y29.129
X21.805 Y29.126
X21.76 Y29.122
X21.715 Y29.118
X21.671 Y29.114
X21.626 Y29.11
X21.582 Y29.105
X21.537 Y29.099
X21.493 Y29.094
X21.448 Y29.088
X21.404 Y29.082
X21.359 Y29.075
X21.315 Y29.068
X21.27 Y29.061
X21.226 Y29.054
X21.181 Y29.046
X21.137 Y29.038
X21.092 Y29.029
X21.048 Y29.02
X21.004 Y29.011
X20.959 Y29.001
X20.915 Y28.991
X20.871 Y28.981
X20.827 Y28.971
X20.782 Y28.96
X20.738 Y28.949
X20.694 Y28.937
X20.65 Y28.925
X20.606 Y28.913
X20.563 Y28.901
X20.519 Y28.888
X20.475 Y28.875
X20.431 Y28.861
X20.388 Y28.847
X20.344 Y28.833
X20.301 Y28.818
X20.257 Y28.804
X20.214 Y28.788
X20.171 Y28.773
X20.128 Y28.757
X20.085 Y28.741
X20.042 Y28.725
X19.999 Y28.708
X19.956 Y28.691
X19.914 Y28.673
X19.871 Y28.655
X19.829 Y28.637
X19.786 Y28.619
X19.744 Y28.6
X19.702 Y28.581
X19.66 Y28.562
X19.618 Y28.542
X19.576 Y28.522
X19.535 Y28.502
X19.493 Y28.481
X19.452 Y28.46
X19.411 Y28.439
X19.37 Y28.417
X19.329 Y28.396
X19.288 Y28.373
X19.247 Y28.351
X19.207 Y28.328
X19.166 Y28.305
X19.126 Y28.281
X19.086 Y28.258
X19.046 Y28.234
X19.006 Y28.209
X18.966 Y28.185
X18.927 Y28.16
X18.888 Y28.134
X18.849 Y28.109
X18.81 Y28.083
X18.771 Y28.057
X18.732 Y28.03
X18.694 Y28.003
X18.655 Y27.976
X18.617 Y27.949
X18.58 Y27.921
X18.542 Y27.893
X18.504 Y27.865
X18.467 Y27.837
X18.43 Y27.808
X18.393 Y27.779
X18.356 Y27.749
X18.32 Y27.72
X18.283 Y27.69
X18.247 Y27.66
X18.211 Y27.629
X18.175 Y27.598
X18.14 Y27.567
X18.105 Y27.536
X18.07 Y27.504
X18.035 Y27.473
X18. Y27.441
X17.966 Y27.408
X17.932 Y27.376
X17.898 Y27.343
X17.864 Y27.309
X17.83 Y27.276
X17.797 Y27.242
X17.764 Y27.208
X17.731 Y27.174
X17.699 Y27.14
X17.666 Y27.105
X17.634 Y27.07
X17.603 Y27.035
X17.571 Y26.999
X17.54 Y26.964
X17.509 Y26.928
X17.478 Y26.892
X17.447 Y26.855
X17.417 Y26.819
X17.387 Y26.782
X17.357 Y26.745
X17.328 Y26.707
X17.298 Y26.67
X17.269 Y26.632
X17.241 Y26.594
X17.212 Y26.556
X17.184 Y26.517
X17.156 Y26.479
X17.128 Y26.44
X17.101 Y26.401
X17.074 Y26.361
X17.047 Y26.322
X17.021 Y26.282
X16.994 Y26.242
X16.968 Y26.202
X16.943 Y26.162
X16.917 Y26.121
X16.892 Y26.08
X16.868 Y26.039
X16.843 Y25.998
X16.819 Y25.957
X16.795 Y25.915
X16.771 Y25.874
X16.748 Y25.832
X16.725 Y25.79
X16.703 Y25.748
X16.68 Y25.705
X16.658 Y25.663
X16.636 Y25.62
X16.615 Y25.577
X16.594 Y25.534
X16.573 Y25.491
X16.552 Y25.447
X16.532 Y25.404
X16.512 Y25.36
X16.493 Y25.316
X16.473 Y25.272
X16.454 Y25.228
X16.436 Y25.183
X16.418 Y25.139
X16.4 Y25.094
X16.382 Y25.05
X16.365 Y25.005
X16.348 Y24.96
X16.331 Y24.914
X16.315 Y24.869
X16.299 Y24.824
X16.283 Y24.778
X16.268 Y24.732
X16.253 Y24.687
X16.238 Y24.641
X16.223 Y24.595
X16.209 Y24.549
X16.196 Y24.502
X16.182 Y24.456
X16.169 Y24.409
X16.157 Y24.363
X16.144 Y24.316
X16.132 Y24.269
X16.121 Y24.223
X16.11 Y24.176
X16.099 Y24.129
X16.088 Y24.081
X16.078 Y24.034
X16.068 Y23.987
X16.058 Y23.94
X16.049 Y23.892
X16.04 Y23.845
X16.031 Y23.797
X16.023 Y23.749
X16.015 Y23.702
X16.008 Y23.654
X16.001 Y23.606
X15.994 Y23.558
X15.988 Y23.51
X15.982 Y23.462
X15.976 Y23.414
X15.97 Y23.366
X15.965 Y23.318
X15.961 Y23.269
X15.956 Y23.221
X15.952 Y23.173
X15.949 Y23.124
X15.945 Y23.076
X15.943 Y23.028
X15.94 Y22.979
X15.938 Y22.931
X15.936 Y22.882
X15.934 Y22.834
X15.933 Y22.785
Y22.737
X15.932 Y22.688
Y22.64
Y22.591
X15.933 Y22.543
X15.934 Y22.494
X15.935 Y22.446
X15.937 Y22.397
X15.939 Y22.348
X15.942 Y22.3
X15.944 Y22.251
X15.947 Y22.203
X15.951 Y22.154
X15.955 Y22.106
X15.959 Y22.058
X15.964 Y22.009
X15.969 Y21.961
X15.974 Y21.913
X15.979 Y21.864
X15.985 Y21.816
X15.992 Y21.768
X15.998 Y21.72
X16.005 Y21.671
X16.013 Y21.623
X16.021 Y21.575
X16.029 Y21.527
X16.037 Y21.479
X16.046 Y21.432
X16.055 Y21.384
X16.065 Y21.336
X16.075 Y21.288
X16.085 Y21.241
X16.095 Y21.193
X16.106 Y21.146
X16.118 Y21.098
X16.129 Y21.051
X16.141 Y21.004
X16.153 Y20.957
X16.166 Y20.91
X16.179 Y20.863
X16.222 Y20.744
X16.267 Y20.627
X16.314 Y20.51
X16.363 Y20.394
X16.414 Y20.279
X16.466 Y20.165
X16.521 Y20.051
X16.577 Y19.939
X16.636 Y19.827
X16.696 Y19.717
X16.758 Y19.607
X16.822 Y19.499
X16.888 Y19.392
X16.955 Y19.286
X17.025 Y19.181
X17.096 Y19.077
X17.169 Y18.975
X17.244 Y18.874
X17.321 Y18.774
X17.399 Y18.676
X17.48 Y18.579
X17.562 Y18.483
X17.645 Y18.389
X17.731 Y18.297
X17.818 Y18.206
X17.906 Y18.117
X17.997 Y18.029
X18.089 Y17.943
X18.182 Y17.859
X18.277 Y17.776
X18.373 Y17.695
X18.471 Y17.616
X18.571 Y17.539
X18.672 Y17.464
X18.774 Y17.391
X18.878 Y17.319
X18.982 Y17.25
X19.089 Y17.182
X19.196 Y17.117
X19.305 Y17.053
X19.414 Y16.992
X19.525 Y16.932
X19.637 Y16.875
X19.751 Y16.82
X19.865 Y16.767
X19.98 Y16.716
X20.096 Y16.668
X20.213 Y16.621
X20.331 Y16.577
X20.449 Y16.535
X20.569 Y16.495
X20.689 Y16.458
X20.81 Y16.423
X20.931 Y16.39
X21.053 Y16.359
X21.176 Y16.331
X21.299 Y16.306
X21.423 Y16.282
X21.547 Y16.261
X21.671 Y16.242
X21.796 Y16.226
X21.921 Y16.212
X22.046 Y16.201
X22.172 Y16.191
X22.297 Y16.185
X22.423 Y16.18
X22.549 Y16.179
X22.675
X22.801 Y16.182
X22.926 Y16.188
X23.052 Y16.195
X23.177 Y16.205
X23.303 Y16.218
X23.427 Y16.233
X23.552 Y16.251
X23.676 Y16.27
X23.8 Y16.293
X23.924 Y16.317
X24.047 Y16.344
X24.169 Y16.373
X24.291 Y16.405
X24.412 Y16.439
X24.532 Y16.476
X24.652 Y16.514
X24.771 Y16.555
X24.889 Y16.598
X25.006 Y16.644
X25.123 Y16.692
X25.238 Y16.742
X25.353 Y16.794
X25.466 Y16.848
X25.579 Y16.905
X25.69 Y16.964
X25.8 Y17.025
X25.909 Y17.088
X26.017 Y17.153
X26.123 Y17.22
X26.228 Y17.289
X26.332 Y17.361
X26.434 Y17.434
X26.535 Y17.509
X26.635 Y17.585
X26.733 Y17.664
X26.83 Y17.744
X26.926 Y17.826
X27.021 Y17.909
X27.114 Y17.993
X27.206 Y18.079
X27.296 Y18.167
X27.385 Y18.256
X27.473 Y18.346
X27.559 Y18.437
X27.644 Y18.53
X27.728 Y18.624
X27.81 Y18.719
X27.891 Y18.816
X27.97 Y18.913
X28.048 Y19.012
X28.125 Y19.112
X28.2 Y19.213
X28.273 Y19.315
X28.345 Y19.419
X28.415 Y19.523
X28.484 Y19.628
X28.551 Y19.735
X28.617 Y19.842
X28.681 Y19.95
X28.743 Y20.06
X28.804 Y20.17
X28.863 Y20.281
X28.92 Y20.393
X28.975 Y20.506
X29.029 Y20.62
X29.081 Y20.735
X29.131 Y20.85
X29.179 Y20.967
X29.225 Y21.084
X29.269 Y21.201
X29.312 Y21.32
X29.353 Y21.439
X29.391 Y21.559
X29.428 Y21.679
X29.462 Y21.8
X29.495 Y21.922
X29.526 Y22.044
X29.554 Y22.166
X29.581 Y22.289
X29.605 Y22.413
X29.628 Y22.536
X29.648 Y22.661
X29.666 Y22.785
X29.682 Y22.91
X29.696 Y23.035
X29.708 Y23.16
X29.718 Y23.286
X29.725 Y23.411
X29.731 Y23.537
X29.734 Y23.663
X29.735 Y23.789
X29.734 Y23.914
X29.73 Y24.04
X29.725 Y24.166
X29.717 Y24.292
X29.707 Y24.417
X29.695 Y24.542
X29.68 Y24.667
X29.664 Y24.792
X29.645 Y24.916
X29.624 Y25.04
X29.601 Y25.164
X29.575 Y25.287
X29.548 Y25.41
X29.518 Y25.532
X29.486 Y25.654
X29.453 Y25.775
X29.416 Y25.896
X29.378 Y26.016
X29.338 Y26.135
X29.296 Y26.253
X29.251 Y26.371
X29.204 Y26.488
X29.156 Y26.604
X29.105 Y26.719
X29.052 Y26.834
X28.998 Y26.947
X28.941 Y27.059
X28.883 Y27.171
X28.822 Y27.281
X28.759 Y27.39
X28.695 Y27.498
X28.629 Y27.605
X28.561 Y27.711
X28.491 Y27.816
X28.419 Y27.919
X28.345 Y28.021
X28.27 Y28.122
X28.193 Y28.221
X28.114 Y28.319
X28.033 Y28.416
X27.951 Y28.511
X27.867 Y28.605
X27.782 Y28.697
X27.695 Y28.788
X27.607 Y28.878
X27.516 Y28.966
X27.425 Y29.052
X27.332 Y29.137
X27.237 Y29.22
X27.142 Y29.301
X27.044 Y29.381
X26.946 Y29.459
X26.846 Y29.536
X26.745 Y29.611
X26.642 Y29.684
X26.539 Y29.755
X26.434 Y29.825
X26.328 Y29.893
X26.221 Y29.959
X26.112 Y30.023
X26.003 Y30.085
X25.893 Y30.146
X25.782 Y30.205
X25.669 Y30.261
X25.556 Y30.316
X25.442 Y30.369
X25.327 Y30.421
X25.211 Y30.47
X25.095 Y30.517
X24.977 Y30.563
X24.859 Y30.606
X24.741 Y30.648
X24.621 Y30.687
X24.501 Y30.725
X24.38 Y30.761
X24.259 Y30.794
X24.137 Y30.826
X24.015 Y30.856
X23.892 Y30.884
X23.769 Y30.909
X23.646 Y30.933
X23.522 Y30.955
X23.397 Y30.975
X23.273 Y30.993
X23.148 Y31.008
X23.023 Y31.022
X22.898 Y31.034
X22.772 Y31.044
X22.647 Y31.051
X22.521 Y31.057
X22.395 Y31.061
X22.269 Y31.063
X22.144 Y31.062
X22.018 Y31.06
X21.892 Y31.056
X21.766 Y31.05
X21.641 Y31.041
X21.515 Y31.031
X21.39 Y31.019
X21.265 Y31.005
X21.14 Y30.989
X21.016 Y30.971
X20.891 Y30.951
X20.768 Y30.929
X20.644 Y30.905
X20.521 Y30.879
X20.398 Y30.852
X20.276 Y30.822
X20.154 Y30.79
X20.033 Y30.757
X19.912 Y30.722
X19.792 Y30.685
X19.672 Y30.646
X19.553 Y30.605
X19.435 Y30.562
X19.317 Y30.518
X19.2 Y30.471
X19.084 Y30.423
X18.968 Y30.374
X18.853 Y30.322
X18.739 Y30.269
X18.626 Y30.213
X18.514 Y30.157
X18.403 Y30.098
X18.292 Y30.038
X18.183 Y29.976
X18.074 Y29.912
X17.966 Y29.847
X17.86 Y29.78
X17.754 Y29.712
X17.65 Y29.642
X17.546 Y29.57
X17.444 Y29.497
X17.343 Y29.422
X17.243 Y29.346
X17.144 Y29.268
X17.046 Y29.189
X16.949 Y29.108
X16.854 Y29.026
X16.76 Y28.942
X16.667 Y28.857
X16.576 Y28.771
X16.486 Y28.683
X16.397 Y28.594
X16.309 Y28.504
X16.223 Y28.412
X16.138 Y28.319
X16.055 Y28.225
X15.973 Y28.129
X15.893 Y28.032
X15.814 Y27.934
X15.736 Y27.835
X15.66 Y27.735
X15.586 Y27.634
X15.512 Y27.531
X15.441 Y27.428
X15.371 Y27.323
X15.303 Y27.217
X15.236 Y27.111
X15.171 Y27.003
X15.107 Y26.894
X15.045 Y26.785
X14.985 Y26.675
X14.926 Y26.563
X14.869 Y26.451
X14.814 Y26.338
X14.76 Y26.224
X14.708 Y26.11
X14.658 Y25.994
X14.609 Y25.878
X14.563 Y25.761
X14.518 Y25.644
X14.474 Y25.526
X14.433 Y25.407
X14.393 Y25.288
X14.355 Y25.168
X14.319 Y25.047
X14.284 Y24.926
X14.251 Y24.805
X14.22 Y24.683
X14.191 Y24.56
X14.164 Y24.437
X14.139 Y24.314
X14.115 Y24.191
X14.093 Y24.067
X14.073 Y23.942
X14.055 Y23.818
X14.039 Y23.693
X14.024 Y23.568
X14.012 Y23.443
X14.001 Y23.318
X13.992 Y23.192
X13.985 Y23.066
X13.979 Y22.941
X13.976 Y22.815
X13.975 Y22.689
Y22.563
X13.978 Y22.437
X13.983 Y22.312
X13.991 Y22.186
X14. Y22.061
X14.011 Y21.935
X14.024 Y21.81
X14.039 Y21.685
X14.057 Y21.561
X14.076 Y21.436
X14.097 Y21.312
X14.12 Y21.188
X14.145 Y21.065
X14.172 Y20.942
X14.2 Y20.82
X14.231 Y20.698
X14.263 Y20.576
X14.297 Y20.455
X14.333 Y20.334
X14.371 Y20.214
X14.411 Y20.095
X14.452 Y19.976
X14.495 Y19.858
X14.54 Y19.74
X14.586 Y19.623
X14.634 Y19.507
X14.684 Y19.391
X14.736 Y19.277
X14.789 Y19.163
X14.844 Y19.049
X14.901 Y18.937
X14.959 Y18.825
X15.019 Y18.715
X15.08 Y18.605
X15.143 Y18.496
X15.207 Y18.388
X15.273 Y18.281
X15.341 Y18.175
X15.41 Y18.07
X15.481 Y17.965
X15.553 Y17.862
X15.627 Y17.76
X15.702 Y17.659
X15.778 Y17.56
X15.856 Y17.461
X15.936 Y17.363
X16.016 Y17.267
X16.099 Y17.171
X16.182 Y17.077
X16.267 Y16.984
X16.353 Y16.893
X16.441 Y16.802
X16.53 Y16.713
X16.62 Y16.625
X16.711 Y16.539
X16.804 Y16.454
X16.898 Y16.37
X16.993 Y16.288
X17.089 Y16.206
X17.186 Y16.127
X17.285 Y16.049
X17.385 Y15.972
X17.485 Y15.896
X17.587 Y15.823
X17.69 Y15.75
X17.794 Y15.679
X17.899 Y15.61
X18.005 Y15.542
X18.112 Y15.476
X18.22 Y15.411
X18.329 Y15.348
X18.439 Y15.286
X18.549 Y15.226
X18.661 Y15.168
X18.773 Y15.111
X18.886 Y15.056
X19. Y15.003
X19.115 Y14.951
X19.23 Y14.901
X19.347 Y14.853
X19.463 Y14.806
X19.581 Y14.761
X19.699 Y14.718
X19.818 Y14.677
X19.937 Y14.637
X20.057 Y14.599
X20.178 Y14.563
X20.299 Y14.529
X20.42 Y14.496
X20.542 Y14.465
X20.665 Y14.436
X20.788 Y14.409
X20.911 Y14.383
X21.035 Y14.36
X21.158 Y14.338
X21.283 Y14.318
X21.407 Y14.3
X21.532 Y14.284
X21.657 Y14.269
X21.782 Y14.257
X21.908 Y14.246
X22.033 Y14.237
X22.159 Y14.23
X22.284 Y14.225
X22.41 Y14.221
X22.536 Y14.22
X22.662
X22.788 Y14.222
X22.913 Y14.226
X23.039 Y14.232
X23.165 Y14.24
X23.29 Y14.25
X23.416 Y14.261
X23.541 Y14.275
X23.666 Y14.29
X23.79 Y14.307
X23.915 Y14.326
X24.039 Y14.346
X24.163 Y14.369
X24.286 Y14.393
X24.409 Y14.42
X24.532 Y14.448
X24.654 Y14.477
X24.776 Y14.509
X24.897 Y14.543
X25.018 Y14.578
X25.138 Y14.615
X25.258 Y14.654
X25.377 Y14.694
X25.495 Y14.736
X25.613 Y14.781
X25.73 Y14.826
X25.847 Y14.874
X25.963 Y14.923
X26.078 Y14.974
X26.192 Y15.026
X26.306 Y15.08
X26.419 Y15.136
X26.531 Y15.193
X26.642 Y15.252
X26.752 Y15.313
X26.862 Y15.375
X26.971 Y15.438
X27.078 Y15.503
X27.185 Y15.569
X27.291 Y15.637
X27.396 Y15.706
X27.501 Y15.777
X27.604 Y15.849
X27.706 Y15.922
X27.807 Y15.997
X27.907 Y16.073
X28.007 Y16.15
X28.105 Y16.229
X28.202 Y16.309
X28.298 Y16.39
X28.393 Y16.472
X28.488 Y16.556
X28.58 Y16.641
X28.672 Y16.727
X28.763 Y16.814
X28.853 Y16.902
X28.941 Y16.992
X29.029 Y17.082
X29.115 Y17.174
X29.2 Y17.267
X29.284 Y17.36
X29.366 Y17.455
X29.448 Y17.551
X29.528 Y17.648
X29.607 Y17.746
X29.685 Y17.845
X29.761 Y17.945
X29.837 Y18.046
X29.911 Y18.148
X29.983 Y18.25
X30.055 Y18.354
X30.125 Y18.459
X30.193 Y18.564
X30.261 Y18.67
X30.327 Y18.777
X30.391 Y18.885
X30.455 Y18.994
X30.516 Y19.104
X30.577 Y19.214
X30.636 Y19.325
X30.693 Y19.437
X30.75 Y19.55
X30.804 Y19.663
X30.858 Y19.777
X30.909 Y19.892
X30.96 Y20.007
X31.008 Y20.123
X31.056 Y20.24
X31.102 Y20.357
X31.146 Y20.475
X31.188 Y20.593
X31.23 Y20.712
X31.269 Y20.831
X31.307 Y20.951
X31.344 Y21.072
X31.379 Y21.193
X31.412 Y21.314
X31.443 Y21.436
X31.474 Y21.558
X31.502 Y21.681
X31.529 Y21.803
X31.554 Y21.927
X31.577 Y22.05
X31.599 Y22.174
X31.62 Y22.298
X31.638 Y22.423
X31.655 Y22.548
X31.67 Y22.673
X31.684 Y22.798
X31.696 Y22.923
X31.706 Y23.048
X31.714 Y23.174
X31.721 Y23.3
X31.726 Y23.425
X31.73 Y23.551
X31.732 Y23.677
Y23.803
X31.73 Y23.929
X31.727 Y24.054
X31.721 Y24.18
X31.715 Y24.306
X31.706 Y24.431
X31.696 Y24.557
X31.684 Y24.682
X31.67 Y24.807
X31.655 Y24.932
X31.638 Y25.057
X31.619 Y25.181
X31.599 Y25.305
X31.577 Y25.429
X31.553 Y25.553
X31.528 Y25.676
X31.5 Y25.799
X31.472 Y25.921
X31.441 Y26.043
X31.409 Y26.165
X31.375 Y26.286
X31.34 Y26.407
X31.302 Y26.527
X31.264 Y26.647
X31.223 Y26.766
X31.181 Y26.885
X31.137 Y27.003
X31.092 Y27.12
X31.045 Y27.237
X30.997 Y27.353
X30.947 Y27.468
X30.895 Y27.583
X30.842 Y27.697
X30.787 Y27.81
X30.731 Y27.923
X30.673 Y28.035
X30.614 Y28.146
X30.553 Y28.256
X30.491 Y28.365
X30.427 Y28.474
X30.362 Y28.581
X30.295 Y28.688
X30.227 Y28.794
X30.157 Y28.898
X30.086 Y29.002
X30.014 Y29.105
X29.94 Y29.207
X29.865 Y29.308
X29.788 Y29.408
X29.71 Y29.507
X29.631 Y29.604
X29.55 Y29.701
X29.468 Y29.797
X29.385 Y29.891
X29.301 Y29.984
X29.215 Y30.076
X29.128 Y30.167
X29.04 Y30.257
X28.951 Y30.346
X28.86 Y30.433
X28.769 Y30.52
X28.676 Y30.605
X28.582 Y30.688
X28.487 Y30.771
X28.391 Y30.852
X28.294 Y30.932
X28.195 Y31.01
X28.096 Y31.088
X27.996 Y31.164
X27.894 Y31.238
X27.792 Y31.311
X27.689 Y31.383
X27.584 Y31.454
X27.479 Y31.523
X27.373 Y31.591
X27.266 Y31.657
X27.158 Y31.722
X27.05 Y31.785
X26.94 Y31.847
X26.83 Y31.908
X26.719 Y31.967
X26.607 Y32.024
X26.494 Y32.081
X26.381 Y32.135
X26.267 Y32.188
X26.152 Y32.24
X26.037 Y32.29
X25.921 Y32.339
X25.804 Y32.386
X25.687 Y32.432
X25.569 Y32.476
X25.451 Y32.518
X25.332 Y32.559
X25.212 Y32.599
X25.092 Y32.637
X24.972 Y32.673
X24.851 Y32.708
X24.729 Y32.741
X24.608 Y32.773
X24.485 Y32.803
X24.363 Y32.831
X24.24 Y32.858
X24.117 Y32.884
X23.993 Y32.907
X23.869 Y32.929
X23.745 Y32.95
X23.621 Y32.969
X23.496 Y32.986
X23.371 Y33.002
X23.246 Y33.016
X23.121 Y33.029
X22.996 Y33.04
X22.87 Y33.049
X22.745 Y33.057
X22.619 Y33.063
X22.493 Y33.068
X22.367 Y33.071
X22.242 Y33.072
X22.116
X21.99 Y33.07
X21.864 Y33.067
X21.738 Y33.062
X21.613 Y33.055
X21.487 Y33.047
X21.362 Y33.037
X21.236 Y33.026
X21.111 Y33.013
X20.986 Y32.999
X20.861 Y32.983
X20.737 Y32.965
X20.612 Y32.946
X20.488 Y32.925
X20.364 Y32.903
X20.241 Y32.879
X20.118 Y32.854
X19.995 Y32.827
X19.872 Y32.799
X19.75 Y32.769
X19.628 Y32.737
X19.507 Y32.704
X19.386 Y32.67
X19.265 Y32.634
X19.145 Y32.596
X19.025 Y32.557
X18.906 Y32.517
X18.788 Y32.475
X18.669 Y32.431
X18.552 Y32.387
X18.435 Y32.34
X18.318 Y32.293
X18.203 Y32.243
X18.087 Y32.193
X17.973 Y32.141
X17.859 Y32.087
X17.746 Y32.033
X17.633 Y31.976
X17.521 Y31.919
X17.41 Y31.86
X17.3 Y31.799
X17.19 Y31.738
X17.081 Y31.675
X16.973 Y31.61
X16.865 Y31.545
X16.759 Y31.478
X16.653 Y31.41
X16.548 Y31.34
X16.444 Y31.269
X16.341 Y31.197
X16.239 Y31.124
X16.138 Y31.049
X16.037 Y30.973
X15.938 Y30.896
X15.839 Y30.818
X15.742 Y30.739
X15.645 Y30.658
X15.549 Y30.576
X15.455 Y30.493
X15.361 Y30.409
X15.269 Y30.324
X15.177 Y30.238
X15.087 Y30.15
X14.997 Y30.062
X14.909 Y29.972
X14.822 Y29.881
X14.735 Y29.79
X14.65 Y29.697
X14.567 Y29.603
X14.484 Y29.508
X14.402 Y29.412
X14.322 Y29.316
X14.242 Y29.218
X14.164 Y29.119
X14.087 Y29.02
X14.012 Y28.919
X13.937 Y28.818
X13.864 Y28.715
X13.792 Y28.612
X13.721 Y28.508
X13.652 Y28.403
X13.584 Y28.297
X13.517 Y28.191
X13.451 Y28.084
X13.387 Y27.975
X13.324 Y27.867
X13.262 Y27.757
X13.202 Y27.647
X13.142 Y27.535
X13.085 Y27.424
X13.028 Y27.311
X12.973 Y27.198
X12.919 Y27.084
X12.867 Y26.97
X12.816 Y26.855
X12.767 Y26.739
X12.718 Y26.623
X12.672 Y26.506
X12.626 Y26.389
X12.582 Y26.271
X12.54 Y26.152
X12.499 Y26.033
X12.459 Y25.914
X12.421 Y25.794
X12.384 Y25.674
X12.348 Y25.553
X12.314 Y25.432
X12.282 Y25.31
X12.251 Y25.188
X12.221 Y25.066
X12.193 Y24.943
X12.166 Y24.82
X12.141 Y24.697
X12.118 Y24.574
X12.096 Y24.45
X12.075 Y24.326
X12.056 Y24.201
X12.039 Y24.077
X12.023 Y23.952
X12.009 Y23.827
X11.996 Y23.702
X11.985 Y23.576
X11.975 Y23.451
X11.967 Y23.325
X11.96 Y23.199
X11.955 Y23.074
X11.952 Y22.948
X11.95 Y22.822
Y22.696
X11.951 Y22.57
X11.954 Y22.445
X11.958 Y22.319
X11.964 Y22.193
X11.971 Y22.068
X11.98 Y21.942
X11.991 Y21.817
X12.003 Y21.691
X12.017 Y21.566
X12.032 Y21.441
X12.048 Y21.317
X12.066 Y21.192
X12.086 Y21.068
X12.107 Y20.944
X12.13 Y20.82
X12.154 Y20.697
X12.18 Y20.573
X12.207 Y20.451
X12.236 Y20.328
X12.266 Y20.206
X12.297 Y20.084
X12.33 Y19.963
X12.365 Y19.842
X12.401 Y19.721
X12.438 Y19.601
X12.477 Y19.481
X12.517 Y19.362
X12.559 Y19.243
X12.602 Y19.125
X12.647 Y19.007
X12.692 Y18.89
X12.74 Y18.774
X12.788 Y18.658
X12.838 Y18.542
X12.89 Y18.427
X12.943 Y18.313
X12.997 Y18.199
X13.052 Y18.086
X13.109 Y17.974
X13.167 Y17.863
X13.227 Y17.752
X13.287 Y17.641
X13.349 Y17.532
X13.413 Y17.423
X13.477 Y17.315
X13.543 Y17.208
X13.61 Y17.102
X13.679 Y16.996
X13.748 Y16.891
X13.819 Y16.787
X13.891 Y16.684
X13.965 Y16.582
X14.039 Y16.481
X14.115 Y16.38
X14.192 Y16.28
X14.27 Y16.182
X14.349 Y16.084
X14.429 Y15.987
X14.511 Y15.891
X14.594 Y15.796
X14.677 Y15.702
X14.762 Y15.609
X14.848 Y15.517
X14.935 Y15.426
X15.023 Y15.337
X15.112 Y15.248
X15.202 Y15.16
X15.293 Y15.073
X15.386 Y14.988
X15.479 Y14.903
X15.573 Y14.82
X15.668 Y14.737
X15.764 Y14.656
X15.861 Y14.576
X15.959 Y14.497
X16.058 Y14.419
X16.158 Y14.343
X16.259 Y14.267
X16.36 Y14.193
X16.463 Y14.12
X16.566 Y14.048
X16.67 Y13.978
X16.775 Y13.908
X16.881 Y13.84
X16.988 Y13.773
X17.095 Y13.708
X17.203 Y13.643
X17.312 Y13.58
X17.422 Y13.519
X17.532 Y13.458
X17.643 Y13.399
X17.755 Y13.341
X17.868 Y13.285
X17.981 Y13.23
X18.094 Y13.176
X18.209 Y13.123
X18.324 Y13.072
X18.439 Y13.023
X18.556 Y12.974
X18.672 Y12.927
X18.79 Y12.882
X18.907 Y12.837
X19.026 Y12.795
X19.144 Y12.753
X19.264 Y12.713
X19.384 Y12.675
X19.504 Y12.637
X19.624 Y12.602
X19.746 Y12.567
X19.867 Y12.535
X19.989 Y12.503
X20.111 Y12.473
X20.234 Y12.445
X20.356 Y12.418
X20.48 Y12.392
X20.603 Y12.368
X20.727 Y12.345
X20.851 Y12.324
X20.975 Y12.304
X21.1 Y12.286
X21.224 Y12.269
X21.349 Y12.254
X21.474 Y12.24
X21.6 Y12.228
X21.725 Y12.217
X21.851 Y12.208
X21.976 Y12.2
X22.102 Y12.194
X22.228 Y12.189
X22.353 Y12.186
X22.479 Y12.184
X22.605 Y12.183
X22.731 Y12.185
X22.857 Y12.187
X22.982 Y12.191
X23.108 Y12.197
X23.234 Y12.204
X23.359 Y12.213
X23.485 Y12.223
X23.61 Y12.235
X23.735 Y12.248
X23.86 Y12.263
X23.985 Y12.279
X24.109 Y12.296
X24.234 Y12.315
X24.358 Y12.336
X24.482 Y12.358
X24.605 Y12.381
X24.729 Y12.406
X24.852 Y12.433
X24.975 Y12.461
X25.097 Y12.49
X25.219 Y12.521
X25.341 Y12.553
X25.462 Y12.587
X25.583 Y12.622
X25.703 Y12.658
X25.823 Y12.696
X25.943 Y12.735
X26.062 Y12.776
X26.18 Y12.818
X26.298 Y12.861
X26.416 Y12.906
X26.533 Y12.952
X26.65 Y13.
X26.766 Y13.048
X26.881 Y13.098
X26.996 Y13.15
X27.11 Y13.202
X27.224 Y13.256
X27.337 Y13.312
X27.449 Y13.368
X27.561 Y13.426
X27.672 Y13.485
X27.783 Y13.546
X27.892 Y13.607
X28.002 Y13.67
X28.11 Y13.734
X28.218 Y13.799
X28.324 Y13.865
X28.431 Y13.933
X28.536 Y14.001
X28.641 Y14.071
X28.745 Y14.142
X28.848 Y14.214
X28.95 Y14.288
X29.052 Y14.362
X29.152 Y14.437
X29.252 Y14.514
X29.351 Y14.592
X29.449 Y14.67
X29.547 Y14.75
X29.643 Y14.831
X29.739 Y14.913
X29.834 Y14.995
X29.927 Y15.079
X30.02 Y15.164
X30.112 Y15.25
X30.203 Y15.337
X30.293 Y15.425
X30.383 Y15.513
X30.471 Y15.603
X30.558 Y15.694
X30.644 Y15.785
X30.73 Y15.878
X30.814 Y15.971
X30.897 Y16.066
X30.98 Y16.161
X31.061 Y16.257
X31.141 Y16.354
X31.22 Y16.451
X31.299 Y16.55
X31.376 Y16.65
X31.452 Y16.75
X31.527 Y16.851
X31.601 Y16.953
X31.674 Y17.055
X31.745 Y17.159
X31.816 Y17.263
X31.885 Y17.368
X31.954 Y17.473
X32.021 Y17.58
X32.087 Y17.687
X32.152 Y17.794
X32.216 Y17.903
X32.279 Y18.012
X32.34 Y18.122
X32.4 Y18.232
X32.46 Y18.343
X32.518 Y18.455
X32.574 Y18.567
X32.63 Y18.68
X32.684 Y18.794
X32.737 Y18.908
X32.789 Y19.022
X32.84 Y19.138
X32.889 Y19.253
X32.937 Y19.37
X32.984 Y19.486
X33.03 Y19.604
X33.074 Y19.721
X33.117 Y19.84
X33.159 Y19.958
X33.2 Y20.077
X33.239 Y20.197
X33.277 Y20.317
X33.313 Y20.437
X33.349 Y20.558
X33.383 Y20.679
X33.415 Y20.801
X33.447 Y20.923
X33.477 Y21.045
X33.506 Y21.167
X33.533 Y21.29
X33.559 Y21.413
X33.584 Y21.537
X33.607 Y21.66
X33.629 Y21.784
X33.65 Y21.908
X33.669 Y22.033
X33.687 Y22.157
X33.703 Y22.282
X33.718 Y22.407
X33.732 Y22.532
X33.745 Y22.657
X33.756 Y22.783
X33.765 Y22.908
X33.774 Y23.034
X33.781 Y23.159
X33.786 Y23.285
X33.79 Y23.411
X33.793 Y23.536
X33.794 Y23.662
Y23.788
X33.793 Y23.914
X33.79 Y24.04
X33.786 Y24.166
X33.78 Y24.291
X33.773 Y24.417
X33.765 Y24.542
X33.755 Y24.668
X33.744 Y24.793
X33.731 Y24.918
X33.717 Y25.043
X33.702 Y25.168
X33.685 Y25.293
X33.667 Y25.418
X33.648 Y25.542
X33.627 Y25.666
X33.604 Y25.79
X33.581 Y25.913
X33.556 Y26.037
X33.53 Y26.16
X33.502 Y26.283
X33.473 Y26.405
X33.442 Y26.527
X33.41 Y26.649
X33.377 Y26.77
X33.343 Y26.891
X33.307 Y27.012
X33.27 Y27.132
X33.231 Y27.252
X33.191 Y27.371
X33.15 Y27.49
X33.108 Y27.608
X33.064 Y27.726
X33.019 Y27.844
X32.972 Y27.961
X32.924 Y28.077
X32.875 Y28.193
X32.825 Y28.308
X32.773 Y28.423
X32.721 Y28.537
X32.666 Y28.651
X32.611 Y28.764
X32.554 Y28.876
X32.496 Y28.988
X32.437 Y29.099
X32.377 Y29.21
X32.315 Y29.319
X32.253 Y29.428
X32.189 Y29.537
X32.123 Y29.644
X32.057 Y29.751
X31.989 Y29.857
X31.921 Y29.963
X31.851 Y30.067
X31.78 Y30.171
X31.707 Y30.274
X31.634 Y30.376
X31.56 Y30.478
X31.484 Y30.578
X31.407 Y30.678
X31.329 Y30.777
X31.251 Y30.875
X31.171 Y30.972
X31.09 Y31.068
X31.007 Y31.164
X30.924 Y31.258
X30.84 Y31.352
X30.755 Y31.444
X30.669 Y31.536
X30.581 Y31.627
X30.493 Y31.716
X30.404 Y31.805
X30.314 Y31.893
X30.223 Y31.98
X30.131 Y32.066
X30.038 Y32.15
X29.944 Y32.234
X29.849 Y32.317
X29.753 Y32.398
X29.657 Y32.479
X29.559 Y32.559
X29.461 Y32.637
X29.361 Y32.714
X29.261 Y32.791
X29.161 Y32.866
X29.059 Y32.94
X28.956 Y33.013
X28.853 Y33.085
X28.749 Y33.156
X28.644 Y33.225
X28.539 Y33.294
X28.432 Y33.361
X28.325 Y33.427
X28.217 Y33.492
X28.109 Y33.556
X28. Y33.618
X27.89 Y33.68
X27.78 Y33.74
X27.668 Y33.799
X27.557 Y33.857
X27.444 Y33.914
X27.331 Y33.969
X27.218 Y34.023
X27.104 Y34.076
X26.989 Y34.128
X26.874 Y34.179
X26.758 Y34.228
X26.642 Y34.276
X26.525 Y34.323
X26.407 Y34.368
X26.29 Y34.412
X26.171 Y34.455
X26.053 Y34.497
X25.934 Y34.537
X25.814 Y34.577
X25.694 Y34.614
X25.574 Y34.651
X25.453 Y34.686
X25.332 Y34.72
X25.21 Y34.753
X25.088 Y34.785
X24.966 Y34.815
X24.844 Y34.844
X24.721 Y34.871
X24.598 Y34.897
X24.474 Y34.922
X24.351 Y34.946
X24.227 Y34.968
X24.103 Y34.989
X23.979 Y35.009
X23.854 Y35.027
X23.729 Y35.044
X23.605 Y35.06
X23.48 Y35.074
X23.354 Y35.087
X23.229 Y35.099
X23.104 Y35.109
X22.978 Y35.118
X22.853 Y35.126
X22.727 Y35.133
X22.601 Y35.138
X22.475 Y35.142
X22.35 Y35.144
X22.224 Y35.145
X22.098
X21.972 Y35.144
X21.846 Y35.141
X21.721 Y35.137
X21.595 Y35.131
X21.469 Y35.125
X21.344 Y35.117
X21.218 Y35.107
X21.093 Y35.096
X20.968 Y35.085
X20.842 Y35.071
X20.717 Y35.057
X20.593 Y35.041
X20.468 Y35.024
X20.344 Y35.005
X20.219 Y34.985
X20.095 Y34.964
X19.971 Y34.942
X19.848 Y34.918
X19.724 Y34.893
X19.601 Y34.867
X19.479 Y34.84
X19.356 Y34.811
X19.234 Y34.781
X19.112 Y34.75
X18.99 Y34.717
X18.869 Y34.684
X18.748 Y34.649
X18.628 Y34.612
X18.508 Y34.575
X18.388 Y34.536
X18.269 Y34.496
X18.15 Y34.455
X18.031 Y34.412
X17.913 Y34.369
X17.796 Y34.324
X17.679 Y34.278
X17.562 Y34.231
X17.446 Y34.182
X17.33 Y34.133
X17.215 Y34.082
X17.101 Y34.03
X16.986 Y33.977
X16.873 Y33.922
X16.76 Y33.867
X16.648 Y33.81
X16.536 Y33.752
X16.425 Y33.693
X16.314 Y33.633
X16.204 Y33.572
X16.095 Y33.51
X15.986 Y33.446
X15.878 Y33.382
X15.771 Y33.316
X15.664 Y33.25
X15.558 Y33.182
X15.453 Y33.113
X15.348 Y33.043
X15.244 Y32.972
X15.141 Y32.9
X15.039 Y32.827
X14.937 Y32.753
X14.836 Y32.678
X14.736 Y32.601
X14.637 Y32.524
X14.538 Y32.446
X14.44 Y32.367
X14.343 Y32.287
X14.247 Y32.205
X14.152 Y32.123
X14.057 Y32.04
X13.964 Y31.956
X13.871 Y31.871
X13.779 Y31.785
X13.688 Y31.698
X13.598 Y31.611
X13.508 Y31.522
X13.42 Y31.432
X13.333 Y31.342
X13.246 Y31.251
X13.16 Y31.158
X13.076 Y31.065
X12.992 Y30.971
X12.909 Y30.877
X12.827 Y30.781
X12.746 Y30.685
X12.666 Y30.587
X12.588 Y30.489
X12.51 Y30.391
X12.433 Y30.291
X12.357 Y30.191
X12.282 Y30.09
X12.208 Y29.988
X12.135 Y29.885
X12.063 Y29.782
X11.993 Y29.678
X11.923 Y29.573
X11.854 Y29.468
X11.787 Y29.362
X11.72 Y29.255
X11.654 Y29.147
X11.59 Y29.039
X11.527 Y28.93
X11.465 Y28.821
X11.403 Y28.711
X11.343 Y28.6
X11.285 Y28.489
X11.227 Y28.378
X11.17 Y28.265
X11.115 Y28.152
X11.06 Y28.039
X11.007 Y27.925
X10.955 Y27.81
X10.904 Y27.695
X10.854 Y27.58
X10.805 Y27.464
X10.758 Y27.347
X10.712 Y27.23
X10.667 Y27.113
X10.623 Y26.995
X10.58 Y26.876
X10.538 Y26.757
X10.498 Y26.638
X10.459 Y26.519
X10.421 Y26.399
X10.384 Y26.278
X10.349 Y26.158
X10.315 Y26.037
X10.282 Y25.915
X10.25 Y25.793
X10.219 Y25.671
X10.19 Y25.549
X10.162 Y25.426
X10.135 Y25.303
X10.11 Y25.18
X10.085 Y25.057
X10.062 Y24.933
X10.041 Y24.809
X10.02 Y24.685
X10.001 Y24.56
X9.983 Y24.436
X9.966 Y24.311
X9.951 Y24.186
X9.937 Y24.061
X9.924 Y23.936
X9.912 Y23.811
X9.902 Y23.685
X9.893 Y23.56
X9.885 Y23.434
X9.879 Y23.309
X9.873 Y23.183
X9.87 Y23.057
X9.867 Y22.931
X9.866 Y22.806
X9.865 Y22.68
X9.867 Y22.554
X9.869 Y22.428
X9.873 Y22.302
X9.878 Y22.177
X9.884 Y22.051
X9.892 Y21.925
X9.901 Y21.8
X9.911 Y21.674
X9.922 Y21.549
X9.935 Y21.424
X9.949 Y21.299
X9.964 Y21.174
X9.98 Y21.049
X9.998 Y20.925
X10.017 Y20.8
X10.037 Y20.676
X10.059 Y20.552
X10.081 Y20.428
X10.105 Y20.305
X10.13 Y20.181
X10.157 Y20.058
X10.184 Y19.936
X10.213 Y19.813
X10.243 Y19.691
X10.275 Y19.569
X10.307 Y19.447
X10.341 Y19.326
X10.376 Y19.205
X10.412 Y19.085
X10.45 Y18.965
X10.488 Y18.845
X10.528 Y18.726
X10.569 Y18.607
X10.611 Y18.488
X10.654 Y18.37
X10.699 Y18.252
X10.745 Y18.135
X10.791 Y18.018
X10.839 Y17.902
X10.889 Y17.786
X10.939 Y17.671
X10.99 Y17.556
X11.043 Y17.442
X11.097 Y17.328
X11.152 Y17.214
X11.207 Y17.102
X11.265 Y16.99
X11.323 Y16.878
X11.382 Y16.767
X11.442 Y16.657
X11.504 Y16.547
X11.567 Y16.438
X11.63 Y16.329
X11.695 Y16.221
X11.761 Y16.114
X11.827 Y16.007
X11.895 Y15.901
X11.964 Y15.796
X12.034 Y15.692
X12.105 Y15.588
X12.177 Y15.485
X12.25 Y15.382
X12.324 Y15.28
X12.399 Y15.179
X12.476 Y15.079
X12.553 Y14.98
X12.631 Y14.881
X12.71 Y14.783
X12.789 Y14.686
X12.87 Y14.589
X12.952 Y14.494
X13.035 Y14.399
X13.119 Y14.305
X13.203 Y14.212
X13.289 Y14.12
X13.375 Y14.028
X13.463 Y13.938
X13.551 Y13.848
X13.64 Y13.759
X13.73 Y13.671
X13.821 Y13.584
X13.913 Y13.498
X14.005 Y13.413
X14.099 Y13.329
X14.193 Y13.245
X14.288 Y13.163
X14.384 Y13.081
X14.481 Y13.001
X14.578 Y12.921
X14.676 Y12.842
X14.775 Y12.765
X14.875 Y12.688
X14.976 Y12.612
X15.077 Y12.538
X15.179 Y12.464
X15.281 Y12.391
X15.385 Y12.32
X15.489 Y12.249
X15.594 Y12.179
X15.699 Y12.111
X15.806 Y12.043
X15.912 Y11.977
X16.02 Y11.911
X16.128 Y11.847
X16.237 Y11.784
X16.346 Y11.722
X16.456 Y11.66
X16.567 Y11.6
X16.678 Y11.541
X16.79 Y11.484
X16.902 Y11.427
X17.015 Y11.371
X17.128 Y11.317
X17.242 Y11.263
X17.357 Y11.211
X17.472 Y11.16
X17.587 Y11.11
X17.703 Y11.061
X17.82 Y11.014
X17.937 Y10.967
X18.054 Y10.922
X18.172 Y10.878
X18.29 Y10.835
X18.409 Y10.793
X18.528 Y10.752
X18.647 Y10.713
X18.767 Y10.674
X18.887 Y10.637
X19.008 Y10.601
X19.129 Y10.567
X19.25 Y10.533
X19.372 Y10.501
X19.494 Y10.47
X19.616 Y10.44
X19.738 Y10.411
X19.861 Y10.384
X19.984 Y10.357
X20.108 Y10.332
X20.231 Y10.308
X20.355 Y10.286
X20.479 Y10.265
X20.603 Y10.244
X20.728 Y10.226
X20.852 Y10.208
X20.977 Y10.192
X21.102 Y10.176
X21.227 Y10.162
X21.352 Y10.15
X21.477 Y10.138
X21.603 Y10.128
X21.728 Y10.119
X21.854 Y10.111
X21.98 Y10.105
X22.105 Y10.1
X22.231 Y10.096
X22.357 Y10.093
X22.483 Y10.092
X22.609 Y10.091
X22.734 Y10.092
X22.86 Y10.095
X22.986 Y10.098
X23.112 Y10.103
X23.237 Y10.109
X23.363 Y10.116
X23.489 Y10.125
X23.614 Y10.135
X23.739 Y10.146
X23.865 Y10.158
X23.99 Y10.171
X24.115 Y10.186
X24.24 Y10.202
X24.364 Y10.219
X24.489 Y10.237
X24.613 Y10.257
X24.737 Y10.278
X24.861 Y10.3
X24.985 Y10.323
X25.108 Y10.348
X25.231 Y10.373
X25.354 Y10.4
X25.477 Y10.429
X25.599 Y10.458
X25.721 Y10.488
X25.843 Y10.52
X25.964 Y10.553
X26.086 Y10.587
X26.206 Y10.622
X26.327 Y10.659
X26.447 Y10.696
X26.567 Y10.735
X26.686 Y10.775
X26.805 Y10.816
X26.924 Y10.858
X27.042 Y10.901
X27.159 Y10.946
X27.277 Y10.991
X27.394 Y11.038
X27.51 Y11.086
X27.626 Y11.135
X27.741 Y11.185
X27.856 Y11.236
X27.971 Y11.288
X28.085 Y11.341
X28.198 Y11.395
X28.311 Y11.451
X28.424 Y11.507
X28.536 Y11.565
X28.647 Y11.624
X28.758 Y11.683
X28.868 Y11.744
X28.978 Y11.806
X29.087 Y11.868
X29.195 Y11.932
X29.303 Y11.997
X29.41 Y12.063
X29.517 Y12.13
X29.623 Y12.197
X29.728 Y12.266
X29.833 Y12.336
X29.937 Y12.407
X30.041 Y12.478
X30.143 Y12.551
X30.245 Y12.624
X30.347 Y12.699
X30.447 Y12.774
X30.548 Y12.851
X30.647 Y12.928
X30.745 Y13.006
X30.843 Y13.085
X30.94 Y13.165
X31.037 Y13.246
X31.132 Y13.328
X31.227 Y13.411
X31.321 Y13.494
X31.415 Y13.579
X31.507 Y13.664
X31.599 Y13.75
X31.69 Y13.837
X31.78 Y13.925
X31.87 Y14.013
X31.958 Y14.103
X32.046 Y14.193
X32.133 Y14.284
X32.219 Y14.375
X32.304 Y14.468
X32.389 Y14.561
X32.472 Y14.655
X32.555 Y14.75
X32.637 Y14.846
X32.718 Y14.942
X32.798 Y15.039
X32.877 Y15.137
X32.955 Y15.235
X33.033 Y15.335
X33.109 Y15.435
X33.185 Y15.535
X33.26 Y15.636
X33.333 Y15.738
X33.406 Y15.841
X33.478 Y15.944
X33.549 Y16.048
X33.619 Y16.153
X33.688 Y16.258
X33.756 Y16.364
X33.823 Y16.47
X33.889 Y16.577
X33.954 Y16.685
X34.019 Y16.793
X34.082 Y16.902
X34.144 Y17.011
X34.205 Y17.121
X34.265 Y17.232
X34.325 Y17.343
X34.383 Y17.455
X34.44 Y17.567
X34.496 Y17.679
X34.551 Y17.792
X34.605 Y17.906
X34.658 Y18.02
X34.71 Y18.135
X34.761 Y18.25
X34.811 Y18.365
X34.86 Y18.481
X34.907 Y18.598
X34.954 Y18.715
X35. Y18.832
X35.044 Y18.95
X35.088 Y19.068
X35.13 Y19.186
X35.171 Y19.305
X35.212 Y19.424
X35.251 Y19.544
X35.289 Y19.664
X35.325 Y19.784
X35.361 Y19.905
X35.396 Y20.026
X35.429 Y20.147
X35.462 Y20.269
X35.493 Y20.39
X35.523 Y20.513
X35.552 Y20.635
X35.58 Y20.758
X35.607 Y20.881
X35.633 Y21.004
X35.657 Y21.127
X35.681 Y21.251
X35.703 Y21.375
X35.724 Y21.499
X35.744 Y21.623
X35.763 Y21.747
X35.78 Y21.872
X35.797 Y21.997
X35.812 Y22.122
X35.826 Y22.247
X35.839 Y22.372
X35.851 Y22.497
X35.862 Y22.623
X35.872 Y22.748
X35.88 Y22.874
X35.887 Y22.999
X35.893 Y23.125
X35.898 Y23.251
X35.902 Y23.376
X35.904 Y23.502
X35.906 Y23.628
Y23.754
X35.905 Y23.88
X35.903 Y24.005
X35.899 Y24.131
X35.895 Y24.257
X35.889 Y24.383
X35.882 Y24.508
X35.874 Y24.634
X35.865 Y24.759
X35.855 Y24.885
X35.843 Y25.01
X35.83 Y25.135
X35.816 Y25.26
X35.801 Y25.385
X35.785 Y25.51
X35.768 Y25.635
X35.749 Y25.759
X35.729 Y25.883
X35.709 Y26.008
X35.687 Y26.131
X35.663 Y26.255
X35.639 Y26.379
X35.614 Y26.502
X35.587 Y26.625
X35.559 Y26.748
X35.53 Y26.87
X35.5 Y26.992
X35.469 Y27.114
X35.437 Y27.236
X35.403 Y27.357
X35.368 Y27.478
X35.333 Y27.599
X35.296 Y27.719
X35.258 Y27.839
X35.219 Y27.958
X35.178 Y28.078
X35.137 Y28.196
X35.094 Y28.315
X35.051 Y28.433
X35.006 Y28.551
X34.96 Y28.668
X34.913 Y28.785
X34.865 Y28.901
X34.816 Y29.017
X34.766 Y29.132
X34.715 Y29.247
X34.663 Y29.361
X34.609 Y29.475
X34.555 Y29.589
X34.499 Y29.702
X34.443 Y29.814
X34.385 Y29.926
X34.327 Y30.037
X34.267 Y30.148
X34.206 Y30.258
X34.145 Y30.368
X34.082 Y30.477
X34.018 Y30.586
X33.953 Y30.694
X33.887 Y30.801
X33.821 Y30.907
X33.753 Y31.013
X33.684 Y31.119
X33.614 Y31.224
X33.544 Y31.328
X33.472 Y31.431
X33.399 Y31.534
X33.326 Y31.636
X33.251 Y31.737
X33.176 Y31.838
X33.099 Y31.938
X33.022 Y32.037
X32.944 Y32.136
X32.864 Y32.233
X32.784 Y32.33
X32.703 Y32.427
X32.621 Y32.522
X32.539 Y32.617
X32.455 Y32.711
X32.371 Y32.804
X32.285 Y32.897
X32.199 Y32.988
X32.112 Y33.079
X32.024 Y33.169
X31.935 Y33.258
X31.846 Y33.347
X31.755 Y33.434
X31.664 Y33.521
X31.572 Y33.607
X31.479 Y33.692
X31.386 Y33.776
X31.291 Y33.859
X31.196 Y33.942
X31.1 Y34.023
X31.004 Y34.104
X30.906 Y34.184
X30.808 Y34.262
X30.71 Y34.34
X30.61 Y34.417
X30.51 Y34.493
X30.409 Y34.569
X30.307 Y34.643
X30.205 Y34.716
X30.102 Y34.788
X29.998 Y34.86
X29.894 Y34.93
X29.789 Y35.
X29.684 Y35.068
X29.578 Y35.136
X29.471 Y35.202
X29.363 Y35.268
X29.255 Y35.333
X29.147 Y35.396
X29.038 Y35.459
X28.928 Y35.52
X28.818 Y35.581
X28.707 Y35.641
X28.595 Y35.699
X28.484 Y35.757
X28.371 Y35.813
X28.258 Y35.869
X28.145 Y35.923
X28.031 Y35.977
X27.916 Y36.029
X27.801 Y36.08
X27.686 Y36.131
X27.57 Y36.18
X27.454 Y36.228
X27.337 Y36.275
X27.22 Y36.321
X27.103 Y36.366
X26.985 Y36.41
X26.867 Y36.453
X26.748 Y36.495
X26.629 Y36.535
X26.509 Y36.575
X26.39 Y36.613
X26.269 Y36.651
X26.149 Y36.687
X26.028 Y36.723
X25.907 Y36.757
X25.786 Y36.79
X25.664 Y36.822
X25.542 Y36.853
X25.42 Y36.882
X25.297 Y36.911
X25.174 Y36.939
X25.051 Y36.965
X24.928 Y36.99
X24.805 Y37.015
X24.681 Y37.038
X24.557 Y37.06
X24.433 Y37.081
X24.309 Y37.1
X24.184 Y37.119
X24.06 Y37.137
X23.935 Y37.153
X23.81 Y37.168
X23.685 Y37.183
X23.56 Y37.196
X23.435 Y37.208
X23.309 Y37.218
X23.184 Y37.228
X23.058 Y37.237
X22.933 Y37.244
X22.807 Y37.25
X22.681 Y37.256
X22.555 Y37.26
X22.43 Y37.263
X22.304 Y37.264
X22.178 Y37.265
X22.052
X21.926 Y37.263
X21.801 Y37.261
X21.675 Y37.257
X21.549 Y37.252
X21.423 Y37.246
X21.298 Y37.239
X21.172 Y37.23
X21.047 Y37.221
X20.921 Y37.211
X20.796 Y37.199
X20.671 Y37.186
X20.546 Y37.173
X20.421 Y37.158
X20.296 Y37.142
X20.171 Y37.125
X20.047 Y37.106
X19.922 Y37.087
X19.798 Y37.067
X19.674 Y37.045
X19.551 Y37.022
X19.427 Y36.999
X19.304 Y36.974
X19.18 Y36.948
X19.058 Y36.921
X18.935 Y36.893
X18.813 Y36.864
X18.69 Y36.834
X18.568 Y36.802
X18.447 Y36.77
X18.326 Y36.737
X18.205 Y36.702
X18.084 Y36.666
X17.963 Y36.63
X17.843 Y36.592
X17.724 Y36.553
X17.604 Y36.514
X17.485 Y36.473
X17.367 Y36.431
X17.248 Y36.388
X17.13 Y36.344
X17.013 Y36.299
X16.896 Y36.253
X16.779 Y36.206
X16.663 Y36.158
X16.547 Y36.109
X16.431 Y36.059
X16.316 Y36.008
X16.202 Y35.956
X16.088 Y35.903
X15.974 Y35.849
X15.861 Y35.794
X15.748 Y35.738
X15.636 Y35.681
X15.525 Y35.623
X15.413 Y35.564
X15.303 Y35.504
X15.193 Y35.443
X15.083 Y35.381
X14.974 Y35.318
X14.866 Y35.254
X14.758 Y35.19
X14.65 Y35.124
X14.544 Y35.057
X14.437 Y34.99
X14.332 Y34.921
X14.227 Y34.852
X14.122 Y34.782
X14.019 Y34.711
X13.915 Y34.639
X13.813 Y34.566
X13.711 Y34.492
X13.61 Y34.417
X13.509 Y34.342
X13.409 Y34.265
X13.31 Y34.188
X13.211 Y34.11
X13.113 Y34.031
X13.016 Y33.951
X12.92 Y33.87
X12.824 Y33.788
X12.729 Y33.706
X12.634 Y33.623
X12.541 Y33.539
X12.448 Y33.454
X12.355 Y33.368
X12.264 Y33.282
X12.173 Y33.195
X12.083 Y33.107
X11.994 Y33.018
X11.906 Y32.929
X11.818 Y32.838
X11.731 Y32.747
X11.645 Y32.656
X11.56 Y32.563
X11.475 Y32.47
X11.391 Y32.376
X11.308 Y32.281
X11.226 Y32.186
X11.145 Y32.09
X11.065 Y31.993
X10.985 Y31.895
X10.906 Y31.797
X10.829 Y31.698
X10.752 Y31.599
X10.675 Y31.499
X10.6 Y31.398
X10.526 Y31.297
X10.452 Y31.194
X10.379 Y31.092
X10.308 Y30.988
X10.237 Y30.884
X10.167 Y30.78
X10.098 Y30.675
X10.029 Y30.569
X9.962 Y30.463
X9.896 Y30.356
X9.83 Y30.248
X9.766 Y30.14
X9.702 Y30.032
X9.64 Y29.923
X9.578 Y29.813
X9.517 Y29.703
X9.457 Y29.592
X9.398 Y29.481
X9.34 Y29.369
X9.284 Y29.257
X9.228 Y29.144
X9.173 Y29.031
X9.119 Y28.917
X9.065 Y28.803
X9.013 Y28.689
X8.962 Y28.574
X8.912 Y28.458
X8.863 Y28.342
X8.815 Y28.226
X8.768 Y28.109
X8.722 Y27.992
X8.677 Y27.875
X8.633 Y27.757
X8.59 Y27.639
X8.548 Y27.52
X8.507 Y27.401
X8.467 Y27.282
X8.428 Y27.162
X8.39 Y27.042
X8.354 Y26.922
X8.318 Y26.801
X8.283 Y26.68
X8.249 Y26.559
X8.217 Y26.437
X8.185 Y26.316
X8.155 Y26.193
X8.125 Y26.071
X8.097 Y25.949
X8.069 Y25.826
X8.043 Y25.703
X8.018 Y25.579
X7.994 Y25.456
X7.971 Y25.332
X7.949 Y25.208
X7.928 Y25.084
X7.908 Y24.96
X7.889 Y24.835
X7.872 Y24.711
X7.855 Y24.586
X7.84 Y24.461
X7.825 Y24.336
X7.812 Y24.211
X7.8 Y24.086
X7.788 Y23.961
X7.778 Y23.835
X7.769 Y23.71
X7.761 Y23.584
X7.755 Y23.458
X7.749 Y23.333
X7.744 Y23.207
X7.741 Y23.081
X7.738 Y22.955
X7.737 Y22.83
X7.736 Y22.704
X7.737 Y22.578
X7.739 Y22.452
X7.742 Y22.326
X7.746 Y22.201
X7.751 Y22.075
X7.757 Y21.949
X7.765 Y21.824
X7.773 Y21.698
X7.783 Y21.572
X7.793 Y21.447
X7.805 Y21.322
X7.817 Y21.197
X7.831 Y21.072
X7.846 Y20.947
X7.862 Y20.822
X7.879 Y20.697
X7.897 Y20.573
X7.916 Y20.448
X7.936 Y20.324
X7.958 Y20.2
X7.98 Y20.076
X8.004 Y19.953
X8.028 Y19.829
X8.054 Y19.706
X8.08 Y19.583
X8.108 Y19.46
X8.136 Y19.338
X8.166 Y19.215
X8.197 Y19.093
X8.229 Y18.972
X8.262 Y18.85
X8.296 Y18.729
X8.33 Y18.608
X8.366 Y18.487
X8.403 Y18.367
X8.441 Y18.247
X8.48 Y18.128
X8.521 Y18.008
X8.562 Y17.889
X8.604 Y17.771
X8.647 Y17.653
X8.691 Y17.535
X8.736 Y17.417
X8.782 Y17.3
X8.829 Y17.184
X8.877 Y17.067
X8.926 Y16.951
X8.977 Y16.836
X9.028 Y16.721
X9.08 Y16.606
X9.133 Y16.492
X9.187 Y16.379
X9.242 Y16.265
X9.298 Y16.153
X9.354 Y16.04
X9.412 Y15.929
X9.471 Y15.817
X9.531 Y15.707
X9.591 Y15.596
X9.653 Y15.487
X9.715 Y15.377
X9.779 Y15.269
X9.843 Y15.161
X9.908 Y15.053
X9.975 Y14.946
X10.042 Y14.84
X10.11 Y14.734
X10.179 Y14.628
X10.248 Y14.524
X10.319 Y14.42
X10.391 Y14.316
X10.463 Y14.213
X10.536 Y14.111
X10.61 Y14.009
X10.685 Y13.908
X10.761 Y13.808
X10.838 Y13.708
X10.915 Y13.609
X10.994 Y13.51
X11.073 Y13.413
X11.153 Y13.316
X11.234 Y13.219
X11.316 Y13.123
X11.398 Y13.028
X11.481 Y12.934
X11.565 Y12.84
X11.65 Y12.748
X11.736 Y12.655
X11.822 Y12.564
X11.91 Y12.473
X11.998 Y12.383
X12.086 Y12.294
X12.176 Y12.205
X12.266 Y12.118
X12.357 Y12.031
X12.449 Y11.945
X12.541 Y11.859
X12.634 Y11.775
X12.728 Y11.691
X12.823 Y11.608
X12.918 Y11.526
X13.014 Y11.444
X13.11 Y11.364
X13.208 Y11.284
X13.306 Y11.205
X13.404 Y11.127
X13.504 Y11.049
X13.604 Y10.973
X13.704 Y10.897
X13.805 Y10.823
X13.907 Y10.749
X14.01 Y10.676
X14.113 Y10.604
X14.217 Y10.532
X14.321 Y10.462
X14.426 Y10.392
X14.531 Y10.324
X14.637 Y10.256
X14.744 Y10.189
X14.851 Y10.123
X14.959 Y10.058
X15.067 Y9.994
X15.176 Y9.931
X15.285 Y9.869
X15.395 Y9.808
X15.506 Y9.747
X15.616 Y9.688
X15.728 Y9.629
X15.84 Y9.572
X15.952 Y9.515
X16.065 Y9.459
X16.178 Y9.405
X16.292 Y9.351
X16.406 Y9.298
X16.521 Y9.246
X16.636 Y9.196
X16.752 Y9.146
X16.868 Y9.097
X16.984 Y9.049
X17.101 Y9.002
X17.218 Y8.956
X17.335 Y8.911
X17.453 Y8.867
X17.572 Y8.825
X17.69 Y8.783
X17.809 Y8.742
X17.929 Y8.702
X18.048 Y8.663
X18.168 Y8.625
X18.289 Y8.588
X18.409 Y8.552
X18.53 Y8.518
X18.651 Y8.484
X18.773 Y8.451
X18.895 Y8.42
X19.017 Y8.389
X19.139 Y8.359
X19.262 Y8.331
X19.384 Y8.303
X19.507 Y8.277
X19.631 Y8.251
X19.754 Y8.227
X19.878 Y8.203
X20.002 Y8.181
X20.126 Y8.16
X20.25 Y8.14
X20.374 Y8.12
X20.499 Y8.102
X20.623 Y8.085
X20.748 Y8.069
X20.873 Y8.054
X20.998 Y8.041
X21.123 Y8.028
X21.249 Y8.016
X21.374 Y8.005
X21.499 Y7.996
X21.625 Y7.987
X21.751 Y7.98
X21.876 Y7.973
X22.002 Y7.968
X22.128 Y7.964
X22.254 Y7.961
X22.379 Y7.958
X22.505 Y7.957
X22.631
X22.757 Y7.958
X22.883 Y7.961
X23.008 Y7.964
X23.134 Y7.968
X23.26 Y7.973
X23.386 Y7.98
X23.511 Y7.987
X23.637 Y7.996
X23.762 Y8.005
X23.888 Y8.016
X24.013 Y8.027
X24.138 Y8.04
X24.263 Y8.054
X24.388 Y8.069
X24.513 Y8.085
X24.638 Y8.102
X24.762 Y8.12
X24.887 Y8.139
X25.011 Y8.159
X25.135 Y8.18
X25.259 Y8.202
X25.382 Y8.225
X25.506 Y8.249
X25.629 Y8.275
X25.752 Y8.301
X25.875 Y8.328
X25.998 Y8.357
X26.12 Y8.386
X26.242 Y8.416
X26.364 Y8.448
X26.486 Y8.48
X26.607 Y8.514
X26.728 Y8.548
X26.849 Y8.583
X26.969 Y8.62
X27.089 Y8.657
X27.209 Y8.696
X27.328 Y8.735
X27.448 Y8.776
X27.567 Y8.817
X27.685 Y8.859
X27.803 Y8.903
X27.921 Y8.947
X28.038 Y8.992
X28.155 Y9.038
X28.272 Y9.086
X28.388 Y9.134
X28.504 Y9.183
X28.62 Y9.233
X28.735 Y9.284
X28.849 Y9.336
X28.963 Y9.389
X29.077 Y9.442
X29.19 Y9.497
X29.303 Y9.553
X29.416 Y9.609
X29.528 Y9.667
X29.639 Y9.725
X29.75 Y9.784
X29.861 Y9.845
X29.971 Y9.906
X30.08 Y9.968
X30.189 Y10.03
X30.298 Y10.094
X30.406 Y10.159
X30.513 Y10.224
X30.62 Y10.291
X30.727 Y10.358
X30.832 Y10.426
X30.938 Y10.495
X31.042 Y10.564
X31.147 Y10.635
X31.25 Y10.706
X31.353 Y10.779
X31.456 Y10.852
X31.558 Y10.926
X31.659 Y11.
X31.759 Y11.076
X31.86 Y11.152
X31.959 Y11.229
X32.058 Y11.307
X32.156 Y11.386
X32.254 Y11.465
X32.351 Y11.545
X32.447 Y11.626
X32.542 Y11.708
X32.637 Y11.791
X32.732 Y11.874
X32.825 Y11.958
X32.918 Y12.043
X33.011 Y12.128
X33.102 Y12.214
X33.193 Y12.301
X33.284 Y12.389
X33.373 Y12.477
X33.462 Y12.567
X33.55 Y12.656
X33.638 Y12.747
X33.724 Y12.838
X33.81 Y12.93
X33.896 Y13.022
X33.98 Y13.116
X34.064 Y13.21
X34.147 Y13.304
X34.229 Y13.399
X34.311 Y13.495
X34.392 Y13.592
X34.472 Y13.689
X34.551 Y13.786
X34.629 Y13.885
X34.707 Y13.984
X34.784 Y14.083
X34.86 Y14.184
X34.935 Y14.284
X35.01 Y14.386
X35.083 Y14.488
X35.156 Y14.59
X35.228 Y14.694
X35.3 Y14.797
X35.37 Y14.901
X35.44 Y15.006
X35.509 Y15.112
X35.577 Y15.218
X35.644 Y15.324
X35.71 Y15.431
X35.775 Y15.538
X35.84 Y15.646
X35.904 Y15.755
X35.967 Y15.864
X36.029 Y15.973
X36.09 Y16.083
X36.15 Y16.194
X36.209 Y16.305
X36.268 Y16.416
X36.326 Y16.528
X36.382 Y16.64
X36.438 Y16.753
X36.493 Y16.866
X36.547 Y16.98
X36.6 Y17.094
X36.653 Y17.208
X36.704 Y17.323
X36.754 Y17.439
X36.804 Y17.554
X36.852 Y17.67
X36.9 Y17.787
X36.947 Y17.904
X36.993 Y18.021
X37.038 Y18.138
X37.082 Y18.256
X37.125 Y18.375
X37.167 Y18.493
X37.208 Y18.612
X37.248 Y18.731
X37.287 Y18.851
X37.325 Y18.971
X37.363 Y19.091
X37.399 Y19.211
X37.435 Y19.332
X37.469 Y19.453
X37.503 Y19.574
X37.535 Y19.696
X37.567 Y19.818
X37.597 Y19.94
X37.627 Y20.062
X37.655 Y20.185
X37.683 Y20.307
X37.71 Y20.43
X37.735 Y20.554
X37.76 Y20.677
X37.784 Y20.801
X37.807 Y20.924
X37.828 Y21.048
X37.849 Y21.172
X37.869 Y21.297
X37.888 Y21.421
X37.905 Y21.546
X37.922 Y21.67
X37.938 Y21.795
X37.953 Y21.92
X37.967 Y22.045
X37.979 Y22.17
X37.991 Y22.296
X38.002 Y22.421
X38.012 Y22.546
X38.02 Y22.672
X38.028 Y22.798
X38.035 Y22.923
X38.041 Y23.049
X38.045 Y23.175
X38.049 Y23.3
X38.052 Y23.426
X38.054 Y23.552
Y23.678
Y23.804
X38.053 Y23.93
X38.05 Y24.055
X38.047 Y24.181
X38.043 Y24.307
X38.037 Y24.433
X38.031 Y24.558
X38.024 Y24.684
X38.015 Y24.809
X38.006 Y24.935
X37.995 Y25.06
X37.984 Y25.186
X37.971 Y25.311
X37.958 Y25.436
X37.944 Y25.561
X37.928 Y25.686
X37.912 Y25.811
X37.894 Y25.935
X37.876 Y26.06
X37.856 Y26.184
X37.836 Y26.308
X37.814 Y26.432
X37.792 Y26.556
X37.768 Y26.68
X37.744 Y26.803
X37.719 Y26.926
X37.692 Y27.049
X37.665 Y27.172
X37.636 Y27.295
X37.607 Y27.417
X37.577 Y27.539
X37.545 Y27.661
X37.513 Y27.783
X37.479 Y27.904
X37.445 Y28.025
X37.41 Y28.146
X37.374 Y28.266
X37.336 Y28.387
X37.298 Y28.506
X37.259 Y28.626
X37.219 Y28.745
X37.178 Y28.864
X37.136 Y28.983
X37.093 Y29.101
X37.049 Y29.219
X37.004 Y29.336
X36.958 Y29.454
X36.911 Y29.57
X36.864 Y29.687
X36.815 Y29.803
X36.765 Y29.919
X36.715 Y30.034
X36.663 Y30.149
X36.611 Y30.263
X36.558 Y30.377
X36.503 Y30.491
X36.448 Y30.604
X36.392 Y30.716
X36.335 Y30.829
X36.278 Y30.94
X36.219 Y31.052
X36.159 Y31.162
X36.099 Y31.273
X36.037 Y31.383
X35.975 Y31.492
X35.912 Y31.601
X35.848 Y31.709
X35.783 Y31.817
X35.717 Y31.924
X35.65 Y32.031
X35.583 Y32.137
X35.515 Y32.243
X35.445 Y32.348
X35.375 Y32.452
X35.304 Y32.556
X35.233 Y32.66
X35.16 Y32.763
X35.087 Y32.865
X35.013 Y32.966
X34.938 Y33.067
X34.862 Y33.168
X34.785 Y33.268
X34.708 Y33.367
X34.63 Y33.466
X34.551 Y33.563
X34.471 Y33.661
X34.39 Y33.757
X34.309 Y33.854
X34.227 Y33.949
X34.144 Y34.044
X34.06 Y34.138
X33.976 Y34.231
X33.891 Y34.324
X33.805 Y34.416
X33.719 Y34.507
X33.631 Y34.598
X33.543 Y34.688
X33.455 Y34.777
X33.365 Y34.865
X33.275 Y34.953
X33.184 Y35.04
X33.093 Y35.126
X33. Y35.212
X32.907 Y35.297
X32.814 Y35.381
X32.72 Y35.464
X32.625 Y35.547
X32.529 Y35.629
X32.433 Y35.71
X32.336 Y35.79
X32.238 Y35.87
X32.14 Y35.949
X32.042 Y36.027
X31.942 Y36.104
X31.842 Y36.18
X31.742 Y36.256
X31.64 Y36.331
X31.539 Y36.405
X31.436 Y36.478
X31.333 Y36.55
X31.23 Y36.622
X31.126 Y36.692
X31.021 Y36.762
X30.916 Y36.831
X30.81 Y36.899
X30.704 Y36.967
X30.597 Y37.033
X30.49 Y37.099
X30.382 Y37.164
X30.274 Y37.228
X30.165 Y37.291
X30.055 Y37.353
X29.946 Y37.415
X29.835 Y37.475
X29.724 Y37.535
X29.613 Y37.594
X29.501 Y37.651
X29.389 Y37.708
X29.277 Y37.765
X29.164 Y37.82
X29.05 Y37.874
X28.936 Y37.928
X28.822 Y37.98
X28.707 Y38.032
X28.592 Y38.082
X28.476 Y38.132
X28.36 Y38.181
X28.244 Y38.229
X28.127 Y38.276
X28.01 Y38.322
X27.893 Y38.368
X27.775 Y38.412
X27.657 Y38.455
X27.539 Y38.498
X27.42 Y38.539
X27.301 Y38.58
X27.181 Y38.619
X27.062 Y38.658
X26.941 Y38.696
X26.821 Y38.733
X26.701 Y38.769
X26.58 Y38.804
X26.459 Y38.838
X26.337 Y38.871
X26.215 Y38.903
X26.094 Y38.934
X25.971 Y38.964
X25.849 Y38.993
X25.726 Y39.021
X25.604 Y39.049
X25.48 Y39.075
X25.357 Y39.101
X25.234 Y39.125
X25.11 Y39.148
X24.986 Y39.171
X24.862 Y39.192
X24.738 Y39.213
X24.614 Y39.233
X24.49 Y39.251
X24.365 Y39.269
X24.24 Y39.286
X24.115 Y39.301
X23.99 Y39.316
X23.865 Y39.33
X23.74 Y39.343
X23.615 Y39.354
X23.49 Y39.365
X23.364 Y39.375
X23.239 Y39.384
X23.113 Y39.392
X22.987 Y39.399
X22.862 Y39.405
X22.736 Y39.41
X22.61 Y39.414
X22.484 Y39.417
X22.359 Y39.419
X22.233 Y39.42
X22.107
X21.981
X21.855 Y39.418
X21.729 Y39.415
X21.604 Y39.411
X21.478 Y39.407
X21.352 Y39.401
X21.227 Y39.394
X21.101 Y39.387
X20.975 Y39.378
X20.85 Y39.369
X20.725 Y39.358
X20.599 Y39.346
X20.474 Y39.334
X20.349 Y39.321
X20.224 Y39.306
X20.099 Y39.291
X19.974 Y39.275
X19.85 Y39.257
X19.725 Y39.239
X19.601 Y39.22
X19.477 Y39.2
X19.352 Y39.179
X19.229 Y39.157
X19.105 Y39.134
X18.981 Y39.11
X18.858 Y39.085
X18.735 Y39.059
X18.612 Y39.032
X18.489 Y39.005
X18.367 Y38.976
X18.244 Y38.946
X18.122 Y38.916
X18. Y38.884
X17.879 Y38.852
X17.757 Y38.819
X17.636 Y38.784
X17.516 Y38.749
X17.395 Y38.713
X17.275 Y38.676
X17.155 Y38.638
X17.035 Y38.599
X16.916 Y38.56
X16.797 Y38.519
X16.678 Y38.477
X16.559 Y38.435
X16.441 Y38.391
X16.324 Y38.347
X16.206 Y38.302
X16.089 Y38.256
X15.972 Y38.209
X15.856 Y38.161
X15.74 Y38.112
X15.624 Y38.063
X15.509 Y38.012
X15.394 Y37.961
X15.28 Y37.909
X15.166 Y37.856
X15.052 Y37.802
X14.939 Y37.747
X14.826 Y37.691
X14.713 Y37.635
X14.601 Y37.577
X14.49 Y37.519
X14.379 Y37.46
X14.268 Y37.4
X14.158 Y37.339
X14.048 Y37.277
X13.939 Y37.215
X13.83 Y37.152
X13.722 Y37.088
X13.614 Y37.023
X13.507 Y36.957
X13.4 Y36.891
X13.294 Y36.823
X13.188 Y36.755
X13.083 Y36.686
X12.978 Y36.616
X12.874 Y36.546
X12.77 Y36.475
X12.667 Y36.403
X12.564 Y36.33
X12.462 Y36.256
X12.361 Y36.182
X12.26 Y36.106
X12.159 Y36.031
X12.06 Y35.954
X11.961 Y35.876
X11.862 Y35.798
X11.764 Y35.719
X11.667 Y35.64
X11.57 Y35.559
X11.474 Y35.478
X11.378 Y35.396
X11.283 Y35.314
X11.189 Y35.23
X11.095 Y35.146
X11.002 Y35.062
X10.909 Y34.976
X10.818 Y34.89
X10.727 Y34.804
X10.636 Y34.716
X10.546 Y34.628
X10.457 Y34.539
X10.369 Y34.45
X10.281 Y34.36
X10.194 Y34.269
X10.107 Y34.177
X10.021 Y34.085
X9.936 Y33.993
X9.852 Y33.899
X9.768 Y33.805
X9.685 Y33.711
X9.603 Y33.615
X9.522 Y33.52
X9.441 Y33.423
X9.361 Y33.326
X9.281 Y33.228
X9.203 Y33.13
X9.125 Y33.031
X9.048 Y32.932
X8.971 Y32.832
X8.896 Y32.731
X8.821 Y32.63
X8.747 Y32.528
X8.674 Y32.426
X8.601 Y32.323
X8.529 Y32.22
X8.458 Y32.116
X8.388 Y32.012
X8.318 Y31.907
X8.25 Y31.801
X8.182 Y31.695
X8.115 Y31.589
X8.049 Y31.482
X7.983 Y31.374
X7.918 Y31.267
X7.855 Y31.158
X7.792 Y31.049
X7.729 Y30.94
X7.668 Y30.83
X7.607 Y30.72
X7.548 Y30.609
X7.489 Y30.498
X7.431 Y30.386
X7.374 Y30.274
X7.317 Y30.162
X7.262 Y30.049
X7.207 Y29.935
X7.153 Y29.822
X7.1 Y29.707
X7.048 Y29.593
X6.997 Y29.478
X6.946 Y29.363
X6.897 Y29.247
X6.848 Y29.131
X6.8 Y29.014
X6.754 Y28.898
X6.708 Y28.781
X6.662 Y28.663
X6.618 Y28.545
X6.575 Y28.427
X6.532 Y28.309
X6.491 Y28.19
X6.45 Y28.071
X6.41 Y27.952
X6.372 Y27.832
X6.334 Y27.712
X6.297 Y27.592
X6.26 Y27.471
X6.225 Y27.35
X6.191 Y27.229
X6.157 Y27.108
X6.125 Y26.986
X6.093 Y26.865
X6.063 Y26.743
X6.033 Y26.62
X6.004 Y26.498
X5.976 Y26.375
X5.949 Y26.252
X5.923 Y26.129
X5.898 Y26.006
X5.874 Y25.882
X5.85 Y25.759
X5.828 Y25.635
X5.807 Y25.511
X5.786 Y25.387
X5.767 Y25.262
X5.748 Y25.138
X5.73 Y25.013
X5.714 Y24.889
X5.698 Y24.764
X5.683 Y24.639
X5.669 Y24.514
X5.656 Y24.389
X5.644 Y24.263
X5.633 Y24.138
X5.623 Y24.013
X5.614 Y23.887
X5.606 Y23.762
X5.598 Y23.636
X5.592 Y23.51
X5.587 Y23.385
X5.582 Y23.259
X5.579 Y23.133
X5.576 Y23.007
X5.574 Y22.881
Y22.756
Y22.63
X5.575 Y22.504
X5.577 Y22.378
X5.58 Y22.252
X5.585 Y22.126
X5.59 Y22.001
X5.595 Y21.875
X5.602 Y21.749
X5.61 Y21.624
X5.619 Y21.498
X5.629 Y21.373
X5.639 Y21.247
X5.651 Y21.122
X5.663 Y20.997
X5.677 Y20.872
X5.691 Y20.747
X5.707 Y20.622
X5.723 Y20.497
X5.74 Y20.373
X5.758 Y20.248
X5.777 Y20.124
X5.797 Y19.999
X5.818 Y19.875
X5.84 Y19.751
X5.863 Y19.628
X5.887 Y19.504
X5.911 Y19.381
X5.937 Y19.257
X5.963 Y19.134
X5.991 Y19.012
X6.019 Y18.889
X6.048 Y18.767
X6.078 Y18.644
X6.109 Y18.523
X6.141 Y18.401
X6.174 Y18.279
X6.208 Y18.158
X6.243 Y18.037
X6.278 Y17.916
X6.315 Y17.796
X6.352 Y17.676
X6.39 Y17.556
X6.429 Y17.436
X6.469 Y17.317
X6.51 Y17.198
X6.552 Y17.079
X6.595 Y16.961
X6.638 Y16.843
X6.683 Y16.725
X6.728 Y16.608
X6.774 Y16.491
X6.821 Y16.374
X6.869 Y16.258
X6.918 Y16.142
X6.968 Y16.026
X7.018 Y15.911
X7.07 Y15.796
X7.122 Y15.682
X7.175 Y15.568
X7.229 Y15.454
X7.284 Y15.341
X7.339 Y15.228
X7.396 Y15.115
X7.453 Y15.003
X7.511 Y14.891
X7.57 Y14.78
X7.63 Y14.67
X7.69 Y14.559
X7.751 Y14.449
X7.814 Y14.34
X7.877 Y14.231
X7.94 Y14.123
X8.005 Y14.015
X8.07 Y13.907
X8.137 Y13.8
X8.204 Y13.694
X8.271 Y13.588
X8.34 Y13.482
X8.409 Y13.377
X8.479 Y13.273
X8.55 Y13.169
X8.622 Y13.065
X8.694 Y12.962
X8.768 Y12.86
X8.841 Y12.758
X8.916 Y12.657
X8.992 Y12.556
X9.068 Y12.456
X9.145 Y12.356
X9.222 Y12.257
X9.301 Y12.159
X9.38 Y12.061
X9.46 Y11.964
X9.54 Y11.867
X9.621 Y11.771
X9.703 Y11.676
X9.786 Y11.581
X9.869 Y11.486
X9.954 Y11.393
X10.038 Y11.3
X10.124 Y11.207
X10.21 Y11.116
X10.297 Y11.025
X10.384 Y10.934
X10.472 Y10.844
X10.561 Y10.755
X10.65 Y10.667
X10.741 Y10.579
X10.831 Y10.492
X10.923 Y10.405
X11.015 Y10.319
X11.107 Y10.234
X11.201 Y10.15
X11.295 Y10.066
X11.389 Y9.983
X11.484 Y9.901
X11.58 Y9.819
X11.676 Y9.738
X11.773 Y9.658
X11.871 Y9.578
X11.969 Y9.499
X12.068 Y9.421
X12.167 Y9.344
X12.267 Y9.267
X12.367 Y9.192
X12.468 Y9.116
X12.569 Y9.042
X12.672 Y8.968
X12.774 Y8.896
X12.877 Y8.824
X12.981 Y8.752
X13.085 Y8.682
X13.19 Y8.612
X13.295 Y8.543
X13.401 Y8.475
X13.507 Y8.407
X13.614 Y8.34
X13.721 Y8.275
X13.829 Y8.21
X13.937 Y8.145
X14.045 Y8.082
X14.155 Y8.019
X14.264 Y7.957
X14.374 Y7.896
X14.485 Y7.836
X14.596 Y7.776
X14.707 Y7.718
X14.819 Y7.66
X14.931 Y7.603
X15.044 Y7.547
X15.157 Y7.492
X15.27 Y7.437
X15.384 Y7.384
X15.498 Y7.331
X15.613 Y7.279
X15.728 Y7.228
X15.843 Y7.178
X15.959 Y7.128
X16.075 Y7.08
X16.191 Y7.032
X16.308 Y6.986
X16.425 Y6.94
X16.543 Y6.895
X16.661 Y6.85
X16.779 Y6.807
X16.897 Y6.765
X17.016 Y6.723
X17.135 Y6.682
X17.255 Y6.643
X17.374 Y6.604
X17.494 Y6.566
X17.614 Y6.529
X17.735 Y6.492
X17.856 Y6.457
X17.977 Y6.423
X18.098 Y6.389
X18.22 Y6.356
X18.341 Y6.325
X18.463 Y6.294
X18.586 Y6.264
X18.708 Y6.235
X18.831 Y6.207
X18.953 Y6.18
X19.076 Y6.153
X19.2 Y6.128
X19.323 Y6.103
X19.447 Y6.08
X19.571 Y6.057
X19.694 Y6.035
X19.819 Y6.015
X19.943 Y5.995
X20.067 Y5.976
X20.192 Y5.958
X20.316 Y5.941
X20.441 Y5.924
X20.566 Y5.909
X20.691 Y5.895
X20.816 Y5.881
X20.941 Y5.869
X21.067 Y5.857
X21.192 Y5.847
X21.318 Y5.837
X21.443 Y5.828
X21.569 Y5.82
X21.694 Y5.813
X21.82 Y5.807
X21.946 Y5.802
X22.071 Y5.798
X22.197 Y5.795
X22.323 Y5.792
X22.449 Y5.791
X22.575
X22.701
X22.826 Y5.792
X22.952 Y5.795
X23.078 Y5.798
X23.204 Y5.802
X23.329 Y5.807
X23.455 Y5.813
X23.581 Y5.82
X23.706 Y5.828
X23.832 Y5.837
X23.957 Y5.847
X24.083 Y5.857
X24.208 Y5.869
X24.333 Y5.881
X24.458 Y5.895
X24.583 Y5.909
X24.708 Y5.924
X24.833 Y5.941
X24.958 Y5.958
X25.082 Y5.976
X25.207 Y5.995
X25.331 Y6.014
X25.455 Y6.035
X25.579 Y6.057
X25.703 Y6.079
X25.826 Y6.103
X25.95 Y6.127
X26.073 Y6.152
X26.196 Y6.178
X26.319 Y6.205
X26.442 Y6.233
X26.564 Y6.262
X26.687 Y6.292
X26.809 Y6.322
X26.931 Y6.354
X27.052 Y6.386
X27.173 Y6.42
X27.295 Y6.454
X27.415 Y6.489
X27.536 Y6.525
X27.656 Y6.561
X27.776 Y6.599
X27.896 Y6.637
X28.016 Y6.677
X28.135 Y6.717
X28.254 Y6.758
X28.373 Y6.8
X28.491 Y6.843
X28.609 Y6.886
X28.727 Y6.931
X28.844 Y6.976
X28.961 Y7.022
X29.078 Y7.069
X29.194 Y7.117
X29.31 Y7.166
X29.426 Y7.215
X29.541 Y7.266
X29.656 Y7.317
X29.771 Y7.369
X29.885 Y7.422
X29.999 Y7.475
X30.112 Y7.53
X30.225 Y7.585
X30.338 Y7.641
X30.45 Y7.698
X30.562 Y7.756
X30.674 Y7.814
X30.785 Y7.873
X30.895 Y7.933
X31.005 Y7.994
X31.115 Y8.056
X31.224 Y8.118
X31.333 Y8.181
X31.442 Y8.245
X31.55 Y8.31
X31.657 Y8.375
X31.764 Y8.441
X31.871 Y8.508
X31.977 Y8.576
X32.082 Y8.644
X32.187 Y8.714
X32.292 Y8.784
X32.396 Y8.854
X32.5 Y8.926
X32.603 Y8.998
X32.705 Y9.071
X32.807 Y9.144
X32.909 Y9.219
X33.01 Y9.294
X33.111 Y9.369
X33.21 Y9.446
X33.31 Y9.523
X33.409 Y9.601
X33.507 Y9.679
X33.605 Y9.758
X33.702 Y9.838
X33.799 Y9.919
X33.895 Y10.
X33.99 Y10.082
X34.085 Y10.165
X34.18 Y10.248
X34.273 Y10.332
X34.367 Y10.416
X34.459 Y10.502
X34.551 Y10.587
X34.643 Y10.674
X34.733 Y10.761
X34.823 Y10.849
X34.913 Y10.937
X35.002 Y11.026
X35.09 Y11.116
X35.178 Y11.206
X35.265 Y11.297
X35.351 Y11.388
X35.437 Y11.481
X35.522 Y11.573
X35.607 Y11.666
X35.691 Y11.76
X35.774 Y11.855
X35.856 Y11.95
X35.938 Y12.045
X36.019 Y12.141
X36.1 Y12.238
X36.18 Y12.335
X36.259 Y12.433
X36.337 Y12.532
X36.415 Y12.631
X36.492 Y12.73
X36.568 Y12.83
X36.644 Y12.931
X36.719 Y13.032
X36.793 Y13.133
X36.867 Y13.235
X36.94 Y13.338
X37.012 Y13.441
X37.083 Y13.544
X37.154 Y13.649
X37.224 Y13.753
X37.293 Y13.858
X37.362 Y13.964
X37.43 Y14.07
X37.497 Y14.176
X37.563 Y14.283
X37.629 Y14.391
X37.693 Y14.499
X37.757 Y14.607
X37.821 Y14.716
X37.883 Y14.825
X37.945 Y14.934
X38.006 Y15.044
X38.066 Y15.155
X38.126 Y15.266
X38.184 Y15.377
X38.242 Y15.489
X38.299 Y15.601
X38.356 Y15.713
X38.411 Y15.826
X38.466 Y15.94
X38.52 Y16.053
X38.573 Y16.167
X38.626 Y16.282
X38.677 Y16.397
X38.728 Y16.512
X38.778 Y16.627
X38.827 Y16.743
X38.876 Y16.859
X38.923 Y16.976
X38.97 Y17.092
X39.016 Y17.21
X39.061 Y17.327
X39.105 Y17.445
X39.149 Y17.563
X39.191 Y17.681
X39.233 Y17.8
X39.274 Y17.919
X39.314 Y18.038
X39.353 Y18.158
X39.392 Y18.278
X39.43 Y18.398
X39.466 Y18.518
X39.502 Y18.639
X39.537 Y18.759
X39.572 Y18.881
X39.605 Y19.002
X39.638 Y19.123
X39.655 Y19.19
X39.68 Y19.306
X39.695 Y19.424
X39.7 Y19.542
Y26.022
X39.694 Y26.147
X39.692 Y26.273
X39.689 Y26.399
X39.684 Y26.525
X39.678 Y26.65
X39.67 Y26.776
X39.66 Y26.901
X39.649 Y27.027
X39.637 Y27.152
X39.623 Y27.277
X39.607 Y27.402
X39.591 Y27.526
X39.572 Y27.651
X39.553 Y27.775
X39.532 Y27.899
X39.51 Y28.023
X39.487 Y28.147
X39.462 Y28.27
X39.437 Y28.394
X39.41 Y28.517
X39.382 Y28.639
X39.352 Y28.762
X39.322 Y28.884
X39.29 Y29.005
X39.257 Y29.127
X39.224 Y29.248
X39.189 Y29.369
X39.153 Y29.49
X39.116 Y29.61
X39.077 Y29.73
X39.038 Y29.849
X38.998 Y29.968
X38.957 Y30.087
X38.914 Y30.206
X38.871 Y30.324
X38.827 Y30.442
X38.782 Y30.559
X38.736 Y30.676
X38.688 Y30.793
X38.64 Y30.909
X38.591 Y31.025
X38.541 Y31.141
X38.491 Y31.256
X38.439 Y31.37
X38.386 Y31.485
X38.332 Y31.599
X38.278 Y31.712
X38.223 Y31.825
X38.166 Y31.937
X38.109 Y32.05
X38.051 Y32.161
X37.992 Y32.273
X37.933 Y32.383
X37.872 Y32.494
X37.811 Y32.603
X37.748 Y32.713
X37.685 Y32.822
X37.622 Y32.93
X37.557 Y33.038
X37.491 Y33.146
X37.425 Y33.253
X37.358 Y33.359
X37.29 Y33.465
X37.222 Y33.57
X37.152 Y33.675
X37.082 Y33.78
X37.011 Y33.884
X36.939 Y33.987
X36.867 Y34.09
X36.794 Y34.192
X36.72 Y34.294
X36.645 Y34.395
X36.569 Y34.496
X36.493 Y34.596
X36.416 Y34.696
X36.339 Y34.795
X36.26 Y34.893
X36.181 Y34.991
X36.102 Y35.088
X36.021 Y35.185
X35.94 Y35.281
X35.858 Y35.377
X35.776 Y35.472
X35.692 Y35.566
X35.609 Y35.66
X35.524 Y35.753
X35.439 Y35.846
X35.353 Y35.938
X35.266 Y36.029
X35.179 Y36.12
X35.091 Y36.21
X35.003 Y36.3
X34.914 Y36.388
X34.824 Y36.477
X34.734 Y36.564
X34.643 Y36.651
X34.551 Y36.738
X34.459 Y36.823
X34.366 Y36.908
X34.273 Y36.992
X34.179 Y37.076
X34.084 Y37.159
X33.989 Y37.241
X33.893 Y37.323
X33.797 Y37.404
X33.7 Y37.484
X33.603 Y37.564
X33.505 Y37.643
X33.406 Y37.721
X33.307 Y37.799
X33.207 Y37.875
X33.107 Y37.952
X33.006 Y38.027
X32.905 Y38.102
X32.803 Y38.176
X32.701 Y38.249
X32.598 Y38.322
X32.495 Y38.393
X32.391 Y38.465
X32.287 Y38.535
X32.182 Y38.605
X32.077 Y38.673
X31.971 Y38.742
X31.865 Y38.809
X31.758 Y38.876
X31.651 Y38.942
X31.543 Y39.007
X31.435 Y39.071
X31.327 Y39.135
X31.218 Y39.198
X31.108 Y39.26
X30.999 Y39.322
X30.888 Y39.382
X30.778 Y39.442
X30.666 Y39.501
X30.555 Y39.559
X30.443 Y39.617
X30.331 Y39.674
X30.218 Y39.73
X30.105 Y39.785
X29.992 Y39.839
X29.878 Y39.893
X29.763 Y39.946
X29.649 Y39.998
X29.534 Y40.049
X29.419 Y40.099
X29.303 Y40.149
X29.187 Y40.198
X29.071 Y40.246
X28.954 Y40.293
X28.837 Y40.34
X28.72 Y40.385
X28.602 Y40.43
X28.484 Y40.474
X28.366 Y40.517
X28.248 Y40.559
X28.129 Y40.601
X28.01 Y40.642
X27.891 Y40.681
X27.771 Y40.721
X27.651 Y40.759
X27.531 Y40.796
X27.41 Y40.833
X27.29 Y40.868
X27.169 Y40.903
X27.048 Y40.937
X26.926 Y40.971
X26.805 Y41.003
X26.683 Y41.034
X26.561 Y41.065
X26.439 Y41.095
X26.316 Y41.124
X26.194 Y41.152
X26.071 Y41.18
X25.948 Y41.206
X25.825 Y41.232
X25.701 Y41.256
X25.578 Y41.28
X25.454 Y41.303
X25.33 Y41.326
X25.206 Y41.347
X25.082 Y41.368
X24.958 Y41.387
X24.833 Y41.406
X24.709 Y41.424
X24.584 Y41.441
X24.459 Y41.458
X24.334 Y41.473
X24.209 Y41.487
X24.084 Y41.501
X23.959 Y41.514
X23.834 Y41.526
X23.709 Y41.537
X23.583 Y41.547
X23.458 Y41.557
X23.332 Y41.565
X23.207 Y41.573
X23.081 Y41.58
X22.955 Y41.586
X22.83 Y41.591
X22.704 Y41.595
X22.578 Y41.599
X22.452 Y41.601
X22.326 Y41.603
X22.201 Y41.604
X22.075
X21.949 Y41.603
X21.823 Y41.601
X21.697 Y41.598
X21.571 Y41.595
X21.446 Y41.591
X21.32 Y41.585
X21.194 Y41.579
X21.069 Y41.573
X20.943 Y41.565
X20.818 Y41.556
X20.692 Y41.547
X20.567 Y41.536
X20.441 Y41.525
X20.316 Y41.513
X20.191 Y41.5
X20.066 Y41.487
X19.941 Y41.472
X19.816 Y41.457
X19.691 Y41.441
X19.566 Y41.423
X19.442 Y41.405
X19.317 Y41.387
X19.193 Y41.367
X19.069 Y41.347
X18.945 Y41.325
X18.821 Y41.303
X18.697 Y41.28
X18.574 Y41.256
X18.45 Y41.232
X18.327 Y41.206
X18.204 Y41.18
X18.081 Y41.153
X17.959 Y41.125
X17.836 Y41.096
X17.714 Y41.066
X17.592 Y41.036
X17.47 Y41.004
X17.348 Y40.972
X17.227 Y40.939
X17.106 Y40.906
X16.985 Y40.871
X16.864 Y40.836
X16.743 Y40.799
X16.623 Y40.762
X16.503 Y40.725
X16.383 Y40.686
X16.264 Y40.646
X16.145 Y40.606
X16.026 Y40.565
X15.907 Y40.523
X15.789 Y40.481
X15.671 Y40.437
X15.553 Y40.393
X15.435 Y40.348
X15.318 Y40.302
X15.201 Y40.255
X15.085 Y40.208
X14.968 Y40.16
X14.852 Y40.111
X14.737 Y40.061
X14.622 Y40.011
X14.507 Y39.959
X14.392 Y39.907
X14.278 Y39.854
X14.164 Y39.801
X14.051 Y39.747
X13.938 Y39.691
X13.825 Y39.636
X13.712 Y39.579
X13.6 Y39.522
X13.489 Y39.463
X13.378 Y39.405
X13.267 Y39.345
X13.156 Y39.285
X13.046 Y39.223
X12.937 Y39.162
X12.828 Y39.099
X12.719 Y39.036
X12.611 Y38.972
X12.503 Y38.907
X12.395 Y38.841
X12.288 Y38.775
X12.182 Y38.708
X12.076 Y38.641
X11.97 Y38.572
X11.865 Y38.503
X11.76 Y38.434
X11.656 Y38.363
X11.552 Y38.292
X11.449 Y38.22
X11.346 Y38.148
X11.243 Y38.075
X11.141 Y38.001
X11.04 Y37.926
X10.939 Y37.851
X10.839 Y37.775
X10.739 Y37.698
X10.64 Y37.621
X10.541 Y37.543
X10.443 Y37.465
X10.345 Y37.386
X10.248 Y37.306
X10.151 Y37.225
X10.055 Y37.144
X9.959 Y37.062
X9.864 Y36.98
X9.769 Y36.897
X9.675 Y36.813
X9.582 Y36.729
X9.489 Y36.644
X9.397 Y36.558
X9.305 Y36.472
X9.214 Y36.385
X9.123 Y36.298
X9.033 Y36.21
X8.944 Y36.122
X8.855 Y36.032
X8.767 Y35.943
X8.679 Y35.852
X8.592 Y35.761
X8.506 Y35.67
X8.42 Y35.578
X8.335 Y35.485
X8.251 Y35.392
X8.167 Y35.298
X8.083 Y35.204
X8.001 Y35.109
X7.919 Y35.014
X7.837 Y34.918
X7.756 Y34.821
X7.676 Y34.724
X7.597 Y34.627
X7.518 Y34.529
X7.44 Y34.43
X7.362 Y34.331
X7.285 Y34.231
X7.209 Y34.131
X7.134 Y34.03
X7.059 Y33.929
X6.985 Y33.828
X6.911 Y33.726
X6.838 Y33.623
X6.766 Y33.52
X6.695 Y33.416
X6.624 Y33.312
X6.554 Y33.208
X6.485 Y33.103
X6.416 Y32.997
X6.348 Y32.891
X6.281 Y32.785
X6.214 Y32.678
X6.148 Y32.571
X6.083 Y32.463
X6.019 Y32.355
X5.955 Y32.247
X5.892 Y32.138
X5.83 Y32.028
X5.768 Y31.919
X5.707 Y31.809
X5.67 Y31.739
X5.619 Y31.635
X5.576 Y31.527
X5.543 Y31.416
X5.519 Y31.302
X5.505 Y31.187
X5.5 Y31.071
Y16.305
X5.506 Y16.18
X5.51 Y16.054
X5.517 Y15.928
X5.527 Y15.803
X5.54 Y15.678
X5.556 Y15.553
X5.574 Y15.428
X5.594 Y15.304
X5.617 Y15.18
X5.642 Y15.057
X5.669 Y14.934
X5.698 Y14.812
X5.729 Y14.69
X5.762 Y14.568
X5.797 Y14.448
X5.834 Y14.327
X5.873 Y14.207
X5.913 Y14.088
X5.955 Y13.97
X5.998 Y13.851
X6.043 Y13.734
X6.09 Y13.617
X6.138 Y13.501
X6.187 Y13.385
X6.238 Y13.27
X6.29 Y13.155
X6.344 Y13.041
X6.398 Y12.928
X6.454 Y12.815
X6.511 Y12.703
X6.57 Y12.592
X6.629 Y12.481
X6.69 Y12.371
X6.751 Y12.261
X6.814 Y12.152
X6.878 Y12.043
X6.943 Y11.936
X7.009 Y11.828
X7.076 Y11.722
X7.144 Y11.616
X7.212 Y11.511
X7.282 Y11.406
X7.353 Y11.302
X7.424 Y11.198
X7.497 Y11.095
X7.57 Y10.993
X7.644 Y10.892
X7.719 Y10.791
X7.795 Y10.69
X7.872 Y10.59
X7.95 Y10.491
X8.028 Y10.393
X8.107 Y10.295
X8.187 Y10.198
X8.267 Y10.101
X8.349 Y10.005
X8.431 Y9.91
X8.514 Y9.815
X8.597 Y9.721
X8.682 Y9.627
X8.767 Y9.535
X8.852 Y9.443
X8.939 Y9.351
X9.026 Y9.26
X9.113 Y9.17
X9.202 Y9.08
X9.291 Y8.991
X9.38 Y8.903
X9.471 Y8.815
X9.562 Y8.728
X9.653 Y8.642
X9.745 Y8.556
X9.838 Y8.471
X9.931 Y8.387
X10.025 Y8.303
X10.12 Y8.22
X10.215 Y8.138
X10.311 Y8.056
X10.407 Y7.975
X10.504 Y7.895
X10.601 Y7.815
X10.699 Y7.736
X10.798 Y7.658
X10.897 Y7.58
X10.996 Y7.503
X11.096 Y7.427
X11.197 Y7.351
X11.298 Y7.277
X11.4 Y7.202
X11.502 Y7.129
X11.605 Y7.056
X11.708 Y6.984
X11.811 Y6.913
X11.915 Y6.842
X12.02 Y6.772
X12.125 Y6.703
X12.23 Y6.634
X12.336 Y6.566
X12.443 Y6.499
X12.55 Y6.432
X12.657 Y6.367
X12.765 Y6.302
X12.873 Y6.237
X12.981 Y6.174
X13.091 Y6.111
X13.2 Y6.049
X13.31 Y5.988
X13.42 Y5.927
X13.531 Y5.867
X13.642 Y5.808
X13.753 Y5.75
X13.865 Y5.692
X13.945 Y5.651
X14.044 Y5.606
X14.147 Y5.568
X14.252 Y5.538
X14.36 Y5.517
X14.469 Y5.504
X14.578 Y5.5
X28.668
X28.793 Y5.506
X28.919 Y5.51
X29.045 Y5.516
X29.17 Y5.526
X29.295 Y5.537
X29.42 Y5.552
X29.545 Y5.568
X29.67 Y5.587
X29.794 Y5.608
X29.917 Y5.631
X30.041 Y5.657
X30.163 Y5.684
X30.286 Y5.713
X30.408 Y5.744
X30.529 Y5.776
X30.65 Y5.811
X30.771 Y5.847
X30.891 Y5.884
X31.011 Y5.924
X31.13 Y5.964
X31.248 Y6.007
X31.366 Y6.05
X31.484 Y6.095
X31.601 Y6.142
X31.717 Y6.189
X31.833 Y6.238
X31.948 Y6.289
X32.063 Y6.34
X32.178 Y6.393
X32.291 Y6.447
X32.404 Y6.502
X32.517 Y6.558
X32.629 Y6.615
X32.741 Y6.673
X32.852 Y6.732
X32.962 Y6.793
X33.072 Y6.854
X33.181 Y6.916
X33.29 Y6.979
X33.398 Y7.044
X33.506 Y7.109
X33.613 Y7.175
X33.72 Y7.242
X33.826 Y7.31
X33.931 Y7.378
X34.036 Y7.448
X34.14 Y7.518
X34.244 Y7.589
X34.347 Y7.661
X34.45 Y7.734
X34.552 Y7.808
X34.653 Y7.882
X34.754 Y7.957
X34.855 Y8.033
X34.954 Y8.11
X35.054 Y8.187
X35.152 Y8.265
X35.25 Y8.344
X35.348 Y8.424
X35.445 Y8.504
X35.541 Y8.585
X35.637 Y8.667
X35.732 Y8.749
X35.827 Y8.832
X35.921 Y8.916
X36.014 Y9.
X36.107 Y9.085
X36.199 Y9.171
X36.291 Y9.257
X36.382 Y9.344
X36.472 Y9.431
X36.562 Y9.519
X36.651 Y9.608
X36.74 Y9.697
X36.828 Y9.787
X36.916 Y9.878
X37.002 Y9.969
X37.089 Y10.06
X37.174 Y10.152
X37.259 Y10.245
X37.344 Y10.339
X37.427 Y10.432
X37.511 Y10.527
X37.593 Y10.622
X37.675 Y10.717
X37.756 Y10.813
X37.837 Y10.91
X37.917 Y11.007
X37.997 Y11.105
X38.075 Y11.203
X38.154 Y11.301
X38.231 Y11.4
X38.308 Y11.5
X38.384 Y11.6
X38.46 Y11.701
X38.535 Y11.802
X38.609 Y11.903
X38.683 Y12.005
X38.756 Y12.108
X38.828 Y12.211
X38.9 Y12.314
X38.971 Y12.418
X39.041 Y12.523
X39.111 Y12.627
X39.18 Y12.732
X39.248 Y12.838
X39.316 Y12.944
X39.383 Y13.051
X39.449 Y13.158
X39.494 Y13.231
X39.548 Y13.327
X39.594 Y13.427
X39.632 Y13.53
X39.661 Y13.636
X39.683 Y13.743
X39.696 Y13.852
X39.7 Y13.962
Y19.354
G3 X39.183 Y19.836 I-0.5 J-0.017
X38.808 Y19.646 I0.017 J-0.5
G1 X28.292 Y6.309
G3 X28.375 Y5.607 I0.393 J-0.31
X28.668 Y5.5 I0.31 J0.393
G1 X32.761
X32.887 Y5.506
X33.013 Y5.513
X33.138 Y5.523
X33.263 Y5.536
X33.388 Y5.553
X33.512 Y5.573
X33.636 Y5.597
X33.759 Y5.623
X33.881 Y5.652
X34.003 Y5.683
X34.124 Y5.717
X34.245 Y5.753
X34.365 Y5.792
X34.484 Y5.833
X34.602 Y5.876
X34.72 Y5.921
X34.836 Y5.968
X34.952 Y6.016
X35.067 Y6.067
X35.182 Y6.119
X35.296 Y6.173
X35.409 Y6.229
X35.521 Y6.286
X35.632 Y6.344
X35.743 Y6.404
X35.852 Y6.466
X35.961 Y6.529
X36.07 Y6.593
X36.177 Y6.658
X36.284 Y6.725
X36.39 Y6.793
X36.495 Y6.862
X36.6 Y6.932
X36.703 Y7.003
X36.806 Y7.075
X36.909 Y7.149
X37.01 Y7.223
X37.111 Y7.298
X37.211 Y7.374
X37.311 Y7.452
X37.409 Y7.53
X37.507 Y7.609
X37.604 Y7.689
X37.701 Y7.769
X37.797 Y7.851
X37.892 Y7.933
X37.986 Y8.016
X38.08 Y8.1
X38.173 Y8.185
X38.266 Y8.27
X38.357 Y8.357
X38.448 Y8.443
X38.539 Y8.531
X38.628 Y8.619
X38.717 Y8.708
X38.806 Y8.798
X38.893 Y8.888
X38.98 Y8.979
X39.067 Y9.071
X39.152 Y9.163
X39.237 Y9.255
X39.322 Y9.349
X39.345 Y9.375
X39.417 Y9.463
X39.482 Y9.556
X39.538 Y9.654
X39.587 Y9.756
X39.627 Y9.862
X39.659 Y9.97
X39.682 Y10.081
X39.695 Y10.193
X39.7 Y10.307
G3 X39.2 Y10.807 I-0.5 J0.
X38.943 Y10.736 I0. J-0.5
G1 X32.006 Y6.58
G3 X31.834 Y5.894 I0.257 J-0.429
X32.008 Y5.721 I0.429 J0.257
X32.761 Y5.5 I0.809 J1.36
G1 X35.998
X36.124 Y5.506
X36.25 Y5.512
X36.375 Y5.521
X36.5 Y5.535
X36.625 Y5.553
X36.749 Y5.575
X36.872 Y5.6
X36.995 Y5.628
X37.117 Y5.66
X37.238 Y5.694
X37.358 Y5.732
X37.477 Y5.772
X37.595 Y5.814
X37.713 Y5.86
X37.829 Y5.907
X37.945 Y5.957
X38.06 Y6.008
X38.174 Y6.062
X38.286 Y6.118
X38.398 Y6.176
X38.509 Y6.235
X38.619 Y6.296
X38.728 Y6.359
X38.836 Y6.424
X38.943 Y6.49
X39.049 Y6.558
X39.073 Y6.574
X39.166 Y6.641
X39.254 Y6.716
X39.335 Y6.798
X39.408 Y6.886
X39.475 Y6.98
X39.533 Y7.078
X39.584 Y7.182
X39.625 Y7.289
X39.658 Y7.399
X39.681 Y7.512
X39.695 Y7.626
X39.7 Y7.741
G3 X39.183 Y8.223 I-0.5 J-0.017
X38.962 Y8.163 I0.017 J-0.5
G1 X35.778 Y6.439
G3 X35.576 Y5.762 I0.238 J-0.44
X35.998 Y5.5 I0.44 J0.238
G1 X38.759
X38.885 Y5.506
X39.004 Y5.525
X39.119 Y5.559
X39.229 Y5.609
X39.331 Y5.672
X39.423 Y5.749
X39.505 Y5.838
X39.573 Y5.937
X39.628 Y6.044
X39.668 Y6.158
X39.692 Y6.275
X39.7 Y6.395
G3 X39.183 Y6.878 I-0.5 J-0.017
X38.867 Y6.751 I0.017 J-0.5
G1 X38.444 Y6.373
G3 X38.404 Y5.667 I0.333 J-0.373
X38.759 Y5.5 I0.373 J0.333
G1 X39.045
X39.14 Y5.502
X39.236 Y5.519
X39.305 Y5.541
X39.331 Y5.552
X39.378 Y5.576
X39.426 Y5.605
X39.467 Y5.637
X39.521 Y5.686
X39.563 Y5.732
X39.616 Y5.807
X39.628 Y5.827
X39.669 Y5.922
X39.692 Y6.018
X39.7 Y6.113
Y6.208
Y7.542
G3 X39.2 Y8.042 I-0.5 J0.
X38.751 Y7.762 I0. J-0.5
G1 X38.6 Y7.455
G3 X38.828 Y6.785 I0.449 J-0.22
X39.479 Y6.979 I0.22 J0.449
X39.7 Y7.732 I-1.36 J0.809
G1 Y10.114
G3 X39.2 Y10.614 I-0.5 J0.
X38.751 Y10.334 I0. J-0.5
G1 X38.6 Y10.027
G3 X38.828 Y9.357 I0.449 J-0.22
X39.479 Y9.551 I0.22 J0.449
X39.7 Y10.304 I-1.36 J0.809
G1 Y13.733
G3 X39.541 Y14.082 I-0.5 J-0.017
X39.183 Y14.216 I-0.341 J-0.366
G1 X39.096 Y14.213 Z-2.992
X39.012 Y14.21 Z-2.97
X38.933 Y14.207 Z-2.933
X38.862 Y14.204 Z-2.883
X38.8 Y14.202 Z-2.821
X38.75 Y14.201 Z-2.75
X38.713 Y14.199 Z-2.671
X38.691 Y14.198 Z-2.587
X38.683 Z-2.5
G0 Z5.
X5.977 Y17.489
Z-2.
G1 Z-2.5 F700
X5.973 Y17.482 Z-2.587
X5.961 Y17.463 Z-2.671
X5.943 Y17.431 Z-2.75
X5.917 Y17.388 Z-2.821
X5.886 Y17.335 Z-2.883
X5.849 Y17.274 Z-2.933
X5.809 Y17.206 Z-2.97
X5.766 Y17.134 Z-2.992
X5.721 Y17.059 Z-3.
G3 X5.5 Y16.305 I1.36 J-0.809
G1 Y12.495
X5.506 Y12.369
X5.511 Y12.244
X5.52 Y12.118
X5.532 Y11.993
X5.548 Y11.868
X5.567 Y11.744
X5.59 Y11.62
X5.616 Y11.497
X5.645 Y11.374
X5.676 Y11.252
X5.71 Y11.131
X5.747 Y11.011
X5.786 Y10.891
X5.827 Y10.773
X5.871 Y10.655
X5.917 Y10.537
X5.965 Y10.421
X6.014 Y10.305
X6.066 Y10.191
X6.12 Y10.077
X6.175 Y9.964
X6.232 Y9.852
X6.29 Y9.74
X6.351 Y9.63
X6.412 Y9.52
X6.475 Y9.411
X6.54 Y9.303
X6.606 Y9.196
X6.673 Y9.089
X6.741 Y8.984
X6.811 Y8.879
X6.882 Y8.775
X6.954 Y8.672
X7.028 Y8.57
X7.102 Y8.468
X7.177 Y8.368
X7.254 Y8.268
X7.332 Y8.169
X7.41 Y8.07
X7.49 Y7.973
X7.57 Y7.876
X7.651 Y7.78
X7.734 Y7.685
X7.817 Y7.59
X7.901 Y7.497
X7.985 Y7.404
X8.071 Y7.311
X8.157 Y7.22
X8.245 Y7.129
X8.333 Y7.039
X8.421 Y6.95
X8.511 Y6.862
X8.601 Y6.774
X8.692 Y6.687
X8.783 Y6.6
X8.876 Y6.515
X8.969 Y6.43
X9.062 Y6.346
X9.156 Y6.262
X9.251 Y6.18
X9.347 Y6.098
X9.443 Y6.016
X9.539 Y5.936
X9.636 Y5.856
X9.691 Y5.812
X9.786 Y5.741
X9.888 Y5.678
X9.994 Y5.625
X10.104 Y5.58
X10.218 Y5.545
X10.335 Y5.52
X10.453 Y5.505
X10.572 Y5.5
G3 X11.072 Y6. I0. J0.5
X10.994 Y6.267 I-0.5 J0.
G1 X6.574 Y13.26
G3 X5.884 Y13.416 I-0.423 J-0.267
X5.721 Y13.249 I0.267 J-0.423
X5.5 Y12.495 I1.36 J-0.809
G1 Y9.256
X5.506 Y9.131
X5.514 Y9.005
X5.527 Y8.88
X5.544 Y8.755
X5.564 Y8.631
X5.589 Y8.508
X5.617 Y8.385
X5.648 Y8.263
X5.682 Y8.142
X5.719 Y8.022
X5.759 Y7.902
X5.802 Y7.784
X5.848 Y7.667
X5.895 Y7.55
X5.946 Y7.435
X5.998 Y7.321
X6.053 Y7.207
X6.109 Y7.095
X6.168 Y6.983
X6.228 Y6.873
X6.29 Y6.764
X6.354 Y6.655
X6.42 Y6.548
X6.487 Y6.442
X6.556 Y6.336
X6.627 Y6.232
X6.698 Y6.129
X6.729 Y6.085
X6.804 Y5.99
X6.886 Y5.902
X6.976 Y5.821
X7.072 Y5.748
X7.175 Y5.684
X7.282 Y5.628
X7.394 Y5.583
X7.509 Y5.547
X7.627 Y5.521
X7.747 Y5.505
X7.868 Y5.5
G3 X8.35 Y6.017 I-0.017 J0.5
X8.285 Y6.248 I-0.5 J-0.017
G1 X6.434 Y9.487
G3 X5.752 Y9.673 I-0.434 J-0.248
X5.5 Y9.256 I0.248 J-0.434
G1 Y6.589
X5.506 Y6.463
X5.52 Y6.345
X5.548 Y6.229
X5.589 Y6.118
X5.642 Y6.011
X5.708 Y5.912
X5.784 Y5.821
X5.871 Y5.739
X5.967 Y5.668
X6.07 Y5.609
X6.179 Y5.562
X6.293 Y5.528
X6.41 Y5.507
X6.529 Y5.5
G3 X7.011 Y6.017 I-0.017 J0.5
X6.884 Y6.333 I-0.5 J-0.017
G1 X6.372 Y6.905
G3 X5.666 Y6.944 I-0.373 J-0.333
X5.5 Y6.589 I0.333 J-0.373
G1 Y6.113
X5.508 Y6.018
X5.53 Y5.922
X5.532 Y5.916
X5.569 Y5.827
X5.595 Y5.781
X5.627 Y5.735
X5.63 Y5.732
X5.671 Y5.684
X5.722 Y5.637
X5.723 Y5.636
X5.77 Y5.601
X5.818 Y5.572
X5.885 Y5.541
X5.913 Y5.531
X6.008 Y5.508
X6.103 Y5.5
X6.294
X6.297
X6.358 Y5.508
X6.42
X6.481 Y5.5
X6.484
X7.627
X7.63
X7.691 Y5.508
X7.753
X7.814 Y5.5
X7.817
X10.388
X14.386
G3 X14.735 Y5.659 I-0.017 J0.5
X14.869 Y6.017 I-0.366 J0.341
G1 X14.866 Y6.104 Z-2.992
X14.863 Y6.188 Z-2.97
X14.86 Y6.267 Z-2.933
X14.858 Y6.338 Z-2.883
X14.855 Y6.4 Z-2.821
X14.854 Y6.45 Z-2.75
X14.852 Y6.487 Z-2.671
Y6.509 Z-2.587
X14.851 Y6.517 Z-2.5
G0 Z5.
X39.223 Y24.838
Z-2.
G1 Z-2.5 F700
X39.227 Y24.845 Z-2.587
X39.239 Y24.864 Z-2.671
X39.257 Y24.896 Z-2.75
X39.283 Y24.939 Z-2.821
X39.314 Y24.992 Z-2.883
X39.351 Y25.053 Z-2.933
X39.391 Y25.121 Z-2.97
X39.434 Y25.193 Z-2.992
X39.479 Y25.268 Z-3.
G3 X39.7 Y26.022 I-1.36 J0.809
G1 Y31.356
X39.694 Y31.482
X39.69 Y31.607
X39.684 Y31.733
X39.674 Y31.858
X39.661 Y31.984
X39.645 Y32.108
X39.626 Y32.233
X39.605 Y32.357
X39.581 Y32.48
X39.555 Y32.604
X39.526 Y32.726
X39.495 Y32.848
X39.462 Y32.969
X39.427 Y33.09
X39.39 Y33.211
X39.351 Y33.33
X39.31 Y33.449
X39.267 Y33.567
X39.223 Y33.685
X39.177 Y33.802
X39.129 Y33.919
X39.08 Y34.034
X39.029 Y34.15
X38.977 Y34.264
X38.923 Y34.378
X38.868 Y34.491
X38.811 Y34.603
X38.754 Y34.715
X38.695 Y34.826
X38.634 Y34.937
X38.573 Y35.047
X38.51 Y35.156
X38.447 Y35.264
X38.382 Y35.372
X38.316 Y35.479
X38.249 Y35.586
X38.181 Y35.691
X38.111 Y35.797
X38.041 Y35.901
X37.97 Y36.005
X37.898 Y36.108
X37.825 Y36.211
X37.751 Y36.313
X37.677 Y36.414
X37.601 Y36.514
X37.525 Y36.614
X37.447 Y36.713
X37.369 Y36.812
X37.29 Y36.91
X37.21 Y37.007
X37.13 Y37.104
X37.048 Y37.2
X36.966 Y37.295
X36.883 Y37.39
X36.8 Y37.484
X36.715 Y37.577
X36.63 Y37.67
X36.545 Y37.762
X36.458 Y37.854
X36.371 Y37.944
X36.283 Y38.035
X36.195 Y38.124
X36.106 Y38.213
X36.016 Y38.301
X35.925 Y38.389
X35.834 Y38.476
X35.743 Y38.562
X35.651 Y38.647
X35.558 Y38.732
X35.464 Y38.817
X35.37 Y38.9
X35.276 Y38.983
X35.18 Y39.065
X35.085 Y39.147
X34.988 Y39.228
X34.892 Y39.308
X34.794 Y39.388
X34.696 Y39.467
X34.598 Y39.545
X34.499 Y39.623
X34.399 Y39.7
X34.299 Y39.776
X34.199 Y39.852
X34.098 Y39.927
X33.996 Y40.001
X33.894 Y40.075
X33.791 Y40.148
X33.688 Y40.22
X33.585 Y40.292
X33.481 Y40.363
X33.377 Y40.433
X33.272 Y40.503
X33.167 Y40.572
X33.061 Y40.64
X32.955 Y40.707
X32.848 Y40.774
X32.741 Y40.84
X32.633 Y40.906
X32.526 Y40.97
X32.417 Y41.035
X32.309 Y41.098
X32.199 Y41.161
X32.09 Y41.223
X31.98 Y41.284
X31.87 Y41.344
X31.759 Y41.404
X31.648 Y41.464
X31.537 Y41.522
X31.425 Y41.58
X31.313 Y41.637
X31.2 Y41.693
X31.087 Y41.749
X30.974 Y41.804
X30.861 Y41.858
X30.747 Y41.911
X30.632 Y41.964
X30.518 Y42.016
X30.403 Y42.068
X30.288 Y42.118
X30.172 Y42.168
X30.056 Y42.217
X29.94 Y42.266
X29.824 Y42.313
X29.707 Y42.36
X29.602 Y42.402
X29.502 Y42.437
X29.401 Y42.464
X29.297 Y42.484
X29.192 Y42.496
X29.087 Y42.5
X17.147
X17.022 Y42.494
X16.896 Y42.491
X16.77 Y42.486
X16.645 Y42.479
X16.519 Y42.471
X16.394 Y42.46
X16.269 Y42.447
X16.144 Y42.432
X16.019 Y42.415
X15.894 Y42.397
X15.77 Y42.377
X15.646 Y42.355
X15.523 Y42.332
X15.399 Y42.307
X15.276 Y42.28
X15.154 Y42.252
X15.031 Y42.223
X14.909 Y42.192
X14.787 Y42.16
X14.666 Y42.127
X14.545 Y42.092
X14.425 Y42.056
X14.304 Y42.019
X14.185 Y41.981
X14.065 Y41.941
X13.946 Y41.901
X13.827 Y41.859
X13.709 Y41.816
X13.591 Y41.772
X13.474 Y41.727
X13.357 Y41.68
X13.24 Y41.633
X13.124 Y41.585
X13.008 Y41.536
X12.893 Y41.486
X12.778 Y41.435
X12.663 Y41.382
X12.549 Y41.329
X12.435 Y41.276
X12.322 Y41.221
X12.209 Y41.165
X12.097 Y41.109
X11.985 Y41.051
X11.873 Y40.993
X11.762 Y40.934
X11.651 Y40.874
X11.541 Y40.813
X11.431 Y40.752
X11.322 Y40.689
X11.213 Y40.626
X11.105 Y40.562
X10.997 Y40.498
X10.889 Y40.432
X10.782 Y40.366
X10.676 Y40.299
X10.57 Y40.232
X10.464 Y40.163
X10.359 Y40.094
X10.254 Y40.024
X10.15 Y39.954
X10.046 Y39.883
X9.943 Y39.811
X9.84 Y39.738
X9.738 Y39.665
X9.636 Y39.591
X9.535 Y39.517
X9.434 Y39.441
X9.333 Y39.365
X9.233 Y39.289
X9.134 Y39.212
X9.035 Y39.134
X8.937 Y39.055
X8.839 Y38.976
X8.742 Y38.897
X8.645 Y38.816
X8.548 Y38.735
X8.453 Y38.654
X8.357 Y38.572
X8.262 Y38.489
X8.168 Y38.406
X8.074 Y38.322
X7.981 Y38.237
X7.889 Y38.152
X7.796 Y38.066
X7.705 Y37.98
X7.614 Y37.893
X7.523 Y37.806
X7.433 Y37.718
X7.344 Y37.63
X7.255 Y37.541
X7.166 Y37.451
X7.078 Y37.361
X6.991 Y37.27
X6.904 Y37.179
X6.818 Y37.087
X6.733 Y36.995
X6.648 Y36.902
X6.563 Y36.809
X6.479 Y36.715
X6.396 Y36.621
X6.313 Y36.526
X6.231 Y36.431
X6.149 Y36.335
X6.068 Y36.239
X5.988 Y36.142
X5.908 Y36.045
X5.829 Y35.947
X5.807 Y35.92
X5.737 Y35.825
X5.676 Y35.724
X5.623 Y35.618
X5.579 Y35.508
X5.545 Y35.395
X5.52 Y35.28
X5.505 Y35.163
