(1001)
(T7  D=1.5 CR=0. - ZMIN=-8.2 - flat end mill)
G90
G0 G53 Z0.

(2D Adaptive (base, finish))
T7 M6 (flat end mill D=1.5 1.5 mm Fishtail Upcut Endmill - Acrylic Max Pass Depth 0.8 mm)
S16000 M3
G64
G54
G43 H7
G0 X41.252 Y40.636
Z15.
Z5.
Z0.
G1 Z-0.5 F600
X41.256 Y40.643 Z-0.587
X41.267 Y40.662 Z-0.671
X41.286 Y40.694 Z-0.75
X41.312 Y40.737 Z-0.821
X41.343 Y40.79 Z-0.883
X41.38 Y40.851 Z-0.933
X41.42 Y40.919 Z-0.97
X41.463 Y40.991 Z-0.992
X41.507 Y41.066 Z-1.
G3 X41.95 Y42.573 I-2.721 J1.618
G1 Y43.596
X41.947 Y43.659
X41.94 Y43.722
X41.929 Y43.783
X41.914 Y43.845
X41.896 Y43.905
X41.875 Y43.964
X41.851 Y44.022
X41.825 Y44.079
X41.796 Y44.135
X41.765 Y44.19
X41.732 Y44.244
X41.697 Y44.296
X41.66 Y44.347
X41.621 Y44.396
X41.581 Y44.445
X41.539 Y44.492
X41.496 Y44.537
X41.451 Y44.582
X41.405 Y44.625
X41.358 Y44.666
X41.355 Y44.669
X41.306 Y44.703
X41.25 Y44.729
X41.192 Y44.745
X41.131 Y44.75
G3 X40.649 Y44.233 I0.017 J-0.5
X40.697 Y44.036 I0.5 J0.017
G1 X40.998 Y43.399
G3 X41.664 Y43.162 I0.452 J0.214
X41.95 Y43.596 I-0.214 J0.452
G1 Y44.271
Y44.296
Y44.307
X41.948 Y44.344
X41.94 Y44.407
X41.927 Y44.468
X41.919 Y44.496
X41.899 Y44.549
X41.871 Y44.598
X41.835 Y44.642
X41.793 Y44.679
X41.745 Y44.71
X41.693 Y44.732
X41.639 Y44.745
X41.582 Y44.75
G3 X41.281 Y44.635 I0.017 J-0.498
X41.228 Y44.061 I0.261 J-0.314
X41.803 Y44.007 I0.314 J0.261
X41.95 Y44.307 I-0.261 J0.314
G1 Y44.451
X41.949 Y44.496
X41.946 Y44.541
X41.934 Y44.586
X41.923 Y44.61
X41.912 Y44.631
X41.897 Y44.652
X41.878 Y44.674
X41.876 Y44.676
X41.854 Y44.695
X41.833 Y44.711
X41.815 Y44.721
X41.788 Y44.733
X41.766 Y44.74
X41.743 Y44.745
X41.698 Y44.749
X41.653 Y44.75
X39.854
G3 X39.505 Y44.591 I0.017 J-0.5
X39.371 Y44.233 I0.366 J-0.341
G1 X39.374 Y44.146 Z-0.992
X39.377 Y44.062 Z-0.97
X39.38 Y43.983 Z-0.933
X39.382 Y43.912 Z-0.883
X39.385 Y43.85 Z-0.821
X39.386 Y43.8 Z-0.75
X39.388 Y43.763 Z-0.671
Y43.741 Z-0.587
X39.389 Y43.733 Z-0.5
G0 Z5.
X7.369 Y44.052
Z0.
G1 Z-0.5 F600
X7.362 Y44.056 Z-0.587
X7.343 Y44.067 Z-0.671
X7.311 Y44.086 Z-0.75
X7.268 Y44.112 Z-0.821
X7.215 Y44.143 Z-0.883
X7.154 Y44.18 Z-0.933
X7.086 Y44.22 Z-0.97
X7.013 Y44.263 Z-0.992
X6.939 Y44.307 Z-1.
G3 X5.432 Y44.75 I-1.618 J-2.721
G1 X4.402
X4.339 Y44.747
X4.276 Y44.74
X4.214 Y44.729
X4.153 Y44.714
X4.093 Y44.696
X4.034 Y44.675
X3.976 Y44.651
X3.919 Y44.624
X3.863 Y44.595
X3.808 Y44.564
X3.755 Y44.531
X3.703 Y44.496
X3.652 Y44.459
X3.602 Y44.42
X3.554 Y44.38
X3.507 Y44.338
X3.461 Y44.295
X3.417 Y44.25
X3.374 Y44.204
X3.332 Y44.157
X3.331 Y44.156
X3.296 Y44.106
X3.271 Y44.051
X3.255 Y43.992
X3.25 Y43.932
G3 X3.767 Y43.449 I0.5 J0.017
X3.964 Y43.497 I-0.017 J0.5
G1 X4.599 Y43.799
G3 X4.836 Y44.465 I-0.214 J0.452
X4.402 Y44.75 I-0.452 J-0.214
G1 X3.727
X3.702
X3.691
X3.655 Y44.748
X3.593 Y44.74
X3.532 Y44.727
X3.504 Y44.719
X3.451 Y44.699
X3.402 Y44.671
X3.358 Y44.635
X3.321 Y44.593
X3.29 Y44.546
X3.268 Y44.494
X3.255 Y44.439
X3.25 Y44.383
G3 X3.364 Y44.083 I0.494 J0.017
X3.937 Y44.031 I0.312 J0.26
X3.989 Y44.604 I-0.26 J0.312
X3.691 Y44.75 I-0.312 J-0.26
G1 X3.547
X3.502 Y44.749
X3.457 Y44.745
X3.434 Y44.74
X3.412 Y44.733
X3.385 Y44.721
X3.367 Y44.711
X3.345 Y44.695
X3.324 Y44.676
X3.322 Y44.674
X3.303 Y44.653
X3.288 Y44.631
X3.277 Y44.61
X3.267 Y44.586
X3.259 Y44.564
X3.254 Y44.541
X3.251 Y44.496
X3.25 Y44.451
Y42.671
G3 X3.409 Y42.323 I0.5 J0.017
X3.767 Y42.189 I0.341 J0.366
G1 X3.854 Y42.192 Z-0.992
X3.938 Y42.195 Z-0.97
X4.017 Y42.198 Z-0.933
X4.088 Y42.2 Z-0.883
X4.15 Y42.203 Z-0.821
X4.2 Y42.204 Z-0.75
X4.237 Y42.206 Z-0.671
X4.259 Z-0.587
X4.267 Y42.207 Z-0.5
G0 Z5.
X3.948 Y7.368
Z0.
G1 Z-0.5 F600
X3.944 Y7.361 Z-0.587
X3.933 Y7.342 Z-0.671
X3.914 Y7.31 Z-0.75
X3.888 Y7.267 Z-0.821
X3.857 Y7.214 Z-0.883
X3.82 Y7.153 Z-0.933
X3.78 Y7.085 Z-0.97
X3.737 Y7.012 Z-0.992
X3.693 Y6.938 Z-1.
G3 X3.25 Y5.431 I2.721 J-1.618
G1 Y4.404
X3.253 Y4.341
X3.26 Y4.278
X3.271 Y4.217
X3.286 Y4.155
X3.304 Y4.095
X3.325 Y4.036
X3.349 Y3.978
X3.375 Y3.921
X3.404 Y3.865
X3.435 Y3.81
X3.468 Y3.756
X3.503 Y3.704
X3.54 Y3.653
X3.579 Y3.604
X3.619 Y3.555
X3.661 Y3.508
X3.704 Y3.463
X3.748 Y3.418
X3.794 Y3.375
X3.842 Y3.334
X3.844 Y3.331
X3.894 Y3.297
X3.949 Y3.271
X4.008 Y3.255
X4.069 Y3.25
G3 X4.551 Y3.767 I-0.017 J0.5
X4.503 Y3.964 I-0.5 J-0.017
G1 X4.202 Y4.6
G3 X3.536 Y4.838 I-0.452 J-0.214
X3.25 Y4.404 I0.214 J-0.452
G1 Y3.729
Y3.704
Y3.693
X3.252 Y3.655
X3.26 Y3.593
X3.273 Y3.531
X3.281 Y3.504
X3.301 Y3.451
X3.329 Y3.402
X3.365 Y3.358
X3.407 Y3.321
X3.455 Y3.29
X3.506 Y3.268
X3.561 Y3.255
X3.618 Y3.25
G3 X3.919 Y3.365 I-0.017 J0.498
X3.972 Y3.939 I-0.261 J0.314
X3.397 Y3.993 I-0.314 J-0.261
X3.25 Y3.693 I0.261 J-0.314
G1 Y3.549
X3.251 Y3.504
X3.254 Y3.459
X3.259 Y3.436
X3.267 Y3.414
X3.277 Y3.39
X3.288 Y3.369
X3.303 Y3.347
X3.322 Y3.326
X3.324 Y3.324
X3.345 Y3.305
X3.367 Y3.289
X3.385 Y3.279
X3.412 Y3.267
X3.434 Y3.26
X3.457 Y3.255
X3.502 Y3.251
X3.547 Y3.25
X5.346
G3 X5.829 Y3.767 I-0.017 J0.5
G1 X5.826 Y3.854 Z-0.992
X5.823 Y3.938 Z-0.97
X5.82 Y4.017 Z-0.933
X5.818 Y4.088 Z-0.883
X5.815 Y4.15 Z-0.821
X5.814 Y4.2 Z-0.75
X5.812 Y4.237 Z-0.671
Y4.259 Z-0.587
X5.811 Y4.267 Z-0.5
G0 Z5.
X37.831 Y3.948
Z0.
G1 Z-0.5 F600
X37.838 Y3.944 Z-0.587
X37.857 Y3.933 Z-0.671
X37.889 Y3.914 Z-0.75
X37.932 Y3.888 Z-0.821
X37.985 Y3.857 Z-0.883
X38.046 Y3.82 Z-0.933
X38.114 Y3.78 Z-0.97
X38.186 Y3.737 Z-0.992
X38.261 Y3.693 Z-1.
G3 X39.768 Y3.25 I1.618 J2.721
G1 X40.798
X40.861 Y3.253
X40.924 Y3.26
X40.986 Y3.271
X41.047 Y3.286
X41.107 Y3.304
X41.166 Y3.326
X41.224 Y3.35
X41.281 Y3.376
X41.337 Y3.405
X41.392 Y3.436
X41.445 Y3.469
X41.497 Y3.505
X41.548 Y3.542
X41.598 Y3.58
X41.646 Y3.621
X41.693 Y3.663
X41.738 Y3.706
X41.783 Y3.751
X41.826 Y3.797
X41.867 Y3.844
X41.869 Y3.846
X41.904 Y3.896
X41.929 Y3.951
X41.945 Y4.009
X41.95 Y4.07
G3 X41.433 Y4.552 I-0.5 J-0.017
X41.235 Y4.504 I0.017 J-0.5
G1 X40.601 Y4.201
G3 X40.364 Y3.534 I0.215 J-0.451
X40.798 Y3.25 I0.451 J0.215
G1 X41.473
X41.498
X41.504
X41.544 Y3.252
X41.606 Y3.26
X41.667 Y3.273
X41.696 Y3.281
X41.749 Y3.301
X41.798 Y3.329
X41.842 Y3.365
X41.879 Y3.407
X41.91 Y3.455
X41.932 Y3.507
X41.945 Y3.562
X41.95 Y3.618
G3 X41.835 Y3.921 I-0.504 J-0.018
X41.257 Y3.977 I-0.317 J-0.261
X41.202 Y3.399 I0.261 J-0.317
X41.504 Y3.25 I0.317 J0.261
G1 X41.653
X41.698 Y3.251
X41.743 Y3.255
X41.766 Y3.26
X41.788 Y3.267
X41.815 Y3.279
X41.833 Y3.289
X41.854 Y3.305
X41.876 Y3.324
X41.878 Y3.326
X41.897 Y3.348
X41.912 Y3.369
X41.923 Y3.39
X41.934 Y3.414
X41.946 Y3.459
X41.949 Y3.504
X41.95 Y3.549
Y5.349
G3 X41.791 Y5.697 I-0.5 J-0.017
X41.433 Y5.831 I-0.341 J-0.366
G1 X41.346 Y5.828 Z-0.992
X41.262 Y5.825 Z-0.97
X41.183 Y5.822 Z-0.933
X41.112 Y5.82 Z-0.883
X41.05 Y5.818 Z-0.821
X41. Y5.816 Z-0.75
X40.963 Y5.815 Z-0.671
X40.941 Y5.814 Z-0.587
X40.933 Z-0.5
G0 Z5.
X5.597 Y4.514
Z0.
G1 Z-0.5 F600
X5.596 Y4.506 Z-0.587
X5.59 Y4.484 Z-0.671
X5.581 Y4.449 Z-0.75
X5.568 Y4.4 Z-0.821
X5.553 Y4.341 Z-0.883
X5.535 Y4.272 Z-0.933
X5.516 Y4.195 Z-0.97
X5.495 Y4.113 Z-0.992
X5.473 Y4.029 Z-1.
G3 X5.362 Y3.252 I3.532 J-0.905
G1 Y3.25
G3 X5.844 Y3.767 I-0.017 J0.5
G1 X5.841 Y3.854 Z-0.992
X5.838 Y3.938 Z-0.97
X5.835 Y4.017 Z-0.933
X5.833 Y4.088 Z-0.883
X5.83 Y4.15 Z-0.821
X5.829 Y4.2 Z-0.75
X5.827 Y4.237 Z-0.671
Y4.259 Z-0.587
X5.826 Y4.267 Z-0.5
G0 Z5.
X4.514 Y42.412
Z0.
G1 Z-0.5 F600
X4.506 Y42.414 Z-0.587
X4.484 Y42.419 Z-0.671
X4.449 Y42.428 Z-0.75
X4.4 Y42.441 Z-0.821
X4.341 Y42.456 Z-0.883
X4.272 Y42.474 Z-0.933
X4.195 Y42.493 Z-0.97
X4.113 Y42.514 Z-0.992
X4.029 Y42.536 Z-1.
G3 X3.252 Y42.648 I-0.905 J-3.532
G1 X3.25
G3 X3.409 Y42.299 I0.5 J0.017
X3.767 Y42.165 I0.341 J0.366
G1 X3.854 Y42.168 Z-0.992
X3.938 Y42.171 Z-0.97
X4.017 Y42.174 Z-0.933
X4.088 Y42.177 Z-0.883
X4.15 Y42.179 Z-0.821
X4.2 Y42.18 Z-0.75
X4.237 Y42.182 Z-0.671
X4.259 Y42.183 Z-0.587
X4.267 Z-0.5
G0 Z5.
X39.6 Y43.486
Z0.
G1 Z-0.5 F600
X39.602 Y43.494 Z-0.587
X39.608 Y43.516 Z-0.671
X39.617 Y43.551 Z-0.75
X39.629 Y43.6 Z-0.821
X39.645 Y43.659 Z-0.883
X39.662 Y43.728 Z-0.933
X39.682 Y43.805 Z-0.97
X39.703 Y43.887 Z-0.992
X39.725 Y43.971 Z-1.
G3 X39.836 Y44.748 I-3.532 J0.905
G1 Y44.75
G3 X39.569 Y44.661 I0.017 J-0.5
G1 X39.522 Y44.613 Z-0.995
X39.476 Y44.565 Z-0.981
X39.432 Y44.519 Z-0.959
X39.405 Y44.449 Z-0.918
X39.381 Y44.387 Z-0.866
X39.361 Y44.334 Z-0.803
X39.358 Y44.299 Z-0.749
X39.356 Y44.271 Z-0.692
X39.354 Y44.25 Z-0.631
Y44.237 Z-0.566
Y44.233 Z-0.5
G0 Z5.
X41.252 Y40.636
Z-1.
G1 Z-1.5 F600
X41.256 Y40.643 Z-1.587
X41.267 Y40.662 Z-1.671
X41.286 Y40.694 Z-1.75
X41.312 Y40.737 Z-1.821
X41.343 Y40.79 Z-1.883
X41.38 Y40.851 Z-1.933
X41.42 Y40.919 Z-1.97
X41.463 Y40.991 Z-1.992
X41.507 Y41.066 Z-2.
G3 X41.95 Y42.573 I-2.721 J1.618
G1 Y43.596
X41.947 Y43.659
X41.94 Y43.722
X41.929 Y43.783
X41.914 Y43.845
X41.896 Y43.905
X41.875 Y43.964
X41.851 Y44.022
X41.825 Y44.079
X41.796 Y44.135
X41.765 Y44.19
X41.732 Y44.244
X41.697 Y44.296
X41.66 Y44.347
X41.621 Y44.396
X41.581 Y44.445
X41.539 Y44.492
X41.496 Y44.537
X41.451 Y44.582
X41.405 Y44.625
X41.358 Y44.666
X41.355 Y44.669
X41.306 Y44.703
X41.25 Y44.729
X41.192 Y44.745
X41.131 Y44.75
G3 X40.649 Y44.233 I0.017 J-0.5
X40.697 Y44.036 I0.5 J0.017
G1 X40.998 Y43.399
G3 X41.664 Y43.162 I0.452 J0.214
X41.95 Y43.596 I-0.214 J0.452
G1 Y44.271
Y44.296
Y44.307
X41.948 Y44.344
X41.94 Y44.407
X41.927 Y44.468
X41.919 Y44.496
X41.899 Y44.549
X41.871 Y44.598
X41.835 Y44.642
X41.793 Y44.679
X41.745 Y44.71
X41.693 Y44.732
X41.639 Y44.745
X41.582 Y44.75
G3 X41.281 Y44.635 I0.017 J-0.498
X41.228 Y44.061 I0.261 J-0.314
X41.803 Y44.007 I0.314 J0.261
X41.95 Y44.307 I-0.261 J0.314
G1 Y44.451
X41.949 Y44.496
X41.946 Y44.541
X41.934 Y44.586
X41.923 Y44.61
X41.912 Y44.631
X41.897 Y44.652
X41.878 Y44.674
X41.876 Y44.676
X41.854 Y44.695
X41.833 Y44.711
X41.815 Y44.721
X41.788 Y44.733
X41.766 Y44.74
X41.743 Y44.745
X41.698 Y44.749
X41.653 Y44.75
X39.854
G3 X39.505 Y44.591 I0.017 J-0.5
X39.371 Y44.233 I0.366 J-0.341
G1 X39.374 Y44.146 Z-1.992
X39.377 Y44.062 Z-1.97
X39.38 Y43.983 Z-1.933
X39.382 Y43.912 Z-1.883
X39.385 Y43.85 Z-1.821
X39.386 Y43.8 Z-1.75
X39.388 Y43.763 Z-1.671
Y43.741 Z-1.587
X39.389 Y43.733 Z-1.5
G0 Z5.
X7.369 Y44.052
Z-1.
G1 Z-1.5 F600
X7.362 Y44.056 Z-1.587
X7.343 Y44.067 Z-1.671
X7.311 Y44.086 Z-1.75
X7.268 Y44.112 Z-1.821
X7.215 Y44.143 Z-1.883
X7.154 Y44.18 Z-1.933
X7.086 Y44.22 Z-1.97
X7.013 Y44.263 Z-1.992
X6.939 Y44.307 Z-2.
G3 X5.432 Y44.75 I-1.618 J-2.721
G1 X4.402
X4.339 Y44.747
X4.276 Y44.74
X4.214 Y44.729
X4.153 Y44.714
X4.093 Y44.696
X4.034 Y44.675
X3.976 Y44.651
X3.919 Y44.624
X3.863 Y44.595
X3.808 Y44.564
X3.755 Y44.531
X3.703 Y44.496
X3.652 Y44.459
X3.602 Y44.42
X3.554 Y44.38
X3.507 Y44.338
X3.461 Y44.295
X3.417 Y44.25
X3.374 Y44.204
X3.332 Y44.157
X3.331 Y44.156
X3.296 Y44.106
X3.271 Y44.051
X3.255 Y43.992
X3.25 Y43.932
G3 X3.767 Y43.449 I0.5 J0.017
X3.964 Y43.497 I-0.017 J0.5
G1 X4.599 Y43.799
G3 X4.836 Y44.465 I-0.214 J0.452
X4.402 Y44.75 I-0.452 J-0.214
G1 X3.727
X3.702
X3.691
X3.655 Y44.748
X3.593 Y44.74
X3.532 Y44.727
X3.504 Y44.719
X3.451 Y44.699
X3.402 Y44.671
X3.358 Y44.635
X3.321 Y44.593
X3.29 Y44.546
X3.268 Y44.494
X3.255 Y44.439
X3.25 Y44.383
G3 X3.364 Y44.083 I0.494 J0.017
X3.937 Y44.031 I0.312 J0.26
X3.989 Y44.604 I-0.26 J0.312
X3.691 Y44.75 I-0.312 J-0.26
G1 X3.547
X3.502 Y44.749
X3.457 Y44.745
X3.434 Y44.74
X3.412 Y44.733
X3.385 Y44.721
X3.367 Y44.711
X3.345 Y44.695
X3.324 Y44.676
X3.322 Y44.674
X3.303 Y44.653
X3.288 Y44.631
X3.277 Y44.61
X3.267 Y44.586
X3.259 Y44.564
X3.254 Y44.541
X3.251 Y44.496
X3.25 Y44.451
Y42.671
G3 X3.409 Y42.323 I0.5 J0.017
X3.767 Y42.189 I0.341 J0.366
G1 X3.854 Y42.192 Z-1.992
X3.938 Y42.195 Z-1.97
X4.017 Y42.198 Z-1.933
X4.088 Y42.2 Z-1.883
X4.15 Y42.203 Z-1.821
X4.2 Y42.204 Z-1.75
X4.237 Y42.206 Z-1.671
X4.259 Z-1.587
X4.267 Y42.207 Z-1.5
G0 Z5.
X3.948 Y7.368
Z-1.
G1 Z-1.5 F600
X3.944 Y7.361 Z-1.587
X3.933 Y7.342 Z-1.671
X3.914 Y7.31 Z-1.75
X3.888 Y7.267 Z-1.821
X3.857 Y7.214 Z-1.883
X3.82 Y7.153 Z-1.933
X3.78 Y7.085 Z-1.97
X3.737 Y7.012 Z-1.992
X3.693 Y6.938 Z-2.
G3 X3.25 Y5.431 I2.721 J-1.618
G1 Y4.404
X3.253 Y4.341
X3.26 Y4.278
X3.271 Y4.217
X3.286 Y4.155
X3.304 Y4.095
X3.325 Y4.036
X3.349 Y3.978
X3.375 Y3.921
X3.404 Y3.865
X3.435 Y3.81
X3.468 Y3.756
X3.503 Y3.704
X3.54 Y3.653
X3.579 Y3.604
X3.619 Y3.555
X3.661 Y3.508
X3.704 Y3.463
X3.748 Y3.418
X3.794 Y3.375
X3.842 Y3.334
X3.844 Y3.331
X3.894 Y3.297
X3.949 Y3.271
X4.008 Y3.255
X4.069 Y3.25
G3 X4.551 Y3.767 I-0.017 J0.5
X4.503 Y3.964 I-0.5 J-0.017
G1 X4.202 Y4.6
G3 X3.536 Y4.838 I-0.452 J-0.214
X3.25 Y4.404 I0.214 J-0.452
G1 Y3.729
Y3.704
Y3.693
X3.252 Y3.655
X3.26 Y3.593
X3.273 Y3.531
X3.281 Y3.504
X3.301 Y3.451
X3.329 Y3.402
X3.365 Y3.358
X3.407 Y3.321
X3.455 Y3.29
X3.506 Y3.268
X3.561 Y3.255
X3.618 Y3.25
G3 X3.919 Y3.365 I-0.017 J0.498
X3.972 Y3.939 I-0.261 J0.314
X3.397 Y3.993 I-0.314 J-0.261
X3.25 Y3.693 I0.261 J-0.314
G1 Y3.549
X3.251 Y3.504
X3.254 Y3.459
X3.259 Y3.436
X3.267 Y3.414
X3.277 Y3.39
X3.288 Y3.369
X3.303 Y3.347
X3.322 Y3.326
X3.324 Y3.324
X3.345 Y3.305
X3.367 Y3.289
X3.385 Y3.279
X3.412 Y3.267
X3.434 Y3.26
X3.457 Y3.255
X3.502 Y3.251
X3.547 Y3.25
X5.346
G3 X5.829 Y3.767 I-0.017 J0.5
G1 X5.826 Y3.854 Z-1.992
X5.823 Y3.938 Z-1.97
X5.82 Y4.017 Z-1.933
X5.818 Y4.088 Z-1.883
X5.815 Y4.15 Z-1.821
X5.814 Y4.2 Z-1.75
X5.812 Y4.237 Z-1.671
Y4.259 Z-1.587
X5.811 Y4.267 Z-1.5
G0 Z5.
X37.831 Y3.948
Z-1.
G1 Z-1.5 F600
X37.838 Y3.944 Z-1.587
X37.857 Y3.933 Z-1.671
X37.889 Y3.914 Z-1.75
X37.932 Y3.888 Z-1.821
X37.985 Y3.857 Z-1.883
X38.046 Y3.82 Z-1.933
X38.114 Y3.78 Z-1.97
X38.186 Y3.737 Z-1.992
X38.261 Y3.693 Z-2.
G3 X39.768 Y3.25 I1.618 J2.721
G1 X40.798
X40.861 Y3.253
X40.924 Y3.26
X40.986 Y3.271
X41.047 Y3.286
X41.107 Y3.304
X41.166 Y3.326
X41.224 Y3.35
X41.281 Y3.376
X41.337 Y3.405
X41.392 Y3.436
X41.445 Y3.469
X41.497 Y3.505
X41.548 Y3.542
X41.598 Y3.58
X41.646 Y3.621
X41.693 Y3.663
X41.738 Y3.706
X41.783 Y3.751
X41.826 Y3.797
X41.867 Y3.844
X41.869 Y3.846
X41.904 Y3.896
X41.929 Y3.951
X41.945 Y4.009
X41.95 Y4.07
G3 X41.433 Y4.552 I-0.5 J-0.017
X41.235 Y4.504 I0.017 J-0.5
G1 X40.601 Y4.201
G3 X40.364 Y3.534 I0.215 J-0.451
X40.798 Y3.25 I0.451 J0.215
G1 X41.473
X41.498
X41.504
X41.544 Y3.252
X41.606 Y3.26
X41.667 Y3.273
X41.696 Y3.281
X41.749 Y3.301
X41.798 Y3.329
X41.842 Y3.365
X41.879 Y3.407
X41.91 Y3.455
X41.932 Y3.507
X41.945 Y3.562
X41.95 Y3.618
G3 X41.835 Y3.921 I-0.504 J-0.018
X41.257 Y3.977 I-0.317 J-0.261
X41.202 Y3.399 I0.261 J-0.317
X41.504 Y3.25 I0.317 J0.261
G1 X41.653
X41.698 Y3.251
X41.743 Y3.255
X41.766 Y3.26
X41.788 Y3.267
X41.815 Y3.279
X41.833 Y3.289
X41.854 Y3.305
X41.876 Y3.324
X41.878 Y3.326
X41.897 Y3.348
X41.912 Y3.369
X41.923 Y3.39
X41.934 Y3.414
X41.946 Y3.459
X41.949 Y3.504
X41.95 Y3.549
Y5.349
G3 X41.791 Y5.697 I-0.5 J-0.017
X41.433 Y5.831 I-0.341 J-0.366
G1 X41.346 Y5.828 Z-1.992
X41.262 Y5.825 Z-1.97
X41.183 Y5.822 Z-1.933
X41.112 Y5.82 Z-1.883
X41.05 Y5.818 Z-1.821
X41. Y5.816 Z-1.75
X40.963 Y5.815 Z-1.671
X40.941 Y5.814 Z-1.587
X40.933 Z-1.5
G0 Z5.
X5.597 Y4.514
Z-1.
G1 Z-1.5 F600
X5.596 Y4.506 Z-1.587
X5.59 Y4.484 Z-1.671
X5.581 Y4.449 Z-1.75
X5.568 Y4.4 Z-1.821
X5.553 Y4.341 Z-1.883
X5.535 Y4.272 Z-1.933
X5.516 Y4.195 Z-1.97
X5.495 Y4.113 Z-1.992
X5.473 Y4.029 Z-2.
G3 X5.362 Y3.252 I3.532 J-0.905
G1 Y3.25
G3 X5.844 Y3.767 I-0.017 J0.5
G1 X5.841 Y3.854 Z-1.992
X5.838 Y3.938 Z-1.97
X5.835 Y4.017 Z-1.933
X5.833 Y4.088 Z-1.883
X5.83 Y4.15 Z-1.821
X5.829 Y4.2 Z-1.75
X5.827 Y4.237 Z-1.671
Y4.259 Z-1.587
X5.826 Y4.267 Z-1.5
G0 Z5.
X4.514 Y42.412
Z-1.
G1 Z-1.5 F600
X4.506 Y42.414 Z-1.587
X4.484 Y42.419 Z-1.671
X4.449 Y42.428 Z-1.75
X4.4 Y42.441 Z-1.821
X4.341 Y42.456 Z-1.883
X4.272 Y42.474 Z-1.933
X4.195 Y42.493 Z-1.97
X4.113 Y42.514 Z-1.992
X4.029 Y42.536 Z-2.
G3 X3.252 Y42.648 I-0.905 J-3.532
G1 X3.25
G3 X3.409 Y42.299 I0.5 J0.017
X3.767 Y42.165 I0.341 J0.366
G1 X3.854 Y42.168 Z-1.992
X3.938 Y42.171 Z-1.97
X4.017 Y42.174 Z-1.933
X4.088 Y42.177 Z-1.883
X4.15 Y42.179 Z-1.821
X4.2 Y42.18 Z-1.75
X4.237 Y42.182 Z-1.671
X4.259 Y42.183 Z-1.587
X4.267 Z-1.5
G0 Z5.
X39.6 Y43.486
Z-1.
G1 Z-1.5 F600
X39.602 Y43.494 Z-1.587
X39.608 Y43.516 Z-1.671
X39.617 Y43.551 Z-1.75
X39.629 Y43.6 Z-1.821
X39.645 Y43.659 Z-1.883
X39.662 Y43.728 Z-1.933
X39.682 Y43.805 Z-1.97
X39.703 Y43.887 Z-1.992
X39.725 Y43.971 Z-2.
G3 X39.836 Y44.748 I-3.532 J0.905
G1 Y44.75
G3 X39.569 Y44.661 I0.017 J-0.5
G1 X39.522 Y44.613 Z-1.995
X39.476 Y44.565 Z-1.981
X39.432 Y44.519 Z-1.959
X39.405 Y44.449 Z-1.918
X39.381 Y44.387 Z-1.866
X39.361 Y44.334 Z-1.803
X39.358 Y44.299 Z-1.749
X39.356 Y44.271 Z-1.692
X39.354 Y44.25 Z-1.631
Y44.237 Z-1.566
Y44.233 Z-1.5
G0 Z5.
X41.252 Y40.636
Z-2.
G1 Z-2.5 F600
X41.256 Y40.643 Z-2.587
X41.267 Y40.662 Z-2.671
X41.286 Y40.694 Z-2.75
X41.312 Y40.737 Z-2.821
X41.343 Y40.79 Z-2.883
X41.38 Y40.851 Z-2.933
X41.42 Y40.919 Z-2.97
X41.463 Y40.991 Z-2.992
X41.507 Y41.066 Z-3.
G3 X41.95 Y42.573 I-2.721 J1.618
G1 Y43.596
X41.947 Y43.659
X41.94 Y43.722
X41.929 Y43.783
X41.914 Y43.845
X41.896 Y43.905
X41.875 Y43.964
X41.851 Y44.022
X41.825 Y44.079
X41.796 Y44.135
X41.765 Y44.19
X41.732 Y44.244
X41.697 Y44.296
X41.66 Y44.347
X41.621 Y44.396
X41.581 Y44.445
X41.539 Y44.492
X41.496 Y44.537
X41.451 Y44.582
X41.405 Y44.625
X41.358 Y44.666
X41.355 Y44.669
X41.306 Y44.703
X41.25 Y44.729
X41.192 Y44.745
X41.131 Y44.75
G3 X40.649 Y44.233 I0.017 J-0.5
X40.697 Y44.036 I0.5 J0.017
G1 X40.998 Y43.399
G3 X41.664 Y43.162 I0.452 J0.214
X41.95 Y43.596 I-0.214 J0.452
G1 Y44.271
Y44.296
Y44.307
X41.948 Y44.344
X41.94 Y44.407
X41.927 Y44.468
X41.919 Y44.496
X41.899 Y44.549
X41.871 Y44.598
X41.835 Y44.642
X41.793 Y44.679
X41.745 Y44.71
X41.693 Y44.732
X41.639 Y44.745
X41.582 Y44.75
G3 X41.281 Y44.635 I0.017 J-0.498
X41.228 Y44.061 I0.261 J-0.314
X41.803 Y44.007 I0.314 J0.261
X41.95 Y44.307 I-0.261 J0.314
G1 Y44.451
X41.949 Y44.496
X41.946 Y44.541
X41.934 Y44.586
X41.923 Y44.61
X41.912 Y44.631
X41.897 Y44.652
X41.878 Y44.674
X41.876 Y44.676
X41.854 Y44.695
X41.833 Y44.711
X41.815 Y44.721
X41.788 Y44.733
X41.766 Y44.74
X41.743 Y44.745
X41.698 Y44.749
X41.653 Y44.75
X39.854
G3 X39.505 Y44.591 I0.017 J-0.5
X39.371 Y44.233 I0.366 J-0.341
G1 X39.374 Y44.146 Z-2.992
X39.377 Y44.062 Z-2.97
X39.38 Y43.983 Z-2.933
X39.382 Y43.912 Z-2.883
X39.385 Y43.85 Z-2.821
X39.386 Y43.8 Z-2.75
X39.388 Y43.763 Z-2.671
Y43.741 Z-2.587
X39.389 Y43.733 Z-2.5
G0 Z5.
X7.369 Y44.052
Z-2.
G1 Z-2.5 F600
X7.362 Y44.056 Z-2.587
X7.343 Y44.067 Z-2.671
X7.311 Y44.086 Z-2.75
X7.268 Y44.112 Z-2.821
X7.215 Y44.143 Z-2.883
X7.154 Y44.18 Z-2.933
X7.086 Y44.22 Z-2.97
X7.013 Y44.263 Z-2.992
X6.939 Y44.307 Z-3.
G3 X5.432 Y44.75 I-1.618 J-2.721
G1 X4.402
X4.339 Y44.747
X4.276 Y44.74
X4.214 Y44.729
X4.153 Y44.714
X4.093 Y44.696
X4.034 Y44.675
X3.976 Y44.651
X3.919 Y44.624
X3.863 Y44.595
X3.808 Y44.564
X3.755 Y44.531
X3.703 Y44.496
X3.652 Y44.459
X3.602 Y44.42
X3.554 Y44.38
X3.507 Y44.338
X3.461 Y44.295
X3.417 Y44.25
X3.374 Y44.204
X3.332 Y44.157
X3.331 Y44.156
X3.296 Y44.106
X3.271 Y44.051
X3.255 Y43.992
X3.25 Y43.932
G3 X3.767 Y43.449 I0.5 J0.017
X3.964 Y43.497 I-0.017 J0.5
G1 X4.599 Y43.799
G3 X4.836 Y44.465 I-0.214 J0.452
X4.402 Y44.75 I-0.452 J-0.214
G1 X3.727
X3.702
X3.691
X3.655 Y44.748
X3.593 Y44.74
X3.532 Y44.727
X3.504 Y44.719
X3.451 Y44.699
X3.402 Y44.671
X3.358 Y44.635
X3.321 Y44.593
X3.29 Y44.546
X3.268 Y44.494
X3.255 Y44.439
X3.25 Y44.383
G3 X3.364 Y44.083 I0.494 J0.017
X3.937 Y44.031 I0.312 J0.26
X3.989 Y44.604 I-0.26 J0.312
X3.691 Y44.75 I-0.312 J-0.26
G1 X3.547
X3.502 Y44.749
X3.457 Y44.745
X3.434 Y44.74
X3.412 Y44.733
X3.385 Y44.721
X3.367 Y44.711
X3.345 Y44.695
X3.324 Y44.676
X3.322 Y44.674
X3.303 Y44.653
X3.288 Y44.631
X3.277 Y44.61
X3.267 Y44.586
X3.259 Y44.564
X3.254 Y44.541
X3.251 Y44.496
X3.25 Y44.451
Y42.671
G3 X3.409 Y42.323 I0.5 J0.017
X3.767 Y42.189 I0.341 J0.366
G1 X3.854 Y42.192 Z-2.992
X3.938 Y42.195 Z-2.97
X4.017 Y42.198 Z-2.933
X4.088 Y42.2 Z-2.883
X4.15 Y42.203 Z-2.821
X4.2 Y42.204 Z-2.75
X4.237 Y42.206 Z-2.671
X4.259 Z-2.587
X4.267 Y42.207 Z-2.5
G0 Z5.
X3.948 Y7.368
Z-2.
G1 Z-2.5 F600
X3.944 Y7.361 Z-2.587
X3.933 Y7.342 Z-2.671
X3.914 Y7.31 Z-2.75
X3.888 Y7.267 Z-2.821
X3.857 Y7.214 Z-2.883
X3.82 Y7.153 Z-2.933
X3.78 Y7.085 Z-2.97
X3.737 Y7.012 Z-2.992
X3.693 Y6.938 Z-3.
G3 X3.25 Y5.431 I2.721 J-1.618
G1 Y4.404
X3.253 Y4.341
X3.26 Y4.278
X3.271 Y4.217
X3.286 Y4.155
X3.304 Y4.095
X3.325 Y4.036
X3.349 Y3.978
X3.375 Y3.921
X3.404 Y3.865
X3.435 Y3.81
X3.468 Y3.756
X3.503 Y3.704
X3.54 Y3.653
X3.579 Y3.604
X3.619 Y3.555
X3.661 Y3.508
X3.704 Y3.463
X3.748 Y3.418
X3.794 Y3.375
X3.842 Y3.334
X3.844 Y3.331
X3.894 Y3.297
X3.949 Y3.271
X4.008 Y3.255
X4.069 Y3.25
G3 X4.551 Y3.767 I-0.017 J0.5
X4.503 Y3.964 I-0.5 J-0.017
G1 X4.202 Y4.6
G3 X3.536 Y4.838 I-0.452 J-0.214
X3.25 Y4.404 I0.214 J-0.452
G1 Y3.729
Y3.704
Y3.693
X3.252 Y3.655
X3.26 Y3.593
X3.273 Y3.531
X3.281 Y3.504
X3.301 Y3.451
X3.329 Y3.402
X3.365 Y3.358
X3.407 Y3.321
X3.455 Y3.29
X3.506 Y3.268
X3.561 Y3.255
X3.618 Y3.25
G3 X3.919 Y3.365 I-0.017 J0.498
X3.972 Y3.939 I-0.261 J0.314
X3.397 Y3.993 I-0.314 J-0.261
X3.25 Y3.693 I0.261 J-0.314
G1 Y3.549
X3.251 Y3.504
X3.254 Y3.459
X3.259 Y3.436
X3.267 Y3.414
X3.277 Y3.39
X3.288 Y3.369
X3.303 Y3.347
X3.322 Y3.326
X3.324 Y3.324
X3.345 Y3.305
X3.367 Y3.289
X3.385 Y3.279
X3.412 Y3.267
X3.434 Y3.26
X3.457 Y3.255
X3.502 Y3.251
X3.547 Y3.25
X5.346
G3 X5.829 Y3.767 I-0.017 J0.5
G1 X5.826 Y3.854 Z-2.992
X5.823 Y3.938 Z-2.97
X5.82 Y4.017 Z-2.933
X5.818 Y4.088 Z-2.883
X5.815 Y4.15 Z-2.821
X5.814 Y4.2 Z-2.75
X5.812 Y4.237 Z-2.671
Y4.259 Z-2.587
X5.811 Y4.267 Z-2.5
G0 Z5.
X37.831 Y3.948
Z-2.
G1 Z-2.5 F600
X37.838 Y3.944 Z-2.587
X37.857 Y3.933 Z-2.671
X37.889 Y3.914 Z-2.75
X37.932 Y3.888 Z-2.821
X37.985 Y3.857 Z-2.883
X38.046 Y3.82 Z-2.933
X38.114 Y3.78 Z-2.97
X38.186 Y3.737 Z-2.992
X38.261 Y3.693 Z-3.
G3 X39.768 Y3.25 I1.618 J2.721
G1 X40.798
X40.861 Y3.253
X40.924 Y3.26
X40.986 Y3.271
X41.047 Y3.286
X41.107 Y3.304
X41.166 Y3.326
X41.224 Y3.35
X41.281 Y3.376
X41.337 Y3.405
X41.392 Y3.436
X41.445 Y3.469
X41.497 Y3.505
X41.548 Y3.542
X41.598 Y3.58
X41.646 Y3.621
X41.693 Y3.663
X41.738 Y3.706
X41.783 Y3.751
X41.826 Y3.797
X41.867 Y3.844
X41.869 Y3.846
X41.904 Y3.896
X41.929 Y3.951
X41.945 Y4.009
X41.95 Y4.07
G3 X41.433 Y4.552 I-0.5 J-0.017
X41.235 Y4.504 I0.017 J-0.5
G1 X40.601 Y4.201
G3 X40.364 Y3.534 I0.215 J-0.451
X40.798 Y3.25 I0.451 J0.215
G1 X41.473
X41.498
X41.504
X41.544 Y3.252
X41.606 Y3.26
X41.667 Y3.273
X41.696 Y3.281
X41.749 Y3.301
X41.798 Y3.329
X41.842 Y3.365
X41.879 Y3.407
X41.91 Y3.455
X41.932 Y3.507
X41.945 Y3.562
X41.95 Y3.618
G3 X41.835 Y3.921 I-0.504 J-0.018
X41.257 Y3.977 I-0.317 J-0.261
X41.202 Y3.399 I0.261 J-0.317
X41.504 Y3.25 I0.317 J0.261
G1 X41.653
X41.698 Y3.251
X41.743 Y3.255
X41.766 Y3.26
X41.788 Y3.267
X41.815 Y3.279
X41.833 Y3.289
X41.854 Y3.305
X41.876 Y3.324
X41.878 Y3.326
X41.897 Y3.348
X41.912 Y3.369
X41.923 Y3.39
X41.934 Y3.414
X41.946 Y3.459
X41.949 Y3.504
X41.95 Y3.549
Y5.349
G3 X41.791 Y5.697 I-0.5 J-0.017
X41.433 Y5.831 I-0.341 J-0.366
G1 X41.346 Y5.828 Z-2.992
X41.262 Y5.825 Z-2.97
X41.183 Y5.822 Z-2.933
X41.112 Y5.82 Z-2.883
X41.05 Y5.818 Z-2.821
X41. Y5.816 Z-2.75
X40.963 Y5.815 Z-2.671
X40.941 Y5.814 Z-2.587
X40.933 Z-2.5
G0 Z5.
X5.597 Y4.514
Z-2.
G1 Z-2.5 F600
X5.596 Y4.506 Z-2.587
X5.59 Y4.484 Z-2.671
X5.581 Y4.449 Z-2.75
X5.568 Y4.4 Z-2.821
X5.553 Y4.341 Z-2.883
X5.535 Y4.272 Z-2.933
X5.516 Y4.195 Z-2.97
X5.495 Y4.113 Z-2.992
X5.473 Y4.029 Z-3.
G3 X5.362 Y3.252 I3.532 J-0.905
G1 Y3.25
G3 X5.844 Y3.767 I-0.017 J0.5
G1 X5.841 Y3.854 Z-2.992
X5.838 Y3.938 Z-2.97
X5.835 Y4.017 Z-2.933
X5.833 Y4.088 Z-2.883
X5.83 Y4.15 Z-2.821
X5.829 Y4.2 Z-2.75
X5.827 Y4.237 Z-2.671
Y4.259 Z-2.587
X5.826 Y4.267 Z-2.5
G0 Z5.
X4.514 Y42.412
Z-2.
G1 Z-2.5 F600
X4.506 Y42.414 Z-2.587
X4.484 Y42.419 Z-2.671
X4.449 Y42.428 Z-2.75
X4.4 Y42.441 Z-2.821
X4.341 Y42.456 Z-2.883
X4.272 Y42.474 Z-2.933
X4.195 Y42.493 Z-2.97
X4.113 Y42.514 Z-2.992
X4.029 Y42.536 Z-3.
G3 X3.252 Y42.648 I-0.905 J-3.532
G1 X3.25
G3 X3.409 Y42.299 I0.5 J0.017
X3.767 Y42.165 I0.341 J0.366
G1 X3.854 Y42.168 Z-2.992
X3.938 Y42.171 Z-2.97
X4.017 Y42.174 Z-2.933
X4.088 Y42.177 Z-2.883
X4.15 Y42.179 Z-2.821
X4.2 Y42.18 Z-2.75
X4.237 Y42.182 Z-2.671
X4.259 Y42.183 Z-2.587
X4.267 Z-2.5
G0 Z5.
X39.6 Y43.486
Z-2.
G1 Z-2.5 F600
X39.602 Y43.494 Z-2.587
X39.608 Y43.516 Z-2.671
X39.617 Y43.551 Z-2.75
X39.629 Y43.6 Z-2.821
X39.645 Y43.659 Z-2.883
X39.662 Y43.728 Z-2.933
X39.682 Y43.805 Z-2.97
X39.703 Y43.887 Z-2.992
X39.725 Y43.971 Z-3.
G3 X39.836 Y44.748 I-3.532 J0.905
G1 Y44.75
G3 X39.569 Y44.661 I0.017 J-0.5
G1 X39.522 Y44.613 Z-2.995
X39.476 Y44.565 Z-2.981
X39.432 Y44.519 Z-2.959
X39.405 Y44.449 Z-2.918
X39.381 Y44.387 Z-2.866
X39.361 Y44.334 Z-2.803
X39.358 Y44.299 Z-2.749
X39.356 Y44.271 Z-2.692
X39.354 Y44.25 Z-2.631
Y44.237 Z-2.566
Y44.233 Z-2.5
G0 Z5.
X41.252 Y40.636
Z-3.
G1 Z-3.5 F600
X41.256 Y40.643 Z-3.587
X41.267 Y40.662 Z-3.671
X41.286 Y40.694 Z-3.75
X41.312 Y40.737 Z-3.821
X41.343 Y40.79 Z-3.883
X41.38 Y40.851 Z-3.933
X41.42 Y40.919 Z-3.97
X41.463 Y40.991 Z-3.992
X41.507 Y41.066 Z-4.
G3 X41.95 Y42.573 I-2.721 J1.618
G1 Y43.596
X41.947 Y43.659
X41.94 Y43.722
X41.929 Y43.783
X41.914 Y43.845
X41.896 Y43.905
X41.875 Y43.964
X41.851 Y44.022
X41.825 Y44.079
X41.796 Y44.135
X41.765 Y44.19
X41.732 Y44.244
X41.697 Y44.296
X41.66 Y44.347
X41.621 Y44.396
X41.581 Y44.445
X41.539 Y44.492
X41.496 Y44.537
X41.451 Y44.582
X41.405 Y44.625
X41.358 Y44.666
X41.355 Y44.669
X41.306 Y44.703
X41.25 Y44.729
X41.192 Y44.745
X41.131 Y44.75
G3 X40.649 Y44.233 I0.017 J-0.5
X40.697 Y44.036 I0.5 J0.017
G1 X40.998 Y43.399
G3 X41.664 Y43.162 I0.452 J0.214
X41.95 Y43.596 I-0.214 J0.452
G1 Y44.271
Y44.296
Y44.307
X41.948 Y44.344
X41.94 Y44.407
X41.927 Y44.468
X41.919 Y44.496
X41.899 Y44.549
X41.871 Y44.598
X41.835 Y44.642
X41.793 Y44.679
X41.745 Y44.71
X41.693 Y44.732
X41.639 Y44.745
X41.582 Y44.75
G3 X41.281 Y44.635 I0.017 J-0.498
X41.228 Y44.061 I0.261 J-0.314
X41.803 Y44.007 I0.314 J0.261
X41.95 Y44.307 I-0.261 J0.314
G1 Y44.451
X41.949 Y44.496
X41.946 Y44.541
X41.934 Y44.586
X41.923 Y44.61
X41.912 Y44.631
X41.897 Y44.652
X41.878 Y44.674
X41.876 Y44.676
X41.854 Y44.695
X41.833 Y44.711
X41.815 Y44.721
X41.788 Y44.733
X41.766 Y44.74
X41.743 Y44.745
X41.698 Y44.749
X41.653 Y44.75
X39.854
G3 X39.505 Y44.591 I0.017 J-0.5
X39.371 Y44.233 I0.366 J-0.341
G1 X39.374 Y44.146 Z-3.992
X39.377 Y44.062 Z-3.97
X39.38 Y43.983 Z-3.933
X39.382 Y43.912 Z-3.883
X39.385 Y43.85 Z-3.821
X39.386 Y43.8 Z-3.75
X39.388 Y43.763 Z-3.671
Y43.741 Z-3.587
X39.389 Y43.733 Z-3.5
G0 Z5.
X7.369 Y44.052
Z-3.
G1 Z-3.5 F600
X7.362 Y44.056 Z-3.587
X7.343 Y44.067 Z-3.671
X7.311 Y44.086 Z-3.75
X7.268 Y44.112 Z-3.821
X7.215 Y44.143 Z-3.883
X7.154 Y44.18 Z-3.933
X7.086 Y44.22 Z-3.97
X7.013 Y44.263 Z-3.992
X6.939 Y44.307 Z-4.
G3 X5.432 Y44.75 I-1.618 J-2.721
G1 X4.402
X4.339 Y44.747
X4.276 Y44.74
X4.214 Y44.729
X4.153 Y44.714
X4.093 Y44.696
X4.034 Y44.675
X3.976 Y44.651
X3.919 Y44.624
X3.863 Y44.595
X3.808 Y44.564
X3.755 Y44.531
X3.703 Y44.496
X3.652 Y44.459
X3.602 Y44.42
X3.554 Y44.38
X3.507 Y44.338
X3.461 Y44.295
X3.417 Y44.25
X3.374 Y44.204
X3.332 Y44.157
X3.331 Y44.156
X3.296 Y44.106
X3.271 Y44.051
X3.255 Y43.992
X3.25 Y43.932
G3 X3.767 Y43.449 I0.5 J0.017
X3.964 Y43.497 I-0.017 J0.5
G1 X4.599 Y43.799
G3 X4.836 Y44.465 I-0.214 J0.452
X4.402 Y44.75 I-0.452 J-0.214
G1 X3.727
X3.702
X3.691
X3.655 Y44.748
X3.593 Y44.74
X3.532 Y44.727
X3.504 Y44.719
X3.451 Y44.699
X3.402 Y44.671
X3.358 Y44.635
X3.321 Y44.593
X3.29 Y44.546
X3.268 Y44.494
X3.255 Y44.439
X3.25 Y44.383
G3 X3.364 Y44.083 I0.494 J0.017
X3.937 Y44.031 I0.312 J0.26
X3.989 Y44.604 I-0.26 J0.312
X3.691 Y44.75 I-0.312 J-0.26
G1 X3.547
X3.502 Y44.749
X3.457 Y44.745
X3.434 Y44.74
X3.412 Y44.733
X3.385 Y44.721
X3.367 Y44.711
X3.345 Y44.695
X3.324 Y44.676
X3.322 Y44.674
X3.303 Y44.653
X3.288 Y44.631
X3.277 Y44.61
X3.267 Y44.586
X3.259 Y44.564
X3.254 Y44.541
X3.251 Y44.496
X3.25 Y44.451
Y42.671
G3 X3.409 Y42.323 I0.5 J0.017
X3.767 Y42.189 I0.341 J0.366
G1 X3.854 Y42.192 Z-3.992
X3.938 Y42.195 Z-3.97
X4.017 Y42.198 Z-3.933
X4.088 Y42.2 Z-3.883
X4.15 Y42.203 Z-3.821
X4.2 Y42.204 Z-3.75
X4.237 Y42.206 Z-3.671
X4.259 Z-3.587
X4.267 Y42.207 Z-3.5
G0 Z5.
X3.948 Y7.368
Z-3.
G1 Z-3.5 F600
X3.944 Y7.361 Z-3.587
X3.933 Y7.342 Z-3.671
X3.914 Y7.31 Z-3.75
X3.888 Y7.267 Z-3.821
X3.857 Y7.214 Z-3.883
X3.82 Y7.153 Z-3.933
X3.78 Y7.085 Z-3.97
X3.737 Y7.012 Z-3.992
X3.693 Y6.938 Z-4.
G3 X3.25 Y5.431 I2.721 J-1.618
G1 Y4.404
X3.253 Y4.341
X3.26 Y4.278
X3.271 Y4.217
X3.286 Y4.155
X3.304 Y4.095
X3.325 Y4.036
X3.349 Y3.978
X3.375 Y3.921
X3.404 Y3.865
X3.435 Y3.81
X3.468 Y3.756
X3.503 Y3.704
X3.54 Y3.653
X3.579 Y3.604
X3.619 Y3.555
X3.661 Y3.508
X3.704 Y3.463
X3.748 Y3.418
X3.794 Y3.375
X3.842 Y3.334
X3.844 Y3.331
X3.894 Y3.297
X3.949 Y3.271
X4.008 Y3.255
X4.069 Y3.25
G3 X4.551 Y3.767 I-0.017 J0.5
X4.503 Y3.964 I-0.5 J-0.017
G1 X4.202 Y4.6
G3 X3.536 Y4.838 I-0.452 J-0.214
X3.25 Y4.404 I0.214 J-0.452
G1 Y3.729
Y3.704
Y3.693
X3.252 Y3.655
X3.26 Y3.593
X3.273 Y3.531
X3.281 Y3.504
X3.301 Y3.451
X3.329 Y3.402
X3.365 Y3.358
X3.407 Y3.321
X3.455 Y3.29
X3.506 Y3.268
X3.561 Y3.255
X3.618 Y3.25
G3 X3.919 Y3.365 I-0.017 J0.498
X3.972 Y3.939 I-0.261 J0.314
X3.397 Y3.993 I-0.314 J-0.261
X3.25 Y3.693 I0.261 J-0.314
G1 Y3.549
X3.251 Y3.504
X3.254 Y3.459
X3.259 Y3.436
X3.267 Y3.414
X3.277 Y3.39
X3.288 Y3.369
X3.303 Y3.347
X3.322 Y3.326
X3.324 Y3.324
X3.345 Y3.305
X3.367 Y3.289
X3.385 Y3.279
X3.412 Y3.267
X3.434 Y3.26
X3.457 Y3.255
X3.502 Y3.251
X3.547 Y3.25
X5.346
G3 X5.829 Y3.767 I-0.017 J0.5
G1 X5.826 Y3.854 Z-3.992
X5.823 Y3.938 Z-3.97
X5.82 Y4.017 Z-3.933
X5.818 Y4.088 Z-3.883
X5.815 Y4.15 Z-3.821
X5.814 Y4.2 Z-3.75
X5.812 Y4.237 Z-3.671
Y4.259 Z-3.587
X5.811 Y4.267 Z-3.5
G0 Z5.
X37.831 Y3.948
Z-3.
G1 Z-3.5 F600
X37.838 Y3.944 Z-3.587
X37.857 Y3.933 Z-3.671
X37.889 Y3.914 Z-3.75
X37.932 Y3.888 Z-3.821
X37.985 Y3.857 Z-3.883
X38.046 Y3.82 Z-3.933
X38.114 Y3.78 Z-3.97
X38.186 Y3.737 Z-3.992
X38.261 Y3.693 Z-4.
G3 X39.768 Y3.25 I1.618 J2.721
G1 X40.798
X40.861 Y3.253
X40.924 Y3.26
X40.986 Y3.271
X41.047 Y3.286
X41.107 Y3.304
X41.166 Y3.326
X41.224 Y3.35
X41.281 Y3.376
X41.337 Y3.405
X41.392 Y3.436
X41.445 Y3.469
X41.497 Y3.505
X41.548 Y3.542
X41.598 Y3.58
X41.646 Y3.621
X41.693 Y3.663
X41.738 Y3.706
X41.783 Y3.751
X41.826 Y3.797
X41.867 Y3.844
X41.869 Y3.846
X41.904 Y3.896
X41.929 Y3.951
X41.945 Y4.009
X41.95 Y4.07
G3 X41.433 Y4.552 I-0.5 J-0.017
X41.235 Y4.504 I0.017 J-0.5
G1 X40.601 Y4.201
G3 X40.364 Y3.534 I0.215 J-0.451
X40.798 Y3.25 I0.451 J0.215
G1 X41.473
X41.498
X41.504
X41.544 Y3.252
X41.606 Y3.26
X41.667 Y3.273
X41.696 Y3.281
X41.749 Y3.301
X41.798 Y3.329
X41.842 Y3.365
X41.879 Y3.407
X41.91 Y3.455
X41.932 Y3.507
X41.945 Y3.562
X41.95 Y3.618
G3 X41.835 Y3.921 I-0.504 J-0.018
X41.257 Y3.977 I-0.317 J-0.261
X41.202 Y3.399 I0.261 J-0.317
X41.504 Y3.25 I0.317 J0.261
G1 X41.653
X41.698 Y3.251
X41.743 Y3.255
X41.766 Y3.26
X41.788 Y3.267
X41.815 Y3.279
X41.833 Y3.289
X41.854 Y3.305
X41.876 Y3.324
X41.878 Y3.326
X41.897 Y3.348
X41.912 Y3.369
X41.923 Y3.39
X41.934 Y3.414
X41.946 Y3.459
X41.949 Y3.504
X41.95 Y3.549
Y5.349
G3 X41.791 Y5.697 I-0.5 J-0.017
X41.433 Y5.831 I-0.341 J-0.366
G1 X41.346 Y5.828 Z-3.992
X41.262 Y5.825 Z-3.97
X41.183 Y5.822 Z-3.933
X41.112 Y5.82 Z-3.883
X41.05 Y5.818 Z-3.821
X41. Y5.816 Z-3.75
X40.963 Y5.815 Z-3.671
X40.941 Y5.814 Z-3.587
X40.933 Z-3.5
G0 Z5.
X5.597 Y4.514
Z-3.
G1 Z-3.5 F600
X5.596 Y4.506 Z-3.587
X5.59 Y4.484 Z-3.671
X5.581 Y4.449 Z-3.75
X5.568 Y4.4 Z-3.821
X5.553 Y4.341 Z-3.883
X5.535 Y4.272 Z-3.933
X5.516 Y4.195 Z-3.97
X5.495 Y4.113 Z-3.992
X5.473 Y4.029 Z-4.
G3 X5.362 Y3.252 I3.532 J-0.905
G1 Y3.25
G3 X5.844 Y3.767 I-0.017 J0.5
G1 X5.841 Y3.854 Z-3.992
X5.838 Y3.938 Z-3.97
X5.835 Y4.017 Z-3.933
X5.833 Y4.088 Z-3.883
X5.83 Y4.15 Z-3.821
X5.829 Y4.2 Z-3.75
X5.827 Y4.237 Z-3.671
Y4.259 Z-3.587
X5.826 Y4.267 Z-3.5
G0 Z5.
X4.514 Y42.412
Z-3.
G1 Z-3.5 F600
X4.506 Y42.414 Z-3.587
X4.484 Y42.419 Z-3.671
X4.449 Y42.428 Z-3.75
X4.4 Y42.441 Z-3.821
X4.341 Y42.456 Z-3.883
X4.272 Y42.474 Z-3.933
X4.195 Y42.493 Z-3.97
X4.113 Y42.514 Z-3.992
X4.029 Y42.536 Z-4.
G3 X3.252 Y42.648 I-0.905 J-3.532
G1 X3.25
G3 X3.409 Y42.299 I0.5 J0.017
X3.767 Y42.165 I0.341 J0.366
G1 X3.854 Y42.168 Z-3.992
X3.938 Y42.171 Z-3.97
X4.017 Y42.174 Z-3.933
X4.088 Y42.177 Z-3.883
X4.15 Y42.179 Z-3.821
X4.2 Y42.18 Z-3.75
X4.237 Y42.182 Z-3.671
X4.259 Y42.183 Z-3.587
X4.267 Z-3.5
G0 Z5.
X39.6 Y43.486
Z-3.
G1 Z-3.5 F600
X39.602 Y43.494 Z-3.587
X39.608 Y43.516 Z-3.671
X39.617 Y43.551 Z-3.75
X39.629 Y43.6 Z-3.821
X39.645 Y43.659 Z-3.883
X39.662 Y43.728 Z-3.933
X39.682 Y43.805 Z-3.97
X39.703 Y43.887 Z-3.992
X39.725 Y43.971 Z-4.
G3 X39.836 Y44.748 I-3.532 J0.905
G1 Y44.75
G3 X39.569 Y44.661 I0.017 J-0.5
G1 X39.522 Y44.613 Z-3.995
X39.476 Y44.565 Z-3.981
X39.432 Y44.519 Z-3.959
X39.405 Y44.449 Z-3.918
X39.381 Y44.387 Z-3.866
X39.361 Y44.334 Z-3.803
X39.358 Y44.299 Z-3.749
X39.356 Y44.271 Z-3.692
X39.354 Y44.25 Z-3.631
Y44.237 Z-3.566
Y44.233 Z-3.5
G0 Z5.
X41.252 Y40.636
Z-4.
G1 Z-4.5 F600
X41.256 Y40.643 Z-4.587
X41.267 Y40.662 Z-4.671
X41.286 Y40.694 Z-4.75
X41.312 Y40.737 Z-4.821
X41.343 Y40.79 Z-4.883
X41.38 Y40.851 Z-4.933
X41.42 Y40.919 Z-4.97
X41.463 Y40.991 Z-4.992
X41.507 Y41.066 Z-5.
G3 X41.95 Y42.573 I-2.721 J1.618
G1 Y43.596
X41.947 Y43.659
X41.94 Y43.722
X41.929 Y43.783
X41.914 Y43.845
X41.896 Y43.905
X41.875 Y43.964
X41.851 Y44.022
X41.825 Y44.079
X41.796 Y44.135
X41.765 Y44.19
X41.732 Y44.244
X41.697 Y44.296
X41.66 Y44.347
X41.621 Y44.396
X41.581 Y44.445
X41.539 Y44.492
X41.496 Y44.537
X41.451 Y44.582
X41.405 Y44.625
X41.358 Y44.666
X41.355 Y44.669
X41.306 Y44.703
X41.25 Y44.729
X41.192 Y44.745
X41.131 Y44.75
G3 X40.649 Y44.233 I0.017 J-0.5
X40.697 Y44.036 I0.5 J0.017
G1 X40.998 Y43.399
G3 X41.664 Y43.162 I0.452 J0.214
X41.95 Y43.596 I-0.214 J0.452
G1 Y44.271
Y44.296
Y44.307
X41.948 Y44.344
X41.94 Y44.407
X41.927 Y44.468
X41.919 Y44.496
X41.899 Y44.549
X41.871 Y44.598
X41.835 Y44.642
X41.793 Y44.679
X41.745 Y44.71
X41.693 Y44.732
X41.639 Y44.745
X41.582 Y44.75
G3 X41.281 Y44.635 I0.017 J-0.498
X41.228 Y44.061 I0.261 J-0.314
X41.803 Y44.007 I0.314 J0.261
X41.95 Y44.307 I-0.261 J0.314
G1 Y44.451
X41.949 Y44.496
X41.946 Y44.541
X41.934 Y44.586
X41.923 Y44.61
X41.912 Y44.631
X41.897 Y44.652
X41.878 Y44.674
X41.876 Y44.676
X41.854 Y44.695
X41.833 Y44.711
X41.815 Y44.721
X41.788 Y44.733
X41.766 Y44.74
X41.743 Y44.745
X41.698 Y44.749
X41.653 Y44.75
X39.854
G3 X39.505 Y44.591 I0.017 J-0.5
X39.371 Y44.233 I0.366 J-0.341
G1 X39.374 Y44.146 Z-4.992
X39.377 Y44.062 Z-4.97
X39.38 Y43.983 Z-4.933
X39.382 Y43.912 Z-4.883
X39.385 Y43.85 Z-4.821
X39.386 Y43.8 Z-4.75
X39.388 Y43.763 Z-4.671
Y43.741 Z-4.587
X39.389 Y43.733 Z-4.5
G0 Z5.
X7.369 Y44.052
Z-4.
G1 Z-4.5 F600
X7.362 Y44.056 Z-4.587
X7.343 Y44.067 Z-4.671
X7.311 Y44.086 Z-4.75
X7.268 Y44.112 Z-4.821
X7.215 Y44.143 Z-4.883
X7.154 Y44.18 Z-4.933
X7.086 Y44.22 Z-4.97
X7.013 Y44.263 Z-4.992
X6.939 Y44.307 Z-5.
G3 X5.432 Y44.75 I-1.618 J-2.721
G1 X4.402
X4.339 Y44.747
X4.276 Y44.74
X4.214 Y44.729
X4.153 Y44.714
X4.093 Y44.696
X4.034 Y44.675
X3.976 Y44.651
X3.919 Y44.624
X3.863 Y44.595
X3.808 Y44.564
X3.755 Y44.531
X3.703 Y44.496
X3.652 Y44.459
X3.602 Y44.42
X3.554 Y44.38
X3.507 Y44.338
X3.461 Y44.295
X3.417 Y44.25
X3.374 Y44.204
X3.332 Y44.157
X3.331 Y44.156
X3.296 Y44.106
X3.271 Y44.051
X3.255 Y43.992
X3.25 Y43.932
G3 X3.767 Y43.449 I0.5 J0.017
X3.964 Y43.497 I-0.017 J0.5
G1 X4.599 Y43.799
G3 X4.836 Y44.465 I-0.214 J0.452
X4.402 Y44.75 I-0.452 J-0.214
G1 X3.727
X3.702
X3.691
X3.655 Y44.748
X3.593 Y44.74
X3.532 Y44.727
X3.504 Y44.719
X3.451 Y44.699
X3.402 Y44.671
X3.358 Y44.635
X3.321 Y44.593
X3.29 Y44.546
X3.268 Y44.494
X3.255 Y44.439
X3.25 Y44.383
G3 X3.364 Y44.083 I0.494 J0.017
X3.937 Y44.031 I0.312 J0.26
X3.989 Y44.604 I-0.26 J0.312
X3.691 Y44.75 I-0.312 J-0.26
G1 X3.547
X3.502 Y44.749
X3.457 Y44.745
X3.434 Y44.74
X3.412 Y44.733
X3.385 Y44.721
X3.367 Y44.711
X3.345 Y44.695
X3.324 Y44.676
X3.322 Y44.674
X3.303 Y44.653
X3.288 Y44.631
X3.277 Y44.61
X3.267 Y44.586
X3.259 Y44.564
X3.254 Y44.541
X3.251 Y44.496
X3.25 Y44.451
Y42.671
G3 X3.409 Y42.323 I0.5 J0.017
X3.767 Y42.189 I0.341 J0.366
G1 X3.854 Y42.192 Z-4.992
X3.938 Y42.195 Z-4.97
X4.017 Y42.198 Z-4.933
X4.088 Y42.2 Z-4.883
X4.15 Y42.203 Z-4.821
X4.2 Y42.204 Z-4.75
X4.237 Y42.206 Z-4.671
X4.259 Z-4.587
X4.267 Y42.207 Z-4.5
G0 Z5.
X3.948 Y7.368
Z-4.
G1 Z-4.5 F600
X3.944 Y7.361 Z-4.587
X3.933 Y7.342 Z-4.671
X3.914 Y7.31 Z-4.75
X3.888 Y7.267 Z-4.821
X3.857 Y7.214 Z-4.883
X3.82 Y7.153 Z-4.933
X3.78 Y7.085 Z-4.97
X3.737 Y7.012 Z-4.992
X3.693 Y6.938 Z-5.
G3 X3.25 Y5.431 I2.721 J-1.618
G1 Y4.404
X3.253 Y4.341
X3.26 Y4.278
X3.271 Y4.217
X3.286 Y4.155
X3.304 Y4.095
X3.325 Y4.036
X3.349 Y3.978
X3.375 Y3.921
X3.404 Y3.865
X3.435 Y3.81
X3.468 Y3.756
X3.503 Y3.704
X3.54 Y3.653
X3.579 Y3.604
X3.619 Y3.555
X3.661 Y3.508
X3.704 Y3.463
X3.748 Y3.418
X3.794 Y3.375
X3.842 Y3.334
X3.844 Y3.331
X3.894 Y3.297
X3.949 Y3.271
X4.008 Y3.255
X4.069 Y3.25
G3 X4.551 Y3.767 I-0.017 J0.5
X4.503 Y3.964 I-0.5 J-0.017
G1 X4.202 Y4.6
G3 X3.536 Y4.838 I-0.452 J-0.214
X3.25 Y4.404 I0.214 J-0.452
G1 Y3.729
Y3.704
Y3.693
X3.252 Y3.655
X3.26 Y3.593
X3.273 Y3.531
X3.281 Y3.504
X3.301 Y3.451
X3.329 Y3.402
X3.365 Y3.358
X3.407 Y3.321
X3.455 Y3.29
X3.506 Y3.268
X3.561 Y3.255
X3.618 Y3.25
G3 X3.919 Y3.365 I-0.017 J0.498
X3.972 Y3.939 I-0.261 J0.314
X3.397 Y3.993 I-0.314 J-0.261
X3.25 Y3.693 I0.261 J-0.314
G1 Y3.549
X3.251 Y3.504
X3.254 Y3.459
X3.259 Y3.436
X3.267 Y3.414
X3.277 Y3.39
X3.288 Y3.369
X3.303 Y3.347
X3.322 Y3.326
X3.324 Y3.324
X3.345 Y3.305
X3.367 Y3.289
X3.385 Y3.279
X3.412 Y3.267
X3.434 Y3.26
X3.457 Y3.255
X3.502 Y3.251
X3.547 Y3.25
X5.346
G3 X5.829 Y3.767 I-0.017 J0.5
G1 X5.826 Y3.854 Z-4.992
X5.823 Y3.938 Z-4.97
X5.82 Y4.017 Z-4.933
X5.818 Y4.088 Z-4.883
X5.815 Y4.15 Z-4.821
X5.814 Y4.2 Z-4.75
X5.812 Y4.237 Z-4.671
Y4.259 Z-4.587
X5.811 Y4.267 Z-4.5
G0 Z5.
X37.831 Y3.948
Z-4.
G1 Z-4.5 F600
X37.838 Y3.944 Z-4.587
X37.857 Y3.933 Z-4.671
X37.889 Y3.914 Z-4.75
X37.932 Y3.888 Z-4.821
X37.985 Y3.857 Z-4.883
X38.046 Y3.82 Z-4.933
X38.114 Y3.78 Z-4.97
X38.186 Y3.737 Z-4.992
X38.261 Y3.693 Z-5.
G3 X39.768 Y3.25 I1.618 J2.721
G1 X40.798
X40.861 Y3.253
X40.924 Y3.26
X40.986 Y3.271
X41.047 Y3.286
X41.107 Y3.304
X41.166 Y3.326
X41.224 Y3.35
X41.281 Y3.376
X41.337 Y3.405
X41.392 Y3.436
X41.445 Y3.469
X41.497 Y3.505
X41.548 Y3.542
X41.598 Y3.58
X41.646 Y3.621
X41.693 Y3.663
X41.738 Y3.706
X41.783 Y3.751
X41.826 Y3.797
X41.867 Y3.844
X41.869 Y3.846
X41.904 Y3.896
X41.929 Y3.951
X41.945 Y4.009
X41.95 Y4.07
G3 X41.433 Y4.552 I-0.5 J-0.017
X41.235 Y4.504 I0.017 J-0.5
G1 X40.601 Y4.201
G3 X40.364 Y3.534 I0.215 J-0.451
X40.798 Y3.25 I0.451 J0.215
G1 X41.473
X41.498
X41.504
X41.544 Y3.252
X41.606 Y3.26
X41.667 Y3.273
X41.696 Y3.281
X41.749 Y3.301
X41.798 Y3.329
X41.842 Y3.365
X41.879 Y3.407
X41.91 Y3.455
X41.932 Y3.507
X41.945 Y3.562
X41.95 Y3.618
G3 X41.835 Y3.921 I-0.504 J-0.018
X41.257 Y3.977 I-0.317 J-0.261
X41.202 Y3.399 I0.261 J-0.317
X41.504 Y3.25 I0.317 J0.261
G1 X41.653
X41.698 Y3.251
X41.743 Y3.255
X41.766 Y3.26
X41.788 Y3.267
X41.815 Y3.279
X41.833 Y3.289
X41.854 Y3.305
X41.876 Y3.324
X41.878 Y3.326
X41.897 Y3.348
X41.912 Y3.369
X41.923 Y3.39
X41.934 Y3.414
X41.946 Y3.459
X41.949 Y3.504
X41.95 Y3.549
Y5.349
G3 X41.791 Y5.697 I-0.5 J-0.017
X41.433 Y5.831 I-0.341 J-0.366
G1 X41.346 Y5.828 Z-4.992
X41.262 Y5.825 Z-4.97
X41.183 Y5.822 Z-4.933
X41.112 Y5.82 Z-4.883
X41.05 Y5.818 Z-4.821
X41. Y5.816 Z-4.75
X40.963 Y5.815 Z-4.671
X40.941 Y5.814 Z-4.587
X40.933 Z-4.5
G0 Z5.
X5.597 Y4.514
Z-4.
G1 Z-4.5 F600
X5.596 Y4.506 Z-4.587
X5.59 Y4.484 Z-4.671
X5.581 Y4.449 Z-4.75
X5.568 Y4.4 Z-4.821
X5.553 Y4.341 Z-4.883
X5.535 Y4.272 Z-4.933
X5.516 Y4.195 Z-4.97
X5.495 Y4.113 Z-4.992
X5.473 Y4.029 Z-5.
G3 X5.362 Y3.252 I3.532 J-0.905
G1 Y3.25
G3 X5.844 Y3.767 I-0.017 J0.5
G1 X5.841 Y3.854 Z-4.992
X5.838 Y3.938 Z-4.97
X5.835 Y4.017 Z-4.933
X5.833 Y4.088 Z-4.883
X5.83 Y4.15 Z-4.821
X5.829 Y4.2 Z-4.75
X5.827 Y4.237 Z-4.671
Y4.259 Z-4.587
X5.826 Y4.267 Z-4.5
G0 Z5.
X4.514 Y42.412
Z-4.
G1 Z-4.5 F600
X4.506 Y42.414 Z-4.587
X4.484 Y42.419 Z-4.671
X4.449 Y42.428 Z-4.75
X4.4 Y42.441 Z-4.821
X4.341 Y42.456 Z-4.883
X4.272 Y42.474 Z-4.933
X4.195 Y42.493 Z-4.97
X4.113 Y42.514 Z-4.992
X4.029 Y42.536 Z-5.
G3 X3.252 Y42.648 I-0.905 J-3.532
G1 X3.25
G3 X3.409 Y42.299 I0.5 J0.017
X3.767 Y42.165 I0.341 J0.366
G1 X3.854 Y42.168 Z-4.992
X3.938 Y42.171 Z-4.97
X4.017 Y42.174 Z-4.933
X4.088 Y42.177 Z-4.883
X4.15 Y42.179 Z-4.821
X4.2 Y42.18 Z-4.75
X4.237 Y42.182 Z-4.671
X4.259 Y42.183 Z-4.587
X4.267 Z-4.5
G0 Z5.
X39.6 Y43.486
Z-4.
G1 Z-4.5 F600
X39.602 Y43.494 Z-4.587
X39.608 Y43.516 Z-4.671
X39.617 Y43.551 Z-4.75
X39.629 Y43.6 Z-4.821
X39.645 Y43.659 Z-4.883
X39.662 Y43.728 Z-4.933
X39.682 Y43.805 Z-4.97
X39.703 Y43.887 Z-4.992
X39.725 Y43.971 Z-5.
G3 X39.836 Y44.748 I-3.532 J0.905
G1 Y44.75
G3 X39.569 Y44.661 I0.017 J-0.5
G1 X39.522 Y44.613 Z-4.995
X39.476 Y44.565 Z-4.981
X39.432 Y44.519 Z-4.959
X39.405 Y44.449 Z-4.918
X39.381 Y44.387 Z-4.866
X39.361 Y44.334 Z-4.803
X39.358 Y44.299 Z-4.749
X39.356 Y44.271 Z-4.692
X39.354 Y44.25 Z-4.631
Y44.237 Z-4.566
Y44.233 Z-4.5
G0 Z5.
X41.252 Y40.636
Z-5.
G1 Z-5.5 F600
X41.256 Y40.643 Z-5.587
X41.267 Y40.662 Z-5.671
X41.286 Y40.694 Z-5.75
X41.312 Y40.737 Z-5.821
X41.343 Y40.79 Z-5.883
X41.38 Y40.851 Z-5.933
X41.42 Y40.919 Z-5.97
X41.463 Y40.991 Z-5.992
X41.507 Y41.066 Z-6.
G3 X41.95 Y42.573 I-2.721 J1.618
G1 Y43.596
X41.947 Y43.659
X41.94 Y43.722
X41.929 Y43.783
X41.914 Y43.845
X41.896 Y43.905
X41.875 Y43.964
X41.851 Y44.022
X41.825 Y44.079
X41.796 Y44.135
X41.765 Y44.19
X41.732 Y44.244
X41.697 Y44.296
X41.66 Y44.347
X41.621 Y44.396
X41.581 Y44.445
X41.539 Y44.492
X41.496 Y44.537
X41.451 Y44.582
X41.405 Y44.625
X41.358 Y44.666
X41.355 Y44.669
X41.306 Y44.703
X41.25 Y44.729
X41.192 Y44.745
X41.131 Y44.75
G3 X40.649 Y44.233 I0.017 J-0.5
X40.697 Y44.036 I0.5 J0.017
G1 X40.998 Y43.399
G3 X41.664 Y43.162 I0.452 J0.214
X41.95 Y43.596 I-0.214 J0.452
G1 Y44.271
Y44.296
Y44.307
X41.948 Y44.344
X41.94 Y44.407
X41.927 Y44.468
X41.919 Y44.496
X41.899 Y44.549
X41.871 Y44.598
X41.835 Y44.642
X41.793 Y44.679
X41.745 Y44.71
X41.693 Y44.732
X41.639 Y44.745
X41.582 Y44.75
G3 X41.281 Y44.635 I0.017 J-0.498
X41.228 Y44.061 I0.261 J-0.314
X41.803 Y44.007 I0.314 J0.261
X41.95 Y44.307 I-0.261 J0.314
G1 Y44.451
X41.949 Y44.496
X41.946 Y44.541
X41.934 Y44.586
X41.923 Y44.61
X41.912 Y44.631
X41.897 Y44.652
X41.878 Y44.674
X41.876 Y44.676
X41.854 Y44.695
X41.833 Y44.711
X41.815 Y44.721
X41.788 Y44.733
X41.766 Y44.74
X41.743 Y44.745
X41.698 Y44.749
X41.653 Y44.75
X39.854
G3 X39.505 Y44.591 I0.017 J-0.5
X39.371 Y44.233 I0.366 J-0.341
G1 X39.374 Y44.146 Z-5.992
X39.377 Y44.062 Z-5.97
X39.38 Y43.983 Z-5.933
X39.382 Y43.912 Z-5.883
X39.385 Y43.85 Z-5.821
X39.386 Y43.8 Z-5.75
X39.388 Y43.763 Z-5.671
Y43.741 Z-5.587
X39.389 Y43.733 Z-5.5
G0 Z5.
X7.369 Y44.052
Z-5.
G1 Z-5.5 F600
X7.362 Y44.056 Z-5.587
X7.343 Y44.067 Z-5.671
X7.311 Y44.086 Z-5.75
X7.268 Y44.112 Z-5.821
X7.215 Y44.143 Z-5.883
X7.154 Y44.18 Z-5.933
X7.086 Y44.22 Z-5.97
X7.013 Y44.263 Z-5.992
X6.939 Y44.307 Z-6.
G3 X5.432 Y44.75 I-1.618 J-2.721
G1 X4.402
X4.339 Y44.747
X4.276 Y44.74
X4.214 Y44.729
X4.153 Y44.714
X4.093 Y44.696
X4.034 Y44.675
X3.976 Y44.651
X3.919 Y44.624
X3.863 Y44.595
X3.808 Y44.564
X3.755 Y44.531
X3.703 Y44.496
X3.652 Y44.459
X3.602 Y44.42
X3.554 Y44.38
X3.507 Y44.338
X3.461 Y44.295
X3.417 Y44.25
X3.374 Y44.204
X3.332 Y44.157
X3.331 Y44.156
X3.296 Y44.106
X3.271 Y44.051
X3.255 Y43.992
X3.25 Y43.932
G3 X3.767 Y43.449 I0.5 J0.017
X3.964 Y43.497 I-0.017 J0.5
G1 X4.599 Y43.799
G3 X4.836 Y44.465 I-0.214 J0.452
X4.402 Y44.75 I-0.452 J-0.214
G1 X3.727
X3.702
X3.691
X3.655 Y44.748
X3.593 Y44.74
X3.532 Y44.727
X3.504 Y44.719
X3.451 Y44.699
X3.402 Y44.671
X3.358 Y44.635
X3.321 Y44.593
X3.29 Y44.546
X3.268 Y44.494
X3.255 Y44.439
X3.25 Y44.383
G3 X3.364 Y44.083 I0.494 J0.017
X3.937 Y44.031 I0.312 J0.26
X3.989 Y44.604 I-0.26 J0.312
X3.691 Y44.75 I-0.312 J-0.26
G1 X3.547
X3.502 Y44.749
X3.457 Y44.745
X3.434 Y44.74
X3.412 Y44.733
X3.385 Y44.721
X3.367 Y44.711
X3.345 Y44.695
X3.324 Y44.676
X3.322 Y44.674
X3.303 Y44.653
X3.288 Y44.631
X3.277 Y44.61
X3.267 Y44.586
X3.259 Y44.564
X3.254 Y44.541
X3.251 Y44.496
X3.25 Y44.451
Y42.671
G3 X3.409 Y42.323 I0.5 J0.017
X3.767 Y42.189 I0.341 J0.366
G1 X3.854 Y42.192 Z-5.992
X3.938 Y42.195 Z-5.97
X4.017 Y42.198 Z-5.933
X4.088 Y42.2 Z-5.883
X4.15 Y42.203 Z-5.821
X4.2 Y42.204 Z-5.75
X4.237 Y42.206 Z-5.671
X4.259 Z-5.587
X4.267 Y42.207 Z-5.5
G0 Z5.
X3.948 Y7.368
Z-5.
G1 Z-5.5 F600
X3.944 Y7.361 Z-5.587
X3.933 Y7.342 Z-5.671
X3.914 Y7.31 Z-5.75
X3.888 Y7.267 Z-5.821
X3.857 Y7.214 Z-5.883
X3.82 Y7.153 Z-5.933
X3.78 Y7.085 Z-5.97
X3.737 Y7.012 Z-5.992
X3.693 Y6.938 Z-6.
G3 X3.25 Y5.431 I2.721 J-1.618
G1 Y4.404
X3.253 Y4.341
X3.26 Y4.278
X3.271 Y4.217
X3.286 Y4.155
X3.304 Y4.095
X3.325 Y4.036
X3.349 Y3.978
X3.375 Y3.921
X3.404 Y3.865
X3.435 Y3.81
X3.468 Y3.756
X3.503 Y3.704
X3.54 Y3.653
X3.579 Y3.604
X3.619 Y3.555
X3.661 Y3.508
X3.704 Y3.463
X3.748 Y3.418
X3.794 Y3.375
X3.842 Y3.334
X3.844 Y3.331
X3.894 Y3.297
X3.949 Y3.271
X4.008 Y3.255
X4.069 Y3.25
G3 X4.551 Y3.767 I-0.017 J0.5
X4.503 Y3.964 I-0.5 J-0.017
G1 X4.202 Y4.6
G3 X3.536 Y4.838 I-0.452 J-0.214
X3.25 Y4.404 I0.214 J-0.452
G1 Y3.729
Y3.704
Y3.693
X3.252 Y3.655
X3.26 Y3.593
X3.273 Y3.531
X3.281 Y3.504
X3.301 Y3.451
X3.329 Y3.402
X3.365 Y3.358
X3.407 Y3.321
X3.455 Y3.29
X3.506 Y3.268
X3.561 Y3.255
X3.618 Y3.25
G3 X3.919 Y3.365 I-0.017 J0.498
X3.972 Y3.939 I-0.261 J0.314
X3.397 Y3.993 I-0.314 J-0.261
X3.25 Y3.693 I0.261 J-0.314
G1 Y3.549
X3.251 Y3.504
X3.254 Y3.459
X3.259 Y3.436
X3.267 Y3.414
X3.277 Y3.39
X3.288 Y3.369
X3.303 Y3.347
X3.322 Y3.326
X3.324 Y3.324
X3.345 Y3.305
X3.367 Y3.289
X3.385 Y3.279
X3.412 Y3.267
X3.434 Y3.26
X3.457 Y3.255
X3.502 Y3.251
X3.547 Y3.25
X5.346
G3 X5.829 Y3.767 I-0.017 J0.5
G1 X5.826 Y3.854 Z-5.992
X5.823 Y3.938 Z-5.97
X5.82 Y4.017 Z-5.933
X5.818 Y4.088 Z-5.883
X5.815 Y4.15 Z-5.821
X5.814 Y4.2 Z-5.75
X5.812 Y4.237 Z-5.671
Y4.259 Z-5.587
X5.811 Y4.267 Z-5.5
G0 Z5.
X37.831 Y3.948
Z-5.
G1 Z-5.5 F600
X37.838 Y3.944 Z-5.587
X37.857 Y3.933 Z-5.671
X37.889 Y3.914 Z-5.75
X37.932 Y3.888 Z-5.821
X37.985 Y3.857 Z-5.883
X38.046 Y3.82 Z-5.933
X38.114 Y3.78 Z-5.97
X38.186 Y3.737 Z-5.992
X38.261 Y3.693 Z-6.
G3 X39.768 Y3.25 I1.618 J2.721
G1 X40.798
X40.861 Y3.253
X40.924 Y3.26
X40.986 Y3.271
X41.047 Y3.286
X41.107 Y3.304
X41.166 Y3.326
X41.224 Y3.35
X41.281 Y3.376
X41.337 Y3.405
X41.392 Y3.436
X41.445 Y3.469
X41.497 Y3.505
X41.548 Y3.542
X41.598 Y3.58
X41.646 Y3.621
X41.693 Y3.663
X41.738 Y3.706
X41.783 Y3.751
X41.826 Y3.797
X41.867 Y3.844
X41.869 Y3.846
X41.904 Y3.896
X41.929 Y3.951
X41.945 Y4.009
X41.95 Y4.07
G3 X41.433 Y4.552 I-0.5 J-0.017
X41.235 Y4.504 I0.017 J-0.5
G1 X40.601 Y4.201
G3 X40.364 Y3.534 I0.215 J-0.451
X40.798 Y3.25 I0.451 J0.215
G1 X41.473
X41.498
X41.504
X41.544 Y3.252
X41.606 Y3.26
X41.667 Y3.273
X41.696 Y3.281
X41.749 Y3.301
X41.798 Y3.329
X41.842 Y3.365
X41.879 Y3.407
X41.91 Y3.455
X41.932 Y3.507
X41.945 Y3.562
X41.95 Y3.618
G3 X41.835 Y3.921 I-0.504 J-0.018
X41.257 Y3.977 I-0.317 J-0.261
X41.202 Y3.399 I0.261 J-0.317
X41.504 Y3.25 I0.317 J0.261
G1 X41.653
X41.698 Y3.251
X41.743 Y3.255
X41.766 Y3.26
X41.788 Y3.267
X41.815 Y3.279
X41.833 Y3.289
X41.854 Y3.305
X41.876 Y3.324
X41.878 Y3.326
X41.897 Y3.348
X41.912 Y3.369
X41.923 Y3.39
X41.934 Y3.414
X41.946 Y3.459
X41.949 Y3.504
X41.95 Y3.549
Y5.349
G3 X41.791 Y5.697 I-0.5 J-0.017
X41.433 Y5.831 I-0.341 J-0.366
G1 X41.346 Y5.828 Z-5.992
X41.262 Y5.825 Z-5.97
X41.183 Y5.822 Z-5.933
X41.112 Y5.82 Z-5.883
X41.05 Y5.818 Z-5.821
X41. Y5.816 Z-5.75
X40.963 Y5.815 Z-5.671
X40.941 Y5.814 Z-5.587
X40.933 Z-5.5
G0 Z5.
X5.597 Y4.514
Z-5.
G1 Z-5.5 F600
X5.596 Y4.506 Z-5.587
X5.59 Y4.484 Z-5.671
X5.581 Y4.449 Z-5.75
X5.568 Y4.4 Z-5.821
X5.553 Y4.341 Z-5.883
X5.535 Y4.272 Z-5.933
X5.516 Y4.195 Z-5.97
X5.495 Y4.113 Z-5.992
X5.473 Y4.029 Z-6.
G3 X5.362 Y3.252 I3.532 J-0.905
G1 Y3.25
G3 X5.844 Y3.767 I-0.017 J0.5
G1 X5.841 Y3.854 Z-5.992
X5.838 Y3.938 Z-5.97
X5.835 Y4.017 Z-5.933
X5.833 Y4.088 Z-5.883
X5.83 Y4.15 Z-5.821
X5.829 Y4.2 Z-5.75
X5.827 Y4.237 Z-5.671
Y4.259 Z-5.587
X5.826 Y4.267 Z-5.5
G0 Z5.
X4.514 Y42.412
Z-5.
G1 Z-5.5 F600
X4.506 Y42.414 Z-5.587
X4.484 Y42.419 Z-5.671
X4.449 Y42.428 Z-5.75
X4.4 Y42.441 Z-5.821
X4.341 Y42.456 Z-5.883
X4.272 Y42.474 Z-5.933
X4.195 Y42.493 Z-5.97
X4.113 Y42.514 Z-5.992
X4.029 Y42.536 Z-6.
G3 X3.252 Y42.648 I-0.905 J-3.532
G1 X3.25
G3 X3.409 Y42.299 I0.5 J0.017
X3.767 Y42.165 I0.341 J0.366
G1 X3.854 Y42.168 Z-5.992
X3.938 Y42.171 Z-5.97
X4.017 Y42.174 Z-5.933
X4.088 Y42.177 Z-5.883
X4.15 Y42.179 Z-5.821
X4.2 Y42.18 Z-5.75
X4.237 Y42.182 Z-5.671
X4.259 Y42.183 Z-5.587
X4.267 Z-5.5
G0 Z5.
X39.6 Y43.486
Z-5.
G1 Z-5.5 F600
X39.602 Y43.494 Z-5.587
X39.608 Y43.516 Z-5.671
X39.617 Y43.551 Z-5.75
X39.629 Y43.6 Z-5.821
X39.645 Y43.659 Z-5.883
X39.662 Y43.728 Z-5.933
X39.682 Y43.805 Z-5.97
X39.703 Y43.887 Z-5.992
X39.725 Y43.971 Z-6.
G3 X39.836 Y44.748 I-3.532 J0.905
G1 Y44.75
G3 X39.569 Y44.661 I0.017 J-0.5
G1 X39.522 Y44.613 Z-5.995
X39.476 Y44.565 Z-5.981
X39.432 Y44.519 Z-5.959
X39.405 Y44.449 Z-5.918
X39.381 Y44.387 Z-5.866
X39.361 Y44.334 Z-5.803
X39.358 Y44.299 Z-5.749
X39.356 Y44.271 Z-5.692
X39.354 Y44.25 Z-5.631
Y44.237 Z-5.566
Y44.233 Z-5.5
G0 Z5.
X41.252 Y40.636
Z-6.
G1 Z-6.5 F600
X41.256 Y40.643 Z-6.587
X41.267 Y40.662 Z-6.671
X41.286 Y40.694 Z-6.75
X41.312 Y40.737 Z-6.821
X41.343 Y40.79 Z-6.883
X41.38 Y40.851 Z-6.933
X41.42 Y40.919 Z-6.97
X41.463 Y40.991 Z-6.992
X41.507 Y41.066 Z-7.
G3 X41.95 Y42.573 I-2.721 J1.618
G1 Y43.596
X41.947 Y43.659
X41.94 Y43.722
X41.929 Y43.783
X41.914 Y43.845
X41.896 Y43.905
X41.875 Y43.964
X41.851 Y44.022
X41.825 Y44.079
X41.796 Y44.135
X41.765 Y44.19
X41.732 Y44.244
X41.697 Y44.296
X41.66 Y44.347
X41.621 Y44.396
X41.581 Y44.445
X41.539 Y44.492
X41.496 Y44.537
X41.451 Y44.582
X41.405 Y44.625
X41.358 Y44.666
X41.355 Y44.669
X41.306 Y44.703
X41.25 Y44.729
X41.192 Y44.745
X41.131 Y44.75
G3 X40.649 Y44.233 I0.017 J-0.5
X40.697 Y44.036 I0.5 J0.017
G1 X40.998 Y43.399
G3 X41.664 Y43.162 I0.452 J0.214
X41.95 Y43.596 I-0.214 J0.452
G1 Y44.271
Y44.296
Y44.307
X41.948 Y44.344
X41.94 Y44.407
X41.927 Y44.468
X41.919 Y44.496
X41.899 Y44.549
X41.871 Y44.598
X41.835 Y44.642
X41.793 Y44.679
X41.745 Y44.71
X41.693 Y44.732
X41.639 Y44.745
X41.582 Y44.75
G3 X41.281 Y44.635 I0.017 J-0.498
X41.228 Y44.061 I0.261 J-0.314
X41.803 Y44.007 I0.314 J0.261
X41.95 Y44.307 I-0.261 J0.314
G1 Y44.451
X41.949 Y44.496
X41.946 Y44.541
X41.934 Y44.586
X41.923 Y44.61
X41.912 Y44.631
X41.897 Y44.652
X41.878 Y44.674
X41.876 Y44.676
X41.854 Y44.695
X41.833 Y44.711
X41.815 Y44.721
X41.788 Y44.733
X41.766 Y44.74
X41.743 Y44.745
X41.698 Y44.749
X41.653 Y44.75
X39.854
G3 X39.505 Y44.591 I0.017 J-0.5
X39.371 Y44.233 I0.366 J-0.341
G1 X39.374 Y44.146 Z-6.992
X39.377 Y44.062 Z-6.97
X39.38 Y43.983 Z-6.933
X39.382 Y43.912 Z-6.883
X39.385 Y43.85 Z-6.821
X39.386 Y43.8 Z-6.75
X39.388 Y43.763 Z-6.671
Y43.741 Z-6.587
X39.389 Y43.733 Z-6.5
G0 Z5.
X7.369 Y44.052
Z-6.
G1 Z-6.5 F600
X7.362 Y44.056 Z-6.587
X7.343 Y44.067 Z-6.671
X7.311 Y44.086 Z-6.75
X7.268 Y44.112 Z-6.821
X7.215 Y44.143 Z-6.883
X7.154 Y44.18 Z-6.933
X7.086 Y44.22 Z-6.97
X7.013 Y44.263 Z-6.992
X6.939 Y44.307 Z-7.
G3 X5.432 Y44.75 I-1.618 J-2.721
G1 X4.402
X4.339 Y44.747
X4.276 Y44.74
X4.214 Y44.729
X4.153 Y44.714
X4.093 Y44.696
X4.034 Y44.675
X3.976 Y44.651
X3.919 Y44.624
X3.863 Y44.595
X3.808 Y44.564
X3.755 Y44.531
X3.703 Y44.496
X3.652 Y44.459
X3.602 Y44.42
X3.554 Y44.38
X3.507 Y44.338
X3.461 Y44.295
X3.417 Y44.25
X3.374 Y44.204
X3.332 Y44.157
X3.331 Y44.156
X3.296 Y44.106
X3.271 Y44.051
X3.255 Y43.992
X3.25 Y43.932
G3 X3.767 Y43.449 I0.5 J0.017
X3.964 Y43.497 I-0.017 J0.5
G1 X4.599 Y43.799
G3 X4.836 Y44.465 I-0.214 J0.452
X4.402 Y44.75 I-0.452 J-0.214
G1 X3.727
X3.702
X3.691
X3.655 Y44.748
X3.593 Y44.74
X3.532 Y44.727
X3.504 Y44.719
X3.451 Y44.699
X3.402 Y44.671
X3.358 Y44.635
X3.321 Y44.593
X3.29 Y44.546
X3.268 Y44.494
X3.255 Y44.439
X3.25 Y44.383
G3 X3.364 Y44.083 I0.494 J0.017
X3.937 Y44.031 I0.312 J0.26
X3.989 Y44.604 I-0.26 J0.312
X3.691 Y44.75 I-0.312 J-0.26
G1 X3.547
X3.502 Y44.749
X3.457 Y44.745
X3.434 Y44.74
X3.412 Y44.733
X3.385 Y44.721
X3.367 Y44.711
X3.345 Y44.695
X3.324 Y44.676
X3.322 Y44.674
X3.303 Y44.653
X3.288 Y44.631
X3.277 Y44.61
X3.267 Y44.586
X3.259 Y44.564
X3.254 Y44.541
X3.251 Y44.496
X3.25 Y44.451
Y42.671
G3 X3.409 Y42.323 I0.5 J0.017
X3.767 Y42.189 I0.341 J0.366
G1 X3.854 Y42.192 Z-6.992
X3.938 Y42.195 Z-6.97
X4.017 Y42.198 Z-6.933
X4.088 Y42.2 Z-6.883
X4.15 Y42.203 Z-6.821
X4.2 Y42.204 Z-6.75
X4.237 Y42.206 Z-6.671
X4.259 Z-6.587
X4.267 Y42.207 Z-6.5
G0 Z5.
X3.948 Y7.368
Z-6.
G1 Z-6.5 F600
X3.944 Y7.361 Z-6.587
X3.933 Y7.342 Z-6.671
X3.914 Y7.31 Z-6.75
X3.888 Y7.267 Z-6.821
X3.857 Y7.214 Z-6.883
X3.82 Y7.153 Z-6.933
X3.78 Y7.085 Z-6.97
X3.737 Y7.012 Z-6.992
X3.693 Y6.938 Z-7.
G3 X3.25 Y5.431 I2.721 J-1.618
G1 Y4.404
X3.253 Y4.341
X3.26 Y4.278
X3.271 Y4.217
X3.286 Y4.155
X3.304 Y4.095
X3.325 Y4.036
X3.349 Y3.978
X3.375 Y3.921
X3.404 Y3.865
X3.435 Y3.81
X3.468 Y3.756
X3.503 Y3.704
X3.54 Y3.653
X3.579 Y3.604
X3.619 Y3.555
X3.661 Y3.508
X3.704 Y3.463
X3.748 Y3.418
X3.794 Y3.375
X3.842 Y3.334
X3.844 Y3.331
X3.894 Y3.297
X3.949 Y3.271
X4.008 Y3.255
X4.069 Y3.25
G3 X4.551 Y3.767 I-0.017 J0.5
X4.503 Y3.964 I-0.5 J-0.017
G1 X4.202 Y4.6
G3 X3.536 Y4.838 I-0.452 J-0.214
X3.25 Y4.404 I0.214 J-0.452
G1 Y3.729
Y3.704
Y3.693
X3.252 Y3.655
X3.26 Y3.593
X3.273 Y3.531
X3.281 Y3.504
X3.301 Y3.451
X3.329 Y3.402
X3.365 Y3.358
X3.407 Y3.321
X3.455 Y3.29
X3.506 Y3.268
X3.561 Y3.255
X3.618 Y3.25
G3 X3.919 Y3.365 I-0.017 J0.498
X3.972 Y3.939 I-0.261 J0.314
X3.397 Y3.993 I-0.314 J-0.261
X3.25 Y3.693 I0.261 J-0.314
G1 Y3.549
X3.251 Y3.504
X3.254 Y3.459
X3.259 Y3.436
X3.267 Y3.414
X3.277 Y3.39
X3.288 Y3.369
X3.303 Y3.347
X3.322 Y3.326
X3.324 Y3.324
X3.345 Y3.305
X3.367 Y3.289
X3.385 Y3.279
X3.412 Y3.267
X3.434 Y3.26
X3.457 Y3.255
X3.502 Y3.251
X3.547 Y3.25
X5.346
G3 X5.829 Y3.767 I-0.017 J0.5
G1 X5.826 Y3.854 Z-6.992
X5.823 Y3.938 Z-6.97
X5.82 Y4.017 Z-6.933
X5.818 Y4.088 Z-6.883
X5.815 Y4.15 Z-6.821
X5.814 Y4.2 Z-6.75
X5.812 Y4.237 Z-6.671
Y4.259 Z-6.587
X5.811 Y4.267 Z-6.5
G0 Z5.
X37.831 Y3.948
Z-6.
G1 Z-6.5 F600
X37.838 Y3.944 Z-6.587
X37.857 Y3.933 Z-6.671
X37.889 Y3.914 Z-6.75
X37.932 Y3.888 Z-6.821
X37.985 Y3.857 Z-6.883
X38.046 Y3.82 Z-6.933
X38.114 Y3.78 Z-6.97
X38.186 Y3.737 Z-6.992
X38.261 Y3.693 Z-7.
G3 X39.768 Y3.25 I1.618 J2.721
G1 X40.798
X40.861 Y3.253
X40.924 Y3.26
X40.986 Y3.271
X41.047 Y3.286
X41.107 Y3.304
X41.166 Y3.326
X41.224 Y3.35
X41.281 Y3.376
X41.337 Y3.405
X41.392 Y3.436
X41.445 Y3.469
X41.497 Y3.505
X41.548 Y3.542
X41.598 Y3.58
X41.646 Y3.621
X41.693 Y3.663
X41.738 Y3.706
X41.783 Y3.751
X41.826 Y3.797
X41.867 Y3.844
X41.869 Y3.846
X41.904 Y3.896
X41.929 Y3.951
X41.945 Y4.009
X41.95 Y4.07
G3 X41.433 Y4.552 I-0.5 J-0.017
X41.235 Y4.504 I0.017 J-0.5
G1 X40.601 Y4.201
G3 X40.364 Y3.534 I0.215 J-0.451
X40.798 Y3.25 I0.451 J0.215
G1 X41.473
X41.498
X41.504
X41.544 Y3.252
X41.606 Y3.26
X41.667 Y3.273
X41.696 Y3.281
X41.749 Y3.301
X41.798 Y3.329
X41.842 Y3.365
X41.879 Y3.407
X41.91 Y3.455
X41.932 Y3.507
X41.945 Y3.562
X41.95 Y3.618
G3 X41.835 Y3.921 I-0.504 J-0.018
X41.257 Y3.977 I-0.317 J-0.261
X41.202 Y3.399 I0.261 J-0.317
X41.504 Y3.25 I0.317 J0.261
G1 X41.653
X41.698 Y3.251
X41.743 Y3.255
X41.766 Y3.26
X41.788 Y3.267
X41.815 Y3.279
X41.833 Y3.289
X41.854 Y3.305
X41.876 Y3.324
X41.878 Y3.326
X41.897 Y3.348
X41.912 Y3.369
X41.923 Y3.39
X41.934 Y3.414
X41.946 Y3.459
X41.949 Y3.504
X41.95 Y3.549
Y5.349
G3 X41.791 Y5.697 I-0.5 J-0.017
X41.433 Y5.831 I-0.341 J-0.366
G1 X41.346 Y5.828 Z-6.992
X41.262 Y5.825 Z-6.97
X41.183 Y5.822 Z-6.933
X41.112 Y5.82 Z-6.883
X41.05 Y5.818 Z-6.821
X41. Y5.816 Z-6.75
X40.963 Y5.815 Z-6.671
X40.941 Y5.814 Z-6.587
X40.933 Z-6.5
G0 Z5.
X5.597 Y4.514
Z-6.
G1 Z-6.5 F600
X5.596 Y4.506 Z-6.587
X5.59 Y4.484 Z-6.671
X5.581 Y4.449 Z-6.75
X5.568 Y4.4 Z-6.821
X5.553 Y4.341 Z-6.883
X5.535 Y4.272 Z-6.933
X5.516 Y4.195 Z-6.97
X5.495 Y4.113 Z-6.992
X5.473 Y4.029 Z-7.
G3 X5.362 Y3.252 I3.532 J-0.905
G1 Y3.25
G3 X5.844 Y3.767 I-0.017 J0.5
G1 X5.841 Y3.854 Z-6.992
X5.838 Y3.938 Z-6.97
X5.835 Y4.017 Z-6.933
X5.833 Y4.088 Z-6.883
X5.83 Y4.15 Z-6.821
X5.829 Y4.2 Z-6.75
X5.827 Y4.237 Z-6.671
Y4.259 Z-6.587
X5.826 Y4.267 Z-6.5
G0 Z5.
X4.514 Y42.412
Z-6.
G1 Z-6.5 F600
X4.506 Y42.414 Z-6.587
X4.484 Y42.419 Z-6.671
X4.449 Y42.428 Z-6.75
X4.4 Y42.441 Z-6.821
X4.341 Y42.456 Z-6.883
X4.272 Y42.474 Z-6.933
X4.195 Y42.493 Z-6.97
X4.113 Y42.514 Z-6.992
X4.029 Y42.536 Z-7.
G3 X3.252 Y42.648 I-0.905 J-3.532
G1 X3.25
G3 X3.409 Y42.299 I0.5 J0.017
X3.767 Y42.165 I0.341 J0.366
G1 X3.854 Y42.168 Z-6.992
X3.938 Y42.171 Z-6.97
X4.017 Y42.174 Z-6.933
X4.088 Y42.177 Z-6.883
X4.15 Y42.179 Z-6.821
X4.2 Y42.18 Z-6.75
X4.237 Y42.182 Z-6.671
X4.259 Y42.183 Z-6.587
X4.267 Z-6.5
G0 Z5.
X39.6 Y43.486
Z-6.
G1 Z-6.5 F600
X39.602 Y43.494 Z-6.587
X39.608 Y43.516 Z-6.671
X39.617 Y43.551 Z-6.75
X39.629 Y43.6 Z-6.821
X39.645 Y43.659 Z-6.883
X39.662 Y43.728 Z-6.933
X39.682 Y43.805 Z-6.97
X39.703 Y43.887 Z-6.992
X39.725 Y43.971 Z-7.
G3 X39.836 Y44.748 I-3.532 J0.905
G1 Y44.75
G3 X39.569 Y44.661 I0.017 J-0.5
G1 X39.522 Y44.613 Z-6.995
X39.476 Y44.565 Z-6.981
X39.432 Y44.519 Z-6.959
X39.405 Y44.449 Z-6.918
X39.381 Y44.387 Z-6.866
X39.361 Y44.334 Z-6.803
X39.358 Y44.299 Z-6.749
X39.356 Y44.271 Z-6.692
X39.354 Y44.25 Z-6.631
Y44.237 Z-6.566
Y44.233 Z-6.5
G0 Z5.
X41.252 Y40.636
Z-7.
G1 Z-7.5 F600
X41.256 Y40.643 Z-7.587
X41.267 Y40.662 Z-7.671
X41.286 Y40.694 Z-7.75
X41.312 Y40.737 Z-7.821
X41.343 Y40.79 Z-7.883
X41.38 Y40.851 Z-7.933
X41.42 Y40.919 Z-7.97
X41.463 Y40.991 Z-7.992
X41.507 Y41.066 Z-8.
G3 X41.95 Y42.573 I-2.721 J1.618
G1 Y43.596
X41.947 Y43.659
X41.94 Y43.722
X41.929 Y43.783
X41.914 Y43.845
X41.896 Y43.905
X41.875 Y43.964
X41.851 Y44.022
X41.825 Y44.079
X41.796 Y44.135
X41.765 Y44.19
X41.732 Y44.244
X41.697 Y44.296
X41.66 Y44.347
X41.621 Y44.396
X41.581 Y44.445
X41.539 Y44.492
X41.496 Y44.537
X41.451 Y44.582
X41.405 Y44.625
X41.358 Y44.666
X41.355 Y44.669
X41.306 Y44.703
X41.25 Y44.729
X41.192 Y44.745
X41.131 Y44.75
G3 X40.649 Y44.233 I0.017 J-0.5
X40.697 Y44.036 I0.5 J0.017
G1 X40.998 Y43.399
G3 X41.664 Y43.162 I0.452 J0.214
X41.95 Y43.596 I-0.214 J0.452
G1 Y44.271
Y44.296
Y44.307
X41.948 Y44.344
X41.94 Y44.407
X41.927 Y44.468
X41.919 Y44.496
X41.899 Y44.549
X41.871 Y44.598
X41.835 Y44.642
X41.793 Y44.679
X41.745 Y44.71
X41.693 Y44.732
X41.639 Y44.745
X41.582 Y44.75
G3 X41.281 Y44.635 I0.017 J-0.498
X41.228 Y44.061 I0.261 J-0.314
X41.803 Y44.007 I0.314 J0.261
X41.95 Y44.307 I-0.261 J0.314
G1 Y44.451
X41.949 Y44.496
X41.946 Y44.541
X41.934 Y44.586
X41.923 Y44.61
X41.912 Y44.631
X41.897 Y44.652
X41.878 Y44.674
X41.876 Y44.676
X41.854 Y44.695
X41.833 Y44.711
X41.815 Y44.721
X41.788 Y44.733
X41.766 Y44.74
X41.743 Y44.745
X41.698 Y44.749
X41.653 Y44.75
X39.854
G3 X39.505 Y44.591 I0.017 J-0.5
X39.371 Y44.233 I0.366 J-0.341
G1 X39.374 Y44.146 Z-7.992
X39.377 Y44.062 Z-7.97
X39.38 Y43.983 Z-7.933
X39.382 Y43.912 Z-7.883
X39.385 Y43.85 Z-7.821
X39.386 Y43.8 Z-7.75
X39.388 Y43.763 Z-7.671
Y43.741 Z-7.587
X39.389 Y43.733 Z-7.5
G0 Z5.
X7.369 Y44.052
Z-7.
G1 Z-7.5 F600
X7.362 Y44.056 Z-7.587
X7.343 Y44.067 Z-7.671
X7.311 Y44.086 Z-7.75
X7.268 Y44.112 Z-7.821
X7.215 Y44.143 Z-7.883
X7.154 Y44.18 Z-7.933
X7.086 Y44.22 Z-7.97
X7.013 Y44.263 Z-7.992
X6.939 Y44.307 Z-8.
G3 X5.432 Y44.75 I-1.618 J-2.721
G1 X4.402
X4.339 Y44.747
X4.276 Y44.74
X4.214 Y44.729
X4.153 Y44.714
X4.093 Y44.696
X4.034 Y44.675
X3.976 Y44.651
X3.919 Y44.624
X3.863 Y44.595
X3.808 Y44.564
X3.755 Y44.531
X3.703 Y44.496
X3.652 Y44.459
X3.602 Y44.42
X3.554 Y44.38
X3.507 Y44.338
X3.461 Y44.295
X3.417 Y44.25
X3.374 Y44.204
X3.332 Y44.157
X3.331 Y44.156
X3.296 Y44.106
X3.271 Y44.051
X3.255 Y43.992
X3.25 Y43.932
G3 X3.767 Y43.449 I0.5 J0.017
X3.964 Y43.497 I-0.017 J0.5
G1 X4.599 Y43.799
G3 X4.836 Y44.465 I-0.214 J0.452
X4.402 Y44.75 I-0.452 J-0.214
G1 X3.727
X3.702
X3.691
X3.655 Y44.748
X3.593 Y44.74
X3.532 Y44.727
X3.504 Y44.719
X3.451 Y44.699
X3.402 Y44.671
X3.358 Y44.635
X3.321 Y44.593
X3.29 Y44.546
X3.268 Y44.494
X3.255 Y44.439
X3.25 Y44.383
G3 X3.364 Y44.083 I0.494 J0.017
X3.937 Y44.031 I0.312 J0.26
X3.989 Y44.604 I-0.26 J0.312
X3.691 Y44.75 I-0.312 J-0.26
G1 X3.547
X3.502 Y44.749
X3.457 Y44.745
X3.434 Y44.74
X3.412 Y44.733
X3.385 Y44.721
X3.367 Y44.711
X3.345 Y44.695
X3.324 Y44.676
X3.322 Y44.674
X3.303 Y44.653
X3.288 Y44.631
X3.277 Y44.61
X3.267 Y44.586
X3.259 Y44.564
X3.254 Y44.541
X3.251 Y44.496
X3.25 Y44.451
Y42.671
G3 X3.409 Y42.323 I0.5 J0.017
X3.767 Y42.189 I0.341 J0.366
G1 X3.854 Y42.192 Z-7.992
X3.938 Y42.195 Z-7.97
X4.017 Y42.198 Z-7.933
X4.088 Y42.2 Z-7.883
X4.15 Y42.203 Z-7.821
X4.2 Y42.204 Z-7.75
X4.237 Y42.206 Z-7.671
X4.259 Z-7.587
X4.267 Y42.207 Z-7.5
G0 Z5.
X3.948 Y7.368
Z-7.
G1 Z-7.5 F600
X3.944 Y7.361 Z-7.587
X3.933 Y7.342 Z-7.671
X3.914 Y7.31 Z-7.75
X3.888 Y7.267 Z-7.821
X3.857 Y7.214 Z-7.883
X3.82 Y7.153 Z-7.933
X3.78 Y7.085 Z-7.97
X3.737 Y7.012 Z-7.992
X3.693 Y6.938 Z-8.
G3 X3.25 Y5.431 I2.721 J-1.618
G1 Y4.404
X3.253 Y4.341
X3.26 Y4.278
X3.271 Y4.217
X3.286 Y4.155
X3.304 Y4.095
X3.325 Y4.036
X3.349 Y3.978
X3.375 Y3.921
X3.404 Y3.865
X3.435 Y3.81
X3.468 Y3.756
X3.503 Y3.704
X3.54 Y3.653
X3.579 Y3.604
X3.619 Y3.555
X3.661 Y3.508
X3.704 Y3.463
X3.748 Y3.418
X3.794 Y3.375
X3.842 Y3.334
X3.844 Y3.331
X3.894 Y3.297
X3.949 Y3.271
X4.008 Y3.255
X4.069 Y3.25
G3 X4.551 Y3.767 I-0.017 J0.5
X4.503 Y3.964 I-0.5 J-0.017
G1 X4.202 Y4.6
G3 X3.536 Y4.838 I-0.452 J-0.214
X3.25 Y4.404 I0.214 J-0.452
G1 Y3.729
Y3.704
Y3.693
X3.252 Y3.655
X3.26 Y3.593
X3.273 Y3.531
X3.281 Y3.504
X3.301 Y3.451
X3.329 Y3.402
X3.365 Y3.358
X3.407 Y3.321
X3.455 Y3.29
X3.506 Y3.268
X3.561 Y3.255
X3.618 Y3.25
G3 X3.919 Y3.365 I-0.017 J0.498
X3.972 Y3.939 I-0.261 J0.314
X3.397 Y3.993 I-0.314 J-0.261
X3.25 Y3.693 I0.261 J-0.314
G1 Y3.549
X3.251 Y3.504
X3.254 Y3.459
X3.259 Y3.436
X3.267 Y3.414
X3.277 Y3.39
X3.288 Y3.369
X3.303 Y3.347
X3.322 Y3.326
X3.324 Y3.324
X3.345 Y3.305
X3.367 Y3.289
X3.385 Y3.279
X3.412 Y3.267
X3.434 Y3.26
X3.457 Y3.255
X3.502 Y3.251
X3.547 Y3.25
X5.346
G3 X5.829 Y3.767 I-0.017 J0.5
G1 X5.826 Y3.854 Z-7.992
X5.823 Y3.938 Z-7.97
X5.82 Y4.017 Z-7.933
X5.818 Y4.088 Z-7.883
X5.815 Y4.15 Z-7.821
X5.814 Y4.2 Z-7.75
X5.812 Y4.237 Z-7.671
Y4.259 Z-7.587
X5.811 Y4.267 Z-7.5
G0 Z5.
X37.831 Y3.948
Z-7.
G1 Z-7.5 F600
X37.838 Y3.944 Z-7.587
X37.857 Y3.933 Z-7.671
X37.889 Y3.914 Z-7.75
X37.932 Y3.888 Z-7.821
X37.985 Y3.857 Z-7.883
X38.046 Y3.82 Z-7.933
X38.114 Y3.78 Z-7.97
X38.186 Y3.737 Z-7.992
X38.261 Y3.693 Z-8.
G3 X39.768 Y3.25 I1.618 J2.721
G1 X40.798
X40.861 Y3.253
X40.924 Y3.26
X40.986 Y3.271
X41.047 Y3.286
X41.107 Y3.304
X41.166 Y3.326
X41.224 Y3.35
X41.281 Y3.376
X41.337 Y3.405
X41.392 Y3.436
X41.445 Y3.469
X41.497 Y3.505
X41.548 Y3.542
X41.598 Y3.58
X41.646 Y3.621
X41.693 Y3.663
X41.738 Y3.706
X41.783 Y3.751
X41.826 Y3.797
X41.867 Y3.844
X41.869 Y3.846
X41.904 Y3.896
X41.929 Y3.951
X41.945 Y4.009
X41.95 Y4.07
G3 X41.433 Y4.552 I-0.5 J-0.017
X41.235 Y4.504 I0.017 J-0.5
G1 X40.601 Y4.201
G3 X40.364 Y3.534 I0.215 J-0.451
X40.798 Y3.25 I0.451 J0.215
G1 X41.473
X41.498
X41.504
X41.544 Y3.252
X41.606 Y3.26
X41.667 Y3.273
X41.696 Y3.281
X41.749 Y3.301
X41.798 Y3.329
X41.842 Y3.365
X41.879 Y3.407
X41.91 Y3.455
X41.932 Y3.507
X41.945 Y3.562
X41.95 Y3.618
G3 X41.835 Y3.921 I-0.504 J-0.018
X41.257 Y3.977 I-0.317 J-0.261
X41.202 Y3.399 I0.261 J-0.317
X41.504 Y3.25 I0.317 J0.261
G1 X41.653
X41.698 Y3.251
X41.743 Y3.255
X41.766 Y3.26
X41.788 Y3.267
X41.815 Y3.279
X41.833 Y3.289
X41.854 Y3.305
X41.876 Y3.324
X41.878 Y3.326
X41.897 Y3.348
X41.912 Y3.369
X41.923 Y3.39
X41.934 Y3.414
X41.946 Y3.459
X41.949 Y3.504
X41.95 Y3.549
Y5.349
G3 X41.791 Y5.697 I-0.5 J-0.017
X41.433 Y5.831 I-0.341 J-0.366
G1 X41.346 Y5.828 Z-7.992
X41.262 Y5.825 Z-7.97
X41.183 Y5.822 Z-7.933
X41.112 Y5.82 Z-7.883
X41.05 Y5.818 Z-7.821
X41. Y5.816 Z-7.75
X40.963 Y5.815 Z-7.671
X40.941 Y5.814 Z-7.587
X40.933 Z-7.5
G0 Z5.
X5.597 Y4.514
Z-7.
G1 Z-7.5 F600
X5.596 Y4.506 Z-7.587
X5.59 Y4.484 Z-7.671
X5.581 Y4.449 Z-7.75
X5.568 Y4.4 Z-7.821
X5.553 Y4.341 Z-7.883
X5.535 Y4.272 Z-7.933
X5.516 Y4.195 Z-7.97
X5.495 Y4.113 Z-7.992
X5.473 Y4.029 Z-8.
G3 X5.362 Y3.252 I3.532 J-0.905
G1 Y3.25
G3 X5.844 Y3.767 I-0.017 J0.5
G1 X5.841 Y3.854 Z-7.992
X5.838 Y3.938 Z-7.97
X5.835 Y4.017 Z-7.933
X5.833 Y4.088 Z-7.883
X5.83 Y4.15 Z-7.821
X5.829 Y4.2 Z-7.75
X5.827 Y4.237 Z-7.671
Y4.259 Z-7.587
X5.826 Y4.267 Z-7.5
G0 Z5.
X4.514 Y42.412
Z-7.
G1 Z-7.5 F600
X4.506 Y42.414 Z-7.587
X4.484 Y42.419 Z-7.671
X4.449 Y42.428 Z-7.75
X4.4 Y42.441 Z-7.821
X4.341 Y42.456 Z-7.883
X4.272 Y42.474 Z-7.933
X4.195 Y42.493 Z-7.97
X4.113 Y42.514 Z-7.992
X4.029 Y42.536 Z-8.
G3 X3.252 Y42.648 I-0.905 J-3.532
G1 X3.25
G3 X3.409 Y42.299 I0.5 J0.017
X3.767 Y42.165 I0.341 J0.366
G1 X3.854 Y42.168 Z-7.992
X3.938 Y42.171 Z-7.97
X4.017 Y42.174 Z-7.933
X4.088 Y42.177 Z-7.883
X4.15 Y42.179 Z-7.821
X4.2 Y42.18 Z-7.75
X4.237 Y42.182 Z-7.671
X4.259 Y42.183 Z-7.587
X4.267 Z-7.5
G0 Z5.
X39.6 Y43.486
Z-7.
G1 Z-7.5 F600
X39.602 Y43.494 Z-7.587
X39.608 Y43.516 Z-7.671
X39.617 Y43.551 Z-7.75
X39.629 Y43.6 Z-7.821
X39.645 Y43.659 Z-7.883
X39.662 Y43.728 Z-7.933
X39.682 Y43.805 Z-7.97
X39.703 Y43.887 Z-7.992
X39.725 Y43.971 Z-8.
G3 X39.836 Y44.748 I-3.532 J0.905
G1 Y44.75
G3 X39.569 Y44.661 I0.017 J-0.5
G1 X39.522 Y44.613 Z-7.995
X39.476 Y44.565 Z-7.981
X39.432 Y44.519 Z-7.959
X39.405 Y44.449 Z-7.918
X39.381 Y44.387 Z-7.866
X39.361 Y44.334 Z-7.803
X39.358 Y44.299 Z-7.749
X39.356 Y44.271 Z-7.692
X39.354 Y44.25 Z-7.631
Y44.237 Z-7.566
Y44.233 Z-7.5
G0 Z5.
X41.252 Y40.636
Z-7.2
G1 Z-7.7 F600
X41.256 Y40.643 Z-7.787
X41.267 Y40.662 Z-7.871
X41.286 Y40.694 Z-7.95
X41.312 Y40.737 Z-8.021
X41.343 Y40.79 Z-8.083
X41.38 Y40.851 Z-8.133
X41.42 Y40.919 Z-8.17
X41.463 Y40.991 Z-8.192
X41.507 Y41.066 Z-8.2
G3 X41.95 Y42.573 I-2.721 J1.618
G1 Y43.596
X41.947 Y43.659
X41.94 Y43.722
X41.929 Y43.783
X41.914 Y43.845
X41.896 Y43.905
X41.875 Y43.964
X41.851 Y44.022
X41.825 Y44.079
X41.796 Y44.135
X41.765 Y44.19
X41.732 Y44.244
X41.697 Y44.296
X41.66 Y44.347
X41.621 Y44.396
X41.581 Y44.445
X41.539 Y44.492
X41.496 Y44.537
X41.451 Y44.582
X41.405 Y44.625
X41.358 Y44.666
X41.355 Y44.669
X41.306 Y44.703
X41.25 Y44.729
X41.192 Y44.745
X41.131 Y44.75
G3 X40.649 Y44.233 I0.017 J-0.5
X40.697 Y44.036 I0.5 J0.017
G1 X40.998 Y43.399
G3 X41.664 Y43.162 I0.452 J0.214
X41.95 Y43.596 I-0.214 J0.452
G1 Y44.271
Y44.296
Y44.307
X41.948 Y44.344
X41.94 Y44.407
X41.927 Y44.468
X41.919 Y44.496
X41.899 Y44.549
X41.871 Y44.598
X41.835 Y44.642
X41.793 Y44.679
X41.745 Y44.71
X41.693 Y44.732
X41.639 Y44.745
X41.582 Y44.75
G3 X41.281 Y44.635 I0.017 J-0.498
X41.228 Y44.061 I0.261 J-0.314
X41.803 Y44.007 I0.314 J0.261
X41.95 Y44.307 I-0.261 J0.314
G1 Y44.451
X41.949 Y44.496
X41.946 Y44.541
X41.934 Y44.586
X41.923 Y44.61
X41.912 Y44.631
X41.897 Y44.652
X41.878 Y44.674
X41.876 Y44.676
X41.854 Y44.695
X41.833 Y44.711
X41.815 Y44.721
X41.788 Y44.733
X41.766 Y44.74
X41.743 Y44.745
X41.698 Y44.749
X41.653 Y44.75
X39.854
G3 X39.505 Y44.591 I0.017 J-0.5
X39.371 Y44.233 I0.366 J-0.341
G1 X39.374 Y44.146 Z-8.192
X39.377 Y44.062 Z-8.17
X39.38 Y43.983 Z-8.133
X39.382 Y43.912 Z-8.083
X39.385 Y43.85 Z-8.021
X39.386 Y43.8 Z-7.95
X39.388 Y43.763 Z-7.871
Y43.741 Z-7.787
X39.389 Y43.733 Z-7.7
G0 Z5.
X7.369 Y44.052
Z-7.2
G1 Z-7.7 F600
X7.362 Y44.056 Z-7.787
X7.343 Y44.067 Z-7.871
X7.311 Y44.086 Z-7.95
X7.268 Y44.112 Z-8.021
X7.215 Y44.143 Z-8.083
X7.154 Y44.18 Z-8.133
X7.086 Y44.22 Z-8.17
X7.013 Y44.263 Z-8.192
X6.939 Y44.307 Z-8.2
G3 X5.432 Y44.75 I-1.618 J-2.721
G1 X4.402
X4.339 Y44.747
X4.276 Y44.74
X4.214 Y44.729
X4.153 Y44.714
X4.093 Y44.696
X4.034 Y44.675
X3.976 Y44.651
X3.919 Y44.624
X3.863 Y44.595
X3.808 Y44.564
X3.755 Y44.531
X3.703 Y44.496
X3.652 Y44.459
X3.602 Y44.42
X3.554 Y44.38
X3.507 Y44.338
X3.461 Y44.295
X3.417 Y44.25
X3.374 Y44.204
X3.332 Y44.157
X3.331 Y44.156
X3.296 Y44.106
X3.271 Y44.051
X3.255 Y43.992
X3.25 Y43.932
G3 X3.767 Y43.449 I0.5 J0.017
X3.964 Y43.497 I-0.017 J0.5
G1 X4.599 Y43.799
G3 X4.836 Y44.465 I-0.214 J0.452
X4.402 Y44.75 I-0.452 J-0.214
G1 X3.727
X3.702
X3.691
X3.655 Y44.748
X3.593 Y44.74
X3.532 Y44.727
X3.504 Y44.719
X3.451 Y44.699
X3.402 Y44.671
X3.358 Y44.635
X3.321 Y44.593
X3.29 Y44.546
X3.268 Y44.494
X3.255 Y44.439
X3.25 Y44.383
G3 X3.364 Y44.083 I0.494 J0.017
X3.937 Y44.031 I0.312 J0.26
X3.989 Y44.604 I-0.26 J0.312
X3.691 Y44.75 I-0.312 J-0.26
G1 X3.547
X3.502 Y44.749
X3.457 Y44.745
X3.434 Y44.74
X3.412 Y44.733
X3.385 Y44.721
X3.367 Y44.711
X3.345 Y44.695
X3.324 Y44.676
X3.322 Y44.674
X3.303 Y44.653
X3.288 Y44.631
X3.277 Y44.61
X3.267 Y44.586
X3.259 Y44.564
X3.254 Y44.541
X3.251 Y44.496
X3.25 Y44.451
Y42.671
G3 X3.409 Y42.323 I0.5 J0.017
X3.767 Y42.189 I0.341 J0.366
G1 X3.854 Y42.192 Z-8.192
X3.938 Y42.195 Z-8.17
X4.017 Y42.198 Z-8.133
X4.088 Y42.2 Z-8.083
X4.15 Y42.203 Z-8.021
X4.2 Y42.204 Z-7.95
X4.237 Y42.206 Z-7.871
X4.259 Z-7.787
X4.267 Y42.207 Z-7.7
G0 Z5.
X3.948 Y7.368
Z-7.2
G1 Z-7.7 F600
X3.944 Y7.361 Z-7.787
X3.933 Y7.342 Z-7.871
X3.914 Y7.31 Z-7.95
X3.888 Y7.267 Z-8.021
X3.857 Y7.214 Z-8.083
X3.82 Y7.153 Z-8.133
X3.78 Y7.085 Z-8.17
X3.737 Y7.012 Z-8.192
X3.693 Y6.938 Z-8.2
G3 X3.25 Y5.431 I2.721 J-1.618
G1 Y4.404
X3.253 Y4.341
X3.26 Y4.278
X3.271 Y4.217
X3.286 Y4.155
X3.304 Y4.095
X3.325 Y4.036
X3.349 Y3.978
X3.375 Y3.921
X3.404 Y3.865
X3.435 Y3.81
X3.468 Y3.756
X3.503 Y3.704
X3.54 Y3.653
X3.579 Y3.604
X3.619 Y3.555
X3.661 Y3.508
X3.704 Y3.463
X3.748 Y3.418
X3.794 Y3.375
X3.842 Y3.334
X3.844 Y3.331
X3.894 Y3.297
X3.949 Y3.271
X4.008 Y3.255
X4.069 Y3.25
G3 X4.551 Y3.767 I-0.017 J0.5
X4.503 Y3.964 I-0.5 J-0.017
G1 X4.202 Y4.6
G3 X3.536 Y4.838 I-0.452 J-0.214
X3.25 Y4.404 I0.214 J-0.452
G1 Y3.729
Y3.704
Y3.693
X3.252 Y3.655
X3.26 Y3.593
X3.273 Y3.531
X3.281 Y3.504
X3.301 Y3.451
X3.329 Y3.402
X3.365 Y3.358
X3.407 Y3.321
X3.455 Y3.29
X3.506 Y3.268
X3.561 Y3.255
X3.618 Y3.25
G3 X3.919 Y3.365 I-0.017 J0.498
X3.972 Y3.939 I-0.261 J0.314
X3.397 Y3.993 I-0.314 J-0.261
X3.25 Y3.693 I0.261 J-0.314
G1 Y3.549
X3.251 Y3.504
X3.254 Y3.459
X3.259 Y3.436
X3.267 Y3.414
X3.277 Y3.39
X3.288 Y3.369
X3.303 Y3.347
X3.322 Y3.326
X3.324 Y3.324
X3.345 Y3.305
X3.367 Y3.289
X3.385 Y3.279
X3.412 Y3.267
X3.434 Y3.26
X3.457 Y3.255
X3.502 Y3.251
X3.547 Y3.25
X5.346
G3 X5.829 Y3.767 I-0.017 J0.5
G1 X5.826 Y3.854 Z-8.192
X5.823 Y3.938 Z-8.17
X5.82 Y4.017 Z-8.133
X5.818 Y4.088 Z-8.083
X5.815 Y4.15 Z-8.021
X5.814 Y4.2 Z-7.95
X5.812 Y4.237 Z-7.871
Y4.259 Z-7.787
X5.811 Y4.267 Z-7.7
G0 Z5.
X37.831 Y3.948
Z-7.2
G1 Z-7.7 F600
X37.838 Y3.944 Z-7.787
X37.857 Y3.933 Z-7.871
X37.889 Y3.914 Z-7.95
X37.932 Y3.888 Z-8.021
X37.985 Y3.857 Z-8.083
X38.046 Y3.82 Z-8.133
X38.114 Y3.78 Z-8.17
X38.186 Y3.737 Z-8.192
X38.261 Y3.693 Z-8.2
G3 X39.768 Y3.25 I1.618 J2.721
G1 X40.798
X40.861 Y3.253
X40.924 Y3.26
X40.986 Y3.271
X41.047 Y3.286
X41.107 Y3.304
X41.166 Y3.326
X41.224 Y3.35
X41.281 Y3.376
X41.337 Y3.405
X41.392 Y3.436
X41.445 Y3.469
X41.497 Y3.505
X41.548 Y3.542
X41.598 Y3.58
X41.646 Y3.621
X41.693 Y3.663
X41.738 Y3.706
X41.783 Y3.751
X41.826 Y3.797
X41.867 Y3.844
X41.869 Y3.846
X41.904 Y3.896
X41.929 Y3.951
X41.945 Y4.009
X41.95 Y4.07
G3 X41.433 Y4.552 I-0.5 J-0.017
X41.235 Y4.504 I0.017 J-0.5
G1 X40.601 Y4.201
G3 X40.364 Y3.534 I0.215 J-0.451
X40.798 Y3.25 I0.451 J0.215
G1 X41.473
X41.498
X41.504
X41.544 Y3.252
X41.606 Y3.26
X41.667 Y3.273
X41.696 Y3.281
X41.749 Y3.301
X41.798 Y3.329
X41.842 Y3.365
X41.879 Y3.407
X41.91 Y3.455
X41.932 Y3.507
X41.945 Y3.562
X41.95 Y3.618
G3 X41.835 Y3.921 I-0.504 J-0.018
X41.257 Y3.977 I-0.317 J-0.261
X41.202 Y3.399 I0.261 J-0.317
X41.504 Y3.25 I0.317 J0.261
G1 X41.653
X41.698 Y3.251
X41.743 Y3.255
X41.766 Y3.26
X41.788 Y3.267
X41.815 Y3.279
X41.833 Y3.289
X41.854 Y3.305
X41.876 Y3.324
X41.878 Y3.326
X41.897 Y3.348
X41.912 Y3.369
X41.923 Y3.39
X41.934 Y3.414
X41.946 Y3.459
X41.949 Y3.504
X41.95 Y3.549
Y5.349
G3 X41.791 Y5.697 I-0.5 J-0.017
X41.433 Y5.831 I-0.341 J-0.366
G1 X41.346 Y5.828 Z-8.192
X41.262 Y5.825 Z-8.17
X41.183 Y5.822 Z-8.133
X41.112 Y5.82 Z-8.083
X41.05 Y5.818 Z-8.021
X41. Y5.816 Z-7.95
X40.963 Y5.815 Z-7.871
X40.941 Y5.814 Z-7.787
X40.933 Z-7.7
G0 Z5.
X5.597 Y4.514
Z-7.2
G1 Z-7.7 F600
X5.596 Y4.506 Z-7.787
X5.59 Y4.484 Z-7.871
X5.581 Y4.449 Z-7.95
X5.568 Y4.4 Z-8.021
X5.553 Y4.341 Z-8.083
X5.535 Y4.272 Z-8.133
X5.516 Y4.195 Z-8.17
X5.495 Y4.113 Z-8.192
X5.473 Y4.029 Z-8.2
G3 X5.362 Y3.252 I3.532 J-0.905
G1 Y3.25
G3 X5.844 Y3.767 I-0.017 J0.5
G1 X5.841 Y3.854 Z-8.192
X5.838 Y3.938 Z-8.17
X5.835 Y4.017 Z-8.133
X5.833 Y4.088 Z-8.083
X5.83 Y4.15 Z-8.021
X5.829 Y4.2 Z-7.95
X5.827 Y4.237 Z-7.871
Y4.259 Z-7.787
X5.826 Y4.267 Z-7.7
G0 Z5.
X4.514 Y42.412
Z-7.2
G1 Z-7.7 F600
X4.506 Y42.414 Z-7.787
X4.484 Y42.419 Z-7.871
X4.449 Y42.428 Z-7.95
X4.4 Y42.441 Z-8.021
X4.341 Y42.456 Z-8.083
X4.272 Y42.474 Z-8.133
X4.195 Y42.493 Z-8.17
X4.113 Y42.514 Z-8.192
X4.029 Y42.536 Z-8.2
G3 X3.252 Y42.648 I-0.905 J-3.532
G1 X3.25
G3 X3.409 Y42.299 I0.5 J0.017
X3.767 Y42.165 I0.341 J0.366
G1 X3.854 Y42.168 Z-8.192
X3.938 Y42.171 Z-8.17
X4.017 Y42.174 Z-8.133
X4.088 Y42.177 Z-8.083
X4.15 Y42.179 Z-8.021
X4.2 Y42.18 Z-7.95
X4.237 Y42.182 Z-7.871
X4.259 Y42.183 Z-7.787
X4.267 Z-7.7
G0 Z5.
X39.6 Y43.486
Z-7.2
G1 Z-7.7 F600
X39.602 Y43.494 Z-7.787
X39.608 Y43.516 Z-7.871
X39.617 Y43.551 Z-7.95
X39.629 Y43.6 Z-8.021
X39.645 Y43.659 Z-8.083
X39.662 Y43.728 Z-8.133
X39.682 Y43.805 Z-8.17
X39.703 Y43.887 Z-8.192
X39.725 Y43.971 Z-8.2
G3 X39.836 Y44.748 I-3.532 J0.905
G1 Y44.75
G3 X39.488 Y44.591 I0.017 J-0.5
X39.354 Y44.233 I0.366 J-0.341
G1 X39.357 Y44.146 Z-8.192
X39.36 Y44.062 Z-8.17
X39.363 Y43.983 Z-8.133
X39.365 Y43.912 Z-8.083
X39.367 Y43.85 Z-8.021
X39.369 Y43.8 Z-7.95
X39.37 Y43.763 Z-7.871
X39.371 Y43.741 Z-7.787
X39.372 Y43.733 Z-7.7
G0 Z15.
M5
G53 Z0.
M30
