(1001)
(T4  D=1.5 CR=0. - ZMIN=-10.4 - flat end mill)
G90
G0 G53 Z0.

(2D Contour (cutout))
T4 M6 (flat end mill D=1.5 1.5 mm Fishtail Upcut Endmill - Acrylic Max Pass Depth 0.8 mm)
S16000 M3
G64
G54
G43 H4
G0 X22.45 Y48.2
Z15.
Z5.
G1 Z1.8 F300
Z-0.65
Y48.193 Z-0.696
Y48.171 Z-0.738
Y48.138 Z-0.771
Y48.096 Z-0.793
Y48.05 Z-0.8
Y47.9 F600
X22.457 Y47.854
X22.479 Y47.812
X22.512 Y47.779
X22.554 Y47.757
X22.6 Y47.75
X43.2
G2 X44.95 Y46. I0. J-1.75
G1 Y2.
G2 X43.2 Y0.25 I-1.75 J0.
G1 X2.
G2 X0.25 Y2. I0. J1.75
G1 Y46.
G2 X2. Y47.75 I1.75 J0.
G1 X22.6
X22.646 Y47.757
X22.688 Y47.779
X22.721 Y47.812
X22.743 Y47.854
X22.75 Y47.9
Y48.05
Y48.096 Z-0.793
Y48.138 Z-0.771
Y48.171 Z-0.738
Y48.193 Z-0.696
Y48.2 Z-0.65
G0 Z5.
X22.45
G1 Z1. F300
Z-1.45
Y48.193 Z-1.496
Y48.171 Z-1.538
Y48.138 Z-1.571
Y48.096 Z-1.593
Y48.05 Z-1.6
Y47.9 F600
X22.457 Y47.854
X22.479 Y47.812
X22.512 Y47.779
X22.554 Y47.757
X22.6 Y47.75
X43.2
G2 X44.95 Y46. I0. J-1.75
G1 Y2.
G2 X43.2 Y0.25 I-1.75 J0.
G1 X2.
G2 X0.25 Y2. I0. J1.75
G1 Y46.
G2 X2. Y47.75 I1.75 J0.
G1 X22.6
X22.646 Y47.757
X22.688 Y47.779
X22.721 Y47.812
X22.743 Y47.854
X22.75 Y47.9
Y48.05
Y48.096 Z-1.593
Y48.138 Z-1.571
Y48.171 Z-1.538
Y48.193 Z-1.496
Y48.2 Z-1.45
G0 Z5.
X22.45
G1 Z0.2 F300
Z-2.25
Y48.193 Z-2.296
Y48.171 Z-2.338
Y48.138 Z-2.371
Y48.096 Z-2.393
Y48.05 Z-2.4
Y47.9 F600
X22.457 Y47.854
X22.479 Y47.812
X22.512 Y47.779
X22.554 Y47.757
X22.6 Y47.75
X43.2
G2 X44.95 Y46. I0. J-1.75
G1 Y2.
G2 X43.2 Y0.25 I-1.75 J0.
G1 X2.
G2 X0.25 Y2. I0. J1.75
G1 Y46.
G2 X2. Y47.75 I1.75 J0.
G1 X22.6
X22.646 Y47.757
X22.688 Y47.779
X22.721 Y47.812
X22.743 Y47.854
X22.75 Y47.9
Y48.05
Y48.096 Z-2.393
Y48.138 Z-2.371
Y48.171 Z-2.338
Y48.193 Z-2.296
Y48.2 Z-2.25
G0 Z5.
X22.45
G1 Z-0.6 F300
Z-3.05
Y48.193 Z-3.096
Y48.171 Z-3.138
Y48.138 Z-3.171
Y48.096 Z-3.193
Y48.05 Z-3.2
Y47.9 F600
X22.457 Y47.854
X22.479 Y47.812
X22.512 Y47.779
X22.554 Y47.757
X22.6 Y47.75
X43.2
G2 X44.95 Y46. I0. J-1.75
G1 Y2.
G2 X43.2 Y0.25 I-1.75 J0.
G1 X2.
G2 X0.25 Y2. I0. J1.75
G1 Y46.
G2 X2. Y47.75 I1.75 J0.
G1 X22.6
X22.646 Y47.757
X22.688 Y47.779
X22.721 Y47.812
X22.743 Y47.854
X22.75 Y47.9
Y48.05
Y48.096 Z-3.193
Y48.138 Z-3.171
Y48.171 Z-3.138
Y48.193 Z-3.096
Y48.2 Z-3.05
G0 Z5.
X22.45
G1 Z-1.4 F300
Z-3.85
Y48.193 Z-3.896
Y48.171 Z-3.938
Y48.138 Z-3.971
Y48.096 Z-3.993
Y48.05 Z-4.
Y47.9 F600
X22.457 Y47.854
X22.479 Y47.812
X22.512 Y47.779
X22.554 Y47.757
X22.6 Y47.75
X43.2
G2 X44.95 Y46. I0. J-1.75
G1 Y2.
G2 X43.2 Y0.25 I-1.75 J0.
G1 X2.
G2 X0.25 Y2. I0. J1.75
G1 Y46.
G2 X2. Y47.75 I1.75 J0.
G1 X22.6
X22.646 Y47.757
X22.688 Y47.779
X22.721 Y47.812
X22.743 Y47.854
X22.75 Y47.9
Y48.05
Y48.096 Z-3.993
Y48.138 Z-3.971
Y48.171 Z-3.938
Y48.193 Z-3.896
Y48.2 Z-3.85
G0 Z5.
X22.45
G1 Z-2.2 F300
Z-4.65
Y48.193 Z-4.696
Y48.171 Z-4.738
Y48.138 Z-4.771
Y48.096 Z-4.793
Y48.05 Z-4.8
Y47.9 F600
X22.457 Y47.854
X22.479 Y47.812
X22.512 Y47.779
X22.554 Y47.757
X22.6 Y47.75
X43.2
G2 X44.95 Y46. I0. J-1.75
G1 Y2.
G2 X43.2 Y0.25 I-1.75 J0.
G1 X2.
G2 X0.25 Y2. I0. J1.75
G1 Y46.
G2 X2. Y47.75 I1.75 J0.
G1 X22.6
X22.646 Y47.757
X22.688 Y47.779
X22.721 Y47.812
X22.743 Y47.854
X22.75 Y47.9
Y48.05
Y48.096 Z-4.793
Y48.138 Z-4.771
Y48.171 Z-4.738
Y48.193 Z-4.696
Y48.2 Z-4.65
G0 Z5.
X22.45
G1 Z-3. F300
Z-5.45
Y48.193 Z-5.496
Y48.171 Z-5.538
Y48.138 Z-5.571
Y48.096 Z-5.593
Y48.05 Z-5.6
Y47.9 F600
X22.457 Y47.854
X22.479 Y47.812
X22.512 Y47.779
X22.554 Y47.757
X22.6 Y47.75
X43.2
G2 X44.95 Y46. I0. J-1.75
G1 Y2.
G2 X43.2 Y0.25 I-1.75 J0.
G1 X2.
G2 X0.25 Y2. I0. J1.75
G1 Y46.
G2 X2. Y47.75 I1.75 J0.
G1 X22.6
X22.646 Y47.757
X22.688 Y47.779
X22.721 Y47.812
X22.743 Y47.854
X22.75 Y47.9
Y48.05
Y48.096 Z-5.593
Y48.138 Z-5.571
Y48.171 Z-5.538
Y48.193 Z-5.496
Y48.2 Z-5.45
G0 Z5.
X22.45
G1 Z-3.8 F300
Z-6.25
Y48.193 Z-6.296
Y48.171 Z-6.338
Y48.138 Z-6.371
Y48.096 Z-6.393
Y48.05 Z-6.4
Y47.9 F600
X22.457 Y47.854
X22.479 Y47.812
X22.512 Y47.779
X22.554 Y47.757
X22.6 Y47.75
X43.2
G2 X44.95 Y46. I0. J-1.75
G1 Y2.
G2 X43.2 Y0.25 I-1.75 J0.
G1 X2.
G2 X0.25 Y2. I0. J1.75
G1 Y46.
G2 X2. Y47.75 I1.75 J0.
G1 X22.6
X22.646 Y47.757
X22.688 Y47.779
X22.721 Y47.812
X22.743 Y47.854
X22.75 Y47.9
Y48.05
Y48.096 Z-6.393
Y48.138 Z-6.371
Y48.171 Z-6.338
Y48.193 Z-6.296
Y48.2 Z-6.25
G0 Z5.
X22.45
G1 Z-4.6 F300
Z-7.05
Y48.193 Z-7.096
Y48.171 Z-7.138
Y48.138 Z-7.171
Y48.096 Z-7.193
Y48.05 Z-7.2
Y47.9 F600
X22.457 Y47.854
X22.479 Y47.812
X22.512 Y47.779
X22.554 Y47.757
X22.6 Y47.75
X43.2
G2 X44.95 Y46. I0. J-1.75
G1 Y2.
G2 X43.2 Y0.25 I-1.75 J0.
G1 X2.
G2 X0.25 Y2. I0. J1.75
G1 Y46.
G2 X2. Y47.75 I1.75 J0.
G1 X22.6
X22.646 Y47.757
X22.688 Y47.779
X22.721 Y47.812
X22.743 Y47.854
X22.75 Y47.9
Y48.05
Y48.096 Z-7.193
Y48.138 Z-7.171
Y48.171 Z-7.138
Y48.193 Z-7.096
Y48.2 Z-7.05
G0 Z5.
X22.45
G1 Z-5.4 F300
Z-7.85
Y48.193 Z-7.896
Y48.171 Z-7.938
Y48.138 Z-7.971
Y48.096 Z-7.993
Y48.05 Z-8.
Y47.9 F600
X22.457 Y47.854
X22.479 Y47.812
X22.512 Y47.779
X22.554 Y47.757
X22.6 Y47.75
X43.2
G2 X44.95 Y46. I0. J-1.75
G1 Y2.
G2 X43.2 Y0.25 I-1.75 J0.
G1 X2.
G2 X0.25 Y2. I0. J1.75
G1 Y46.
G2 X2. Y47.75 I1.75 J0.
G1 X22.6
X22.646 Y47.757
X22.688 Y47.779
X22.721 Y47.812
X22.743 Y47.854
X22.75 Y47.9
Y48.05
Y48.096 Z-7.993
Y48.138 Z-7.971
Y48.171 Z-7.938
Y48.193 Z-7.896
Y48.2 Z-7.85
G0 Z5.
X22.45
G1 Z-6.2 F300
Z-8.65
Y48.193 Z-8.696
Y48.171 Z-8.738
Y48.138 Z-8.771
Y48.096 Z-8.793
Y48.05 Z-8.8
Y47.9 F600
X22.457 Y47.854
X22.479 Y47.812
X22.512 Y47.779
X22.554 Y47.757
X22.6 Y47.75
X43.2
G2 X44.95 Y46. I0. J-1.75
G1 Y2.
G2 X43.2 Y0.25 I-1.75 J0.
G1 X2.
G2 X0.25 Y2. I0. J1.75
G1 Y46.
G2 X2. Y47.75 I1.75 J0.
G1 X22.6
X22.646 Y47.757
X22.688 Y47.779
X22.721 Y47.812
X22.743 Y47.854
X22.75 Y47.9
Y48.05
Y48.096 Z-8.793
Y48.138 Z-8.771
Y48.171 Z-8.738
Y48.193 Z-8.696
Y48.2 Z-8.65
G0 Z5.
X22.45
G1 Z-7. F300
Z-9.45
Y48.193 Z-9.496
Y48.171 Z-9.538
Y48.138 Z-9.571
Y48.096 Z-9.593
Y48.05 Z-9.6
Y47.9 F600
X22.457 Y47.854
X22.479 Y47.812
X22.512 Y47.779
X22.554 Y47.757
X22.6 Y47.75
X43.2
G2 X44.95 Y46. I0. J-1.75
G1 Y2.
G2 X43.2 Y0.25 I-1.75 J0.
G1 X2.
G2 X0.25 Y2. I0. J1.75
G1 Y46.
G2 X2. Y47.75 I1.75 J0.
G1 X22.6
X22.646 Y47.757
X22.688 Y47.779
X22.721 Y47.812
X22.743 Y47.854
X22.75 Y47.9
Y48.05
Y48.096 Z-9.593
Y48.138 Z-9.571
Y48.171 Z-9.538
Y48.193 Z-9.496
Y48.2 Z-9.45
G0 Z5.
X22.45
G1 Z-7.8 F300
Z-10.25
Y48.193 Z-10.296
Y48.171 Z-10.338
Y48.138 Z-10.371
Y48.096 Z-10.393
Y48.05 Z-10.4
Y47.9 F600
X22.457 Y47.854
X22.479 Y47.812
X22.512 Y47.779
X22.554 Y47.757
X22.6 Y47.75
X43.2
G2 X44.95 Y46. I0. J-1.75
G1 Y2.
G2 X43.2 Y0.25 I-1.75 J0.
G1 X2.
G2 X0.25 Y2. I0. J1.75
G1 Y46.
G2 X2. Y47.75 I1.75 J0.
G1 X22.6
X22.646 Y47.757
X22.688 Y47.779
X22.721 Y47.812
X22.743 Y47.854
X22.75 Y47.9
Y48.05
Y48.096 Z-10.393
Y48.138 Z-10.371
Y48.171 Z-10.338
Y48.193 Z-10.296
Y48.2 Z-10.25
G0 Z15.
M5
G53 Z0.
M30
