(1001)
(T4  D=1.5 CR=0. - ZMIN=-0.2 - flat end mill)
G90
G0 G53 Z0.

(Scallop (base chamfer))
T4 M6 (flat end mill D=1.5 1.5 mm Fishtail Upcut Endmill - Acrylic Max Pass Depth 0.8 mm)
S16000 M3
G64
G54
G43 H4
G0 X0.491 Y1.551
Z15.
Z2.
G1 Z0.135 F800
X0.49 Y1.558 Z0.089
X0.486 Y1.579 Z0.048
X0.48 Y1.611 Z0.014
X0.473 Y1.652 Z-0.007
X0.465 Y1.697 Z-0.015
X0.459 Y1.731
X0.451 Y1.78 Z-0.016
X0.447 Y1.805 Z-0.015
X0.445 Y1.829
X0.44 Y1.878
X0.437 Y1.927
X0.435 Y1.976
Y2.025
X0.434 Y2.074 Z-0.016
Y45.926
X0.435 Y45.975 Z-0.015
Y46.024
X0.437 Y46.073
X0.44 Y46.122
X0.445 Y46.171
X0.447 Y46.195
X0.451 Y46.22 Z-0.016
X0.459 Y46.269 Z-0.015
X0.465 Y46.302
X0.468 Y46.318
X0.479 Y46.367
X0.492 Y46.415
X0.506 Y46.464
X0.514 Y46.49
X0.522 Y46.513
X0.54 Y46.562
X0.548 Y46.583
X0.563 Y46.618 Z-0.014
X0.581 Y46.66 Z-0.016
X0.605 Y46.709 Z-0.015
X0.612 Y46.722
X0.631 Y46.758
X0.661 Y46.808
X0.691 Y46.856 Z-0.014
X0.71 Y46.886 Z-0.015
X0.723 Y46.905
X0.76 Y46.954
X0.798 Y47.003
X0.808 Y47.014 Z-0.016
X0.857 Y47.067 Z-0.015
X0.888 Y47.101
X0.906 Y47.118
X0.955 Y47.164
X0.993 Y47.199
X1.004 Y47.207
X1.056 Y47.248
X1.102 Y47.281
X1.124 Y47.296
X1.151 Y47.314
X1.202 Y47.345
X1.249 Y47.373
X1.298 Y47.398
X1.346 Y47.422 Z-0.016
X1.38 Y47.436 Z-0.015
X1.414 Y47.451
X1.444 Y47.463 Z-0.016
X1.493 Y47.48 Z-0.015
X1.53 Y47.492
X1.542 Y47.496 Z-0.014
X1.591 Y47.51 Z-0.015
X1.64 Y47.522
X1.689 Y47.534
X1.738 Y47.542
X1.787 Y47.55 Z-0.016
X1.807 Y47.553 Z-0.015
X1.836 Y47.556
X1.885 Y47.561
X1.934 Y47.563 Z-0.016
X1.983 Y47.565 Z-0.015
X2.032 Y47.566 Z-0.016
X43.168
X43.217 Y47.565 Z-0.015
X43.266 Y47.563 Z-0.016
X43.315 Y47.561 Z-0.015
X43.364 Y47.556
X43.393 Y47.553
X43.413 Y47.55 Z-0.016
X43.468 Y47.541 Z-0.015
X43.511 Y47.534
X43.56 Y47.522
X43.609 Y47.51
X43.658 Y47.496 Z-0.014
X43.67 Y47.492 Z-0.015
X43.707 Y47.48
X43.756 Y47.463 Z-0.016
X43.767 Y47.459 Z-0.015
X43.805 Y47.443 Z-0.014
X43.837 Y47.429 Z-0.015
X43.854 Y47.422 Z-0.016
X43.91 Y47.394 Z-0.015
X43.952 Y47.373
X44. Y47.344
X44.049 Y47.314
X44.076 Y47.296
X44.098 Y47.281
X44.147 Y47.245
X44.196 Y47.207
X44.207 Y47.199
X44.245 Y47.164 Z-0.016
X44.294 Y47.118 Z-0.015
X44.312 Y47.101
X44.358 Y47.052
X44.392 Y47.014 Z-0.016
X44.402 Y47.003 Z-0.015
X44.441 Y46.952
X44.477 Y46.905
X44.49 Y46.886
X44.509 Y46.856
X44.54 Y46.807
X44.569 Y46.758
X44.588 Y46.722
X44.604 Y46.69
X44.619 Y46.66 Z-0.016
X44.64 Y46.611 Z-0.014
X44.652 Y46.583 Z-0.015
X44.66 Y46.562
X44.678 Y46.513
X44.686 Y46.49
X44.694 Y46.464
X44.708 Y46.415
X44.721 Y46.367
X44.732 Y46.318
X44.735 Y46.302
X44.741 Y46.269
X44.749 Y46.22 Z-0.016
X44.753 Y46.195 Z-0.015
X44.755 Y46.171
X44.76 Y46.122
X44.763 Y46.073
X44.765 Y46.024
Y45.975
X44.766 Y45.877 Z-0.016
Y2.074
X44.765 Y2.025 Z-0.015
Y1.976
X44.763 Y1.927
X44.76 Y1.878
X44.755 Y1.829
X44.753 Y1.805
X44.749 Y1.78 Z-0.016
X44.741 Y1.731 Z-0.015
X44.735 Y1.698
X44.732 Y1.682
X44.721 Y1.633
X44.708 Y1.585
X44.694 Y1.536
X44.686 Y1.51
X44.678 Y1.487
X44.66 Y1.438
X44.652 Y1.417
X44.637 Y1.382 Z-0.014
X44.619 Y1.34 Z-0.016
X44.595 Y1.291 Z-0.015
X44.588 Y1.278
X44.569 Y1.242
X44.539 Y1.192
X44.509 Y1.144
X44.49 Y1.114
X44.477 Y1.095
X44.44 Y1.046
X44.402 Y0.997
X44.392 Y0.986
X44.358 Y0.948
X44.343 Y0.932
X44.312 Y0.899
X44.294 Y0.882
X44.245 Y0.836 Z-0.016
X44.207 Y0.801 Z-0.015
X44.196 Y0.793
X44.144 Y0.752
X44.098 Y0.719
X44.076 Y0.704
X44.049 Y0.686
X43.998 Y0.655
X43.952 Y0.627
X43.903 Y0.602
X43.854 Y0.578 Z-0.016
X43.82 Y0.564 Z-0.015
X43.804 Y0.557 Z-0.014
X43.767 Y0.541 Z-0.015
X43.756 Y0.537 Z-0.016
X43.707 Y0.52 Z-0.015
X43.67 Y0.508
X43.658 Y0.504 Z-0.014
X43.609 Y0.49 Z-0.015
X43.56 Y0.478
X43.511 Y0.466
X43.462 Y0.458
X43.413 Y0.45 Z-0.016
X43.393 Y0.447 Z-0.015
X43.364 Y0.444
X43.315 Y0.439
X43.266 Y0.437 Z-0.016
X43.217 Y0.435 Z-0.015
X43.168 Y0.434 Z-0.016
X2.032
X1.983 Y0.435 Z-0.015
X1.934 Y0.437 Z-0.016
X1.885 Y0.439 Z-0.015
X1.836 Y0.444
X1.807 Y0.447
X1.787 Y0.45 Z-0.016
X1.731 Y0.459 Z-0.015
X1.689 Y0.466
X1.64 Y0.478
X1.591 Y0.49
X1.542 Y0.504 Z-0.014
X1.53 Y0.508 Z-0.015
X1.493 Y0.52
X1.444 Y0.537 Z-0.016
X1.433 Y0.541 Z-0.015
X1.395 Y0.557 Z-0.014
X1.363 Y0.571 Z-0.015
X1.346 Y0.578 Z-0.016
X1.29 Y0.606 Z-0.015
X1.249 Y0.627
X1.2 Y0.656
X1.151 Y0.686
X1.124 Y0.704
X1.102 Y0.719
X1.053 Y0.755
X1.004 Y0.793
X0.993 Y0.801
X0.955 Y0.836 Z-0.016
X0.906 Y0.882 Z-0.015
X0.888 Y0.899
X0.857 Y0.932
X0.808 Y0.986
X0.798 Y0.997
X0.759 Y1.048
X0.723 Y1.095
X0.71 Y1.114
X0.691 Y1.144
X0.66 Y1.193
X0.631 Y1.242
X0.612 Y1.278
X0.596 Y1.31
X0.581 Y1.34 Z-0.016
X0.56 Y1.389 Z-0.014
X0.548 Y1.417 Z-0.015
X0.54 Y1.438
X0.522 Y1.487
X0.514 Y1.51
X0.506 Y1.536
X0.492 Y1.585
X0.479 Y1.633
X0.468 Y1.682
X0.465 Y1.697
X0.462 Y1.711
X0.458 Y1.721 Z-0.017
X0.443 Y1.756 Z-0.026
X0.44 Y1.766 Z-0.029
X0.438 Y1.774
X0.437 Y1.78 Z-0.03
X0.433 Y1.805 Z-0.029
X0.431 Y1.829
X0.426 Y1.878
X0.423 Y1.927
X0.421 Y1.976
X0.42 Y2.025 Z-0.03
Y2.074
Y45.926
Y45.975
X0.421 Y46.024 Z-0.029
X0.423 Y46.073
X0.426 Y46.122
X0.431 Y46.171
X0.433 Y46.195
X0.436 Y46.22 Z-0.03
X0.445 Y46.269 Z-0.029
X0.454 Y46.318
X0.465 Y46.368
X0.477 Y46.415
X0.491 Y46.464
X0.499 Y46.49
X0.507 Y46.513
X0.525 Y46.562
X0.534 Y46.587
X0.545 Y46.611
X0.557 Y46.639
X0.566 Y46.66 Z-0.03
X0.59 Y46.709 Z-0.029
X0.615 Y46.758
X0.644 Y46.807
X0.674 Y46.856
X0.706 Y46.905
X0.71 Y46.91 Z-0.03
X0.759 Y46.975 Z-0.029
X0.78 Y47.003
X0.808 Y47.035
X0.869 Y47.101
X0.906 Y47.137
X0.972 Y47.199
X1.004 Y47.225
X1.053 Y47.263
X1.102 Y47.299
X1.151 Y47.33
X1.2 Y47.36
X1.249 Y47.389
X1.298 Y47.414
X1.346 Y47.437
X1.361 Y47.443
X1.395 Y47.458
X1.42 Y47.469
X1.444 Y47.478 Z-0.03
X1.493 Y47.495 Z-0.029
X1.542 Y47.511
X1.591 Y47.525
X1.64 Y47.537
X1.689 Y47.548
X1.738 Y47.557
X1.787 Y47.565 Z-0.03
X1.812 Y47.568 Z-0.029
X1.836 Y47.57
X1.885 Y47.575
X1.934 Y47.578 Z-0.03
X1.983 Y47.579
X2.032 Y47.58
X43.168
X43.217 Y47.579
X43.266 Y47.578
X43.315 Y47.575 Z-0.029
X43.364 Y47.57
X43.388 Y47.568
X43.413 Y47.565 Z-0.03
X43.462 Y47.557 Z-0.029
X43.511 Y47.548
X43.56 Y47.537
X43.609 Y47.525
X43.658 Y47.511
X43.716 Y47.492 Z-0.03
X43.756 Y47.478
X43.78 Y47.469 Z-0.029
X43.805 Y47.458
X43.84 Y47.443
X43.854 Y47.437 Z-0.03
X43.903 Y47.414 Z-0.029
X43.952 Y47.389
X44. Y47.36
X44.049 Y47.33
X44.101 Y47.296
X44.147 Y47.263
X44.196 Y47.225
X44.228 Y47.199
X44.245 Y47.183 Z-0.03
X44.294 Y47.138 Z-0.029
X44.332 Y47.101
X44.377 Y47.052 Z-0.03
X44.392 Y47.035
X44.42 Y47.003 Z-0.029
X44.441 Y46.975
X44.49 Y46.91
X44.494 Y46.905
X44.526 Y46.856
X44.556 Y46.807
X44.585 Y46.758
X44.61 Y46.709
X44.634 Y46.66 Z-0.03
X44.643 Y46.639 Z-0.029
X44.655 Y46.611
X44.666 Y46.587
X44.675 Y46.562
X44.693 Y46.513 Z-0.03
X44.701 Y46.49 Z-0.029
X44.709 Y46.464
X44.723 Y46.415
X44.735 Y46.367
X44.746 Y46.318
X44.755 Y46.269
X44.764 Y46.22 Z-0.03
X44.767 Y46.195 Z-0.029
X44.769 Y46.171
X44.774 Y46.122
X44.777 Y46.073
X44.779 Y46.024
X44.78 Y45.975 Z-0.03
Y45.877
Y2.074
Y2.025
X44.779 Y1.976 Z-0.029
X44.777 Y1.927
X44.774 Y1.878
X44.769 Y1.829
X44.767 Y1.805
X44.764 Y1.78 Z-0.03
X44.755 Y1.731 Z-0.029
X44.746 Y1.682
X44.735 Y1.632
X44.723 Y1.585
X44.709 Y1.536
X44.701 Y1.51
X44.693 Y1.487 Z-0.03
X44.675 Y1.438 Z-0.029
X44.666 Y1.413
X44.655 Y1.389
X44.637 Y1.346
X44.634 Y1.34 Z-0.03
X44.61 Y1.291 Z-0.029
X44.585 Y1.242
X44.556 Y1.193
X44.526 Y1.144
X44.494 Y1.095
X44.49 Y1.09 Z-0.03
X44.441 Y1.025 Z-0.029
X44.42 Y0.997
X44.392 Y0.965 Z-0.03
X44.377 Y0.948
X44.332 Y0.899 Z-0.029
X44.294 Y0.862
X44.245 Y0.817 Z-0.03
X44.228 Y0.801 Z-0.029
X44.196 Y0.775
X44.147 Y0.737
X44.098 Y0.701
X44.049 Y0.67
X44. Y0.64
X43.952 Y0.611
X43.903 Y0.586
X43.854 Y0.563 Z-0.03
X43.84 Y0.557 Z-0.029
X43.805 Y0.542
X43.78 Y0.531
X43.756 Y0.522 Z-0.03
X43.707 Y0.505 Z-0.029
X43.658 Y0.489
X43.609 Y0.475
X43.56 Y0.463
X43.511 Y0.452
X43.462 Y0.443
X43.413 Y0.435 Z-0.03
X43.388 Y0.432 Z-0.029
X43.364 Y0.43
X43.315 Y0.425
X43.266 Y0.422 Z-0.03
X43.217 Y0.421
X43.119 Y0.42
X2.032
X1.983 Y0.421
X1.934 Y0.422
X1.885 Y0.425 Z-0.029
X1.836 Y0.43
X1.812 Y0.432
X1.787 Y0.435 Z-0.03
X1.738 Y0.443 Z-0.029
X1.689 Y0.452
X1.64 Y0.463
X1.591 Y0.475
X1.542 Y0.489
X1.484 Y0.508 Z-0.03
X1.444 Y0.522
X1.42 Y0.531 Z-0.029
X1.395 Y0.542
X1.36 Y0.557
X1.346 Y0.563 Z-0.03
X1.298 Y0.586 Z-0.029
X1.249 Y0.611
X1.2 Y0.64
X1.151 Y0.67
X1.099 Y0.704
X1.053 Y0.737
X1.004 Y0.775
X0.972 Y0.801
X0.955 Y0.817 Z-0.03
X0.918 Y0.85 Z-0.029
X0.906 Y0.862
X0.868 Y0.899
X0.823 Y0.948 Z-0.03
X0.808 Y0.965
X0.78 Y0.997 Z-0.029
X0.759 Y1.025
X0.71 Y1.089 Z-0.03
X0.706 Y1.095 Z-0.029
X0.674 Y1.144
X0.644 Y1.193
X0.615 Y1.242
X0.59 Y1.291
X0.566 Y1.34 Z-0.03
X0.557 Y1.361 Z-0.029
X0.545 Y1.389
X0.534 Y1.413
X0.525 Y1.438
X0.507 Y1.487
X0.499 Y1.51
X0.491 Y1.536
X0.477 Y1.585
X0.465 Y1.633
X0.454 Y1.682
X0.445 Y1.731
X0.437 Y1.78 Z-0.03
X0.434 Y1.79
X0.43 Y1.804 Z-0.032
X0.419 Y1.837 Z-0.04
X0.414 Y1.853 Z-0.042
X0.413 Y1.863 Z-0.043
Y1.864
X0.412 Y1.878
X0.409 Y1.927 Z-0.044
X0.407 Y1.976 Z-0.043
X0.406 Y2.025 Z-0.044
Y2.074
Y45.926
Y45.975
X0.407 Y46.024 Z-0.043
X0.409 Y46.073 Z-0.044
X0.412 Y46.122 Z-0.043
X0.416 Y46.171
X0.419 Y46.195 Z-0.044
X0.422 Y46.22
X0.43 Y46.269 Z-0.043
X0.439 Y46.318
X0.45 Y46.367
X0.465 Y46.425
X0.477 Y46.464
X0.492 Y46.513 Z-0.044
X0.51 Y46.562
X0.514 Y46.574 Z-0.043
X0.529 Y46.611
X0.54 Y46.636
X0.55 Y46.66 Z-0.044
X0.574 Y46.709 Z-0.043
X0.599 Y46.758
X0.612 Y46.781
X0.627 Y46.807
X0.661 Y46.862
X0.689 Y46.905
X0.71 Y46.934 Z-0.044
X0.762 Y47.003 Z-0.043
X0.804 Y47.052
X0.857 Y47.109
X0.898 Y47.15
X0.955 Y47.202
X1.004 Y47.243
X1.053 Y47.28
X1.075 Y47.296
X1.102 Y47.316
X1.151 Y47.347
X1.2 Y47.377
X1.23 Y47.394
X1.249 Y47.405
X1.298 Y47.429
X1.326 Y47.443
X1.346 Y47.453
X1.395 Y47.474
X1.424 Y47.485
X1.444 Y47.493 Z-0.044
X1.493 Y47.51 Z-0.043
X1.542 Y47.526
X1.591 Y47.539
X1.64 Y47.552
X1.689 Y47.562
X1.738 Y47.571
X1.787 Y47.579 Z-0.044
X1.836 Y47.584 Z-0.043
X1.885 Y47.589
X1.934 Y47.592 Z-0.044
X1.983 Y47.594
X2.032
X43.168
X43.217 Y47.593
X43.266 Y47.592
X43.315 Y47.589 Z-0.043
X43.364 Y47.584
X43.413 Y47.579 Z-0.044
X43.462 Y47.571 Z-0.043
X43.511 Y47.562
X43.56 Y47.552
X43.609 Y47.539
X43.658 Y47.526
X43.707 Y47.51
X43.758 Y47.492 Z-0.044
X43.805 Y47.474 Z-0.043
X43.854 Y47.453
X43.874 Y47.443 Z-0.044
X43.903 Y47.429 Z-0.043
X43.952 Y47.405
X43.97 Y47.394
X44. Y47.377
X44.052 Y47.345
X44.098 Y47.316
X44.125 Y47.296
X44.147 Y47.28
X44.196 Y47.243
X44.249 Y47.199 Z-0.044
X44.302 Y47.15 Z-0.043
X44.343 Y47.109
X44.396 Y47.052 Z-0.044
X44.438 Y47.003 Z-0.043
X44.49 Y46.934 Z-0.044
X44.511 Y46.905 Z-0.043
X44.543 Y46.856
X44.573 Y46.807
X44.588 Y46.781
X44.601 Y46.758
X44.626 Y46.709
X44.65 Y46.66 Z-0.044
X44.671 Y46.611 Z-0.043
X44.686 Y46.574
X44.69 Y46.562 Z-0.044
X44.708 Y46.513
X44.723 Y46.464 Z-0.043
X44.738 Y46.415
X44.75 Y46.367
X44.761 Y46.318
X44.77 Y46.269
X44.778 Y46.22 Z-0.044
X44.781 Y46.195
X44.784 Y46.168 Z-0.043
X44.788 Y46.122
X44.791 Y46.073 Z-0.044
X44.793 Y46.024 Z-0.043
X44.794 Y45.975 Z-0.044
Y45.877
Y2.074
Y2.025
X44.793 Y1.976 Z-0.043
X44.791 Y1.927 Z-0.044
X44.788 Y1.878 Z-0.043
X44.784 Y1.829
X44.781 Y1.805 Z-0.044
X44.778 Y1.78
X44.77 Y1.731 Z-0.043
X44.761 Y1.682
X44.75 Y1.633
X44.735 Y1.575
X44.723 Y1.536
X44.708 Y1.487 Z-0.044
X44.69 Y1.438
X44.686 Y1.426 Z-0.043
X44.671 Y1.389
X44.65 Y1.34 Z-0.044
X44.626 Y1.291 Z-0.043
X44.601 Y1.242
X44.588 Y1.219
X44.573 Y1.193
X44.539 Y1.138
X44.511 Y1.095
X44.49 Y1.066 Z-0.044
X44.438 Y0.997 Z-0.043
X44.392 Y0.944 Z-0.044
X44.343 Y0.891 Z-0.043
X44.302 Y0.85
X44.245 Y0.798 Z-0.044
X44.196 Y0.757 Z-0.043
X44.147 Y0.72
X44.125 Y0.704
X44.098 Y0.684
X44.049 Y0.653
X44. Y0.623
X43.97 Y0.606
X43.952 Y0.595
X43.903 Y0.571
X43.874 Y0.557 Z-0.044
X43.854 Y0.547 Z-0.043
X43.805 Y0.526
X43.756 Y0.507 Z-0.044
X43.707 Y0.49 Z-0.043
X43.658 Y0.474
X43.609 Y0.461
X43.56 Y0.448
X43.511 Y0.438
X43.462 Y0.429
X43.413 Y0.421 Z-0.044
X43.364 Y0.416 Z-0.043
X43.315 Y0.411
X43.266 Y0.408 Z-0.044
X43.217 Y0.406
X43.168
X2.032
X1.983 Y0.407
X1.934 Y0.408
X1.885 Y0.411 Z-0.043
X1.836 Y0.416
X1.787 Y0.421 Z-0.044
X1.738 Y0.429 Z-0.043
X1.689 Y0.438
X1.64 Y0.448
X1.591 Y0.461
X1.542 Y0.474
X1.493 Y0.49
X1.442 Y0.508 Z-0.044
X1.423 Y0.515 Z-0.043
X1.395 Y0.526
X1.346 Y0.547
X1.326 Y0.557 Z-0.044
X1.298 Y0.571 Z-0.043
X1.249 Y0.595
X1.23 Y0.606
X1.2 Y0.623
X1.148 Y0.655
X1.102 Y0.684
X1.075 Y0.704
X1.053 Y0.72
X1.004 Y0.757
X0.951 Y0.801 Z-0.044
X0.898 Y0.85 Z-0.043
X0.857 Y0.891
X0.804 Y0.948 Z-0.044
X0.762 Y0.997 Z-0.043
X0.71 Y1.066 Z-0.044
X0.689 Y1.095 Z-0.043
X0.657 Y1.144
X0.627 Y1.193
X0.612 Y1.219
X0.599 Y1.242
X0.574 Y1.291
X0.55 Y1.34 Z-0.044
X0.54 Y1.364 Z-0.043
X0.529 Y1.389
X0.514 Y1.426
X0.51 Y1.438 Z-0.044
X0.492 Y1.487
X0.477 Y1.536 Z-0.043
X0.462 Y1.585
X0.45 Y1.633
X0.439 Y1.682
X0.43 Y1.731
X0.422 Y1.78 Z-0.044
X0.419 Y1.805
X0.416 Y1.832 Z-0.043
X0.413 Y1.864
X0.411 Y1.875 Z-0.044
X0.408 Y1.888 Z-0.046
X0.398 Y1.922 Z-0.054
X0.396 Y1.932 Z-0.056
X0.394 Y1.943 Z-0.057
Y1.949 Z-0.058
X0.393 Y1.976 Z-0.057
X0.392 Y2.025 Z-0.058
Y2.074
Y45.926
Y45.975
X0.393 Y46.024 Z-0.057
X0.395 Y46.073 Z-0.058
X0.397 Y46.122 Z-0.057
X0.402 Y46.171
X0.408 Y46.22 Z-0.058
X0.416 Y46.27 Z-0.057
X0.425 Y46.318
X0.435 Y46.367
X0.448 Y46.415
X0.462 Y46.464
X0.477 Y46.513 Z-0.058
X0.494 Y46.562
X0.514 Y46.611 Z-0.057
X0.535 Y46.66 Z-0.058
X0.563 Y46.719 Z-0.057
X0.583 Y46.758
X0.612 Y46.809
X0.641 Y46.856
X0.672 Y46.905
X0.71 Y46.958 Z-0.058
X0.744 Y47.003 Z-0.057
X0.759 Y47.021
X0.785 Y47.052
X0.808 Y47.077
X0.83 Y47.101
X0.857 Y47.129
X0.878 Y47.15
X0.93 Y47.199
X0.955 Y47.22
X0.987 Y47.248
X1.004 Y47.261
X1.053 Y47.298 Z-0.058
X1.102 Y47.332 Z-0.057
X1.151 Y47.363
X1.202 Y47.394
X1.249 Y47.42
X1.298 Y47.445
X1.346 Y47.468
X1.404 Y47.492
X1.444 Y47.508 Z-0.058
X1.493 Y47.525 Z-0.057
X1.545 Y47.541
X1.591 Y47.554
X1.64 Y47.566
X1.689 Y47.577
X1.738 Y47.585
X1.787 Y47.593 Z-0.058
X1.836 Y47.599 Z-0.057
X1.885 Y47.603 Z-0.058
X1.934 Y47.606
X1.983 Y47.608
X2.032
X43.168
X43.217
X43.266 Y47.606
X43.315 Y47.603
X43.364 Y47.599 Z-0.057
X43.413 Y47.593 Z-0.058
X43.462 Y47.585 Z-0.057
X43.511 Y47.577
X43.56 Y47.566
X43.609 Y47.554
X43.658 Y47.54
X43.707 Y47.525
X43.756 Y47.508 Z-0.058
X43.805 Y47.489 Z-0.057
X43.854 Y47.468
X43.906 Y47.443
X43.952 Y47.42
X44. Y47.393
X44.049 Y47.363
X44.098 Y47.332
X44.149 Y47.296 Z-0.058
X44.196 Y47.261 Z-0.057
X44.213 Y47.248
X44.245 Y47.221
X44.27 Y47.199 Z-0.058
X44.294 Y47.176
X44.323 Y47.15 Z-0.057
X44.343 Y47.129
X44.371 Y47.101
X44.392 Y47.077 Z-0.058
X44.415 Y47.052
X44.441 Y47.021 Z-0.057
X44.456 Y47.003
X44.493 Y46.954 Z-0.058
X44.528 Y46.905 Z-0.057
X44.559 Y46.856
X44.589 Y46.807
X44.617 Y46.758
X44.642 Y46.709
X44.665 Y46.66
X44.686 Y46.611
X44.706 Y46.562 Z-0.058
X44.723 Y46.513
X44.738 Y46.464 Z-0.057
X44.752 Y46.415
X44.765 Y46.367
X44.775 Y46.318
X44.784 Y46.269
X44.792 Y46.22 Z-0.058
X44.798 Y46.171 Z-0.057
X44.803 Y46.122
X44.805 Y46.073 Z-0.058
X44.807 Y46.024
X44.808 Y45.975
Y45.877
Y2.074
Y2.025
X44.807 Y1.976
X44.805 Y1.927
X44.803 Y1.878 Z-0.057
X44.798 Y1.829
X44.792 Y1.78 Z-0.058
X44.784 Y1.731 Z-0.057
X44.775 Y1.682
X44.765 Y1.633
X44.752 Y1.585
X44.738 Y1.536
X44.723 Y1.487 Z-0.058
X44.706 Y1.438
X44.686 Y1.389 Z-0.057
X44.665 Y1.34
X44.637 Y1.281
X44.617 Y1.242
X44.588 Y1.191
X44.559 Y1.144
X44.528 Y1.095
X44.49 Y1.042 Z-0.058
X44.456 Y0.997 Z-0.057
X44.441 Y0.979
X44.415 Y0.948 Z-0.058
X44.392 Y0.923
X44.371 Y0.899 Z-0.057
X44.343 Y0.871
X44.323 Y0.85
X44.294 Y0.824
X44.27 Y0.801 Z-0.058
X44.245 Y0.779 Z-0.057
X44.213 Y0.752
X44.196 Y0.739
X44.147 Y0.702 Z-0.058
X44.098 Y0.668 Z-0.057
X44.049 Y0.637
X43.998 Y0.606
X43.952 Y0.58
X43.903 Y0.555
X43.854 Y0.532
X43.796 Y0.508
X43.756 Y0.492 Z-0.058
X43.707 Y0.475 Z-0.057
X43.655 Y0.459
X43.609 Y0.446
X43.56 Y0.434
X43.511 Y0.423
X43.462 Y0.415
X43.413 Y0.407 Z-0.058
X43.364 Y0.401 Z-0.057
X43.315 Y0.397 Z-0.058
X43.266 Y0.394
X43.217 Y0.392
X43.168
X2.032
X1.983
X1.934 Y0.394
X1.885 Y0.397
X1.836 Y0.401 Z-0.057
X1.787 Y0.407 Z-0.058
X1.738 Y0.415 Z-0.057
X1.689 Y0.423
X1.64 Y0.434
X1.591 Y0.446
X1.542 Y0.46
X1.493 Y0.475
X1.444 Y0.492 Z-0.058
X1.395 Y0.511 Z-0.057
X1.346 Y0.532
X1.294 Y0.557
X1.249 Y0.58
X1.2 Y0.607
X1.151 Y0.637
X1.102 Y0.668
X1.051 Y0.704 Z-0.058
X1.004 Y0.739 Z-0.057
X0.987 Y0.752
X0.955 Y0.779
X0.93 Y0.801 Z-0.058
X0.906 Y0.823
X0.877 Y0.85 Z-0.057
X0.857 Y0.871
X0.829 Y0.899
X0.808 Y0.923 Z-0.058
X0.785 Y0.948
X0.759 Y0.979 Z-0.057
X0.744 Y0.997
X0.707 Y1.046 Z-0.058
X0.672 Y1.095 Z-0.057
X0.641 Y1.144
X0.611 Y1.193
X0.583 Y1.242
X0.558 Y1.291
X0.535 Y1.34 Z-0.058
X0.514 Y1.389 Z-0.057
X0.494 Y1.438 Z-0.058
X0.477 Y1.487
X0.462 Y1.536 Z-0.057
X0.448 Y1.585
X0.435 Y1.633
X0.425 Y1.682
X0.416 Y1.731
X0.408 Y1.78 Z-0.058
X0.402 Y1.829 Z-0.057
X0.397 Y1.878
X0.394 Y1.949 Z-0.058
X0.392 Y1.962
X0.39 Y1.976 Z-0.061
X0.381 Y2.01 Z-0.069
X0.379 Y2.018 Z-0.071
X0.378 Y2.029 Z-0.072
Y2.034
Y2.123
Y45.926
Y45.975
X0.379 Y46.024
X0.381 Y46.073
X0.383 Y46.122
X0.388 Y46.171 Z-0.071
X0.394 Y46.22 Z-0.072
X0.401 Y46.269 Z-0.071
X0.41 Y46.318
X0.421 Y46.367
X0.433 Y46.415
X0.447 Y46.464
X0.465 Y46.522 Z-0.072
X0.479 Y46.562
X0.499 Y46.611 Z-0.071
X0.519 Y46.66 Z-0.072
X0.542 Y46.709
X0.567 Y46.758 Z-0.071
X0.595 Y46.807
X0.624 Y46.856
X0.661 Y46.914
X0.69 Y46.954 Z-0.072
X0.71 Y46.981 Z-0.071
X0.727 Y47.003
X0.759 Y47.043
X0.766 Y47.052
X0.811 Y47.101
X0.857 Y47.15
X0.909 Y47.199
X0.955 Y47.239
X0.965 Y47.248
X1.004 Y47.279
X1.053 Y47.315 Z-0.072
X1.096 Y47.345 Z-0.071
X1.151 Y47.38
X1.2 Y47.409
X1.249 Y47.436
X1.262 Y47.443
X1.298 Y47.461 Z-0.072
X1.346 Y47.484 Z-0.071
X1.395 Y47.504
X1.444 Y47.523 Z-0.072
X1.497 Y47.541 Z-0.071
X1.542 Y47.555
X1.591 Y47.569
X1.64 Y47.581
X1.689 Y47.591
X1.738 Y47.6
X1.787 Y47.607 Z-0.072
X1.836 Y47.613 Z-0.071
X1.885 Y47.617 Z-0.072
X1.934 Y47.62
X1.983 Y47.622
X2.032
X43.168
X43.217
X43.266 Y47.62
X43.315 Y47.617
X43.364 Y47.613 Z-0.071
X43.413 Y47.607 Z-0.072
X43.462 Y47.6 Z-0.071
X43.516 Y47.59
X43.56 Y47.581
X43.609 Y47.569 Z-0.072
X43.658 Y47.555 Z-0.071
X43.707 Y47.54
X43.756 Y47.523 Z-0.072
X43.805 Y47.504 Z-0.071
X43.854 Y47.484
X43.903 Y47.461 Z-0.072
X43.938 Y47.443 Z-0.071
X43.952 Y47.436
X44. Y47.409
X44.049 Y47.38
X44.104 Y47.345
X44.147 Y47.315
X44.173 Y47.296 Z-0.072
X44.196 Y47.278 Z-0.071
X44.235 Y47.248
X44.245 Y47.239
X44.294 Y47.196 Z-0.072
X44.343 Y47.149 Z-0.071
X44.392 Y47.098 Z-0.072
X44.434 Y47.052 Z-0.071
X44.441 Y47.043
X44.473 Y47.003
X44.49 Y46.981
X44.51 Y46.954 Z-0.072
X44.539 Y46.914 Z-0.071
X44.576 Y46.856
X44.606 Y46.807
X44.633 Y46.758
X44.658 Y46.709 Z-0.072
X44.681 Y46.66 Z-0.071
X44.701 Y46.611
X44.721 Y46.562 Z-0.072
X44.738 Y46.513
X44.753 Y46.464 Z-0.071
X44.767 Y46.415
X44.779 Y46.367
X44.79 Y46.318
X44.798 Y46.269
X44.806 Y46.22 Z-0.072
X44.812 Y46.171 Z-0.071
X44.817 Y46.122 Z-0.072
X44.819 Y46.073
X44.821 Y46.024
X44.822 Y45.975
Y45.877
Y2.074
Y2.025
X44.821 Y1.976
X44.819 Y1.927
X44.817 Y1.878
X44.812 Y1.829 Z-0.071
X44.806 Y1.78 Z-0.072
X44.798 Y1.731 Z-0.071
X44.79 Y1.682
X44.779 Y1.633
X44.767 Y1.585
X44.753 Y1.536
X44.735 Y1.478 Z-0.072
X44.721 Y1.438
X44.701 Y1.389 Z-0.071
X44.681 Y1.34
X44.658 Y1.291 Z-0.072
X44.633 Y1.242 Z-0.071
X44.606 Y1.193
X44.576 Y1.144
X44.539 Y1.086
X44.51 Y1.046 Z-0.072
X44.49 Y1.019 Z-0.071
X44.474 Y0.997
X44.441 Y0.957
X44.434 Y0.948
X44.39 Y0.899 Z-0.072
X44.343 Y0.85 Z-0.071
X44.291 Y0.801 Z-0.072
X44.245 Y0.761 Z-0.071
X44.235 Y0.752
X44.196 Y0.722
X44.147 Y0.685 Z-0.072
X44.104 Y0.655 Z-0.071
X44.049 Y0.62
X44. Y0.591
X43.952 Y0.564
X43.903 Y0.539 Z-0.072
X43.854 Y0.516 Z-0.071
X43.805 Y0.496
X43.756 Y0.477 Z-0.072
X43.703 Y0.459 Z-0.071
X43.658 Y0.445
X43.609 Y0.431
X43.56 Y0.419
X43.511 Y0.409
X43.462 Y0.4
X43.413 Y0.393 Z-0.072
X43.364 Y0.387 Z-0.071
X43.315 Y0.383 Z-0.072
X43.266 Y0.38
X43.217 Y0.378
X43.168
X2.032
X1.983
X1.934 Y0.38
X1.885 Y0.383
X1.836 Y0.387 Z-0.071
X1.787 Y0.393 Z-0.072
X1.738 Y0.4 Z-0.071
X1.684 Y0.41
X1.64 Y0.419
X1.591 Y0.431 Z-0.072
X1.542 Y0.445 Z-0.071
X1.493 Y0.46
X1.444 Y0.477 Z-0.072
X1.395 Y0.496 Z-0.071
X1.346 Y0.516
X1.298 Y0.539 Z-0.072
X1.249 Y0.564 Z-0.071
X1.2 Y0.591
X1.151 Y0.62
X1.096 Y0.655
X1.053 Y0.685
X1.004 Y0.722
X0.965 Y0.752
X0.955 Y0.761
X0.906 Y0.804 Z-0.072
X0.857 Y0.851 Z-0.071
X0.808 Y0.902 Z-0.072
X0.766 Y0.948 Z-0.071
X0.759 Y0.957
X0.727 Y0.997
X0.71 Y1.019
X0.69 Y1.046 Z-0.072
X0.661 Y1.086 Z-0.071
X0.624 Y1.144
X0.594 Y1.193
X0.567 Y1.242
X0.542 Y1.291 Z-0.072
X0.519 Y1.34
X0.499 Y1.389 Z-0.071
X0.479 Y1.438 Z-0.072
X0.462 Y1.487
X0.447 Y1.536 Z-0.071
X0.433 Y1.585
X0.421 Y1.633
X0.41 Y1.687
X0.401 Y1.731
X0.394 Y1.78 Z-0.072
X0.388 Y1.829 Z-0.071
X0.383 Y1.878 Z-0.072
X0.38 Y1.948
X0.379 Y1.976
X0.378 Y2.034
X0.377 Y2.048 Z-0.073
X0.375 Y2.061 Z-0.075
X0.366 Y2.096 Z-0.084
X0.365 Y2.104 Z-0.085
X0.364 Y2.115 Z-0.086
Y2.12
Y45.926
X0.365 Y46.024
X0.367 Y46.081
X0.369 Y46.122
X0.374 Y46.171 Z-0.085
X0.379 Y46.22 Z-0.086
X0.387 Y46.269
X0.396 Y46.318 Z-0.085
X0.407 Y46.367 Z-0.086
X0.419 Y46.415
X0.432 Y46.464 Z-0.085
X0.447 Y46.513 Z-0.086
X0.465 Y46.564
X0.484 Y46.611 Z-0.085
X0.504 Y46.66 Z-0.086
X0.527 Y46.709
X0.551 Y46.758 Z-0.085
X0.563 Y46.78
X0.578 Y46.807
X0.612 Y46.863
X0.638 Y46.905
X0.661 Y46.938
X0.672 Y46.954 Z-0.086
X0.71 Y47.004
X0.748 Y47.052 Z-0.085
X0.759 Y47.065
X0.792 Y47.101
X0.838 Y47.15
X0.857 Y47.169
X0.906 Y47.214
X0.943 Y47.248
X0.955 Y47.258
X1.004 Y47.296 Z-0.086
X1.053 Y47.333 Z-0.085
X1.071 Y47.345
X1.102 Y47.366
X1.151 Y47.397
X1.2 Y47.426
X1.249 Y47.452
X1.298 Y47.476 Z-0.086
X1.346 Y47.499 Z-0.085
X1.395 Y47.519
X1.444 Y47.538 Z-0.086
X1.493 Y47.555
X1.542 Y47.57 Z-0.085
X1.591 Y47.583 Z-0.086
X1.64 Y47.595
X1.689 Y47.606 Z-0.085
X1.738 Y47.614
X1.787 Y47.622 Z-0.086
X1.836 Y47.627 Z-0.085
X1.885 Y47.631 Z-0.086
X1.934 Y47.634
X1.983 Y47.636
X2.032
X43.168
X43.217
X43.266 Y47.634
X43.315 Y47.631
X43.364 Y47.627 Z-0.085
X43.413 Y47.622 Z-0.086
X43.462 Y47.614 Z-0.085
X43.511 Y47.606
X43.56 Y47.595 Z-0.086
X43.609 Y47.583
X43.658 Y47.57 Z-0.085
X43.707 Y47.555 Z-0.086
X43.756 Y47.538
X43.805 Y47.519 Z-0.085
X43.854 Y47.499
X43.903 Y47.476 Z-0.086
X43.952 Y47.452
X44. Y47.426 Z-0.085
X44.053 Y47.394
X44.098 Y47.366
X44.129 Y47.345
X44.147 Y47.333
X44.196 Y47.296 Z-0.086
X44.245 Y47.258 Z-0.085
X44.257 Y47.248 Z-0.086
X44.294 Y47.215
X44.312 Y47.199
X44.343 Y47.169 Z-0.085
X44.363 Y47.15
X44.392 Y47.119 Z-0.086
X44.409 Y47.101
X44.441 Y47.065
X44.452 Y47.052 Z-0.085
X44.491 Y47.003 Z-0.086
X44.528 Y46.954
X44.539 Y46.938 Z-0.085
X44.562 Y46.905
X44.593 Y46.856
X44.622 Y46.807
X44.637 Y46.78
X44.649 Y46.758
X44.673 Y46.709 Z-0.086
X44.696 Y46.66 Z-0.085
X44.716 Y46.611
X44.736 Y46.562 Z-0.086
X44.753 Y46.513
X44.768 Y46.464 Z-0.085
X44.781 Y46.415 Z-0.086
X44.793 Y46.367
X44.804 Y46.318 Z-0.085
X44.813 Y46.269
X44.821 Y46.22 Z-0.086
X44.826 Y46.171 Z-0.085
X44.831 Y46.122 Z-0.086
X44.833 Y46.073
X44.835 Y46.024
X44.836 Y45.926
Y2.074
X44.835 Y1.976
X44.833 Y1.919
X44.831 Y1.878
X44.826 Y1.829 Z-0.085
X44.821 Y1.78 Z-0.086
X44.813 Y1.731 Z-0.085
X44.804 Y1.682
X44.793 Y1.633 Z-0.086
X44.781 Y1.585
X44.768 Y1.536 Z-0.085
X44.753 Y1.487 Z-0.086
X44.735 Y1.436
X44.716 Y1.389 Z-0.085
X44.696 Y1.34
X44.673 Y1.291 Z-0.086
X44.649 Y1.242 Z-0.085
X44.637 Y1.22
X44.622 Y1.193
X44.588 Y1.137
X44.562 Y1.095
X44.539 Y1.062
X44.528 Y1.046 Z-0.086
X44.49 Y0.996
X44.452 Y0.948 Z-0.085
X44.441 Y0.935 Z-0.086
X44.409 Y0.899
X44.392 Y0.881
X44.363 Y0.85 Z-0.085
X44.343 Y0.831
X44.312 Y0.801 Z-0.086
X44.294 Y0.785
X44.257 Y0.752
X44.245 Y0.742 Z-0.085
X44.196 Y0.704 Z-0.086
X44.147 Y0.667 Z-0.085
X44.129 Y0.655
X44.098 Y0.634
X44.049 Y0.603
X44. Y0.574
X43.952 Y0.548 Z-0.086
X43.903 Y0.524
X43.854 Y0.501 Z-0.085
X43.805 Y0.481
X43.756 Y0.462 Z-0.086
X43.707 Y0.445
X43.658 Y0.43 Z-0.085
X43.609 Y0.417 Z-0.086
X43.56 Y0.405
X43.511 Y0.394 Z-0.085
X43.462 Y0.386 Z-0.086
X43.413 Y0.378
X43.364 Y0.373 Z-0.085
X43.315 Y0.369 Z-0.086
X43.266 Y0.366
X43.217 Y0.364
X43.168
X2.032
X1.983
X1.934 Y0.366
X1.885 Y0.369
X1.836 Y0.373 Z-0.085
X1.787 Y0.378 Z-0.086
X1.738 Y0.386
X1.689 Y0.394 Z-0.085
X1.64 Y0.405 Z-0.086
X1.591 Y0.417
X1.542 Y0.43 Z-0.085
X1.493 Y0.445 Z-0.086
X1.444 Y0.462
X1.395 Y0.481 Z-0.085
X1.346 Y0.501
X1.298 Y0.524 Z-0.086
X1.249 Y0.548
X1.2 Y0.574 Z-0.085
X1.147 Y0.606
X1.102 Y0.634
X1.071 Y0.655
X1.053 Y0.667
X1.004 Y0.704 Z-0.086
X0.955 Y0.742 Z-0.085
X0.943 Y0.752
X0.906 Y0.785 Z-0.086
X0.888 Y0.801
X0.857 Y0.831 Z-0.085
X0.837 Y0.85
X0.791 Y0.899 Z-0.086
X0.759 Y0.935
X0.748 Y0.948 Z-0.085
X0.709 Y0.997 Z-0.086
X0.672 Y1.046
X0.661 Y1.062 Z-0.085
X0.638 Y1.095
X0.607 Y1.144
X0.578 Y1.193
X0.563 Y1.22
X0.551 Y1.242
X0.527 Y1.291 Z-0.086
X0.504 Y1.34
X0.484 Y1.389 Z-0.085
X0.464 Y1.438 Z-0.086
X0.447 Y1.487
X0.432 Y1.536 Z-0.085
X0.419 Y1.585 Z-0.086
X0.407 Y1.633
X0.396 Y1.685 Z-0.085
X0.387 Y1.731 Z-0.086
X0.379 Y1.78
X0.374 Y1.829 Z-0.085
X0.369 Y1.878 Z-0.086
X0.367 Y1.927
X0.365 Y1.976
X0.364 Y2.074
Y2.12
X0.363 Y2.134 Z-0.087
X0.36 Y2.147 Z-0.09
X0.352 Y2.182 Z-0.098
X0.351 Y2.19 Z-0.099
X0.35 Y2.201 Z-0.1
X0.349 Y2.206 Z-0.101
Y45.926
X0.35 Y46.024 Z-0.1
X0.352 Y46.073
X0.355 Y46.122
X0.36 Y46.171 Z-0.099
X0.365 Y46.22 Z-0.1
X0.373 Y46.269
X0.382 Y46.318 Z-0.099
X0.392 Y46.367 Z-0.1
X0.404 Y46.415
X0.418 Y46.464 Z-0.099
X0.433 Y46.513 Z-0.1
X0.449 Y46.562
X0.468 Y46.611 Z-0.099
X0.489 Y46.66 Z-0.1
X0.514 Y46.716
X0.536 Y46.758
X0.563 Y46.809 Z-0.099
X0.591 Y46.856
X0.622 Y46.905
X0.655 Y46.954 Z-0.1
X0.691 Y47.003
X0.71 Y47.027
X0.729 Y47.052 Z-0.099
X0.759 Y47.086 Z-0.1
X0.772 Y47.101
X0.818 Y47.15 Z-0.099
X0.857 Y47.188
X0.906 Y47.233 Z-0.1
X0.922 Y47.248 Z-0.099
X0.955 Y47.276
X1.004 Y47.314 Z-0.1
X1.053 Y47.35 Z-0.099
X1.102 Y47.383
X1.151 Y47.413
X1.202 Y47.443
X1.249 Y47.468 Z-0.1
X1.298 Y47.492
X1.346 Y47.514
X1.395 Y47.534
X1.412 Y47.541
X1.444 Y47.553
X1.493 Y47.569
X1.542 Y47.584 Z-0.099
X1.563 Y47.59
X1.591 Y47.598 Z-0.1
X1.64 Y47.609
X1.689 Y47.62
X1.738 Y47.628
X1.787 Y47.636
X1.836 Y47.641 Z-0.099
X1.885 Y47.645 Z-0.1
X1.934 Y47.648
X1.983 Y47.65
X2.032 Y47.651 Z-0.101
X43.168
X43.217 Y47.65 Z-0.1
X43.266 Y47.648
X43.315 Y47.645
X43.364 Y47.641 Z-0.099
X43.413 Y47.636 Z-0.1
X43.462 Y47.628
X43.511 Y47.62
X43.56 Y47.609
X43.609 Y47.598
X43.637 Y47.59 Z-0.099
X43.658 Y47.584
X43.707 Y47.569 Z-0.1
X43.756 Y47.553
X43.787 Y47.541
X43.805 Y47.534
X43.854 Y47.514
X43.903 Y47.492
X43.952 Y47.468
X44. Y47.442 Z-0.099
X44.049 Y47.413
X44.098 Y47.383
X44.147 Y47.35
X44.196 Y47.314 Z-0.1
X44.245 Y47.276 Z-0.099
X44.279 Y47.248 Z-0.1
X44.294 Y47.234
X44.333 Y47.199
X44.343 Y47.188 Z-0.099
X44.382 Y47.15
X44.428 Y47.101 Z-0.1
X44.441 Y47.086
X44.471 Y47.052 Z-0.099
X44.49 Y47.027 Z-0.1
X44.509 Y47.003
X44.545 Y46.954
X44.578 Y46.905 Z-0.099
X44.609 Y46.856
X44.638 Y46.807
X44.665 Y46.758 Z-0.1
X44.689 Y46.709
X44.711 Y46.66
X44.735 Y46.603 Z-0.099
X44.751 Y46.562 Z-0.1
X44.767 Y46.513
X44.784 Y46.459 Z-0.099
X44.796 Y46.415 Z-0.1
X44.808 Y46.367
X44.818 Y46.318 Z-0.099
X44.827 Y46.269 Z-0.1
X44.835 Y46.22
X44.84 Y46.171 Z-0.099
X44.845 Y46.122 Z-0.1
X44.848 Y46.073
X44.85 Y46.024
X44.851 Y45.926 Z-0.101
Y2.074
X44.85 Y1.976 Z-0.1
X44.848 Y1.927
X44.845 Y1.878
X44.84 Y1.829 Z-0.099
X44.835 Y1.78 Z-0.1
X44.827 Y1.731
X44.818 Y1.682 Z-0.099
X44.808 Y1.633 Z-0.1
X44.796 Y1.585
X44.782 Y1.536 Z-0.099
X44.767 Y1.487 Z-0.1
X44.751 Y1.438
X44.732 Y1.389 Z-0.099
X44.711 Y1.34 Z-0.1
X44.686 Y1.285
X44.665 Y1.242
X44.637 Y1.191 Z-0.099
X44.609 Y1.144
X44.579 Y1.095
X44.545 Y1.046 Z-0.1
X44.509 Y0.997
X44.49 Y0.973
X44.471 Y0.948 Z-0.099
X44.441 Y0.914 Z-0.1
X44.428 Y0.899
X44.382 Y0.85 Z-0.099
X44.343 Y0.812
X44.294 Y0.766 Z-0.1
X44.279 Y0.752
X44.245 Y0.724 Z-0.099
X44.196 Y0.686 Z-0.1
X44.147 Y0.65 Z-0.099
X44.098 Y0.617
X44.049 Y0.587
X43.998 Y0.557
X43.952 Y0.532 Z-0.1
X43.902 Y0.508
X43.854 Y0.486
X43.805 Y0.466
X43.788 Y0.459
X43.756 Y0.447
X43.707 Y0.431
X43.658 Y0.416 Z-0.099
X43.637 Y0.41
X43.609 Y0.402 Z-0.1
X43.56 Y0.391
X43.511 Y0.38
X43.462 Y0.372
X43.413 Y0.364
X43.364 Y0.359 Z-0.099
X43.315 Y0.355 Z-0.1
X43.266 Y0.352
X43.217 Y0.35
X43.168 Y0.349 Z-0.101
X2.032
X1.983 Y0.35 Z-0.1
X1.934 Y0.352
X1.885 Y0.355
X1.836 Y0.359 Z-0.099
X1.787 Y0.364 Z-0.1
X1.738 Y0.372
X1.689 Y0.38
X1.64 Y0.39
X1.591 Y0.402
X1.563 Y0.41 Z-0.099
X1.542 Y0.416
X1.493 Y0.431 Z-0.1
X1.444 Y0.447
X1.412 Y0.459
X1.395 Y0.466
X1.346 Y0.486
X1.298 Y0.508
X1.249 Y0.532
X1.2 Y0.558 Z-0.099
X1.151 Y0.587
X1.102 Y0.617
X1.053 Y0.65
X1.004 Y0.686 Z-0.1
X0.955 Y0.724 Z-0.099
X0.921 Y0.752 Z-0.1
X0.906 Y0.766
X0.857 Y0.812 Z-0.099
X0.818 Y0.85
X0.772 Y0.899 Z-0.1
X0.759 Y0.914
X0.729 Y0.948 Z-0.099
X0.71 Y0.973 Z-0.1
X0.691 Y0.997
X0.655 Y1.046
X0.621 Y1.095 Z-0.099
X0.591 Y1.144
X0.562 Y1.193
X0.536 Y1.242 Z-0.1
X0.511 Y1.291
X0.489 Y1.34
X0.465 Y1.397 Z-0.099
X0.449 Y1.438 Z-0.1
X0.433 Y1.487
X0.416 Y1.541 Z-0.099
X0.404 Y1.585 Z-0.1
X0.392 Y1.633
X0.382 Y1.682 Z-0.099
X0.373 Y1.731 Z-0.1
X0.365 Y1.78
X0.36 Y1.829 Z-0.099
X0.355 Y1.878 Z-0.1
X0.352 Y1.927
X0.35 Y1.976
X0.349 Y2.074 Z-0.101
Y2.206
Y2.266
Y45.975
Y46.024
X0.354 Y46.122
X0.358 Y46.171
X0.367 Y46.24
X0.371 Y46.269
X0.38 Y46.318
X0.391 Y46.367
X0.402 Y46.415
X0.416 Y46.465
X0.431 Y46.513
X0.448 Y46.562
X0.467 Y46.611
X0.487 Y46.66
X0.509 Y46.709
X0.534 Y46.758
X0.563 Y46.812
X0.589 Y46.856
X0.62 Y46.905
X0.653 Y46.954
X0.689 Y47.003
X0.71 Y47.029
X0.728 Y47.052
X0.759 Y47.088
X0.808 Y47.141
X0.816 Y47.15
X0.857 Y47.19
X0.906 Y47.235
X0.919 Y47.248
X0.955 Y47.277
X1.004 Y47.316
X1.053 Y47.352
X1.102 Y47.384
X1.151 Y47.415
X1.2 Y47.444
X1.249 Y47.47
X1.298 Y47.494
X1.346 Y47.516
X1.395 Y47.536
X1.409 Y47.541
X1.444 Y47.554
X1.493 Y47.571
X1.542 Y47.586
X1.556 Y47.59
X1.591 Y47.599
X1.64 Y47.611
X1.689 Y47.621
X1.738 Y47.63
X1.805 Y47.639
X1.836 Y47.643
X1.885 Y47.647
X1.983 Y47.651
X43.217
X43.315 Y47.647
X43.364 Y47.643
X43.413 Y47.637
X43.462 Y47.63
X43.511 Y47.621
X43.56 Y47.611
X43.609 Y47.599
X43.644 Y47.59
X43.658 Y47.586
X43.707 Y47.571
X43.756 Y47.554
X43.791 Y47.541
X43.805 Y47.536
X43.854 Y47.516
X43.905 Y47.492
X43.952 Y47.47
X44.001 Y47.443
X44.049 Y47.415
X44.098 Y47.384
X44.147 Y47.352
X44.196 Y47.316
X44.245 Y47.277
X44.281 Y47.248
X44.343 Y47.19
X44.384 Y47.15
X44.43 Y47.101
X44.441 Y47.088
X44.472 Y47.052
X44.49 Y47.029
X44.511 Y47.003
X44.547 Y46.954
X44.58 Y46.905
X44.611 Y46.856
X44.64 Y46.807
X44.666 Y46.758
X44.691 Y46.709
X44.713 Y46.66
X44.735 Y46.607
X44.752 Y46.562
X44.769 Y46.513
X44.784 Y46.464
X44.798 Y46.415
X44.809 Y46.367
X44.82 Y46.318
X44.829 Y46.269
X44.836 Y46.22
X44.842 Y46.171
X44.846 Y46.122
X44.851 Y46.024
Y45.975
Y2.025
Y1.976
X44.846 Y1.878
X44.842 Y1.829
X44.833 Y1.761
X44.829 Y1.731
X44.82 Y1.682
X44.809 Y1.633
X44.798 Y1.585
X44.784 Y1.535
X44.769 Y1.487
X44.752 Y1.438
X44.733 Y1.389
X44.713 Y1.34
X44.691 Y1.291
X44.666 Y1.242
X44.637 Y1.188
X44.611 Y1.144
X44.58 Y1.095
X44.547 Y1.046
X44.511 Y0.997
X44.49 Y0.971
X44.472 Y0.948
X44.441 Y0.912
X44.384 Y0.85
X44.343 Y0.81
X44.281 Y0.752
X44.245 Y0.723
X44.196 Y0.684
X44.147 Y0.648
X44.098 Y0.616
X44.049 Y0.585
X44. Y0.556
X43.952 Y0.53
X43.903 Y0.506
X43.854 Y0.484
X43.791 Y0.459
X43.756 Y0.446
X43.707 Y0.429
X43.658 Y0.414
X43.644 Y0.41
X43.609 Y0.401
X43.56 Y0.389
X43.511 Y0.379
X43.462 Y0.37
X43.395 Y0.361
X43.364 Y0.357
X43.315 Y0.353
X43.217 Y0.349
X43.07
X2.032
X1.983
X1.885 Y0.353
X1.836 Y0.357
X1.787 Y0.363
X1.738 Y0.37
X1.689 Y0.379
X1.64 Y0.389
X1.591 Y0.401
X1.556 Y0.41
X1.542 Y0.414
X1.493 Y0.429
X1.444 Y0.446
X1.409 Y0.459
X1.395 Y0.464
X1.346 Y0.484
X1.295 Y0.508
X1.249 Y0.53
X1.199 Y0.557
X1.151 Y0.585
X1.102 Y0.615
X1.053 Y0.648
X1.004 Y0.684
X0.955 Y0.723
X0.919 Y0.752
X0.865 Y0.801
X0.857 Y0.81
X0.816 Y0.85
X0.77 Y0.899
X0.759 Y0.912
X0.728 Y0.948
X0.71 Y0.971
X0.689 Y0.997
X0.653 Y1.046
X0.62 Y1.095
X0.589 Y1.144
X0.56 Y1.193
X0.534 Y1.242
X0.509 Y1.291
X0.487 Y1.34
X0.465 Y1.393
X0.448 Y1.438
X0.431 Y1.487
X0.416 Y1.536
X0.402 Y1.585
X0.391 Y1.633
X0.38 Y1.682
X0.371 Y1.731
X0.364 Y1.78
X0.358 Y1.829
X0.354 Y1.878
X0.349 Y1.976
Y2.025
Y2.266
X0.348 Y2.28 Z-0.102
X0.345 Y2.294 Z-0.105
X0.337 Y2.328 Z-0.113
X0.336 Y2.336 Z-0.114
X0.335 Y2.347 Z-0.115
Y2.353
Y45.975
Y46.024
X0.339 Y46.122
X0.344 Y46.171
X0.35 Y46.22
X0.357 Y46.269
X0.365 Y46.318
X0.376 Y46.367
X0.388 Y46.415
X0.401 Y46.464
X0.417 Y46.513
X0.433 Y46.562
X0.451 Y46.611
X0.472 Y46.66
X0.494 Y46.709
X0.518 Y46.758
X0.544 Y46.807
X0.563 Y46.84
X0.572 Y46.856
X0.612 Y46.919
X0.636 Y46.954
X0.671 Y47.003
X0.71 Y47.052
X0.751 Y47.101
X0.808 Y47.162
X0.845 Y47.199
X0.906 Y47.254
X0.956 Y47.296
X1.004 Y47.333
X1.053 Y47.369
X1.102 Y47.401
X1.151 Y47.432
X1.17 Y47.443
X1.2 Y47.46
X1.249 Y47.485
X1.262 Y47.492
X1.298 Y47.509
X1.346 Y47.531
X1.395 Y47.551
X1.444 Y47.569
X1.508 Y47.59
X1.542 Y47.601
X1.591 Y47.614
X1.64 Y47.625
X1.689 Y47.636
X1.707 Y47.639
X1.738 Y47.644
X1.787 Y47.651
X1.836 Y47.657
X1.885 Y47.661
X1.983 Y47.665
X43.217
X43.315 Y47.661
X43.364 Y47.657
X43.413 Y47.651
X43.462 Y47.644
X43.493 Y47.639
X43.511 Y47.636
X43.56 Y47.625
X43.609 Y47.614
X43.658 Y47.601
X43.707 Y47.586
X43.756 Y47.569
X43.805 Y47.551
X43.854 Y47.531
X43.903 Y47.509
X43.938 Y47.492
X43.952 Y47.485
X44. Y47.46
X44.03 Y47.443
X44.049 Y47.432
X44.109 Y47.394
X44.147 Y47.369
X44.196 Y47.333
X44.245 Y47.296
X44.294 Y47.254
X44.355 Y47.199
X44.392 Y47.162
X44.449 Y47.101
X44.491 Y47.052
X44.529 Y47.003
X44.564 Y46.954
X44.588 Y46.919
X44.628 Y46.856
X44.637 Y46.84
X44.656 Y46.807
X44.686 Y46.75
X44.706 Y46.709
X44.728 Y46.66
X44.749 Y46.611
X44.767 Y46.562
X44.784 Y46.512
X44.799 Y46.464
X44.812 Y46.415
X44.824 Y46.367
X44.835 Y46.318
X44.843 Y46.269
X44.85 Y46.22
X44.856 Y46.171
X44.861 Y46.122
X44.865 Y46.024
Y45.975
Y2.025
Y1.976
X44.861 Y1.878
X44.856 Y1.829
X44.85 Y1.78
X44.843 Y1.731
X44.835 Y1.682
X44.824 Y1.633
X44.812 Y1.585
X44.799 Y1.536
X44.783 Y1.487
X44.767 Y1.438
X44.749 Y1.389
X44.728 Y1.34
X44.706 Y1.291
X44.682 Y1.242
X44.656 Y1.193
X44.637 Y1.16
X44.628 Y1.144
X44.588 Y1.081
X44.564 Y1.046
X44.529 Y0.997
X44.49 Y0.948
X44.449 Y0.899
X44.392 Y0.838
X44.355 Y0.801
X44.294 Y0.746
X44.244 Y0.704
X44.196 Y0.667
X44.147 Y0.631
X44.098 Y0.599
X44.049 Y0.568
X44.03 Y0.557
X44. Y0.54
X43.952 Y0.515
X43.938 Y0.508
X43.903 Y0.491
X43.854 Y0.469
X43.805 Y0.449
X43.756 Y0.431
X43.692 Y0.41
X43.658 Y0.399
X43.609 Y0.386
X43.56 Y0.375
X43.511 Y0.364
X43.493 Y0.361
X43.462 Y0.356
X43.413 Y0.349
X43.364 Y0.343
X43.315 Y0.339
X43.217 Y0.335
X42.825
X2.032
X1.983
X1.885 Y0.339
X1.836 Y0.343
X1.787 Y0.349
X1.738 Y0.356
X1.707 Y0.361
X1.689 Y0.364
X1.64 Y0.375
X1.591 Y0.386
X1.542 Y0.399
X1.493 Y0.414
X1.444 Y0.431
X1.395 Y0.449
X1.346 Y0.469
X1.298 Y0.491
X1.262 Y0.508
X1.249 Y0.515
X1.2 Y0.54
X1.17 Y0.557
X1.151 Y0.568
X1.102 Y0.599
X1.053 Y0.631
X1.004 Y0.667
X0.955 Y0.704
X0.906 Y0.746
X0.845 Y0.801
X0.808 Y0.838
X0.751 Y0.899
X0.709 Y0.948
X0.671 Y0.997
X0.636 Y1.046
X0.612 Y1.081
X0.572 Y1.144
X0.563 Y1.16
X0.544 Y1.193
X0.514 Y1.25
X0.494 Y1.291
X0.472 Y1.34
X0.451 Y1.389
X0.433 Y1.438
X0.416 Y1.488
X0.401 Y1.536
X0.388 Y1.585
X0.376 Y1.633
X0.365 Y1.682
X0.357 Y1.731
X0.35 Y1.78
X0.344 Y1.829
X0.339 Y1.878
X0.335 Y1.976
Y2.025
Y2.353
X0.334 Y2.367 Z-0.116
X0.331 Y2.38 Z-0.119
X0.323 Y2.414 Z-0.127
X0.322 Y2.422 Z-0.128
X0.321 Y2.433 Z-0.129
X0.32 Y2.439 Z-0.13
Y45.975
X0.321 Y46.024
X0.325 Y46.122
X0.329 Y46.171 Z-0.129
X0.343 Y46.269
X0.351 Y46.318
X0.367 Y46.39
X0.373 Y46.415
X0.386 Y46.464
X0.402 Y46.513
X0.418 Y46.562
X0.436 Y46.611
X0.465 Y46.68
X0.478 Y46.709
X0.502 Y46.758
X0.528 Y46.807
X0.556 Y46.856
X0.586 Y46.905
X0.618 Y46.954
X0.654 Y47.003
X0.691 Y47.052
X0.71 Y47.075
X0.732 Y47.101
X0.777 Y47.15
X0.808 Y47.182
X0.824 Y47.199
X0.857 Y47.229
X0.906 Y47.273
X0.933 Y47.296
X0.955 Y47.314
X1.004 Y47.351
X1.053 Y47.386
X1.102 Y47.418
X1.151 Y47.448
X1.2 Y47.476
X1.249 Y47.501
X1.298 Y47.525
X1.346 Y47.546
X1.395 Y47.566
X1.444 Y47.584
X1.493 Y47.6
X1.542 Y47.616
X1.591 Y47.628
X1.64 Y47.64
X1.689 Y47.65
X1.738 Y47.658 Z-0.13
X1.787 Y47.665 Z-0.129
X1.836 Y47.671
X1.885 Y47.675 Z-0.13
X1.983 Y47.679
X43.217
X43.315 Y47.675
X43.364 Y47.671 Z-0.129
X43.413 Y47.665
X43.462 Y47.658 Z-0.13
X43.511 Y47.65 Z-0.129
X43.563 Y47.639
X43.609 Y47.628
X43.658 Y47.616
X43.739 Y47.59
X43.756 Y47.584
X43.805 Y47.567
X43.866 Y47.541
X43.903 Y47.525
X43.952 Y47.501
X44. Y47.476
X44.049 Y47.448
X44.098 Y47.418
X44.147 Y47.386
X44.204 Y47.345
X44.245 Y47.314
X44.267 Y47.296
X44.294 Y47.273
X44.343 Y47.229
X44.376 Y47.199
X44.392 Y47.182
X44.423 Y47.15
X44.468 Y47.101
X44.49 Y47.075
X44.509 Y47.052
X44.546 Y47.003
X44.582 Y46.954
X44.614 Y46.905
X44.644 Y46.856
X44.672 Y46.807
X44.698 Y46.758
X44.722 Y46.709
X44.735 Y46.68
X44.764 Y46.611
X44.784 Y46.557
X44.798 Y46.513
X44.814 Y46.464
X44.827 Y46.415
X44.838 Y46.367
X44.849 Y46.318
X44.857 Y46.269 Z-0.13
X44.871 Y46.171 Z-0.129
X44.875 Y46.122 Z-0.13
X44.879 Y46.024
X44.88 Y45.975
Y2.025
X44.879 Y1.976
X44.875 Y1.878
X44.871 Y1.829 Z-0.129
X44.857 Y1.731 Z-0.13
X44.849 Y1.682 Z-0.129
X44.833 Y1.61
X44.827 Y1.585
X44.814 Y1.536
X44.798 Y1.487
X44.782 Y1.438
X44.764 Y1.389
X44.735 Y1.32
X44.722 Y1.291
X44.698 Y1.242
X44.672 Y1.193
X44.644 Y1.144
X44.614 Y1.095
X44.582 Y1.046
X44.546 Y0.997
X44.509 Y0.948
X44.49 Y0.925
X44.468 Y0.899
X44.423 Y0.85
X44.392 Y0.818
X44.376 Y0.801
X44.343 Y0.771
X44.294 Y0.727
X44.267 Y0.704
X44.245 Y0.686
X44.196 Y0.649
X44.147 Y0.614
X44.098 Y0.582
X44.049 Y0.552
X44. Y0.524
X43.952 Y0.499
X43.903 Y0.475
X43.854 Y0.454
X43.805 Y0.434
X43.756 Y0.416
X43.707 Y0.4
X43.658 Y0.384
X43.609 Y0.372
X43.56 Y0.36
X43.511 Y0.35
X43.462 Y0.342 Z-0.13
X43.413 Y0.335 Z-0.129
X43.364 Y0.329
X43.315 Y0.325 Z-0.13
X43.217 Y0.321 Z-0.129
X42.482 Y0.32 Z-0.13
X2.032
X1.983 Y0.321 Z-0.129
X1.885 Y0.325 Z-0.13
X1.836 Y0.329 Z-0.129
X1.787 Y0.335
X1.738 Y0.342 Z-0.13
X1.689 Y0.35 Z-0.129
X1.637 Y0.361
X1.591 Y0.372
X1.542 Y0.384
X1.461 Y0.41
X1.444 Y0.416
X1.395 Y0.434
X1.334 Y0.459
X1.298 Y0.475
X1.249 Y0.499
X1.2 Y0.524
X1.151 Y0.552
X1.102 Y0.582
X1.053 Y0.614
X0.996 Y0.655
X0.955 Y0.686
X0.933 Y0.704
X0.906 Y0.727
X0.857 Y0.771
X0.824 Y0.801
X0.808 Y0.818
X0.777 Y0.85
X0.732 Y0.899
X0.71 Y0.925
X0.691 Y0.948
X0.654 Y0.997
X0.618 Y1.046
X0.586 Y1.095
X0.556 Y1.144
X0.528 Y1.193
X0.502 Y1.242
X0.478 Y1.291
X0.465 Y1.32
X0.436 Y1.389
X0.416 Y1.443
X0.402 Y1.487
X0.386 Y1.536
X0.373 Y1.585
X0.362 Y1.633
X0.351 Y1.682
X0.343 Y1.731
X0.329 Y1.829
X0.325 Y1.878 Z-0.13
X0.321 Y1.976
X0.32 Y2.025
Y2.439
Y2.452
X0.317 Y2.466 Z-0.133
X0.309 Y2.5 Z-0.141
X0.308 Y2.508 Z-0.142
X0.306 Y2.519 Z-0.144
Y2.524
Y45.975
X0.307 Y46.024
X0.311 Y46.122
X0.315 Y46.171
X0.328 Y46.269
X0.337 Y46.318
X0.347 Y46.367
X0.359 Y46.415
X0.367 Y46.448 Z-0.143
X0.372 Y46.464 Z-0.144
X0.387 Y46.513
X0.403 Y46.562 Z-0.143
X0.416 Y46.599
X0.421 Y46.611 Z-0.144
X0.441 Y46.66 Z-0.143
X0.465 Y46.715 Z-0.144
X0.486 Y46.758 Z-0.143
X0.514 Y46.811
X0.539 Y46.856
X0.569 Y46.905 Z-0.144
X0.601 Y46.954 Z-0.143
X0.612 Y46.97
X0.636 Y47.003
X0.673 Y47.052 Z-0.144
X0.713 Y47.101 Z-0.143
X0.759 Y47.151 Z-0.144
X0.808 Y47.202 Z-0.143
X0.857 Y47.248 Z-0.144
X0.911 Y47.296 Z-0.143
X0.955 Y47.332 Z-0.144
X1.004 Y47.369 Z-0.143
X1.039 Y47.394
X1.053 Y47.403
X1.115 Y47.443
X1.151 Y47.465
X1.201 Y47.492
X1.249 Y47.517 Z-0.144
X1.299 Y47.541 Z-0.143
X1.346 Y47.562
X1.395 Y47.582 Z-0.144
X1.444 Y47.599 Z-0.143
X1.493 Y47.615 Z-0.144
X1.542 Y47.63
X1.591 Y47.643
X1.64 Y47.654
X1.689 Y47.665
X1.738 Y47.673
X1.836 Y47.686
X1.864 Y47.688
X1.885 Y47.689
X1.983 Y47.694
X43.217
X43.315 Y47.689
X43.335 Y47.688
X43.364 Y47.686
X43.462 Y47.673
X43.511 Y47.665
X43.56 Y47.654
X43.609 Y47.643
X43.658 Y47.63
X43.707 Y47.615
X43.756 Y47.599 Z-0.143
X43.805 Y47.582 Z-0.144
X43.854 Y47.562 Z-0.143
X43.903 Y47.541
X43.952 Y47.517 Z-0.144
X44. Y47.492 Z-0.143
X44.049 Y47.465
X44.085 Y47.443
X44.147 Y47.403
X44.161 Y47.394
X44.196 Y47.369 Z-0.144
X44.245 Y47.332
X44.294 Y47.292 Z-0.143
X44.344 Y47.248 Z-0.144
X44.396 Y47.199 Z-0.143
X44.442 Y47.15 Z-0.144
X44.49 Y47.097 Z-0.143
X44.527 Y47.052 Z-0.144
X44.564 Y47.003 Z-0.143
X44.588 Y46.97
X44.599 Y46.954
X44.637 Y46.895 Z-0.144
X44.661 Y46.856 Z-0.143
X44.688 Y46.807
X44.714 Y46.758
X44.738 Y46.709
X44.759 Y46.66
X44.779 Y46.611 Z-0.144
X44.784 Y46.599
X44.797 Y46.562 Z-0.143
X44.813 Y46.513 Z-0.144
X44.828 Y46.464
X44.833 Y46.448
X44.841 Y46.415
X44.853 Y46.367
X44.863 Y46.318
X44.872 Y46.269
X44.885 Y46.171
X44.889 Y46.122
X44.893 Y46.024
X44.894 Y45.975
Y2.025
X44.893 Y1.976
X44.889 Y1.878
X44.885 Y1.829
X44.872 Y1.731
X44.863 Y1.682
X44.853 Y1.633
X44.841 Y1.585
X44.833 Y1.552 Z-0.143
X44.828 Y1.536 Z-0.144
X44.813 Y1.487
X44.797 Y1.438 Z-0.143
X44.784 Y1.401 Z-0.144
X44.779 Y1.389
X44.759 Y1.34 Z-0.143
X44.735 Y1.285
X44.714 Y1.242
X44.686 Y1.189
X44.661 Y1.144
X44.631 Y1.095 Z-0.144
X44.599 Y1.046 Z-0.143
X44.588 Y1.03
X44.564 Y0.997
X44.527 Y0.948 Z-0.144
X44.49 Y0.903 Z-0.143
X44.441 Y0.849 Z-0.144
X44.392 Y0.798 Z-0.143
X44.343 Y0.752 Z-0.144
X44.289 Y0.704 Z-0.143
X44.245 Y0.668 Z-0.144
X44.196 Y0.631
X44.161 Y0.606 Z-0.143
X44.147 Y0.597
X44.085 Y0.557
X44.049 Y0.535
X43.999 Y0.508
X43.952 Y0.483 Z-0.144
X43.901 Y0.459 Z-0.143
X43.854 Y0.438
X43.805 Y0.418 Z-0.144
X43.756 Y0.401 Z-0.143
X43.707 Y0.385 Z-0.144
X43.658 Y0.37
X43.609 Y0.357 Z-0.143
X43.56 Y0.346 Z-0.144
X43.511 Y0.335
X43.462 Y0.327
X43.364 Y0.314
X43.335 Y0.312 Z-0.143
X43.315 Y0.311 Z-0.144
X43.217 Y0.307
X41.944 Y0.306
X2.032
X1.983 Y0.307
X1.885 Y0.311
X1.864 Y0.312
X1.836 Y0.314
X1.738 Y0.327
X1.689 Y0.335
X1.64 Y0.346
X1.591 Y0.357 Z-0.143
X1.542 Y0.37 Z-0.144
X1.493 Y0.385
X1.444 Y0.401 Z-0.143
X1.395 Y0.418 Z-0.144
X1.346 Y0.438 Z-0.143
X1.298 Y0.459
X1.249 Y0.483 Z-0.144
X1.2 Y0.508
X1.151 Y0.535 Z-0.143
X1.115 Y0.557 Z-0.144
X1.053 Y0.597 Z-0.143
X1.039 Y0.606
X1.004 Y0.631
X0.955 Y0.668 Z-0.144
X0.906 Y0.708 Z-0.143
X0.856 Y0.752 Z-0.144
X0.804 Y0.801 Z-0.143
X0.758 Y0.85 Z-0.144
X0.71 Y0.903 Z-0.143
X0.673 Y0.948 Z-0.144
X0.636 Y0.997 Z-0.143
X0.612 Y1.03
X0.601 Y1.046
X0.563 Y1.105
X0.539 Y1.144
X0.512 Y1.193
X0.486 Y1.242
X0.462 Y1.291
X0.441 Y1.34
X0.421 Y1.389 Z-0.144
X0.416 Y1.401 Z-0.143
X0.403 Y1.438
X0.387 Y1.487 Z-0.144
X0.372 Y1.536
X0.367 Y1.552 Z-0.143
X0.359 Y1.585 Z-0.144
X0.347 Y1.633
X0.337 Y1.682
X0.328 Y1.731
X0.315 Y1.829
X0.311 Y1.878
X0.307 Y1.976
X0.306 Y2.025
Y2.524
X0.305 Y2.538 Z-0.145
X0.303 Y2.552 Z-0.147
X0.295 Y2.586 Z-0.155
X0.294 Y2.594 Z-0.156
X0.292 Y2.605 Z-0.158
Y2.611
Y45.975
X0.293 Y46.024
X0.297 Y46.122
X0.301 Y46.171
X0.314 Y46.269
X0.318 Y46.295
X0.322 Y46.318
X0.344 Y46.415
X0.357 Y46.464
X0.372 Y46.513
X0.388 Y46.562
X0.406 Y46.611
X0.426 Y46.66
X0.447 Y46.709
X0.465 Y46.748
X0.496 Y46.807
X0.514 Y46.841
X0.523 Y46.856
X0.553 Y46.905
X0.584 Y46.954 Z-0.157
X0.612 Y46.994 Z-0.158
X0.661 Y47.059
X0.695 Y47.101
X0.71 Y47.118
X0.759 Y47.172
X0.784 Y47.199
X0.808 Y47.222
X0.857 Y47.268
X0.889 Y47.296
X0.906 Y47.311 Z-0.157
X0.955 Y47.349 Z-0.158
X1.004 Y47.387
X1.014 Y47.394
X1.053 Y47.42
X1.102 Y47.452
X1.151 Y47.481
X1.17 Y47.492 Z-0.157
X1.249 Y47.533 Z-0.158
X1.265 Y47.541
X1.298 Y47.556
X1.346 Y47.577
X1.395 Y47.597
X1.444 Y47.614
X1.522 Y47.639
X1.542 Y47.645
X1.591 Y47.658
X1.689 Y47.679
X1.744 Y47.688
X1.836 Y47.7
X1.885 Y47.703
X1.983 Y47.708
X43.217
X43.315 Y47.703
X43.364 Y47.7
X43.462 Y47.687
X43.511 Y47.679
X43.56 Y47.669
X43.609 Y47.658
X43.658 Y47.645
X43.756 Y47.614
X43.805 Y47.597
X43.854 Y47.577
X43.903 Y47.556
X43.935 Y47.541
X43.952 Y47.533
X44.03 Y47.492
X44.049 Y47.481
X44.098 Y47.452
X44.147 Y47.42
X44.186 Y47.394
X44.196 Y47.387
X44.25 Y47.345
X44.294 Y47.311 Z-0.157
X44.311 Y47.296 Z-0.158
X44.343 Y47.267
X44.392 Y47.222
X44.416 Y47.199
X44.462 Y47.15
X44.49 Y47.118
X44.505 Y47.101
X44.544 Y47.052
X44.588 Y46.994
X44.616 Y46.954
X44.647 Y46.905
X44.677 Y46.856
X44.686 Y46.841
X44.704 Y46.807
X44.735 Y46.748
X44.753 Y46.709
X44.784 Y46.636
X44.794 Y46.611
X44.812 Y46.562
X44.833 Y46.497
X44.843 Y46.464
X44.856 Y46.415
X44.878 Y46.318
X44.882 Y46.295
X44.886 Y46.269
X44.899 Y46.171
X44.903 Y46.122
X44.907 Y46.024
X44.908 Y45.975
Y2.025
X44.907 Y1.976
X44.903 Y1.878
X44.899 Y1.829
X44.886 Y1.731
X44.882 Y1.705
X44.878 Y1.682
X44.856 Y1.585
X44.843 Y1.536
X44.828 Y1.487
X44.812 Y1.438
X44.794 Y1.389
X44.774 Y1.34
X44.753 Y1.291
X44.735 Y1.252
X44.704 Y1.193
X44.686 Y1.159
X44.677 Y1.144
X44.647 Y1.095
X44.616 Y1.046
X44.588 Y1.006
X44.539 Y0.941
X44.505 Y0.899
X44.49 Y0.882
X44.441 Y0.828
X44.416 Y0.801
X44.392 Y0.778
X44.343 Y0.733
X44.311 Y0.704
X44.294 Y0.689 Z-0.157
X44.245 Y0.651 Z-0.158
X44.196 Y0.613
X44.186 Y0.606
X44.147 Y0.58
X44.098 Y0.548
X44.049 Y0.519
X44.03 Y0.508 Z-0.157
X43.952 Y0.467 Z-0.158
X43.903 Y0.444
X43.854 Y0.423
X43.805 Y0.403
X43.756 Y0.386
X43.658 Y0.355
X43.609 Y0.342
X43.56 Y0.331
X43.511 Y0.321
X43.456 Y0.312
X43.364 Y0.3
X43.315 Y0.297
X43.217 Y0.292
X41.111
X2.032
X1.983
X1.885 Y0.297
X1.836 Y0.3
X1.738 Y0.313
X1.689 Y0.321
X1.64 Y0.331
X1.591 Y0.342
X1.542 Y0.355
X1.444 Y0.386
X1.395 Y0.403
X1.346 Y0.423
X1.298 Y0.444
X1.265 Y0.459
X1.249 Y0.467
X1.17 Y0.508 Z-0.157
X1.151 Y0.519 Z-0.158
X1.102 Y0.548
X1.053 Y0.58
X1.014 Y0.606
X1.004 Y0.613
X0.949 Y0.655
X0.906 Y0.689 Z-0.157
X0.889 Y0.704 Z-0.158
X0.857 Y0.732
X0.808 Y0.778
X0.784 Y0.801
X0.738 Y0.85
X0.71 Y0.882
X0.695 Y0.899
X0.656 Y0.948
X0.612 Y1.006
X0.584 Y1.046 Z-0.157
X0.553 Y1.095 Z-0.158
X0.523 Y1.144
X0.514 Y1.159
X0.496 Y1.193
X0.465 Y1.252
X0.447 Y1.291
X0.416 Y1.364
X0.406 Y1.389
X0.388 Y1.438
X0.367 Y1.503
X0.357 Y1.536
X0.344 Y1.585
X0.322 Y1.682
X0.318 Y1.705
X0.314 Y1.731
X0.301 Y1.829
X0.297 Y1.878
X0.293 Y1.976
X0.292 Y2.025
Y2.611
X0.291 Y2.624 Z-0.159
X0.289 Y2.638 Z-0.161
X0.281 Y2.672 Z-0.169
X0.279 Y2.68 Z-0.171
X0.278 Y2.691 Z-0.172
Y2.697
Y45.975
Y46.024
X0.283 Y46.122
X0.287 Y46.171
X0.3 Y46.269
X0.308 Y46.318
X0.329 Y46.415
X0.342 Y46.464
X0.373 Y46.562
X0.39 Y46.611
X0.416 Y46.673
X0.431 Y46.709
X0.454 Y46.758
X0.48 Y46.807
X0.506 Y46.856
X0.514 Y46.869
X0.536 Y46.905
X0.567 Y46.954
X0.601 Y47.003
X0.638 Y47.052
X0.661 Y47.082
X0.676 Y47.101
X0.71 Y47.139
X0.764 Y47.199
X0.808 Y47.242
X0.868 Y47.296
X0.906 Y47.329
X0.955 Y47.367
X1.004 Y47.404
X1.053 Y47.437
X1.102 Y47.468
X1.141 Y47.492
X1.151 Y47.498
X1.2 Y47.524
X1.249 Y47.549
X1.298 Y47.572
X1.346 Y47.592
X1.395 Y47.612
X1.444 Y47.629
X1.542 Y47.66
X1.591 Y47.672
X1.663 Y47.688
X1.689 Y47.694
X1.738 Y47.701
X1.836 Y47.714
X1.885 Y47.718
X1.983 Y47.722
X43.217
X43.315 Y47.718
X43.364 Y47.714
X43.462 Y47.701
X43.511 Y47.694
X43.56 Y47.683
X43.609 Y47.672
X43.658 Y47.66
X43.756 Y47.629
X43.805 Y47.612
X43.903 Y47.572
X43.952 Y47.549
X44. Y47.524
X44.049 Y47.498
X44.059 Y47.492
X44.098 Y47.468
X44.147 Y47.437
X44.196 Y47.404
X44.245 Y47.367
X44.274 Y47.345
X44.294 Y47.329
X44.333 Y47.296
X44.392 Y47.242
X44.436 Y47.199
X44.49 Y47.139
X44.524 Y47.101
X44.539 Y47.082
X44.588 Y47.018
X44.599 Y47.003
X44.637 Y46.947
X44.664 Y46.905
X44.686 Y46.869
X44.694 Y46.856
X44.72 Y46.807
X44.746 Y46.758
X44.769 Y46.709
X44.81 Y46.611
X44.827 Y46.562
X44.843 Y46.513
X44.858 Y46.464
X44.871 Y46.415
X44.882 Y46.365
X44.892 Y46.318
X44.9 Y46.269
X44.913 Y46.171
X44.917 Y46.122
X44.922 Y46.024
Y45.926
Y2.025
Y1.976
X44.917 Y1.878
X44.913 Y1.829
X44.9 Y1.731
X44.892 Y1.682
X44.871 Y1.585
X44.858 Y1.536
X44.833 Y1.456
X44.827 Y1.438
X44.81 Y1.389
X44.769 Y1.291
X44.746 Y1.242
X44.72 Y1.193
X44.694 Y1.144
X44.686 Y1.131
X44.664 Y1.095
X44.633 Y1.046
X44.599 Y0.997
X44.562 Y0.948
X44.539 Y0.918
X44.524 Y0.899
X44.49 Y0.861
X44.436 Y0.801
X44.392 Y0.758
X44.333 Y0.704
X44.294 Y0.671
X44.274 Y0.655
X44.21 Y0.606
X44.196 Y0.596
X44.147 Y0.563
X44.098 Y0.532
X44.059 Y0.508
X44.049 Y0.503
X44. Y0.476
X43.952 Y0.451
X43.903 Y0.428
X43.854 Y0.408
X43.805 Y0.388
X43.756 Y0.371
X43.658 Y0.34
X43.609 Y0.328
X43.537 Y0.312
X43.511 Y0.306
X43.462 Y0.299
X43.364 Y0.286
X43.315 Y0.282
X43.217 Y0.278
X1.983
X1.885 Y0.282
X1.836 Y0.286
X1.738 Y0.299
X1.689 Y0.306
X1.64 Y0.317
X1.591 Y0.328
X1.542 Y0.34
X1.444 Y0.371
X1.395 Y0.388
X1.298 Y0.428
X1.249 Y0.451
X1.2 Y0.476
X1.151 Y0.502
X1.102 Y0.532
X1.053 Y0.563
X1.004 Y0.596
X0.955 Y0.633
X0.906 Y0.671
X0.867 Y0.704
X0.808 Y0.758
X0.764 Y0.801
X0.71 Y0.861
X0.676 Y0.899
X0.661 Y0.918
X0.612 Y0.982
X0.601 Y0.997
X0.567 Y1.046
X0.536 Y1.095
X0.514 Y1.131
X0.506 Y1.144
X0.48 Y1.193
X0.454 Y1.242
X0.431 Y1.291
X0.411 Y1.34
X0.39 Y1.389
X0.373 Y1.438
X0.342 Y1.536
X0.329 Y1.585
X0.311 Y1.666
X0.308 Y1.682
X0.3 Y1.731
X0.287 Y1.829
X0.283 Y1.878
X0.278 Y1.976
Y2.074
Y2.697
X0.277 Y2.711 Z-0.173
X0.275 Y2.724 Z-0.175
X0.267 Y2.758 Z-0.183
X0.265 Y2.766 Z-0.185
X0.264 Y2.777 Z-0.186
Y2.783
Y45.975
Y46.024
X0.269 Y46.13
X0.272 Y46.171
X0.285 Y46.269
X0.293 Y46.318
X0.315 Y46.415
X0.318 Y46.429
X0.327 Y46.464
X0.358 Y46.562
X0.367 Y46.589
X0.375 Y46.611
X0.416 Y46.71
X0.439 Y46.758
X0.465 Y46.809
X0.49 Y46.856
X0.514 Y46.897
X0.563 Y46.973
X0.583 Y47.003
X0.62 Y47.052
X0.661 Y47.105
X0.7 Y47.15
X0.759 Y47.213
X0.793 Y47.248
X0.857 Y47.306
X0.906 Y47.347
X0.967 Y47.394
X1.004 Y47.422
X1.036 Y47.443
X1.113 Y47.492
X1.151 Y47.514
X1.249 Y47.565
X1.298 Y47.587
X1.395 Y47.627
X1.429 Y47.639
X1.493 Y47.66
X1.542 Y47.675
X1.597 Y47.688
X1.689 Y47.708
X1.738 Y47.716
X1.836 Y47.728
X1.885 Y47.732
X1.983 Y47.736
X43.217
X43.315 Y47.732
X43.364 Y47.728
X43.462 Y47.716
X43.511 Y47.708
X43.609 Y47.687
X43.658 Y47.675
X43.756 Y47.644
X43.771 Y47.639
X43.805 Y47.627
X43.903 Y47.587
X43.952 Y47.565
X44. Y47.539
X44.049 Y47.514
X44.087 Y47.492
X44.164 Y47.443
X44.196 Y47.422
X44.245 Y47.385
X44.297 Y47.345
X44.343 Y47.306
X44.407 Y47.248
X44.441 Y47.213
X44.5 Y47.15
X44.542 Y47.101
X44.588 Y47.041
X44.617 Y47.003
X44.637 Y46.973
X44.686 Y46.897
X44.71 Y46.856
X44.736 Y46.807
X44.761 Y46.758
X44.784 Y46.709
X44.825 Y46.611
X44.833 Y46.589
X44.842 Y46.562
X44.873 Y46.464
X44.885 Y46.415
X44.907 Y46.318
X44.915 Y46.269
X44.928 Y46.171
X44.931 Y46.122
X44.936 Y46.024
Y45.926
Y2.025
Y1.976
X44.931 Y1.87
X44.928 Y1.829
X44.915 Y1.731
X44.907 Y1.682
X44.885 Y1.585
X44.873 Y1.536
X44.842 Y1.438
X44.833 Y1.411
X44.825 Y1.389
X44.784 Y1.29
X44.761 Y1.242
X44.735 Y1.191
X44.71 Y1.144
X44.686 Y1.103
X44.637 Y1.027
X44.617 Y0.997
X44.58 Y0.948
X44.539 Y0.895
X44.5 Y0.85
X44.441 Y0.787
X44.407 Y0.752
X44.343 Y0.694
X44.294 Y0.653
X44.233 Y0.606
X44.196 Y0.578
X44.164 Y0.557
X44.087 Y0.508
X44.049 Y0.486
X43.997 Y0.459
X43.952 Y0.435
X43.903 Y0.413
X43.805 Y0.373
X43.771 Y0.361
X43.707 Y0.34
X43.658 Y0.325
X43.603 Y0.312
X43.511 Y0.292
X43.462 Y0.284
X43.364 Y0.272
X43.315 Y0.268
X43.217 Y0.264
X1.983
X1.885 Y0.268
X1.836 Y0.272
X1.738 Y0.284
X1.689 Y0.292
X1.597 Y0.312
X1.542 Y0.325
X1.444 Y0.356
X1.429 Y0.361
X1.395 Y0.373
X1.298 Y0.413
X1.249 Y0.435
X1.2 Y0.461
X1.151 Y0.486
X1.113 Y0.508
X1.102 Y0.515
X1.036 Y0.557
X1.004 Y0.578
X0.955 Y0.615
X0.903 Y0.655
X0.857 Y0.694
X0.793 Y0.752
X0.759 Y0.787
X0.7 Y0.85
X0.658 Y0.899
X0.612 Y0.959
X0.583 Y0.997
X0.563 Y1.027
X0.514 Y1.103
X0.49 Y1.144
X0.464 Y1.193
X0.439 Y1.242
X0.416 Y1.291
X0.375 Y1.389
X0.367 Y1.411
X0.358 Y1.438
X0.327 Y1.536
X0.318 Y1.571
X0.304 Y1.633
X0.293 Y1.682
X0.285 Y1.731
X0.272 Y1.829
X0.269 Y1.878
X0.264 Y1.976
Y2.074
Y2.783
X0.263 Y2.797 Z-0.187
X0.261 Y2.81 Z-0.189
X0.253 Y2.844 Z-0.197
X0.25 Y2.858 Z-0.2
Y2.863
Y2.869
Y45.975
Y46.024
X0.255 Y46.122
X0.258 Y46.171
X0.271 Y46.269
X0.279 Y46.318
X0.301 Y46.415
X0.313 Y46.464
X0.343 Y46.562
X0.36 Y46.611
X0.401 Y46.709
X0.416 Y46.744
X0.423 Y46.758
X0.474 Y46.856
X0.503 Y46.905
X0.534 Y46.954
X0.566 Y47.003
X0.612 Y47.064
X0.64 Y47.101
X0.661 Y47.127
X0.681 Y47.15
X0.726 Y47.199
X0.759 Y47.234
X0.773 Y47.248
X0.857 Y47.325
X0.881 Y47.345
X0.906 Y47.365
X0.955 Y47.403
X1.004 Y47.439
X1.102 Y47.501
X1.151 Y47.53
X1.249 Y47.58
X1.269 Y47.59
X1.298 Y47.602
X1.387 Y47.639
X1.395 Y47.642
X1.444 Y47.659
X1.493 Y47.674
X1.542 Y47.689
X1.591 Y47.701
X1.64 Y47.712
X1.689 Y47.722
X1.738 Y47.73
X1.836 Y47.742
X1.885 Y47.746
X1.983 Y47.75
X43.217
X43.315 Y47.746
X43.364 Y47.742
X43.462 Y47.73
X43.511 Y47.722
X43.609 Y47.701
X43.662 Y47.688
X43.707 Y47.674
X43.756 Y47.659
X43.805 Y47.642
X43.854 Y47.622
X43.903 Y47.602
X43.931 Y47.59
X43.952 Y47.58
X44.049 Y47.53
X44.098 Y47.501
X44.196 Y47.439
X44.245 Y47.403
X44.294 Y47.365
X44.319 Y47.345
X44.343 Y47.325
X44.427 Y47.248
X44.441 Y47.234
X44.49 Y47.181
X44.519 Y47.15
X44.539 Y47.127
X44.56 Y47.101
X44.598 Y47.052
X44.634 Y47.003
X44.666 Y46.954
X44.697 Y46.905
X44.726 Y46.856
X44.777 Y46.758
X44.784 Y46.744
X44.799 Y46.709
X44.84 Y46.611
X44.857 Y46.562
X44.882 Y46.482
X44.887 Y46.464
X44.899 Y46.415
X44.921 Y46.318
X44.929 Y46.269
X44.942 Y46.171
X44.945 Y46.122
X44.95 Y46.024
Y45.926
Y2.025
Y1.976
X44.945 Y1.878
X44.942 Y1.829
X44.929 Y1.731
X44.921 Y1.682
X44.899 Y1.585
X44.887 Y1.536
X44.872 Y1.487
X44.857 Y1.438
X44.84 Y1.389
X44.799 Y1.291
X44.784 Y1.256
X44.777 Y1.242
X44.726 Y1.144
X44.697 Y1.095
X44.666 Y1.046
X44.634 Y0.997
X44.588 Y0.936
X44.56 Y0.899
X44.539 Y0.873
X44.519 Y0.85
X44.474 Y0.801
X44.441 Y0.766
X44.427 Y0.752
X44.343 Y0.675
X44.319 Y0.655
X44.294 Y0.635
X44.245 Y0.597
X44.196 Y0.561
X44.098 Y0.499
X44.049 Y0.47
X43.952 Y0.42
X43.931 Y0.41
X43.903 Y0.398
X43.813 Y0.361
X43.805 Y0.358
X43.756 Y0.341
X43.662 Y0.312
X43.609 Y0.299
X43.56 Y0.288
X43.511 Y0.278
X43.462 Y0.27
X43.364 Y0.258
X43.315 Y0.254
X43.217 Y0.25
X1.983
X1.885 Y0.254
X1.836 Y0.258
X1.738 Y0.27
X1.689 Y0.278
X1.591 Y0.299
X1.538 Y0.312
X1.444 Y0.341
X1.395 Y0.358
X1.346 Y0.378
X1.298 Y0.398
X1.269 Y0.41
X1.249 Y0.42
X1.151 Y0.47
X1.102 Y0.498
X1.004 Y0.561
X0.955 Y0.597
X0.906 Y0.635
X0.881 Y0.655
X0.857 Y0.675
X0.773 Y0.752
X0.759 Y0.766
X0.71 Y0.819
X0.681 Y0.85
X0.661 Y0.873
X0.64 Y0.899
X0.602 Y0.948
X0.563 Y1.001
X0.514 Y1.077
X0.503 Y1.095
X0.474 Y1.144
X0.423 Y1.242
X0.416 Y1.256
X0.401 Y1.291
X0.36 Y1.389
X0.343 Y1.438
X0.318 Y1.518
X0.313 Y1.536
X0.301 Y1.585
X0.279 Y1.682
X0.271 Y1.731
X0.258 Y1.829
X0.255 Y1.878
X0.25 Y1.976
Y2.025
Y2.869
G0 Z15.
M5
G53 Z0.
M30
