(1001)
(T7  D=1.5 CR=0. - ZMIN=-8.2 - flat end mill)
G90
G0 G53 Z0.

(2D Pocket (base, finish))
T7 M6 (flat end mill D=1.5 1.5 mm Fishtail Upcut Endmill - Acrylic Max Pass Depth 0.8 mm)
S16000 M3
G64
G54
G43 H7
G0 X23.302 Y25.129
Z15.
Z-2.7
G1 Z-5.05 F600
Z-5.065
X23.301 Y25.132 Z-5.081
X23.3 Y25.135 Z-5.095
X23.299 Y25.141 Z-5.11
X23.298 Y25.147 Z-5.124
X23.296 Y25.155 Z-5.137
X23.294 Y25.165 Z-5.149
X23.292 Y25.175 Z-5.16
X23.289 Y25.186 Z-5.17
X23.286 Y25.199 Z-5.178
X23.282 Y25.212 Z-5.186
X23.278 Y25.225 Z-5.191
X23.273 Y25.239 Z-5.196
X23.268 Y25.253 Z-5.199
X23.262 Y25.268 Z-5.2
G3 X22.337 Y25.667 Z-5.239 I-0.662 J-0.263
X21.938 Y24.742 Z-5.278 I0.263 J-0.662
X22.863 Y24.343 Z-5.317 I0.662 J0.263
X23.262 Y25.268 Z-5.356 I-0.263 J0.662
X22.337 Y25.667 Z-5.395 I-0.662 J-0.263
X21.938 Y24.742 Z-5.434 I0.263 J-0.662
X22.863 Y24.343 Z-5.474 I0.662 J0.263
X23.262 Y25.268 Z-5.513 I-0.263 J0.662
X22.337 Y25.667 Z-5.552 I-0.662 J-0.263
X21.938 Y24.742 Z-5.591 I0.263 J-0.662
X22.863 Y24.343 Z-5.63 I0.662 J0.263
X23.262 Y25.268 Z-5.669 I-0.263 J0.662
X22.337 Y25.667 Z-5.708 I-0.662 J-0.263
X21.938 Y24.742 Z-5.747 I0.263 J-0.662
X22.863 Y24.343 Z-5.786 I0.662 J0.263
X23.262 Y25.268 Z-5.825 I-0.263 J0.662
X22.337 Y25.667 Z-5.864 I-0.662 J-0.263
X21.938 Y24.742 Z-5.903 I0.263 J-0.662
X22.863 Y24.343 Z-5.943 I0.662 J0.263
X23.262 Y25.268 Z-5.982 I-0.263 J0.662
X22.337 Y25.667 Z-6.021 I-0.662 J-0.263
X21.938 Y24.742 Z-6.06 I0.263 J-0.662
X22.863 Y24.343 Z-6.099 I0.662 J0.263
X23.262 Y25.268 Z-6.138 I-0.263 J0.662
X22.337 Y25.667 Z-6.177 I-0.662 J-0.263
X21.938 Y24.742 Z-6.216 I0.263 J-0.662
X22.863 Y24.343 Z-6.255 I0.662 J0.263
X23.262 Y25.268 Z-6.294 I-0.263 J0.662
X22.337 Y25.667 Z-6.333 I-0.662 J-0.263
X21.938 Y24.742 Z-6.372 I0.263 J-0.662
X22.863 Y24.343 Z-6.412 I0.662 J0.263
X23.262 Y25.268 Z-6.451 I-0.263 J0.662
X22.337 Y25.667 Z-6.49 I-0.662 J-0.263
X21.938 Y24.742 Z-6.529 I0.263 J-0.662
X22.863 Y24.343 Z-6.568 I0.662 J0.263
X23.262 Y25.268 Z-6.607 I-0.263 J0.662
X22.337 Y25.667 Z-6.646 I-0.662 J-0.263
X21.938 Y24.742 Z-6.685 I0.263 J-0.662
X22.863 Y24.343 Z-6.724 I0.662 J0.263
X23.262 Y25.268 Z-6.763 I-0.263 J0.662
X22.337 Y25.667 Z-6.802 I-0.662 J-0.263
X21.938 Y24.742 Z-6.841 I0.263 J-0.662
X22.863 Y24.343 Z-6.881 I0.662 J0.263
X23.262 Y25.268 Z-6.92 I-0.263 J0.662
X22.337 Y25.667 Z-6.959 I-0.662 J-0.263
X21.938 Y24.742 Z-6.998 I0.263 J-0.662
X22.863 Y24.343 Z-7.037 I0.662 J0.263
X23.262 Y25.268 Z-7.076 I-0.263 J0.662
X22.337 Y25.667 Z-7.115 I-0.662 J-0.263
X21.938 Y24.742 Z-7.154 I0.263 J-0.662
X22.863 Y24.343 Z-7.193 I0.662 J0.263
X23.262 Y25.268 Z-7.232 I-0.263 J0.662
X22.337 Y25.667 Z-7.271 I-0.662 J-0.263
X21.938 Y24.742 Z-7.31 I0.263 J-0.662
X22.863 Y24.343 Z-7.35 I0.662 J0.263
X23.262 Y25.268 Z-7.389 I-0.263 J0.662
X22.337 Y25.667 Z-7.428 I-0.662 J-0.263
X21.938 Y24.742 Z-7.467 I0.263 J-0.662
X22.863 Y24.343 Z-7.506 I0.662 J0.263
X23.262 Y25.268 Z-7.545 I-0.263 J0.662
X22.337 Y25.667 Z-7.584 I-0.662 J-0.263
X21.938 Y24.742 Z-7.623 I0.263 J-0.662
X22.863 Y24.343 Z-7.662 I0.662 J0.263
X23.262 Y25.268 Z-7.701 I-0.263 J0.662
X22.337 Y25.667 Z-7.74 I-0.662 J-0.263
X21.938 Y24.742 Z-7.779 I0.263 J-0.662
X22.863 Y24.343 Z-7.819 I0.662 J0.263
X23.262 Y25.268 Z-7.858 I-0.263 J0.662
X22.337 Y25.667 Z-7.897 I-0.662 J-0.263
X21.938 Y24.742 Z-7.936 I0.263 J-0.662
X22.863 Y24.343 Z-7.975 I0.662 J0.263
X23.262 Y25.268 Z-8.014 I-0.263 J0.662
X22.337 Y25.667 Z-8.053 I-0.662 J-0.263
X21.938 Y24.742 Z-8.092 I0.263 J-0.662
X22.863 Y24.343 Z-8.131 I0.662 J0.263
X23.262 Y25.268 Z-8.17 I-0.263 J0.662
X22.6 Y25.717 Z-8.2 I-0.662 J-0.263
G1 X22.598
G3 X22.283 Y25.402 I0. J-0.315
G1 Y22.598
G3 X22.598 Y22.283 I0.315 J0.
G1 X22.602
G3 X22.917 Y22.598 I0. J0.315
G1 Y25.402
G3 X22.602 Y25.717 I-0.315 J0.
G1 X22.6
G2 X22.203 Y26.089 I0. J0.398
G3 X21.899 Y26.355 I-0.284 J-0.019
X21.674 Y26.217 I0.019 J-0.284
G1 X21.649 Y26.165
X21.633 Y26.11
X21.628 Y26.052
Y21.948
G3 X21.948 Y21.628 I0.319 J0.
G1 X23.253
G3 X23.572 Y21.948 I0. J0.319
G1 Y26.052
G3 X23.253 Y26.372 I-0.319 J0.
G1 X21.948
G3 X21.674 Y26.217 I0. J-0.319
G2 X20.984 Y25.612 I-1.286 J0.771
G3 X20.48 Y24.844 I0.332 J-0.767
G1 Y20.799
G3 X20.799 Y20.48 I0.319 J0.
G1 X24.401
G3 X24.72 Y20.799 I0. J0.319
G1 Y27.201
G3 X24.401 Y27.52 I-0.319 J0.
G1 X20.799
G3 X20.48 Y27.201 I0. J-0.319
G1 Y24.844
G2 X19.906 Y23.983 I-0.933 J0.
G3 X19.332 Y23.122 I0.359 J-0.861
G1 Y19.651
G3 X19.651 Y19.332 I0.319 J0.
G1 X25.549
G3 X25.868 Y19.651 I0. J0.319
G1 Y28.349
G3 X25.549 Y28.668 I-0.319 J0.
G1 X19.651
G3 X19.332 Y28.349 I0. J-0.319
G1 Y23.122
G2 X18.757 Y22.261 I-0.933 J0.
G3 X18.183 Y21.4 I0.359 J-0.861
G1 Y18.503
G3 X18.503 Y18.183 I0.319 J0.
G1 X26.697
G3 X27.017 Y18.503 I0. J0.319
G1 Y29.497
G3 X26.697 Y29.817 I-0.319 J0.
G1 X18.503
G3 X18.183 Y29.497 I0. J-0.319
G1 Y21.4
G2 X17.609 Y20.538 I-0.933 J0.
G3 X17.035 Y19.677 I0.359 J-0.861
G1 Y17.354
G3 X17.354 Y17.035 I0.319 J0.
G1 X27.846
G3 X28.165 Y17.354 I0. J0.319
G1 Y30.646
G3 X27.846 Y30.965 I-0.319 J0.
G1 X17.354
G3 X17.035 Y30.646 I0. J-0.319
G1 Y19.677
G2 X16.461 Y18.816 I-0.933 J0.
G3 X15.887 Y17.955 I0.359 J-0.861
G1 Y16.206
G3 X16.206 Y15.887 I0.319 J0.
G1 X28.994
G3 X29.313 Y16.206 I0. J0.319
G1 Y31.794
G3 X28.994 Y32.113 I-0.319 J0.
G1 X16.206
G3 X15.887 Y31.794 I0. J-0.319
G1 Y17.955
G2 X15.312 Y17.093 I-0.933 J0.
G3 X14.738 Y16.232 I0.359 J-0.861
G1 Y15.058
G3 X15.058 Y14.738 I0.319 J0.
G1 X30.142
G3 X30.462 Y15.058 I0. J0.319
G1 Y32.942
G3 X30.142 Y33.262 I-0.319 J0.
G1 X15.058
G3 X14.738 Y32.942 I0. J-0.319
G1 Y16.232
G2 X14.164 Y15.371 I-0.933 J0.
G3 X13.59 Y14.51 I0.359 J-0.861
G1 Y13.909
G3 X13.909 Y13.59 I0.319 J0.
G1 X31.291
G3 X31.61 Y13.909 I0. J0.319
G1 Y34.091
G3 X31.291 Y34.41 I-0.319 J0.
G1 X13.909
G3 X13.59 Y34.091 I0. J-0.319
G1 Y14.51
G2 X13.016 Y13.648 I-0.933 J0.
G3 X12.442 Y12.787 I0.359 J-0.861
G1 Y12.761
G3 X12.761 Y12.442 I0.319 J0.
G1 X32.439
G3 X32.758 Y12.761 I0. J0.319
G1 Y35.239
G3 X32.439 Y35.558 I-0.319 J0.
G1 X12.761
G3 X12.442 Y35.239 I0. J-0.319
G1 Y12.787
G2 X12.028 Y12.083 I-0.806 J0.
G3 X11.865 Y11.51 I0.205 J-0.368
X12.233 Y11.293 I0.368 J0.205
G1 X33.587
G3 X33.907 Y11.613 I0. J0.319
G1 Y36.387
G3 X33.587 Y36.707 I-0.319 J0.
G1 X11.613
G3 X11.293 Y36.387 I0. J-0.319
G1 Y11.613
G3 X11.613 Y11.293 I0.319 J0.
G1 X12.233
G2 X13.094 Y10.719 I0. J-0.933
G3 X13.956 Y10.145 I0.861 J0.359
G1 X34.736
G3 X35.055 Y10.464 I0. J0.319
G1 Y37.536
G3 X34.736 Y37.855 I-0.319 J0.
G1 X10.464
G3 X10.145 Y37.536 I0. J-0.319
G1 Y10.464
G3 X10.464 Y10.145 I0.319 J0.
G1 X13.956
G2 X14.817 Y9.571 I0. J-0.933
G3 X15.678 Y8.997 I0.861 J0.359
G1 X35.884
G3 X36.203 Y9.316 I0. J0.319
G1 Y38.684
G3 X35.884 Y39.003 I-0.319 J0.
G1 X9.316
G3 X8.997 Y38.684 I0. J-0.319
G1 Y9.316
G3 X9.316 Y8.997 I0.319 J0.
G1 X15.678
G2 X16.539 Y8.422 I0. J-0.933
G3 X17.401 Y7.848 I0.861 J0.359
G1 X37.032
G3 X37.352 Y8.168 I0. J0.319
G1 Y39.832
G3 X37.032 Y40.152 I-0.319 J0.
G1 X8.168
G3 X7.848 Y39.832 I0. J-0.319
G1 Y8.168
G3 X8.168 Y7.848 I0.319 J0.
G1 X17.401
G2 X18.262 Y7.274 I0. J-0.933
G3 X19.123 Y6.7 I0.861 J0.359
G1 X38.181
G3 X38.5 Y7.019 I0. J0.319
G1 Y40.981
G3 X38.181 Y41.3 I-0.319 J0.
G1 X7.019
G3 X6.7 Y40.981 I0. J-0.319
G1 Y7.019
G3 X7.019 Y6.7 I0.319 J0.
G1 X19.123
G2 X19.984 Y6.126 I0. J-0.933
G3 X20.846 Y5.552 I0.861 J0.359
G1 X39.329
G3 X39.648 Y5.871 I0. J0.319
G1 Y42.129
G3 X39.329 Y42.448 I-0.319 J0.
G1 X5.871
G3 X5.552 Y42.129 I0. J-0.319
G1 Y5.871
G3 X5.871 Y5.552 I0.319 J0.
G1 X20.846
G2 X21.707 Y4.977 I0. J-0.933
G3 X22.568 Y4.403 I0.861 J0.359
G1 X40.477
G3 X40.797 Y4.723 I0. J0.319
G1 Y43.277
G3 X40.477 Y43.597 I-0.319 J0.
G1 X4.723
G3 X4.403 Y43.277 I0. J-0.319
G1 Y4.723
G3 X4.723 Y4.403 I0.319 J0.
G1 X22.568
G2 X23.433 Y3.827 I0. J-0.937
G3 X24.298 Y3.25 I0.865 J0.36
G1 X41.7
G3 X41.95 Y3.5 I0. J0.25
G1 Y44.5
G3 X41.7 Y44.75 I-0.25 J0.
G1 X3.5
G3 X3.25 Y44.5 I0. J-0.25
G1 Y3.5
G3 X3.5 Y3.25 I0.25 J0.
G1 X24.298
X24.313 Y3.251 Z-8.199
X24.327 Y3.253 Z-8.197
X24.341 Y3.256 Z-8.194
X24.354 Y3.261 Z-8.189
X24.366 Y3.266 Z-8.182
X24.377 Y3.273 Z-8.175
X24.387 Y3.279 Z-8.166
X24.395 Y3.286 Z-8.156
X24.403 Y3.293 Z-8.145
X24.409 Y3.299 Z-8.133
X24.414 Y3.305 Z-8.121
X24.418 Y3.31 Z-8.107
X24.421 Y3.314 Z-8.094
X24.423 Y3.317 Z-8.079
X24.424 Y3.318 Z-8.065
Y3.319 Z-8.05
G0 Z15.
M5
G53 Z0.
M30
