(1001)
(T4  D=1.5 CR=0. - ZMIN=-0.2 - flat end mill)
G90
G0 G53 Z0.

(Scallop (embossing chamfer))
T4 M6 (flat end mill D=1.5 1.5 mm Fishtail Upcut Endmill - Acrylic Max Pass Depth 0.8 mm)
S16000 M3
G64
G54
G43 H4
G0 X4.487 Y2.452
Z15.
Z2.
G1 Z0.135 F800
X4.486 Y2.459 Z0.088
X4.482 Y2.48 Z0.046
X4.475 Y2.513 Z0.013
X4.467 Y2.554 Z-0.008
X4.458 Y2.6 Z-0.015
X4.449 Y2.647
X4.442 Y2.696 Z-0.016
X4.439 Y2.72 Z-0.015
X4.437 Y2.745
X4.435 Y2.793
X4.434 Y2.842 Z-0.016
Y2.989
Y9.109
Y9.158
X4.435 Y9.206 Z-0.015
X4.437 Y9.255
X4.439 Y9.28
X4.442 Y9.304 Z-0.016
X4.449 Y9.353 Z-0.015
X4.459 Y9.402
X4.472 Y9.451 Z-0.016
X4.481 Y9.476 Z-0.015
X4.49 Y9.5 Z-0.014
X4.509 Y9.549 Z-0.015
X4.533 Y9.598
X4.559 Y9.647
X4.592 Y9.696
X4.629 Y9.745
X4.654 Y9.775
X4.671 Y9.794
X4.703 Y9.826
X4.722 Y9.843
X4.752 Y9.868 Z-0.014
X4.801 Y9.906 Z-0.015
X4.85 Y9.939
X4.899 Y9.966
X4.95 Y9.99 Z-0.014
X4.997 Y10.01 Z-0.015
X5.046 Y10.027
X5.095 Y10.04
X5.144 Y10.05 Z-0.014
X5.192 Y10.057 Z-0.015
X5.241 Y10.063
X5.29 Y10.065
X5.339 Y10.066 Z-0.016
X6.661
X6.71 Y10.065 Z-0.015
X6.759 Y10.063
X6.808 Y10.057
X6.856 Y10.05 Z-0.014
X6.911 Y10.039 Z-0.015
X6.954 Y10.027
X7.003 Y10.01
X7.052 Y9.989 Z-0.014
X7.101 Y9.966 Z-0.015
X7.15 Y9.939
X7.199 Y9.906
X7.248 Y9.868 Z-0.014
X7.278 Y9.843 Z-0.015
X7.297 Y9.826
X7.329 Y9.794
X7.346 Y9.775
X7.371 Y9.745
X7.408 Y9.696
X7.441 Y9.647
X7.467 Y9.598
X7.491 Y9.549
X7.51 Y9.5 Z-0.014
X7.519 Y9.476 Z-0.015
X7.528 Y9.451 Z-0.016
X7.542 Y9.4 Z-0.015
X7.551 Y9.353
X7.558 Y9.304 Z-0.016
X7.561 Y9.28 Z-0.015
X7.563 Y9.255
X7.565 Y9.206
X7.566 Y9.158 Z-0.016
Y9.011
Y2.891
Y2.842
X7.565 Y2.793 Z-0.015
X7.563 Y2.745
X7.561 Y2.72
X7.558 Y2.696 Z-0.016
X7.551 Y2.647 Z-0.015
X7.541 Y2.598
X7.528 Y2.549 Z-0.016
X7.519 Y2.524 Z-0.015
X7.51 Y2.5 Z-0.014
X7.491 Y2.451 Z-0.015
X7.467 Y2.402
X7.441 Y2.353
X7.408 Y2.304
X7.395 Y2.286
X7.371 Y2.255
X7.346 Y2.225
X7.329 Y2.206
X7.297 Y2.174
X7.278 Y2.157
X7.248 Y2.132 Z-0.014
X7.199 Y2.094 Z-0.015
X7.15 Y2.061
X7.101 Y2.034
X7.05 Y2.01 Z-0.014
X7.003 Y1.99 Z-0.015
X6.954 Y1.973
X6.905 Y1.96
X6.856 Y1.95 Z-0.014
X6.808 Y1.943 Z-0.015
X6.759 Y1.937
X6.71 Y1.935
X6.661 Y1.934 Z-0.016
X5.339
X5.29 Y1.935 Z-0.015
X5.241 Y1.937
X5.192 Y1.943
X5.144 Y1.95 Z-0.014
X5.09 Y1.961 Z-0.015
X5.046 Y1.973
X4.997 Y1.99
X4.948 Y2.011 Z-0.014
X4.899 Y2.034 Z-0.015
X4.85 Y2.061
X4.801 Y2.094
X4.752 Y2.132 Z-0.014
X4.722 Y2.157 Z-0.015
X4.703 Y2.174
X4.671 Y2.206
X4.654 Y2.225
X4.629 Y2.255
X4.592 Y2.304
X4.559 Y2.353
X4.533 Y2.402
X4.509 Y2.451
X4.49 Y2.5 Z-0.014
X4.481 Y2.524 Z-0.015
X4.472 Y2.549 Z-0.016
X4.458 Y2.6 Z-0.015
X4.455 Y2.61 Z-0.016
X4.451 Y2.623 Z-0.017
X4.443 Y2.641 Z-0.022
X4.436 Y2.658 Z-0.026
X4.432 Y2.671 Z-0.029
X4.429 Y2.681
Y2.682
X4.427 Y2.696 Z-0.03
X4.423 Y2.745 Z-0.029
X4.421 Y2.793
X4.42 Y2.842 Z-0.03
Y2.989
Y9.109
Y9.158
X4.421 Y9.206 Z-0.029
X4.423 Y9.255
X4.427 Y9.304 Z-0.03
X4.435 Y9.353 Z-0.029
X4.444 Y9.402
X4.458 Y9.456 Z-0.03
X4.465 Y9.475 Z-0.029
X4.475 Y9.5 Z-0.028
X4.494 Y9.549 Z-0.029
X4.507 Y9.578
X4.517 Y9.598
X4.543 Y9.647
X4.556 Y9.668
X4.575 Y9.696
X4.611 Y9.745
X4.654 Y9.796
X4.703 Y9.845
X4.752 Y9.886 Z-0.028
X4.801 Y9.923 Z-0.029
X4.827 Y9.941
X4.85 Y9.955
X4.899 Y9.982
X4.916 Y9.99 Z-0.028
X4.948 Y10.004 Z-0.029
X4.997 Y10.025
X5.036 Y10.039
X5.046 Y10.042
X5.095 Y10.054
X5.144 Y10.064 Z-0.028
X5.192 Y10.071 Z-0.029
X5.241 Y10.077
X5.29 Y10.079
X5.339 Y10.08 Z-0.03
X6.661
X6.71 Y10.079 Z-0.029
X6.759 Y10.077
X6.808 Y10.071
X6.856 Y10.064 Z-0.028
X6.905 Y10.054 Z-0.029
X6.954 Y10.042
X6.964 Y10.039
X7.003 Y10.025
X7.052 Y10.004
X7.084 Y9.99 Z-0.028
X7.101 Y9.982 Z-0.029
X7.15 Y9.955
X7.173 Y9.941
X7.199 Y9.923
X7.248 Y9.886 Z-0.028
X7.299 Y9.843 Z-0.029
X7.348 Y9.794
X7.389 Y9.745
X7.425 Y9.696
X7.444 Y9.668
X7.457 Y9.647
X7.483 Y9.598
X7.493 Y9.578
X7.506 Y9.549
X7.525 Y9.5 Z-0.028
X7.535 Y9.475 Z-0.029
X7.542 Y9.456 Z-0.03
X7.556 Y9.402 Z-0.029
X7.565 Y9.353
X7.573 Y9.304 Z-0.03
X7.577 Y9.255 Z-0.029
X7.579 Y9.206
X7.58 Y9.158 Z-0.03
Y9.011
Y2.891
Y2.842
X7.579 Y2.793 Z-0.029
X7.577 Y2.745
X7.573 Y2.696 Z-0.03
X7.565 Y2.647 Z-0.029
X7.556 Y2.598
X7.542 Y2.544 Z-0.03
X7.535 Y2.525 Z-0.029
X7.525 Y2.5 Z-0.028
X7.506 Y2.451 Z-0.029
X7.493 Y2.422
X7.483 Y2.402
X7.457 Y2.353
X7.444 Y2.332
X7.425 Y2.304
X7.389 Y2.255
X7.346 Y2.204
X7.297 Y2.155
X7.248 Y2.114 Z-0.028
X7.199 Y2.077 Z-0.029
X7.173 Y2.059
X7.15 Y2.045
X7.101 Y2.018
X7.084 Y2.01 Z-0.028
X7.052 Y1.996 Z-0.029
X7.003 Y1.975
X6.964 Y1.961
X6.954 Y1.958
X6.905 Y1.946
X6.856 Y1.936 Z-0.028
X6.808 Y1.929 Z-0.029
X6.759 Y1.923
X6.71 Y1.921
X6.661 Y1.92 Z-0.03
X5.339
X5.29 Y1.921 Z-0.029
X5.241 Y1.923
X5.192 Y1.929
X5.144 Y1.936 Z-0.028
X5.095 Y1.946 Z-0.029
X5.046 Y1.958
X5.036 Y1.961
X4.997 Y1.975
X4.948 Y1.996
X4.916 Y2.01 Z-0.028
X4.899 Y2.018 Z-0.029
X4.85 Y2.045
X4.827 Y2.059
X4.801 Y2.077
X4.752 Y2.114 Z-0.028
X4.701 Y2.157 Z-0.029
X4.652 Y2.206
X4.611 Y2.255
X4.575 Y2.304
X4.556 Y2.332
X4.543 Y2.353
X4.517 Y2.402
X4.507 Y2.422
X4.494 Y2.451
X4.475 Y2.5 Z-0.028
X4.465 Y2.525 Z-0.029
X4.458 Y2.544 Z-0.03
X4.444 Y2.598 Z-0.029
X4.435 Y2.647
X4.429 Y2.682
X4.427 Y2.693 Z-0.03
X4.423 Y2.706 Z-0.032
X4.412 Y2.743 Z-0.04
X4.41 Y2.751 Z-0.042
X4.408 Y2.761 Z-0.043
Y2.766
Y2.767
X4.407 Y2.793
X4.406 Y2.842 Z-0.044
Y2.989
Y9.109
Y9.158
X4.407 Y9.206 Z-0.043
X4.409 Y9.26
X4.413 Y9.304 Z-0.044
X4.42 Y9.353 Z-0.043
X4.43 Y9.402
X4.442 Y9.451 Z-0.044
X4.451 Y9.478 Z-0.043
X4.46 Y9.5
X4.479 Y9.549
X4.501 Y9.598
X4.507 Y9.61
X4.527 Y9.647
X4.558 Y9.696
X4.593 Y9.745
X4.605 Y9.76
X4.633 Y9.794
X4.654 Y9.817
X4.68 Y9.843
X4.703 Y9.864
X4.737 Y9.892 Z-0.042
X4.752 Y9.904 Z-0.043
X4.802 Y9.941
X4.85 Y9.971
X4.884 Y9.99
X4.899 Y9.997
X4.948 Y10.02
X4.997 Y10.04
X5.046 Y10.056
X5.095 Y10.069
X5.144 Y10.078 Z-0.042
X5.192 Y10.086 Z-0.043
X5.21 Y10.088
X5.241 Y10.091
X5.29 Y10.093
X5.339 Y10.094 Z-0.044
X6.661
X6.71 Y10.093 Z-0.043
X6.759 Y10.091
X6.79 Y10.088
X6.808 Y10.086
X6.856 Y10.078 Z-0.042
X6.905 Y10.069 Z-0.043
X6.954 Y10.056
X7.006 Y10.039
X7.052 Y10.02
X7.101 Y9.997
X7.116 Y9.99
X7.15 Y9.971
X7.199 Y9.94
X7.248 Y9.904
X7.263 Y9.892 Z-0.042
X7.297 Y9.864 Z-0.043
X7.32 Y9.843
X7.346 Y9.817
X7.367 Y9.794
X7.395 Y9.76
X7.407 Y9.745
X7.444 Y9.694
X7.473 Y9.647
X7.493 Y9.61
X7.499 Y9.598
X7.521 Y9.549
X7.542 Y9.497
X7.549 Y9.478
X7.558 Y9.451 Z-0.044
X7.57 Y9.402 Z-0.043
X7.58 Y9.353
X7.587 Y9.304 Z-0.044
X7.591 Y9.255 Z-0.043
X7.593 Y9.206 Z-0.044
X7.594 Y9.158
Y9.011
Y2.891
Y2.842
X7.593 Y2.793
X7.591 Y2.74 Z-0.043
X7.587 Y2.696 Z-0.044
X7.58 Y2.647 Z-0.043
X7.57 Y2.598
X7.558 Y2.549 Z-0.044
X7.549 Y2.522 Z-0.043
X7.54 Y2.5
X7.521 Y2.451
X7.499 Y2.402
X7.493 Y2.39
X7.473 Y2.353
X7.442 Y2.304
X7.407 Y2.255
X7.395 Y2.24
X7.367 Y2.206
X7.346 Y2.183
X7.32 Y2.157
X7.297 Y2.136
X7.263 Y2.108 Z-0.042
X7.248 Y2.096 Z-0.043
X7.198 Y2.059
X7.15 Y2.029
X7.116 Y2.01
X7.101 Y2.003
X7.052 Y1.98
X7.003 Y1.96
X6.954 Y1.944
X6.905 Y1.931
X6.856 Y1.922 Z-0.042
X6.808 Y1.914 Z-0.043
X6.79 Y1.912
X6.759 Y1.909
X6.71 Y1.907
X6.661 Y1.906 Z-0.044
X5.339
X5.29 Y1.907 Z-0.043
X5.241 Y1.909
X5.21 Y1.912
X5.192 Y1.914
X5.144 Y1.922 Z-0.042
X5.095 Y1.931 Z-0.043
X5.046 Y1.944
X4.994 Y1.961
X4.948 Y1.98
X4.899 Y2.003
X4.884 Y2.01
X4.85 Y2.029
X4.801 Y2.06
X4.752 Y2.096
X4.737 Y2.108 Z-0.042
X4.703 Y2.136 Z-0.043
X4.68 Y2.157
X4.654 Y2.183
X4.633 Y2.206
X4.605 Y2.24
X4.593 Y2.255
X4.556 Y2.306
X4.527 Y2.353
X4.507 Y2.39
X4.501 Y2.402
X4.479 Y2.451
X4.458 Y2.503
X4.451 Y2.522
X4.442 Y2.549 Z-0.044
X4.43 Y2.598 Z-0.043
X4.42 Y2.647
X4.413 Y2.696 Z-0.044
X4.409 Y2.745 Z-0.043
X4.408 Y2.767
X4.407 Y2.778 Z-0.044
X4.405 Y2.789 Z-0.045
X4.4 Y2.807 Z-0.05
X4.395 Y2.828 Z-0.055
X4.393 Y2.836 Z-0.057
X4.392 Y2.847 Z-0.058
Y2.852
Y3.136
Y9.109
Y9.158
Y9.206
X4.395 Y9.255 Z-0.057
X4.399 Y9.304 Z-0.058
X4.406 Y9.353 Z-0.057
X4.409 Y9.372
X4.416 Y9.402
X4.428 Y9.451 Z-0.058
X4.436 Y9.476 Z-0.057
X4.445 Y9.5
X4.464 Y9.549
X4.486 Y9.598
X4.511 Y9.647
X4.541 Y9.696
X4.556 Y9.719
X4.576 Y9.745
X4.605 Y9.783
X4.615 Y9.794
X4.654 Y9.837
X4.66 Y9.843
X4.703 Y9.882
X4.715 Y9.892
X4.752 Y9.921
X4.778 Y9.941
X4.801 Y9.957
X4.85 Y9.987
X4.899 Y10.013
X4.948 Y10.035
X4.997 Y10.055
X5.046 Y10.071
X5.095 Y10.083
X5.117 Y10.088
X5.144 Y10.093
X5.192 Y10.1
X5.241 Y10.105
X5.29 Y10.107
X5.339 Y10.108 Z-0.058
X6.661
X6.71 Y10.107 Z-0.057
X6.759 Y10.105
X6.808 Y10.1
X6.856 Y10.093
X6.883 Y10.088
X6.905 Y10.083
X6.954 Y10.071
X7.003 Y10.055
X7.052 Y10.035
X7.101 Y10.013
X7.15 Y9.987
X7.199 Y9.957
X7.222 Y9.941
X7.248 Y9.921
X7.285 Y9.892
X7.297 Y9.882
X7.34 Y9.843
X7.346 Y9.837
X7.385 Y9.794
X7.395 Y9.783
X7.424 Y9.745
X7.444 Y9.719
X7.459 Y9.696
X7.489 Y9.647
X7.514 Y9.598
X7.536 Y9.549
X7.555 Y9.5
X7.564 Y9.476
X7.572 Y9.451 Z-0.058
X7.584 Y9.402 Z-0.057
X7.591 Y9.372
X7.594 Y9.353
X7.601 Y9.304 Z-0.058
X7.605 Y9.255 Z-0.057
X7.608 Y9.206 Z-0.058
Y9.158
Y9.011
Y2.891
Y2.842
Y2.793
X7.605 Y2.745 Z-0.057
X7.601 Y2.696 Z-0.058
X7.594 Y2.647 Z-0.057
X7.591 Y2.628
X7.584 Y2.598 Z-0.058
X7.572 Y2.549
X7.564 Y2.524 Z-0.057
X7.555 Y2.5
X7.536 Y2.451
X7.514 Y2.402
X7.489 Y2.353
X7.459 Y2.304
X7.444 Y2.281
X7.424 Y2.255
X7.395 Y2.217
X7.385 Y2.206
X7.346 Y2.163
X7.34 Y2.157
X7.297 Y2.118
X7.285 Y2.108
X7.248 Y2.079
X7.222 Y2.059
X7.199 Y2.043
X7.15 Y2.013
X7.101 Y1.987
X7.043 Y1.961
X7.003 Y1.945
X6.954 Y1.929
X6.905 Y1.917
X6.883 Y1.912
X6.856 Y1.907
X6.808 Y1.9
X6.759 Y1.895
X6.71 Y1.893
X6.661 Y1.892 Z-0.058
X5.339
X5.29 Y1.893 Z-0.057
X5.241 Y1.895
X5.192 Y1.9
X5.144 Y1.907
X5.117 Y1.912
X5.095 Y1.917
X5.046 Y1.929
X4.997 Y1.945
X4.948 Y1.965
X4.899 Y1.987
X4.85 Y2.013
X4.801 Y2.043
X4.778 Y2.059
X4.752 Y2.079
X4.715 Y2.108
X4.703 Y2.118
X4.66 Y2.157
X4.654 Y2.163
X4.615 Y2.206
X4.605 Y2.217
X4.576 Y2.255
X4.556 Y2.281
X4.541 Y2.304
X4.511 Y2.353
X4.486 Y2.402
X4.464 Y2.451
X4.445 Y2.5
X4.436 Y2.524
X4.428 Y2.549 Z-0.058
X4.416 Y2.598
X4.409 Y2.629 Z-0.057
X4.406 Y2.647
X4.399 Y2.696 Z-0.058
X4.395 Y2.745 Z-0.057
X4.392 Y2.793 Z-0.058
Y2.852
X4.391 Y2.866 Z-0.059
X4.388 Y2.879 Z-0.062
X4.38 Y2.914 Z-0.07
X4.379 Y2.922 Z-0.071
X4.378 Y2.932 Z-0.072
Y2.938
Y9.109
Y9.158
Y9.206
X4.381 Y9.255 Z-0.071
X4.385 Y9.304 Z-0.072
X4.392 Y9.353 Z-0.071
X4.401 Y9.402 Z-0.072
X4.413 Y9.451
X4.421 Y9.476
X4.43 Y9.5 Z-0.071
X4.449 Y9.549
X4.458 Y9.572
X4.47 Y9.598
X4.495 Y9.647
X4.507 Y9.669
X4.524 Y9.696
X4.558 Y9.745
X4.596 Y9.794
X4.605 Y9.804
X4.64 Y9.843
X4.654 Y9.857
X4.693 Y9.892
X4.703 Y9.9
X4.754 Y9.941
X4.801 Y9.974
X4.827 Y9.99
X4.85 Y10.004
X4.899 Y10.029
X4.921 Y10.039
X4.948 Y10.05
X4.997 Y10.07
X5.046 Y10.086
X5.095 Y10.098
X5.144 Y10.107
X5.192 Y10.114
X5.241 Y10.119
X5.29 Y10.121
X5.339 Y10.122 Z-0.072
X6.661
X6.71 Y10.121 Z-0.071
X6.759 Y10.119
X6.808 Y10.114
X6.856 Y10.107
X6.905 Y10.098
X6.954 Y10.086
X7.003 Y10.07
X7.052 Y10.05
X7.079 Y10.039
X7.101 Y10.029
X7.15 Y10.004
X7.173 Y9.99
X7.199 Y9.974
X7.248 Y9.939
X7.297 Y9.9
X7.307 Y9.892
X7.346 Y9.857
X7.36 Y9.843
X7.395 Y9.804
X7.404 Y9.794
X7.444 Y9.743
X7.476 Y9.696
X7.493 Y9.669
X7.505 Y9.647
X7.53 Y9.598
X7.542 Y9.572
X7.551 Y9.549
X7.57 Y9.5
X7.579 Y9.476 Z-0.072
X7.587 Y9.451
X7.599 Y9.402
X7.608 Y9.353 Z-0.071
X7.615 Y9.304 Z-0.072
X7.619 Y9.255 Z-0.071
X7.622 Y9.206 Z-0.072
Y9.158
Y9.011
Y2.891
Y2.842
Y2.793
X7.619 Y2.745 Z-0.071
X7.615 Y2.696 Z-0.072
X7.608 Y2.647 Z-0.071
X7.599 Y2.598 Z-0.072
X7.587 Y2.549
X7.57 Y2.5 Z-0.071
X7.551 Y2.451
X7.542 Y2.428
X7.53 Y2.402
X7.505 Y2.353
X7.493 Y2.331
X7.476 Y2.304
X7.442 Y2.255
X7.404 Y2.206
X7.395 Y2.196
X7.36 Y2.157
X7.346 Y2.143
X7.307 Y2.108
X7.297 Y2.1
X7.246 Y2.059
X7.199 Y2.026
X7.173 Y2.01
X7.15 Y1.996
X7.101 Y1.971
X7.079 Y1.961
X7.052 Y1.95
X7.003 Y1.93
X6.954 Y1.914
X6.905 Y1.902
X6.856 Y1.893
X6.808 Y1.886
X6.759 Y1.881
X6.71 Y1.879
X6.661 Y1.878 Z-0.072
X5.339
X5.29 Y1.879 Z-0.071
X5.241 Y1.881
X5.192 Y1.886
X5.144 Y1.893
X5.095 Y1.902
X5.046 Y1.914
X4.997 Y1.93
X4.948 Y1.95
X4.921 Y1.961
X4.899 Y1.971
X4.85 Y1.996
X4.827 Y2.01
X4.801 Y2.026
X4.752 Y2.061
X4.703 Y2.1
X4.693 Y2.108
X4.654 Y2.143
X4.64 Y2.157
X4.605 Y2.196
X4.596 Y2.206
X4.556 Y2.257
X4.524 Y2.304
X4.507 Y2.331
X4.495 Y2.353
X4.47 Y2.402
X4.458 Y2.428
X4.449 Y2.451
X4.43 Y2.5
X4.421 Y2.524 Z-0.072
X4.413 Y2.549
X4.401 Y2.598
X4.392 Y2.647 Z-0.071
X4.385 Y2.696 Z-0.072
X4.381 Y2.745 Z-0.071
X4.378 Y2.793 Z-0.072
Y2.852
Y2.938
X4.377 Y2.952 Z-0.073
X4.374 Y2.965 Z-0.076
X4.366 Y3. Z-0.084
X4.365 Y3.008 Z-0.085
X4.364 Y3.019 Z-0.086
X4.363 Y3.024 Z-0.087
Y9.109
X4.364 Y9.158 Z-0.086
Y9.206
X4.367 Y9.255 Z-0.085
X4.37 Y9.304 Z-0.086
X4.377 Y9.353 Z-0.085
X4.387 Y9.402 Z-0.086
X4.399 Y9.451
X4.409 Y9.486 Z-0.085
X4.414 Y9.5
X4.433 Y9.549
X4.454 Y9.598
X4.458 Y9.607
X4.479 Y9.647
X4.508 Y9.696
X4.54 Y9.745
X4.556 Y9.766
X4.578 Y9.794
X4.605 Y9.826
X4.621 Y9.843
X4.654 Y9.876
X4.672 Y9.892
X4.703 Y9.919
X4.731 Y9.941
X4.752 Y9.957
X4.801 Y9.99
X4.85 Y10.02
X4.887 Y10.039
X4.899 Y10.044
X4.948 Y10.065
X4.997 Y10.085
X5.046 Y10.1 Z-0.086
X5.095 Y10.112 Z-0.085
X5.144 Y10.121
X5.192 Y10.128
X5.241 Y10.133
X5.29 Y10.136 Z-0.086
X5.339
X6.661
X6.71
X6.759 Y10.133 Z-0.085
X6.808 Y10.128
X6.856 Y10.121
X6.905 Y10.112
X6.954 Y10.1 Z-0.086
X7.003 Y10.085 Z-0.085
X7.052 Y10.065
X7.101 Y10.044
X7.113 Y10.039
X7.15 Y10.02
X7.2 Y9.99
X7.248 Y9.957
X7.269 Y9.941
X7.297 Y9.919
X7.328 Y9.892
X7.346 Y9.876
X7.379 Y9.843
X7.395 Y9.825
X7.422 Y9.794
X7.444 Y9.766
X7.46 Y9.745
X7.493 Y9.696
X7.521 Y9.647
X7.542 Y9.607
X7.546 Y9.598
X7.567 Y9.549
X7.586 Y9.5
X7.591 Y9.486 Z-0.086
X7.601 Y9.451
X7.613 Y9.402
X7.623 Y9.353 Z-0.085
X7.63 Y9.304 Z-0.086
X7.633 Y9.255 Z-0.085
X7.636 Y9.206 Z-0.086
Y9.158
X7.637 Y9.011 Z-0.087
Y2.891
X7.636 Y2.842 Z-0.086
Y2.793
X7.633 Y2.745 Z-0.085
X7.63 Y2.696 Z-0.086
X7.623 Y2.647 Z-0.085
X7.613 Y2.598 Z-0.086
X7.601 Y2.549
X7.591 Y2.515 Z-0.085
X7.585 Y2.5
X7.567 Y2.451
X7.546 Y2.402
X7.542 Y2.393
X7.521 Y2.353
X7.492 Y2.304
X7.459 Y2.255
X7.444 Y2.234
X7.422 Y2.206
X7.395 Y2.174
X7.379 Y2.157
X7.346 Y2.124
X7.328 Y2.108
X7.297 Y2.081
X7.269 Y2.059
X7.248 Y2.043
X7.199 Y2.01
X7.15 Y1.98
X7.113 Y1.961
X7.101 Y1.956
X7.052 Y1.935
X7.003 Y1.915
X6.954 Y1.9 Z-0.086
X6.905 Y1.888 Z-0.085
X6.856 Y1.879
X6.808 Y1.872
X6.759 Y1.867 Z-0.086
X6.71 Y1.864
X6.661
X5.339
X5.29
X5.241 Y1.867
X5.192 Y1.872 Z-0.085
X5.144 Y1.879
X5.095 Y1.888
X5.046 Y1.9 Z-0.086
X4.997 Y1.915 Z-0.085
X4.948 Y1.935
X4.899 Y1.956
X4.887 Y1.961
X4.85 Y1.98
X4.8 Y2.01
X4.752 Y2.043
X4.731 Y2.059
X4.703 Y2.081
X4.672 Y2.108
X4.654 Y2.124
X4.621 Y2.157
X4.605 Y2.174
X4.578 Y2.206
X4.556 Y2.234
X4.54 Y2.255
X4.507 Y2.304
X4.479 Y2.353
X4.458 Y2.393
X4.454 Y2.402
X4.433 Y2.451
X4.414 Y2.5
X4.409 Y2.514
X4.399 Y2.549 Z-0.086
X4.387 Y2.598
X4.377 Y2.647 Z-0.085
X4.37 Y2.696 Z-0.086
X4.367 Y2.745 Z-0.085
X4.364 Y2.793 Z-0.086
Y2.842
X4.363 Y2.989 Z-0.087
Y3.024
X4.362 Y3.038 Z-0.088
X4.36 Y3.052 Z-0.09
X4.352 Y3.086 Z-0.098
X4.351 Y3.094 Z-0.099
X4.349 Y3.105 Z-0.101
Y3.11
Y9.109
Y9.158
X4.35 Y9.206 Z-0.1
X4.353 Y9.255
X4.356 Y9.304
X4.363 Y9.353
X4.372 Y9.402
X4.384 Y9.451
X4.399 Y9.5 Z-0.099
X4.409 Y9.527
X4.418 Y9.549
X4.439 Y9.598
X4.458 Y9.638
X4.463 Y9.647
X4.491 Y9.696
X4.507 Y9.721
X4.523 Y9.745
X4.56 Y9.794
X4.605 Y9.846
X4.654 Y9.895
X4.708 Y9.941
X4.752 Y9.974
X4.774 Y9.99
X4.801 Y10.007
X4.85 Y10.036
X4.899 Y10.06
X4.948 Y10.081
X4.965 Y10.088
X4.997 Y10.1
X5.046 Y10.115 Z-0.1
X5.095 Y10.126 Z-0.099
X5.15 Y10.137
X5.192 Y10.143
X5.241 Y10.147 Z-0.1
X5.29 Y10.15
X5.339
X6.661
X6.71
X6.759 Y10.147
X6.808 Y10.143 Z-0.099
X6.856 Y10.136
X6.905 Y10.126
X6.954 Y10.115 Z-0.1
X7.003 Y10.1 Z-0.099
X7.035 Y10.088
X7.052 Y10.081
X7.101 Y10.06
X7.15 Y10.036
X7.199 Y10.007
X7.226 Y9.99
X7.248 Y9.974
X7.297 Y9.937
X7.349 Y9.892
X7.398 Y9.843
X7.44 Y9.794
X7.477 Y9.745
X7.493 Y9.721
X7.509 Y9.696
X7.537 Y9.647
X7.542 Y9.638
X7.561 Y9.598
X7.582 Y9.549
X7.591 Y9.527
X7.601 Y9.5
X7.616 Y9.451 Z-0.1
X7.628 Y9.402
X7.637 Y9.353
X7.644 Y9.304
X7.648 Y9.255
X7.65 Y9.206
X7.651 Y9.109 Z-0.101
Y2.891
X7.65 Y2.793 Z-0.1
X7.648 Y2.745
X7.644 Y2.696
X7.637 Y2.647
X7.628 Y2.598
X7.616 Y2.549
X7.6 Y2.5 Z-0.099
X7.591 Y2.473
X7.582 Y2.451
X7.561 Y2.402
X7.542 Y2.362
X7.537 Y2.353
X7.509 Y2.304
X7.493 Y2.279
X7.477 Y2.255
X7.44 Y2.206
X7.395 Y2.153
X7.346 Y2.105
X7.292 Y2.059
X7.248 Y2.026
X7.225 Y2.01
X7.199 Y1.993
X7.15 Y1.964
X7.101 Y1.94
X7.052 Y1.919
X7.035 Y1.912
X7.003 Y1.9
X6.954 Y1.885 Z-0.1
X6.905 Y1.874 Z-0.099
X6.856 Y1.864
X6.808 Y1.857
X6.759 Y1.853 Z-0.1
X6.71 Y1.85
X6.661
X5.339
X5.29
X5.241 Y1.853
X5.192 Y1.857 Z-0.099
X5.144 Y1.864
X5.095 Y1.874
X5.046 Y1.885 Z-0.1
X4.997 Y1.9 Z-0.099
X4.965 Y1.912
X4.948 Y1.919
X4.899 Y1.94
X4.85 Y1.964
X4.801 Y1.993
X4.774 Y2.01
X4.752 Y2.026
X4.703 Y2.063
X4.651 Y2.108
X4.602 Y2.157
X4.556 Y2.211
X4.523 Y2.255
X4.507 Y2.279
X4.491 Y2.304
X4.463 Y2.353
X4.458 Y2.362
X4.439 Y2.402
X4.418 Y2.451
X4.409 Y2.473
X4.399 Y2.5
X4.384 Y2.549 Z-0.1
X4.372 Y2.598
X4.363 Y2.647
X4.356 Y2.696
X4.353 Y2.745
X4.35 Y2.793
X4.349 Y2.842 Z-0.101
Y2.989
Y3.11
Y3.17
Y9.206
X4.351 Y9.255
X4.355 Y9.304
X4.362 Y9.353
X4.371 Y9.402
X4.383 Y9.451
X4.398 Y9.5
X4.409 Y9.532
X4.416 Y9.549
X4.437 Y9.598
X4.458 Y9.642
X4.49 Y9.696
X4.507 Y9.724
X4.521 Y9.745
X4.558 Y9.794
X4.605 Y9.848 Z-0.1
X4.648 Y9.892
X4.654 Y9.897
X4.705 Y9.941 Z-0.101
X4.752 Y9.977
X4.771 Y9.99
X4.801 Y10.009
X4.852 Y10.039
X4.899 Y10.062
X4.948 Y10.083
X4.961 Y10.088
X4.997 Y10.101
X5.046 Y10.116
X5.095 Y10.128
X5.144 Y10.138
X5.192 Y10.145
X5.241 Y10.149
X5.29 Y10.151
X6.71
X6.759 Y10.149
X6.808 Y10.145
X6.856 Y10.138
X6.905 Y10.128
X6.954 Y10.116
X7.003 Y10.101
X7.039 Y10.088
X7.052 Y10.083
X7.101 Y10.062
X7.15 Y10.037
X7.199 Y10.009
X7.229 Y9.99
X7.248 Y9.977
X7.297 Y9.939
X7.346 Y9.897 Z-0.1
X7.352 Y9.892
X7.395 Y9.848
X7.442 Y9.794 Z-0.101
X7.479 Y9.745
X7.493 Y9.724
X7.511 Y9.696
X7.542 Y9.642
X7.563 Y9.598
X7.584 Y9.549
X7.591 Y9.532
X7.602 Y9.5
X7.617 Y9.451
X7.629 Y9.402
X7.638 Y9.353
X7.645 Y9.304
X7.649 Y9.255
X7.651 Y9.206
Y2.793
X7.649 Y2.745
X7.645 Y2.696
X7.638 Y2.647
X7.629 Y2.598
X7.617 Y2.549
X7.602 Y2.5
X7.591 Y2.468
X7.584 Y2.451
X7.563 Y2.402
X7.542 Y2.358
X7.51 Y2.304
X7.493 Y2.276
X7.479 Y2.255
X7.442 Y2.206
X7.395 Y2.152 Z-0.1
X7.352 Y2.108
X7.346 Y2.103
X7.295 Y2.059 Z-0.101
X7.248 Y2.024
X7.229 Y2.01
X7.199 Y1.991
X7.147 Y1.961
X7.101 Y1.938
X7.052 Y1.917
X7.039 Y1.912
X7.003 Y1.899
X6.954 Y1.884
X6.905 Y1.872
X6.856 Y1.862
X6.808 Y1.855
X6.759 Y1.851
X6.71 Y1.849
X5.339
X5.29
X5.241 Y1.851
X5.192 Y1.855
X5.144 Y1.862
X5.095 Y1.872
X5.046 Y1.884
X4.997 Y1.899
X4.961 Y1.912
X4.948 Y1.917
X4.899 Y1.938
X4.85 Y1.963
X4.801 Y1.991
X4.771 Y2.01
X4.752 Y2.023
X4.703 Y2.061
X4.654 Y2.103 Z-0.1
X4.648 Y2.108
X4.605 Y2.152
X4.556 Y2.209 Z-0.101
X4.521 Y2.255
X4.507 Y2.276
X4.49 Y2.304
X4.458 Y2.358
X4.437 Y2.402
X4.416 Y2.451
X4.409 Y2.468
X4.398 Y2.5
X4.383 Y2.549
X4.371 Y2.598
X4.362 Y2.647
X4.355 Y2.696
X4.351 Y2.745
X4.349 Y2.793
Y3.17
X4.348 Y3.184 Z-0.102
X4.345 Y3.197 Z-0.105
X4.337 Y3.232 Z-0.113
X4.336 Y3.24 Z-0.114
X4.335 Y3.251 Z-0.115
Y3.256
Y9.206
X4.337 Y9.255
X4.341 Y9.304
X4.347 Y9.353
X4.357 Y9.402
X4.369 Y9.451
X4.383 Y9.5
X4.401 Y9.549
X4.421 Y9.598
X4.445 Y9.647
X4.458 Y9.671
X4.473 Y9.696
X4.507 Y9.75
X4.54 Y9.794
X4.556 Y9.814
X4.581 Y9.843
X4.605 Y9.869
X4.628 Y9.892
X4.654 Y9.916
X4.683 Y9.941
X4.703 Y9.958
X4.752 Y9.994
X4.801 Y10.025
X4.824 Y10.039
X4.85 Y10.053
X4.899 Y10.077
X4.948 Y10.098
X4.997 Y10.116
X5.046 Y10.131
X5.095 Y10.143
X5.144 Y10.152
X5.192 Y10.159
X5.241 Y10.163
X5.29 Y10.165
X6.71
X6.759 Y10.163
X6.808 Y10.159
X6.856 Y10.152
X6.905 Y10.143
X6.954 Y10.131
X7.003 Y10.116
X7.052 Y10.098
X7.101 Y10.077
X7.15 Y10.053
X7.176 Y10.039
X7.199 Y10.025
X7.248 Y9.994
X7.297 Y9.958
X7.317 Y9.941
X7.346 Y9.916
X7.372 Y9.892
X7.395 Y9.869
X7.419 Y9.843
X7.444 Y9.814
X7.46 Y9.794
X7.496 Y9.745
X7.527 Y9.696
X7.542 Y9.671
X7.555 Y9.647
X7.579 Y9.598
X7.599 Y9.549
X7.617 Y9.5
X7.631 Y9.451
X7.643 Y9.402
X7.653 Y9.353
X7.659 Y9.304
X7.663 Y9.255
X7.665 Y9.206
Y2.793
X7.663 Y2.745
X7.659 Y2.696
X7.653 Y2.647
X7.643 Y2.598
X7.631 Y2.549
X7.617 Y2.5
X7.599 Y2.451
X7.579 Y2.402
X7.555 Y2.353
X7.542 Y2.329
X7.527 Y2.304
X7.493 Y2.25
X7.46 Y2.206
X7.444 Y2.186
X7.419 Y2.157
X7.395 Y2.131
X7.372 Y2.108
X7.346 Y2.084
X7.317 Y2.059
X7.297 Y2.042
X7.248 Y2.006
X7.199 Y1.975
X7.176 Y1.961
X7.15 Y1.947
X7.101 Y1.923
X7.052 Y1.902
X7.003 Y1.884
X6.954 Y1.869
X6.905 Y1.857
X6.856 Y1.848
X6.808 Y1.841
X6.759 Y1.837
X6.71 Y1.835
X5.29
X5.241 Y1.837
X5.192 Y1.841
X5.144 Y1.848
X5.095 Y1.857
X5.046 Y1.869
X4.997 Y1.884
X4.948 Y1.902
X4.899 Y1.923
X4.85 Y1.947
X4.824 Y1.961
X4.801 Y1.975
X4.752 Y2.006
X4.703 Y2.042
X4.683 Y2.059
X4.654 Y2.084
X4.628 Y2.108
X4.605 Y2.131
X4.581 Y2.157
X4.556 Y2.186
X4.54 Y2.206
X4.504 Y2.255
X4.473 Y2.304
X4.458 Y2.329
X4.445 Y2.353
X4.421 Y2.402
X4.401 Y2.451
X4.383 Y2.5
X4.369 Y2.549
X4.357 Y2.598
X4.347 Y2.647
X4.341 Y2.696
X4.337 Y2.745
X4.335 Y2.793
Y3.256
X4.334 Y3.27 Z-0.116
X4.331 Y3.283 Z-0.119
X4.323 Y3.317 Z-0.127
X4.322 Y3.325 Z-0.128
X4.321 Y3.336 Z-0.129
X4.32 Y3.342 Z-0.13
Y9.206
X4.323 Y9.255 Z-0.129
X4.327 Y9.304
X4.333 Y9.353 Z-0.13
X4.342 Y9.402 Z-0.129
X4.354 Y9.451
X4.361 Y9.475
X4.368 Y9.5
X4.386 Y9.549
X4.409 Y9.606
X4.429 Y9.647
X4.458 Y9.699
X4.487 Y9.745
X4.507 Y9.774
X4.522 Y9.794
X4.556 Y9.836
X4.562 Y9.843
X4.607 Y9.892
X4.654 Y9.935
X4.703 Y9.976
X4.722 Y9.99
X4.752 Y10.011
X4.801 Y10.042
X4.85 Y10.069
X4.887 Y10.088
X4.899 Y10.093
X4.948 Y10.113
X4.997 Y10.131
X5.015 Y10.137
X5.046 Y10.145
X5.095 Y10.157
X5.144 Y10.167
X5.192 Y10.173
X5.241 Y10.177
X5.29 Y10.179 Z-0.13
X6.71
X6.759 Y10.177 Z-0.129
X6.808 Y10.173
X6.856 Y10.167
X6.905 Y10.157
X6.954 Y10.145
X6.985 Y10.137
X7.003 Y10.131
X7.052 Y10.113
X7.101 Y10.093
X7.113 Y10.088
X7.15 Y10.069
X7.204 Y10.039
X7.248 Y10.011
X7.278 Y9.99
X7.297 Y9.976
X7.346 Y9.935
X7.395 Y9.89
X7.438 Y9.843
X7.444 Y9.836
X7.478 Y9.794
X7.493 Y9.774
X7.513 Y9.745
X7.544 Y9.696
X7.571 Y9.647
X7.594 Y9.598
X7.614 Y9.549
X7.632 Y9.5
X7.639 Y9.475
X7.646 Y9.451
X7.658 Y9.402
X7.667 Y9.353 Z-0.13
X7.673 Y9.304 Z-0.129
X7.677 Y9.255
X7.68 Y9.206 Z-0.13
Y2.793
X7.677 Y2.745 Z-0.129
X7.673 Y2.696
X7.667 Y2.647 Z-0.13
X7.658 Y2.598 Z-0.129
X7.646 Y2.549
X7.639 Y2.525
X7.632 Y2.5
X7.614 Y2.451
X7.591 Y2.394
X7.571 Y2.353
X7.542 Y2.301
X7.513 Y2.255
X7.493 Y2.226
X7.478 Y2.206
X7.444 Y2.164
X7.438 Y2.157
X7.393 Y2.108
X7.346 Y2.065
X7.297 Y2.024
X7.278 Y2.01
X7.248 Y1.989
X7.199 Y1.958
X7.15 Y1.931
X7.112 Y1.912
X7.101 Y1.907
X7.052 Y1.887
X7.003 Y1.869
X6.985 Y1.863
X6.954 Y1.855
X6.905 Y1.843
X6.856 Y1.833
X6.808 Y1.827
X6.759 Y1.823
X6.71 Y1.821 Z-0.13
X5.29
X5.241 Y1.823 Z-0.129
X5.192 Y1.827
X5.144 Y1.833
X5.095 Y1.843
X5.046 Y1.855
X5.015 Y1.863
X4.997 Y1.869
X4.948 Y1.887
X4.899 Y1.907
X4.888 Y1.912
X4.85 Y1.931
X4.796 Y1.961
X4.752 Y1.989
X4.722 Y2.01
X4.703 Y2.024
X4.654 Y2.065
X4.605 Y2.11
X4.562 Y2.157
X4.556 Y2.164
X4.522 Y2.206
X4.507 Y2.226
X4.487 Y2.255
X4.456 Y2.304
X4.429 Y2.353
X4.409 Y2.394
X4.386 Y2.451
X4.368 Y2.5
X4.361 Y2.525
X4.354 Y2.549
X4.342 Y2.598
X4.333 Y2.647 Z-0.13
X4.327 Y2.696 Z-0.129
X4.323 Y2.745
X4.32 Y2.793 Z-0.13
Y3.342
X4.319 Y3.356 Z-0.131
X4.317 Y3.369 Z-0.133
X4.309 Y3.403 Z-0.141
X4.308 Y3.411 Z-0.142
X4.306 Y3.422 Z-0.144
Y3.428
Y9.206
X4.308 Y9.255
X4.312 Y9.304
X4.318 Y9.353
X4.328 Y9.402
X4.339 Y9.451 Z-0.143
X4.353 Y9.5
X4.361 Y9.522
X4.37 Y9.549 Z-0.144
X4.391 Y9.598 Z-0.143
X4.409 Y9.64 Z-0.144
X4.44 Y9.696 Z-0.143
X4.47 Y9.745
X4.507 Y9.798
X4.544 Y9.843
X4.556 Y9.857
X4.588 Y9.892
X4.605 Y9.91
X4.639 Y9.941
X4.654 Y9.954
X4.703 Y9.994
X4.752 Y10.028
X4.801 Y10.058
X4.854 Y10.088
X4.899 Y10.108
X4.948 Y10.128 Z-0.144
X4.97 Y10.137 Z-0.143
X4.997 Y10.146
X5.046 Y10.16
X5.095 Y10.172 Z-0.144
X5.144 Y10.181
X5.177 Y10.186 Z-0.143
X5.192 Y10.187 Z-0.144
X5.241 Y10.191
X5.29 Y10.194
X6.71
X6.759 Y10.191
X6.808 Y10.187
X6.823 Y10.186 Z-0.143
X6.856 Y10.181 Z-0.144
X6.905 Y10.172
X6.954 Y10.16 Z-0.143
X7.003 Y10.146
X7.03 Y10.137
X7.052 Y10.128 Z-0.144
X7.101 Y10.108 Z-0.143
X7.146 Y10.088
X7.199 Y10.058
X7.248 Y10.028
X7.297 Y9.994
X7.346 Y9.954
X7.361 Y9.941
X7.395 Y9.91
X7.412 Y9.892
X7.444 Y9.857
X7.456 Y9.843
X7.496 Y9.794
X7.53 Y9.745
X7.56 Y9.696
X7.591 Y9.64 Z-0.144
X7.609 Y9.598 Z-0.143
X7.63 Y9.549 Z-0.144
X7.639 Y9.522 Z-0.143
X7.647 Y9.5
X7.661 Y9.451
X7.672 Y9.402 Z-0.144
X7.682 Y9.353
X7.688 Y9.304
X7.692 Y9.255
X7.694 Y9.206
Y2.793
X7.692 Y2.745
X7.688 Y2.696
X7.682 Y2.647
X7.672 Y2.598
X7.661 Y2.549 Z-0.143
X7.647 Y2.5
X7.639 Y2.478
X7.63 Y2.451 Z-0.144
X7.609 Y2.402 Z-0.143
X7.591 Y2.36
X7.587 Y2.353
X7.56 Y2.304
X7.53 Y2.255
X7.496 Y2.206
X7.456 Y2.157
X7.444 Y2.143
X7.412 Y2.108
X7.395 Y2.09
X7.361 Y2.059
X7.346 Y2.046
X7.297 Y2.006
X7.248 Y1.972
X7.199 Y1.942
X7.146 Y1.912
X7.101 Y1.892
X7.052 Y1.872 Z-0.144
X7.03 Y1.863 Z-0.143
X7.003 Y1.854
X6.954 Y1.84
X6.905 Y1.828 Z-0.144
X6.856 Y1.819
X6.822 Y1.814 Z-0.143
X6.808 Y1.813 Z-0.144
X6.759 Y1.809
X6.71 Y1.806
X5.29
X5.241 Y1.809
X5.192 Y1.813
X5.144 Y1.819
X5.095 Y1.828
X5.046 Y1.84 Z-0.143
X4.997 Y1.854
X4.97 Y1.863
X4.948 Y1.872 Z-0.144
X4.899 Y1.892 Z-0.143
X4.854 Y1.912
X4.801 Y1.942
X4.752 Y1.972
X4.703 Y2.006
X4.654 Y2.046
X4.639 Y2.059
X4.605 Y2.09
X4.588 Y2.108
X4.556 Y2.143
X4.544 Y2.157
X4.504 Y2.206
X4.47 Y2.255
X4.44 Y2.304
X4.413 Y2.353
X4.409 Y2.36
X4.391 Y2.402
X4.37 Y2.451 Z-0.144
X4.361 Y2.478 Z-0.143
X4.353 Y2.5
X4.339 Y2.549
X4.328 Y2.598 Z-0.144
X4.318 Y2.647
X4.312 Y2.696
X4.308 Y2.745
X4.306 Y2.793
Y3.428
X4.305 Y3.442 Z-0.145
X4.303 Y3.455 Z-0.147
X4.295 Y3.49 Z-0.155
X4.293 Y3.498 Z-0.157
X4.292 Y3.509 Z-0.158
Y3.514
Y9.206
X4.294 Y9.255
X4.298 Y9.304
X4.304 Y9.353
X4.313 Y9.402
X4.325 Y9.451
X4.338 Y9.5
X4.355 Y9.549
X4.375 Y9.598
X4.397 Y9.647
X4.409 Y9.671 Z-0.157
X4.423 Y9.696 Z-0.158
X4.458 Y9.753 Z-0.157
X4.486 Y9.794 Z-0.158
X4.507 Y9.821 Z-0.157
X4.525 Y9.843 Z-0.158
X4.556 Y9.879 Z-0.157
X4.568 Y9.892
X4.605 Y9.929
X4.618 Y9.941
X4.654 Y9.972 Z-0.158
X4.675 Y9.99 Z-0.157
X4.703 Y10.012 Z-0.158
X4.742 Y10.039 Z-0.157
X4.752 Y10.045
X4.801 Y10.075 Z-0.158
X4.824 Y10.088 Z-0.157
X4.85 Y10.101 Z-0.158
X4.899 Y10.124
X4.948 Y10.144
X4.997 Y10.161
X5.046 Y10.174
X5.095 Y10.186
X5.144 Y10.195
X5.192 Y10.201
X5.241 Y10.205
X5.29 Y10.208
X6.71
X6.759 Y10.205
X6.808 Y10.201
X6.856 Y10.195
X6.908 Y10.186
X6.954 Y10.174
X7.003 Y10.161
X7.052 Y10.144
X7.101 Y10.124
X7.15 Y10.101
X7.176 Y10.088 Z-0.157
X7.199 Y10.075 Z-0.158
X7.248 Y10.045 Z-0.157
X7.258 Y10.039
X7.297 Y10.012 Z-0.158
X7.325 Y9.99 Z-0.157
X7.346 Y9.972 Z-0.158
X7.382 Y9.941 Z-0.157
X7.395 Y9.929
X7.432 Y9.892
X7.444 Y9.879
X7.475 Y9.843 Z-0.158
X7.493 Y9.821 Z-0.157
X7.514 Y9.794 Z-0.158
X7.542 Y9.753 Z-0.157
X7.577 Y9.696 Z-0.158
X7.591 Y9.671 Z-0.157
X7.603 Y9.647 Z-0.158
X7.625 Y9.598
X7.645 Y9.549
X7.662 Y9.5
X7.675 Y9.451
X7.688 Y9.395
X7.696 Y9.353
X7.702 Y9.304
X7.706 Y9.255
X7.708 Y9.206
Y2.793
X7.706 Y2.745
X7.702 Y2.696
X7.696 Y2.647
X7.688 Y2.605
X7.675 Y2.549
X7.662 Y2.5
X7.645 Y2.451
X7.625 Y2.402
X7.603 Y2.353
X7.591 Y2.329 Z-0.157
X7.577 Y2.304 Z-0.158
X7.542 Y2.247 Z-0.157
X7.514 Y2.206 Z-0.158
X7.493 Y2.179 Z-0.157
X7.475 Y2.157 Z-0.158
X7.444 Y2.121 Z-0.157
X7.432 Y2.108
X7.395 Y2.071
X7.382 Y2.059
X7.346 Y2.028 Z-0.158
X7.325 Y2.01 Z-0.157
X7.297 Y1.988 Z-0.158
X7.258 Y1.961 Z-0.157
X7.199 Y1.925 Z-0.158
X7.176 Y1.912 Z-0.157
X7.15 Y1.899 Z-0.158
X7.101 Y1.876
X7.052 Y1.856
X7.003 Y1.839
X6.954 Y1.826
X6.905 Y1.814
X6.856 Y1.805
X6.808 Y1.799
X6.759 Y1.795
X6.71 Y1.792
X5.29
X5.241 Y1.795
X5.192 Y1.799
X5.144 Y1.805
X5.092 Y1.814
X5.046 Y1.826
X4.997 Y1.839
X4.948 Y1.856
X4.899 Y1.876
X4.85 Y1.899
X4.824 Y1.912 Z-0.157
X4.801 Y1.925 Z-0.158
X4.742 Y1.961 Z-0.157
X4.703 Y1.988 Z-0.158
X4.675 Y2.01 Z-0.157
X4.654 Y2.028 Z-0.158
X4.618 Y2.059 Z-0.157
X4.605 Y2.071
X4.568 Y2.108
X4.556 Y2.121
X4.525 Y2.157 Z-0.158
X4.507 Y2.179 Z-0.157
X4.486 Y2.206 Z-0.158
X4.458 Y2.247 Z-0.157
X4.423 Y2.304 Z-0.158
X4.409 Y2.329 Z-0.157
X4.397 Y2.353 Z-0.158
X4.375 Y2.402
X4.355 Y2.451
X4.338 Y2.5
X4.325 Y2.549
X4.312 Y2.605
X4.304 Y2.647
X4.298 Y2.696
X4.294 Y2.745
X4.292 Y2.793
Y3.514
X4.291 Y3.528 Z-0.159
X4.289 Y3.541 Z-0.161
X4.281 Y3.576 Z-0.169
X4.279 Y3.584 Z-0.171
X4.278 Y3.595 Z-0.172
Y3.6
Y9.206
X4.28 Y9.255
X4.284 Y9.304
X4.29 Y9.353
X4.299 Y9.402
X4.312 Y9.456
X4.323 Y9.5
X4.34 Y9.549
X4.361 Y9.6
X4.381 Y9.647
X4.409 Y9.7
X4.437 Y9.745
X4.458 Y9.779
X4.469 Y9.794
X4.507 Y9.844
X4.549 Y9.892
X4.556 Y9.9
X4.597 Y9.941
X4.605 Y9.949
X4.654 Y9.991
X4.703 Y10.029
X4.717 Y10.039
X4.752 Y10.062
X4.801 Y10.091
X4.85 Y10.117
X4.899 Y10.139
X4.948 Y10.159
X4.997 Y10.176
X5.032 Y10.186
X5.095 Y10.201
X5.144 Y10.21
X5.192 Y10.216
X5.241 Y10.22
X5.29 Y10.222
X6.71
X6.759 Y10.22
X6.808 Y10.216
X6.856 Y10.21
X6.905 Y10.201
X6.968 Y10.186
X7.003 Y10.176
X7.052 Y10.159
X7.107 Y10.137
X7.15 Y10.117
X7.199 Y10.091
X7.248 Y10.062
X7.283 Y10.039
X7.297 Y10.029
X7.347 Y9.99
X7.395 Y9.949
X7.403 Y9.941
X7.444 Y9.9
X7.451 Y9.892
X7.494 Y9.843
X7.531 Y9.794
X7.542 Y9.779
X7.563 Y9.745
X7.593 Y9.696
X7.619 Y9.647
X7.64 Y9.598
X7.66 Y9.549
X7.677 Y9.5
X7.69 Y9.451
X7.701 Y9.402
X7.71 Y9.353
X7.716 Y9.304
X7.72 Y9.255
X7.722 Y9.206
Y2.793
X7.72 Y2.745
X7.716 Y2.696
X7.71 Y2.647
X7.701 Y2.598
X7.688 Y2.544
X7.677 Y2.5
X7.66 Y2.451
X7.639 Y2.4
X7.619 Y2.353
X7.591 Y2.3
X7.563 Y2.255
X7.542 Y2.221
X7.531 Y2.206
X7.493 Y2.156
X7.451 Y2.108
X7.444 Y2.1
X7.403 Y2.059
X7.395 Y2.051
X7.346 Y2.009
X7.297 Y1.971
X7.283 Y1.961
X7.248 Y1.938
X7.199 Y1.909
X7.15 Y1.883
X7.101 Y1.861
X7.052 Y1.841
X7.003 Y1.824
X6.968 Y1.814
X6.905 Y1.799
X6.856 Y1.79
X6.808 Y1.784
X6.759 Y1.78
X6.71 Y1.778
X5.29
X5.241 Y1.78
X5.192 Y1.784
X5.144 Y1.79
X5.095 Y1.799
X5.032 Y1.814
X4.997 Y1.824
X4.948 Y1.841
X4.893 Y1.863
X4.85 Y1.883
X4.801 Y1.909
X4.752 Y1.938
X4.717 Y1.961
X4.703 Y1.971
X4.653 Y2.01
X4.605 Y2.051
X4.597 Y2.059
X4.556 Y2.1
X4.549 Y2.108
X4.507 Y2.157
X4.469 Y2.206
X4.458 Y2.221
X4.437 Y2.255
X4.407 Y2.304
X4.381 Y2.353
X4.36 Y2.402
X4.34 Y2.451
X4.323 Y2.5
X4.31 Y2.549
X4.299 Y2.598
X4.29 Y2.647
X4.284 Y2.696
X4.28 Y2.745
X4.278 Y2.793
Y3.6
X4.277 Y3.614 Z-0.173
X4.275 Y3.627 Z-0.175
X4.267 Y3.662 Z-0.183
X4.265 Y3.67 Z-0.185
X4.264 Y3.68 Z-0.186
Y3.686
Y9.206
X4.266 Y9.255
X4.27 Y9.304
X4.275 Y9.353
X4.284 Y9.402
X4.296 Y9.451
X4.308 Y9.5
X4.325 Y9.549
X4.344 Y9.598
X4.361 Y9.636
X4.366 Y9.647
X4.391 Y9.696
X4.42 Y9.745
X4.451 Y9.794
X4.458 Y9.804
X4.488 Y9.843
X4.53 Y9.892
X4.556 Y9.921
X4.576 Y9.941
X4.605 Y9.968
X4.654 Y10.009
X4.692 Y10.039
X4.703 Y10.047
X4.752 Y10.078
X4.801 Y10.108
X4.85 Y10.133
X4.858 Y10.137
X4.899 Y10.154
X4.948 Y10.174
X4.981 Y10.186
X4.997 Y10.191
X5.046 Y10.204
X5.095 Y10.215
X5.144 Y10.224
X5.192 Y10.23
X5.253 Y10.234
X5.29 Y10.236
X6.71
X6.747 Y10.234
X6.808 Y10.23
X6.856 Y10.224
X6.905 Y10.215
X6.954 Y10.204
X7.003 Y10.191
X7.019 Y10.186
X7.052 Y10.174
X7.101 Y10.154
X7.142 Y10.137
X7.15 Y10.133
X7.199 Y10.108
X7.248 Y10.078
X7.297 Y10.047
X7.308 Y10.039
X7.346 Y10.009
X7.395 Y9.968
X7.424 Y9.941
X7.444 Y9.921
X7.47 Y9.892
X7.512 Y9.843
X7.542 Y9.804
X7.549 Y9.794
X7.58 Y9.745
X7.609 Y9.696
X7.634 Y9.647
X7.639 Y9.636
X7.656 Y9.598
X7.675 Y9.549
X7.691 Y9.5
X7.704 Y9.451
X7.716 Y9.402
X7.725 Y9.353
X7.73 Y9.304
X7.734 Y9.255
X7.736 Y9.206
Y2.793
X7.734 Y2.745
X7.73 Y2.696
X7.725 Y2.647
X7.716 Y2.598
X7.704 Y2.549
X7.691 Y2.5
X7.675 Y2.451
X7.656 Y2.402
X7.639 Y2.364
X7.634 Y2.353
X7.609 Y2.304
X7.58 Y2.255
X7.549 Y2.206
X7.542 Y2.196
X7.512 Y2.157
X7.47 Y2.108
X7.444 Y2.079
X7.424 Y2.059
X7.395 Y2.032
X7.346 Y1.991
X7.308 Y1.961
X7.297 Y1.953
X7.248 Y1.922
X7.199 Y1.892
X7.15 Y1.867
X7.142 Y1.863
X7.101 Y1.846
X7.052 Y1.826
X7.019 Y1.814
X7.003 Y1.809
X6.954 Y1.797
X6.905 Y1.785
X6.856 Y1.776
X6.808 Y1.77
X6.746 Y1.765
X6.71 Y1.764
X5.29
X5.254 Y1.765
X5.241 Y1.766
X5.192 Y1.77
X5.144 Y1.776
X5.095 Y1.785
X5.046 Y1.797
X4.997 Y1.809
X4.981 Y1.814
X4.948 Y1.826
X4.899 Y1.846
X4.858 Y1.863
X4.85 Y1.867
X4.801 Y1.892
X4.752 Y1.922
X4.703 Y1.953
X4.692 Y1.961
X4.654 Y1.991
X4.605 Y2.032
X4.576 Y2.059
X4.556 Y2.079
X4.53 Y2.108
X4.488 Y2.157
X4.458 Y2.196
X4.451 Y2.206
X4.42 Y2.255
X4.391 Y2.304
X4.366 Y2.353
X4.361 Y2.364
X4.344 Y2.402
X4.325 Y2.451
X4.308 Y2.5
X4.293 Y2.56
X4.284 Y2.598
X4.275 Y2.647
X4.27 Y2.696
X4.266 Y2.745
X4.264 Y2.793
Y3.686
X4.263 Y3.7 Z-0.187
X4.261 Y3.713 Z-0.189
X4.253 Y3.748 Z-0.197
X4.25 Y3.761 Z-0.2
Y3.766
Y3.772
Y9.206
X4.252 Y9.255
X4.256 Y9.304
X4.261 Y9.353
X4.263 Y9.362
X4.27 Y9.402
X4.281 Y9.451
X4.294 Y9.5
X4.31 Y9.549
X4.329 Y9.598
X4.35 Y9.647
X4.361 Y9.669
X4.375 Y9.696
X4.409 Y9.755
X4.434 Y9.794
X4.458 Y9.828
X4.47 Y9.843
X4.511 Y9.892
X4.556 Y9.941
X4.609 Y9.99
X4.654 Y10.028
X4.668 Y10.039
X4.703 Y10.064
X4.752 Y10.095
X4.801 Y10.124
X4.825 Y10.137
X4.85 Y10.148
X4.899 Y10.169
X4.948 Y10.189
X4.997 Y10.205
X5.046 Y10.218
X5.095 Y10.229
X5.12 Y10.234
X5.144 Y10.238
X5.192 Y10.244
X5.241 Y10.248
X5.29 Y10.25
X6.71
X6.759 Y10.248
X6.808 Y10.244
X6.856 Y10.238
X6.88 Y10.234
X6.905 Y10.229
X6.954 Y10.218
X7.003 Y10.205
X7.052 Y10.189
X7.061 Y10.186
X7.101 Y10.169
X7.15 Y10.148
X7.175 Y10.137
X7.199 Y10.124
X7.259 Y10.088
X7.297 Y10.064
X7.332 Y10.039
X7.346 Y10.028
X7.395 Y9.986
X7.444 Y9.941
X7.493 Y9.887
X7.53 Y9.843
X7.542 Y9.828
X7.566 Y9.794
X7.596 Y9.745
X7.625 Y9.696
X7.639 Y9.669
X7.65 Y9.647
X7.671 Y9.598
X7.69 Y9.549
X7.706 Y9.5
X7.719 Y9.451
X7.73 Y9.402
X7.737 Y9.362
X7.739 Y9.353
X7.744 Y9.304
X7.748 Y9.255
X7.75 Y9.206
Y2.793
X7.748 Y2.745
X7.744 Y2.696
X7.739 Y2.647
X7.737 Y2.638
X7.73 Y2.598
X7.719 Y2.549
X7.706 Y2.5
X7.688 Y2.446
X7.671 Y2.402
X7.65 Y2.353
X7.639 Y2.331
X7.625 Y2.304
X7.591 Y2.245
X7.566 Y2.206
X7.542 Y2.172
X7.53 Y2.157
X7.489 Y2.108
X7.444 Y2.059
X7.391 Y2.01
X7.346 Y1.972
X7.332 Y1.961
X7.297 Y1.936
X7.248 Y1.905
X7.199 Y1.876
X7.175 Y1.863
X7.15 Y1.852
X7.101 Y1.831
X7.052 Y1.811
X7.003 Y1.795
X6.954 Y1.782
X6.905 Y1.771
X6.879 Y1.765
X6.856 Y1.762
X6.808 Y1.756
X6.759 Y1.752
X6.71 Y1.75
X5.29
X5.241 Y1.752
X5.192 Y1.756
X5.144 Y1.762
X5.121 Y1.765
X5.095 Y1.771
X5.046 Y1.782
X4.997 Y1.795
X4.948 Y1.811
X4.899 Y1.831
X4.85 Y1.852
X4.825 Y1.863
X4.801 Y1.876
X4.741 Y1.912
X4.703 Y1.936
X4.668 Y1.961
X4.654 Y1.972
X4.605 Y2.014
X4.556 Y2.059
X4.507 Y2.113
X4.47 Y2.157
X4.458 Y2.172
X4.434 Y2.206
X4.404 Y2.255
X4.375 Y2.304
X4.361 Y2.331
X4.35 Y2.353
X4.329 Y2.402
X4.31 Y2.451
X4.294 Y2.5
X4.28 Y2.556
X4.27 Y2.598
X4.263 Y2.638
X4.261 Y2.647
X4.256 Y2.696
X4.252 Y2.745
X4.25 Y2.793
Y3.772
G0 Z15.
M5
G53 Z0.
M30
