(1001)
(T4  D=1.5 CR=0. - ZMIN=-4.1 - flat end mill)
G90
G0 G53 Z0.

(2D Adaptive (base))
T4 M6 (flat end mill D=1.5 1.5 mm Fishtail Upcut Endmill - Acrylic Max Pass Depth 0.8 mm)
S16000 M3
G64
G54
G43 H4
G0 X0.652 Y-1.012
Z15.
Z5.
Z0.2
G1 Z-0.3 F600
X0.654 Y-1.005 Z-0.387
X0.66 Y-0.983 Z-0.471
X0.669 Y-0.947 Z-0.55
X0.681 Y-0.899 Z-0.621
X0.697 Y-0.839 Z-0.683
X0.714 Y-0.77 Z-0.733
X0.734 Y-0.694 Z-0.77
X0.755 Y-0.612 Z-0.792
X0.776 Y-0.528 Z-0.8
G3 X1. Y1.027 I-7.063 J1.809
G1 Y1.464
X1.005 Y1.574
X0.997 Y1.905
X0.951 Y2.341
X0.892 Y2.774
X0.867 Y3.211
X0.857 Y3.648
X0.853 Y4.085
X0.85 Y4.96
Y8.46
X0.872 Y8.897
X0.931 Y9.33
X1.065 Y9.747
X1.263 Y10.137
X1.549 Y10.468
X1.882 Y10.751
X2.28 Y10.934
X2.699 Y11.059
X3.133 Y11.113
X3.57 Y11.135
X4.007 Y11.144
X4.445 Y11.147
X5.32 Y11.15
X8.382
X8.819 Y11.137
X9.253 Y11.081
X9.675 Y10.966
X10.068 Y10.775
X10.413 Y10.506
X10.703 Y10.178
X10.905 Y9.79
X11.041 Y9.374
X11.105 Y8.941
X11.132 Y8.505
X11.143 Y8.068
X11.147 Y7.63
X11.149 Y7.193
X11.15 Y5.443
Y3.693
X11.145 Y3.256
X11.093 Y2.821
X10.996 Y2.395
X10.812 Y1.998
X10.559 Y1.641
X10.237 Y1.345
X9.859 Y1.125
X9.446 Y0.98
X9.016 Y0.904
X8.579 Y0.872
X8.142 Y0.859
X7.705 Y0.854
X7.267 Y0.851
X5.955 Y0.85
X3.33
X2.895 Y0.896
X2.465 Y0.975
X2.265 Y1.063
X2.087 Y1.19
X1.815 Y1.533
X1.718 Y1.807
X1.698 Y1.854
X1.67 Y1.898
X1.636 Y1.937
X1.595 Y1.979
X1.582 Y1.994
X1.516 Y2.078
X1.482 Y2.13
X1.458 Y2.177
X1.437 Y2.227
X1.419 Y2.277
X1.364 Y2.475
X1.338 Y2.575
X1.26 Y2.885
X1.251 Y3.17
X1.25 Y3.369
Y8.73
X1.251 Y8.83
X1.26 Y9.115
X1.338 Y9.425
X1.392 Y9.624
X1.419 Y9.723
X1.437 Y9.773
X1.458 Y9.823
X1.482 Y9.87
X1.516 Y9.922
X1.582 Y10.006
X1.595 Y10.021
X1.979 Y10.405
X1.994 Y10.418
X2.078 Y10.484
X2.13 Y10.518
X2.177 Y10.542
X2.227 Y10.563
X2.277 Y10.581
X2.475 Y10.636
X2.575 Y10.662
X2.885 Y10.74
X3.17 Y10.749
X3.369 Y10.75
X8.73
X8.83 Y10.749
X9.115 Y10.74
X9.425 Y10.662
X9.624 Y10.608
X9.723 Y10.581
X9.773 Y10.563
X9.823 Y10.542
X9.87 Y10.518
X9.922 Y10.484
X10.006 Y10.418
X10.021 Y10.405
X10.405 Y10.021
X10.418 Y10.006
X10.484 Y9.922
X10.518 Y9.87
X10.542 Y9.823
X10.563 Y9.773
X10.581 Y9.723
X10.636 Y9.525
X10.662 Y9.425
X10.74 Y9.115
X10.749 Y8.83
X10.75 Y8.631
Y3.27
X10.749 Y3.17
X10.74 Y2.885
X10.662 Y2.575
X10.608 Y2.376
X10.581 Y2.277
X10.563 Y2.227
X10.542 Y2.177
X10.518 Y2.13
X10.484 Y2.078
X10.418 Y1.994
X10.405 Y1.979
X10.021 Y1.595
X10.006 Y1.582
X9.922 Y1.516
X9.87 Y1.482
X9.823 Y1.458
X9.773 Y1.437
X9.723 Y1.419
X9.525 Y1.364
X9.425 Y1.338
X9.115 Y1.26
X8.83 Y1.251
X8.631 Y1.25
X3.27
X3.17 Y1.251
X2.885 Y1.26
X2.575 Y1.338
X2.376 Y1.392
X2.277 Y1.419
X2.227 Y1.437
X2.177 Y1.458
X2.13 Y1.482
X2.078 Y1.516
X1.994 Y1.582
X1.979 Y1.595
X1.636 Y1.937
G3 X1.385 Y2.064 I-0.342 J-0.365
G1 X1.339 Y2.068 Z-0.798
X1.295 Y2.072 Z-0.792
X1.226 Y2.058 Z-0.773
X1.161 Y2.045 Z-0.745
X1.101 Y2.033 Z-0.707
X1.054 Y2.001 Z-0.66
X1.013 Y1.974 Z-0.605
X0.98 Y1.951 Z-0.543
X0.954 Y1.934 Z-0.476
X0.937 Y1.922 Z-0.405
X0.931 Y1.916 Z-0.353
X0.929 Y1.914 Z-0.3
G0 Z5.
X0.652 Y-1.012
Z-0.6
G1 Z-1.1 F600
X0.654 Y-1.005 Z-1.187
X0.66 Y-0.983 Z-1.271
X0.669 Y-0.947 Z-1.35
X0.681 Y-0.899 Z-1.421
X0.697 Y-0.839 Z-1.483
X0.714 Y-0.77 Z-1.533
X0.734 Y-0.694 Z-1.57
X0.755 Y-0.612 Z-1.592
X0.776 Y-0.528 Z-1.6
G3 X1. Y1.027 I-7.063 J1.809
G1 Y1.464
X1.005 Y1.574
X0.997 Y1.905
X0.951 Y2.341
X0.892 Y2.774
X0.867 Y3.211
X0.857 Y3.648
X0.853 Y4.085
X0.85 Y4.96
Y8.46
X0.872 Y8.897
X0.931 Y9.33
X1.065 Y9.747
X1.263 Y10.137
X1.549 Y10.468
X1.882 Y10.751
X2.28 Y10.934
X2.699 Y11.059
X3.133 Y11.113
X3.57 Y11.135
X4.007 Y11.144
X4.445 Y11.147
X5.32 Y11.15
X8.382
X8.819 Y11.137
X9.253 Y11.081
X9.675 Y10.966
X10.068 Y10.775
X10.413 Y10.506
X10.703 Y10.178
X10.905 Y9.79
X11.041 Y9.374
X11.105 Y8.941
X11.132 Y8.505
X11.143 Y8.068
X11.147 Y7.63
X11.149 Y7.193
X11.15 Y5.443
Y3.693
X11.145 Y3.256
X11.093 Y2.821
X10.996 Y2.395
X10.812 Y1.998
X10.559 Y1.641
X10.237 Y1.345
X9.859 Y1.125
X9.446 Y0.98
X9.016 Y0.904
X8.579 Y0.872
X8.142 Y0.859
X7.705 Y0.854
X7.267 Y0.851
X5.955 Y0.85
X3.33
X2.895 Y0.896
X2.465 Y0.975
X2.265 Y1.063
X2.087 Y1.19
X1.815 Y1.533
X1.718 Y1.807
X1.698 Y1.854
X1.67 Y1.898
X1.636 Y1.937
X1.595 Y1.979
X1.582 Y1.994
X1.516 Y2.078
X1.482 Y2.13
X1.458 Y2.177
X1.437 Y2.227
X1.419 Y2.277
X1.364 Y2.475
X1.338 Y2.575
X1.26 Y2.885
X1.251 Y3.17
X1.25 Y3.369
Y8.73
X1.251 Y8.83
X1.26 Y9.115
X1.338 Y9.425
X1.392 Y9.624
X1.419 Y9.723
X1.437 Y9.773
X1.458 Y9.823
X1.482 Y9.87
X1.516 Y9.922
X1.582 Y10.006
X1.595 Y10.021
X1.979 Y10.405
X1.994 Y10.418
X2.078 Y10.484
X2.13 Y10.518
X2.177 Y10.542
X2.227 Y10.563
X2.277 Y10.581
X2.475 Y10.636
X2.575 Y10.662
X2.885 Y10.74
X3.17 Y10.749
X3.369 Y10.75
X8.73
X8.83 Y10.749
X9.115 Y10.74
X9.425 Y10.662
X9.624 Y10.608
X9.723 Y10.581
X9.773 Y10.563
X9.823 Y10.542
X9.87 Y10.518
X9.922 Y10.484
X10.006 Y10.418
X10.021 Y10.405
X10.405 Y10.021
X10.418 Y10.006
X10.484 Y9.922
X10.518 Y9.87
X10.542 Y9.823
X10.563 Y9.773
X10.581 Y9.723
X10.636 Y9.525
X10.662 Y9.425
X10.74 Y9.115
X10.749 Y8.83
X10.75 Y8.631
Y3.27
X10.749 Y3.17
X10.74 Y2.885
X10.662 Y2.575
X10.608 Y2.376
X10.581 Y2.277
X10.563 Y2.227
X10.542 Y2.177
X10.518 Y2.13
X10.484 Y2.078
X10.418 Y1.994
X10.405 Y1.979
X10.021 Y1.595
X10.006 Y1.582
X9.922 Y1.516
X9.87 Y1.482
X9.823 Y1.458
X9.773 Y1.437
X9.723 Y1.419
X9.525 Y1.364
X9.425 Y1.338
X9.115 Y1.26
X8.83 Y1.251
X8.631 Y1.25
X3.27
X3.17 Y1.251
X2.885 Y1.26
X2.575 Y1.338
X2.376 Y1.392
X2.277 Y1.419
X2.227 Y1.437
X2.177 Y1.458
X2.13 Y1.482
X2.078 Y1.516
X1.994 Y1.582
X1.979 Y1.595
X1.636 Y1.937
G3 X1.385 Y2.064 I-0.342 J-0.365
G1 X1.339 Y2.068 Z-1.598
X1.295 Y2.072 Z-1.592
X1.226 Y2.058 Z-1.573
X1.161 Y2.045 Z-1.545
X1.101 Y2.033 Z-1.507
X1.054 Y2.001 Z-1.46
X1.013 Y1.974 Z-1.405
X0.98 Y1.951 Z-1.343
X0.954 Y1.934 Z-1.276
X0.937 Y1.922 Z-1.205
X0.931 Y1.916 Z-1.153
X0.929 Y1.914 Z-1.1
G0 Z5.
X0.652 Y-1.012
Z-1.4
G1 Z-1.9 F600
X0.654 Y-1.005 Z-1.987
X0.66 Y-0.983 Z-2.071
X0.669 Y-0.947 Z-2.15
X0.681 Y-0.899 Z-2.221
X0.697 Y-0.839 Z-2.283
X0.714 Y-0.77 Z-2.333
X0.734 Y-0.694 Z-2.37
X0.755 Y-0.612 Z-2.392
X0.776 Y-0.528 Z-2.4
G3 X1. Y1.027 I-7.063 J1.809
G1 Y1.464
X1.005 Y1.574
X0.997 Y1.905
X0.951 Y2.341
X0.892 Y2.774
X0.867 Y3.211
X0.857 Y3.648
X0.853 Y4.085
X0.85 Y4.96
Y8.46
X0.872 Y8.897
X0.931 Y9.33
X1.065 Y9.747
X1.263 Y10.137
X1.549 Y10.468
X1.882 Y10.751
X2.28 Y10.934
X2.699 Y11.059
X3.133 Y11.113
X3.57 Y11.135
X4.007 Y11.144
X4.445 Y11.147
X5.32 Y11.15
X8.382
X8.819 Y11.137
X9.253 Y11.081
X9.675 Y10.966
X10.068 Y10.775
X10.413 Y10.506
X10.703 Y10.178
X10.905 Y9.79
X11.041 Y9.374
X11.105 Y8.941
X11.132 Y8.505
X11.143 Y8.068
X11.147 Y7.63
X11.149 Y7.193
X11.15 Y5.443
Y3.693
X11.145 Y3.256
X11.093 Y2.821
X10.996 Y2.395
X10.812 Y1.998
X10.559 Y1.641
X10.237 Y1.345
X9.859 Y1.125
X9.446 Y0.98
X9.016 Y0.904
X8.579 Y0.872
X8.142 Y0.859
X7.705 Y0.854
X7.267 Y0.851
X5.955 Y0.85
X3.33
X2.895 Y0.896
X2.465 Y0.975
X2.265 Y1.063
X2.087 Y1.19
X1.815 Y1.533
X1.718 Y1.807
X1.698 Y1.854
X1.67 Y1.898
X1.636 Y1.937
X1.595 Y1.979
X1.582 Y1.994
X1.516 Y2.078
X1.482 Y2.13
X1.458 Y2.177
X1.437 Y2.227
X1.419 Y2.277
X1.364 Y2.475
X1.338 Y2.575
X1.26 Y2.885
X1.251 Y3.17
X1.25 Y3.369
Y8.73
X1.251 Y8.83
X1.26 Y9.115
X1.338 Y9.425
X1.392 Y9.624
X1.419 Y9.723
X1.437 Y9.773
X1.458 Y9.823
X1.482 Y9.87
X1.516 Y9.922
X1.582 Y10.006
X1.595 Y10.021
X1.979 Y10.405
X1.994 Y10.418
X2.078 Y10.484
X2.13 Y10.518
X2.177 Y10.542
X2.227 Y10.563
X2.277 Y10.581
X2.475 Y10.636
X2.575 Y10.662
X2.885 Y10.74
X3.17 Y10.749
X3.369 Y10.75
X8.73
X8.83 Y10.749
X9.115 Y10.74
X9.425 Y10.662
X9.624 Y10.608
X9.723 Y10.581
X9.773 Y10.563
X9.823 Y10.542
X9.87 Y10.518
X9.922 Y10.484
X10.006 Y10.418
X10.021 Y10.405
X10.405 Y10.021
X10.418 Y10.006
X10.484 Y9.922
X10.518 Y9.87
X10.542 Y9.823
X10.563 Y9.773
X10.581 Y9.723
X10.636 Y9.525
X10.662 Y9.425
X10.74 Y9.115
X10.749 Y8.83
X10.75 Y8.631
Y3.27
X10.749 Y3.17
X10.74 Y2.885
X10.662 Y2.575
X10.608 Y2.376
X10.581 Y2.277
X10.563 Y2.227
X10.542 Y2.177
X10.518 Y2.13
X10.484 Y2.078
X10.418 Y1.994
X10.405 Y1.979
X10.021 Y1.595
X10.006 Y1.582
X9.922 Y1.516
X9.87 Y1.482
X9.823 Y1.458
X9.773 Y1.437
X9.723 Y1.419
X9.525 Y1.364
X9.425 Y1.338
X9.115 Y1.26
X8.83 Y1.251
X8.631 Y1.25
X3.27
X3.17 Y1.251
X2.885 Y1.26
X2.575 Y1.338
X2.376 Y1.392
X2.277 Y1.419
X2.227 Y1.437
X2.177 Y1.458
X2.13 Y1.482
X2.078 Y1.516
X1.994 Y1.582
X1.979 Y1.595
X1.636 Y1.937
G3 X1.385 Y2.064 I-0.342 J-0.365
G1 X1.339 Y2.068 Z-2.398
X1.295 Y2.072 Z-2.392
X1.226 Y2.058 Z-2.373
X1.161 Y2.045 Z-2.345
X1.101 Y2.033 Z-2.307
X1.054 Y2.001 Z-2.26
X1.013 Y1.974 Z-2.205
X0.98 Y1.951 Z-2.143
X0.954 Y1.934 Z-2.076
X0.937 Y1.922 Z-2.005
X0.931 Y1.916 Z-1.953
X0.929 Y1.914 Z-1.9
G0 Z5.
X0.652 Y-1.012
Z-2.2
G1 Z-2.7 F600
X0.654 Y-1.005 Z-2.787
X0.66 Y-0.983 Z-2.871
X0.669 Y-0.947 Z-2.95
X0.681 Y-0.899 Z-3.021
X0.697 Y-0.839 Z-3.083
X0.714 Y-0.77 Z-3.133
X0.734 Y-0.694 Z-3.17
X0.755 Y-0.612 Z-3.192
X0.776 Y-0.528 Z-3.2
G3 X1. Y1.027 I-7.063 J1.809
G1 Y1.464
X1.005 Y1.574
X0.997 Y1.905
X0.951 Y2.341
X0.892 Y2.774
X0.867 Y3.211
X0.857 Y3.648
X0.853 Y4.085
X0.85 Y4.96
Y8.46
X0.872 Y8.897
X0.931 Y9.33
X1.065 Y9.747
X1.263 Y10.137
X1.549 Y10.468
X1.882 Y10.751
X2.28 Y10.934
X2.699 Y11.059
X3.133 Y11.113
X3.57 Y11.135
X4.007 Y11.144
X4.445 Y11.147
X5.32 Y11.15
X8.382
X8.819 Y11.137
X9.253 Y11.081
X9.675 Y10.966
X10.068 Y10.775
X10.413 Y10.506
X10.703 Y10.178
X10.905 Y9.79
X11.041 Y9.374
X11.105 Y8.941
X11.132 Y8.505
X11.143 Y8.068
X11.147 Y7.63
X11.149 Y7.193
X11.15 Y5.443
Y3.693
X11.145 Y3.256
X11.093 Y2.821
X10.996 Y2.395
X10.812 Y1.998
X10.559 Y1.641
X10.237 Y1.345
X9.859 Y1.125
X9.446 Y0.98
X9.016 Y0.904
X8.579 Y0.872
X8.142 Y0.859
X7.705 Y0.854
X7.267 Y0.851
X5.955 Y0.85
X3.33
X2.895 Y0.896
X2.465 Y0.975
X2.265 Y1.063
X2.087 Y1.19
X1.815 Y1.533
X1.718 Y1.807
X1.698 Y1.854
X1.67 Y1.898
X1.636 Y1.937
X1.595 Y1.979
X1.582 Y1.994
X1.516 Y2.078
X1.482 Y2.13
X1.458 Y2.177
X1.437 Y2.227
X1.419 Y2.277
X1.364 Y2.475
X1.338 Y2.575
X1.26 Y2.885
X1.251 Y3.17
X1.25 Y3.369
Y8.73
X1.251 Y8.83
X1.26 Y9.115
X1.338 Y9.425
X1.392 Y9.624
X1.419 Y9.723
X1.437 Y9.773
X1.458 Y9.823
X1.482 Y9.87
X1.516 Y9.922
X1.582 Y10.006
X1.595 Y10.021
X1.979 Y10.405
X1.994 Y10.418
X2.078 Y10.484
X2.13 Y10.518
X2.177 Y10.542
X2.227 Y10.563
X2.277 Y10.581
X2.475 Y10.636
X2.575 Y10.662
X2.885 Y10.74
X3.17 Y10.749
X3.369 Y10.75
X8.73
X8.83 Y10.749
X9.115 Y10.74
X9.425 Y10.662
X9.624 Y10.608
X9.723 Y10.581
X9.773 Y10.563
X9.823 Y10.542
X9.87 Y10.518
X9.922 Y10.484
X10.006 Y10.418
X10.021 Y10.405
X10.405 Y10.021
X10.418 Y10.006
X10.484 Y9.922
X10.518 Y9.87
X10.542 Y9.823
X10.563 Y9.773
X10.581 Y9.723
X10.636 Y9.525
X10.662 Y9.425
X10.74 Y9.115
X10.749 Y8.83
X10.75 Y8.631
Y3.27
X10.749 Y3.17
X10.74 Y2.885
X10.662 Y2.575
X10.608 Y2.376
X10.581 Y2.277
X10.563 Y2.227
X10.542 Y2.177
X10.518 Y2.13
X10.484 Y2.078
X10.418 Y1.994
X10.405 Y1.979
X10.021 Y1.595
X10.006 Y1.582
X9.922 Y1.516
X9.87 Y1.482
X9.823 Y1.458
X9.773 Y1.437
X9.723 Y1.419
X9.525 Y1.364
X9.425 Y1.338
X9.115 Y1.26
X8.83 Y1.251
X8.631 Y1.25
X3.27
X3.17 Y1.251
X2.885 Y1.26
X2.575 Y1.338
X2.376 Y1.392
X2.277 Y1.419
X2.227 Y1.437
X2.177 Y1.458
X2.13 Y1.482
X2.078 Y1.516
X1.994 Y1.582
X1.979 Y1.595
X1.636 Y1.937
G3 X1.385 Y2.064 I-0.342 J-0.365
G1 X1.339 Y2.068 Z-3.198
X1.295 Y2.072 Z-3.192
X1.226 Y2.058 Z-3.173
X1.161 Y2.045 Z-3.145
X1.101 Y2.033 Z-3.107
X1.054 Y2.001 Z-3.06
X1.013 Y1.974 Z-3.005
X0.98 Y1.951 Z-2.943
X0.954 Y1.934 Z-2.876
X0.937 Y1.922 Z-2.805
X0.931 Y1.916 Z-2.753
X0.929 Y1.914 Z-2.7
G0 Z5.
X0.652 Y-1.012
Z-3.
G1 Z-3.5 F600
X0.654 Y-1.005 Z-3.587
X0.66 Y-0.983 Z-3.671
X0.669 Y-0.947 Z-3.75
X0.681 Y-0.899 Z-3.821
X0.697 Y-0.839 Z-3.883
X0.714 Y-0.77 Z-3.933
X0.734 Y-0.694 Z-3.97
X0.755 Y-0.612 Z-3.992
X0.776 Y-0.528 Z-4.
G3 X1. Y1.027 I-7.063 J1.809
G1 Y1.464
X1.005 Y1.574
X0.997 Y1.905
X0.951 Y2.341
X0.892 Y2.774
X0.867 Y3.211
X0.857 Y3.648
X0.853 Y4.085
X0.85 Y4.96
Y8.46
X0.872 Y8.897
X0.931 Y9.33
X1.065 Y9.747
X1.263 Y10.137
X1.549 Y10.468
X1.882 Y10.751
X2.28 Y10.934
X2.699 Y11.059
X3.133 Y11.113
X3.57 Y11.135
X4.007 Y11.144
X4.445 Y11.147
X5.32 Y11.15
X8.382
X8.819 Y11.137
X9.253 Y11.081
X9.675 Y10.966
X10.068 Y10.775
X10.413 Y10.506
X10.703 Y10.178
X10.905 Y9.79
X11.041 Y9.374
X11.105 Y8.941
X11.132 Y8.505
X11.143 Y8.068
X11.147 Y7.63
X11.149 Y7.193
X11.15 Y5.443
Y3.693
X11.145 Y3.256
X11.093 Y2.821
X10.996 Y2.395
X10.812 Y1.998
X10.559 Y1.641
X10.237 Y1.345
X9.859 Y1.125
X9.446 Y0.98
X9.016 Y0.904
X8.579 Y0.872
X8.142 Y0.859
X7.705 Y0.854
X7.267 Y0.851
X5.955 Y0.85
X3.33
X2.895 Y0.896
X2.465 Y0.975
X2.265 Y1.063
X2.087 Y1.19
X1.815 Y1.533
X1.718 Y1.807
X1.698 Y1.854
X1.67 Y1.898
X1.636 Y1.937
X1.595 Y1.979
X1.582 Y1.994
X1.516 Y2.078
X1.482 Y2.13
X1.458 Y2.177
X1.437 Y2.227
X1.419 Y2.277
X1.364 Y2.475
X1.338 Y2.575
X1.26 Y2.885
X1.251 Y3.17
X1.25 Y3.369
Y8.73
X1.251 Y8.83
X1.26 Y9.115
X1.338 Y9.425
X1.392 Y9.624
X1.419 Y9.723
X1.437 Y9.773
X1.458 Y9.823
X1.482 Y9.87
X1.516 Y9.922
X1.582 Y10.006
X1.595 Y10.021
X1.979 Y10.405
X1.994 Y10.418
X2.078 Y10.484
X2.13 Y10.518
X2.177 Y10.542
X2.227 Y10.563
X2.277 Y10.581
X2.475 Y10.636
X2.575 Y10.662
X2.885 Y10.74
X3.17 Y10.749
X3.369 Y10.75
X8.73
X8.83 Y10.749
X9.115 Y10.74
X9.425 Y10.662
X9.624 Y10.608
X9.723 Y10.581
X9.773 Y10.563
X9.823 Y10.542
X9.87 Y10.518
X9.922 Y10.484
X10.006 Y10.418
X10.021 Y10.405
X10.405 Y10.021
X10.418 Y10.006
X10.484 Y9.922
X10.518 Y9.87
X10.542 Y9.823
X10.563 Y9.773
X10.581 Y9.723
X10.636 Y9.525
X10.662 Y9.425
X10.74 Y9.115
X10.749 Y8.83
X10.75 Y8.631
Y3.27
X10.749 Y3.17
X10.74 Y2.885
X10.662 Y2.575
X10.608 Y2.376
X10.581 Y2.277
X10.563 Y2.227
X10.542 Y2.177
X10.518 Y2.13
X10.484 Y2.078
X10.418 Y1.994
X10.405 Y1.979
X10.021 Y1.595
X10.006 Y1.582
X9.922 Y1.516
X9.87 Y1.482
X9.823 Y1.458
X9.773 Y1.437
X9.723 Y1.419
X9.525 Y1.364
X9.425 Y1.338
X9.115 Y1.26
X8.83 Y1.251
X8.631 Y1.25
X3.27
X3.17 Y1.251
X2.885 Y1.26
X2.575 Y1.338
X2.376 Y1.392
X2.277 Y1.419
X2.227 Y1.437
X2.177 Y1.458
X2.13 Y1.482
X2.078 Y1.516
X1.994 Y1.582
X1.979 Y1.595
X1.636 Y1.937
G3 X1.385 Y2.064 I-0.342 J-0.365
G1 X1.339 Y2.068 Z-3.998
X1.295 Y2.072 Z-3.992
X1.226 Y2.058 Z-3.973
X1.161 Y2.045 Z-3.945
X1.101 Y2.033 Z-3.907
X1.054 Y2.001 Z-3.86
X1.013 Y1.974 Z-3.805
X0.98 Y1.951 Z-3.743
X0.954 Y1.934 Z-3.676
X0.937 Y1.922 Z-3.605
X0.931 Y1.916 Z-3.553
X0.929 Y1.914 Z-3.5
G0 Z5.
X0.652 Y-1.012
Z-3.1
G1 Z-3.6 F600
X0.654 Y-1.005 Z-3.687
X0.66 Y-0.983 Z-3.771
X0.669 Y-0.947 Z-3.85
X0.681 Y-0.899 Z-3.921
X0.697 Y-0.839 Z-3.983
X0.714 Y-0.77 Z-4.033
X0.734 Y-0.694 Z-4.07
X0.755 Y-0.612 Z-4.092
X0.776 Y-0.528 Z-4.1
G3 X1. Y1.027 I-7.063 J1.809
G1 Y1.464
X1.005 Y1.574
X0.997 Y1.905
X0.951 Y2.341
X0.892 Y2.774
X0.867 Y3.211
X0.857 Y3.648
X0.853 Y4.085
X0.85 Y4.96
Y8.46
X0.872 Y8.897
X0.931 Y9.33
X1.065 Y9.747
X1.263 Y10.137
X1.549 Y10.468
X1.882 Y10.751
X2.28 Y10.934
X2.699 Y11.059
X3.133 Y11.113
X3.57 Y11.135
X4.007 Y11.144
X4.445 Y11.147
X5.32 Y11.15
X8.382
X8.819 Y11.137
X9.253 Y11.081
X9.675 Y10.966
X10.068 Y10.775
X10.413 Y10.506
X10.703 Y10.178
X10.905 Y9.79
X11.041 Y9.374
X11.105 Y8.941
X11.132 Y8.505
X11.143 Y8.068
X11.147 Y7.63
X11.149 Y7.193
X11.15 Y5.443
Y3.693
X11.145 Y3.256
X11.093 Y2.821
X10.996 Y2.395
X10.812 Y1.998
X10.559 Y1.641
X10.237 Y1.345
X9.859 Y1.125
X9.446 Y0.98
X9.016 Y0.904
X8.579 Y0.872
X8.142 Y0.859
X7.705 Y0.854
X7.267 Y0.851
X5.955 Y0.85
X3.33
X2.895 Y0.896
X2.465 Y0.975
X2.265 Y1.063
X2.087 Y1.19
X1.815 Y1.533
X1.718 Y1.807
X1.698 Y1.854
X1.67 Y1.898
X1.636 Y1.937
X1.595 Y1.979
X1.582 Y1.994
X1.516 Y2.078
X1.482 Y2.13
X1.458 Y2.177
X1.437 Y2.227
X1.419 Y2.277
X1.364 Y2.475
X1.338 Y2.575
X1.26 Y2.885
X1.251 Y3.17
X1.25 Y3.369
Y8.73
X1.251 Y8.83
X1.26 Y9.115
X1.338 Y9.425
X1.392 Y9.624
X1.419 Y9.723
X1.437 Y9.773
X1.458 Y9.823
X1.482 Y9.87
X1.516 Y9.922
X1.582 Y10.006
X1.595 Y10.021
X1.979 Y10.405
X1.994 Y10.418
X2.078 Y10.484
X2.13 Y10.518
X2.177 Y10.542
X2.227 Y10.563
X2.277 Y10.581
X2.475 Y10.636
X2.575 Y10.662
X2.885 Y10.74
X3.17 Y10.749
X3.369 Y10.75
X8.73
X8.83 Y10.749
X9.115 Y10.74
X9.425 Y10.662
X9.624 Y10.608
X9.723 Y10.581
X9.773 Y10.563
X9.823 Y10.542
X9.87 Y10.518
X9.922 Y10.484
X10.006 Y10.418
X10.021 Y10.405
X10.405 Y10.021
X10.418 Y10.006
X10.484 Y9.922
X10.518 Y9.87
X10.542 Y9.823
X10.563 Y9.773
X10.581 Y9.723
X10.636 Y9.525
X10.662 Y9.425
X10.74 Y9.115
X10.749 Y8.83
X10.75 Y8.631
Y3.27
X10.749 Y3.17
X10.74 Y2.885
X10.662 Y2.575
X10.608 Y2.376
X10.581 Y2.277
X10.563 Y2.227
X10.542 Y2.177
X10.518 Y2.13
X10.484 Y2.078
X10.418 Y1.994
X10.405 Y1.979
X10.021 Y1.595
X10.006 Y1.582
X9.922 Y1.516
X9.87 Y1.482
X9.823 Y1.458
X9.773 Y1.437
X9.723 Y1.419
X9.525 Y1.364
X9.425 Y1.338
X9.115 Y1.26
X8.83 Y1.251
X8.631 Y1.25
X3.27
X3.17 Y1.251
X2.885 Y1.26
X2.575 Y1.338
X2.376 Y1.392
X2.277 Y1.419
X2.227 Y1.437
X2.177 Y1.458
X2.13 Y1.482
X2.078 Y1.516
X1.994 Y1.582
X1.979 Y1.595
X1.636 Y1.937
G3 X1.278 Y2.072 I-0.342 J-0.365
X0.929 Y1.914 I0.017 J-0.5
G1 X0.87 Y1.85 Z-4.092
X0.813 Y1.789 Z-4.07
X0.759 Y1.731 Z-4.033
X0.71 Y1.679 Z-3.983
X0.668 Y1.634 Z-3.921
X0.634 Y1.598 Z-3.85
X0.608 Y1.571 Z-3.771
X0.593 Y1.554 Z-3.687
X0.588 Y1.549 Z-3.6
G0 Z15.
M5
G53 Z0.
M30
