(1001)
(T4  D=1.5 CR=0. - ZMIN=-5.2 - flat end mill)
G90
G0 G53 Z0.

(2D Contour (cutout))
T4 M6 (flat end mill D=1.5 1.5 mm Fishtail Upcut Endmill - Acrylic Max Pass Depth 0.8 mm)
S16000 M3
G64
G54
G43 H4
G0 X5.85 Y12.2
Z15.
Z5.
G1 Z1.8 F300
Z-0.65
Y12.193 Z-0.696
Y12.171 Z-0.738
Y12.138 Z-0.771
Y12.096 Z-0.793
Y12.05 Z-0.8
Y11.9 F600
X5.857 Y11.854
X5.879 Y11.812
X5.912 Y11.779
X5.954 Y11.757
X6. Y11.75
X9.
G2 X11.75 Y9. I0. J-2.75
G1 Y3.
G2 X9. Y0.25 I-2.75 J0.
G1 X3.
G2 X0.25 Y3. I0. J2.75
G1 Y9.
G2 X3. Y11.75 I2.75 J0.
G1 X6.
X6.046 Y11.757
X6.088 Y11.779
X6.121 Y11.812
X6.143 Y11.854
X6.15 Y11.9
Y12.05
Y12.096 Z-0.793
Y12.138 Z-0.771
Y12.171 Z-0.738
Y12.193 Z-0.696
Y12.2 Z-0.65
G0 Z5.
X5.85
G1 Z1. F300
Z-1.45
Y12.193 Z-1.496
Y12.171 Z-1.538
Y12.138 Z-1.571
Y12.096 Z-1.593
Y12.05 Z-1.6
Y11.9 F600
X5.857 Y11.854
X5.879 Y11.812
X5.912 Y11.779
X5.954 Y11.757
X6. Y11.75
X9.
G2 X11.75 Y9. I0. J-2.75
G1 Y3.
G2 X9. Y0.25 I-2.75 J0.
G1 X3.
G2 X0.25 Y3. I0. J2.75
G1 Y9.
G2 X3. Y11.75 I2.75 J0.
G1 X6.
X6.046 Y11.757
X6.088 Y11.779
X6.121 Y11.812
X6.143 Y11.854
X6.15 Y11.9
Y12.05
Y12.096 Z-1.593
Y12.138 Z-1.571
Y12.171 Z-1.538
Y12.193 Z-1.496
Y12.2 Z-1.45
G0 Z5.
X5.85
G1 Z0.2 F300
Z-2.25
Y12.193 Z-2.296
Y12.171 Z-2.338
Y12.138 Z-2.371
Y12.096 Z-2.393
Y12.05 Z-2.4
Y11.9 F600
X5.857 Y11.854
X5.879 Y11.812
X5.912 Y11.779
X5.954 Y11.757
X6. Y11.75
X9.
G2 X11.75 Y9. I0. J-2.75
G1 Y3.
G2 X9. Y0.25 I-2.75 J0.
G1 X3.
G2 X0.25 Y3. I0. J2.75
G1 Y9.
G2 X3. Y11.75 I2.75 J0.
G1 X6.
X6.046 Y11.757
X6.088 Y11.779
X6.121 Y11.812
X6.143 Y11.854
X6.15 Y11.9
Y12.05
Y12.096 Z-2.393
Y12.138 Z-2.371
Y12.171 Z-2.338
Y12.193 Z-2.296
Y12.2 Z-2.25
G0 Z5.
X5.85
G1 Z-0.6 F300
Z-3.05
Y12.193 Z-3.096
Y12.171 Z-3.138
Y12.138 Z-3.171
Y12.096 Z-3.193
Y12.05 Z-3.2
Y11.9 F600
X5.857 Y11.854
X5.879 Y11.812
X5.912 Y11.779
X5.954 Y11.757
X6. Y11.75
X9.
G2 X11.75 Y9. I0. J-2.75
G1 Y3.
G2 X9. Y0.25 I-2.75 J0.
G1 X3.
G2 X0.25 Y3. I0. J2.75
G1 Y9.
G2 X3. Y11.75 I2.75 J0.
G1 X6.
X6.046 Y11.757
X6.088 Y11.779
X6.121 Y11.812
X6.143 Y11.854
X6.15 Y11.9
Y12.05
Y12.096 Z-3.193
Y12.138 Z-3.171
Y12.171 Z-3.138
Y12.193 Z-3.096
Y12.2 Z-3.05
G0 Z5.
X5.85
G1 Z-1.4 F300
Z-3.85
Y12.193 Z-3.896
Y12.171 Z-3.938
Y12.138 Z-3.971
Y12.096 Z-3.993
Y12.05 Z-4.
Y11.9 F600
X5.857 Y11.854
X5.879 Y11.812
X5.912 Y11.779
X5.954 Y11.757
X6. Y11.75
X9.
G2 X11.75 Y9. I0. J-2.75
G1 Y3.
G2 X9. Y0.25 I-2.75 J0.
G1 X3.
G2 X0.25 Y3. I0. J2.75
G1 Y9.
G2 X3. Y11.75 I2.75 J0.
G1 X6.
X6.046 Y11.757
X6.088 Y11.779
X6.121 Y11.812
X6.143 Y11.854
X6.15 Y11.9
Y12.05
Y12.096 Z-3.993
Y12.138 Z-3.971
Y12.171 Z-3.938
Y12.193 Z-3.896
Y12.2 Z-3.85
G0 Z5.
X5.85
G1 Z-2.2 F300
Z-4.65
Y12.193 Z-4.696
Y12.171 Z-4.738
Y12.138 Z-4.771
Y12.096 Z-4.793
Y12.05 Z-4.8
Y11.9 F600
X5.857 Y11.854
X5.879 Y11.812
X5.912 Y11.779
X5.954 Y11.757
X6. Y11.75
X9.
G2 X11.75 Y9. I0. J-2.75
G1 Y3.
G2 X9. Y0.25 I-2.75 J0.
G1 X3.
G2 X0.25 Y3. I0. J2.75
G1 Y9.
G2 X3. Y11.75 I2.75 J0.
G1 X6.
X6.046 Y11.757
X6.088 Y11.779
X6.121 Y11.812
X6.143 Y11.854
X6.15 Y11.9
Y12.05
Y12.096 Z-4.793
Y12.138 Z-4.771
Y12.171 Z-4.738
Y12.193 Z-4.696
Y12.2 Z-4.65
G0 Z5.
X5.85
G1 Z-3. F300
Z-5.05
Y12.193 Z-5.096
Y12.171 Z-5.138
Y12.138 Z-5.171
Y12.096 Z-5.193
Y12.05 Z-5.2
Y11.9 F600
X5.857 Y11.854
X5.879 Y11.812
X5.912 Y11.779
X5.954 Y11.757
X6. Y11.75
X9.
G2 X11.75 Y9. I0. J-2.75
G1 Y3.
G2 X9. Y0.25 I-2.75 J0.
G1 X3.
G2 X0.25 Y3. I0. J2.75
G1 Y9.
G2 X3. Y11.75 I2.75 J0.
G1 X6.
X6.046 Y11.757
X6.088 Y11.779
X6.121 Y11.812
X6.143 Y11.854
X6.15 Y11.9
Y12.05
Y12.096 Z-5.193
Y12.138 Z-5.171
Y12.171 Z-5.138
Y12.193 Z-5.096
Y12.2 Z-5.05
G0 Z15.
M5
G53 Z0.
M30
