(1001)
(T4  D=1.5 CR=0. - ZMIN=-1.1 - flat end mill)
G90
G0 G53 Z0.

(Scallop (base chamfer))
T4 M6 (flat end mill D=1.5 1.5 mm Fishtail Upcut Endmill - Acrylic Max Pass Depth 0.8 mm)
S16000 M3
G64
G54
G43 H4
G0 X1.463 Y2.817
Z15.
Z1.1
G1 Z-0.75 F800
Y2.824 Z-0.796
X1.461 Y2.846 Z-0.838
X1.458 Y2.879 Z-0.871
X1.455 Y2.92 Z-0.893
X1.452 Y2.967 Z-0.9
X1.45 Y3.017
Y3.114
Y8.934
Y8.983
X1.452 Y9.034
X1.454 Y9.081
X1.457 Y9.13
X1.462 Y9.179
X1.468 Y9.228
X1.476 Y9.277
X1.486 Y9.326
X1.497 Y9.375
X1.51 Y9.424
X1.525 Y9.472
X1.549 Y9.543
X1.58 Y9.619
X1.603 Y9.668
X1.626 Y9.717
X1.654 Y9.766
X1.684 Y9.815
X1.715 Y9.864
X1.749 Y9.913
X1.794 Y9.973
X1.843 Y10.03
X1.87 Y10.059
X1.892 Y10.082
X1.918 Y10.108
X1.941 Y10.13
X1.97 Y10.157
X2.027 Y10.206
X2.092 Y10.255
X2.136 Y10.285
X2.185 Y10.316
X2.234 Y10.346
X2.283 Y10.374
X2.341 Y10.402
X2.381 Y10.42
X2.457 Y10.451
X2.528 Y10.475
X2.576 Y10.49
X2.625 Y10.503
X2.674 Y10.514
X2.723 Y10.524
X2.772 Y10.532
X2.821 Y10.538
X2.87 Y10.543
X2.919 Y10.546
X2.968 Y10.548
X3.017 Y10.55
X3.114
X8.934
X8.983
X9.033 Y10.548
X9.081 Y10.546
X9.13 Y10.543
X9.179 Y10.538
X9.228 Y10.532
X9.277 Y10.524
X9.326 Y10.514
X9.375 Y10.503
X9.423 Y10.49
X9.472 Y10.475
X9.543 Y10.451
X9.619 Y10.42
X9.668 Y10.397
X9.717 Y10.374
X9.766 Y10.346
X9.815 Y10.316
X9.864 Y10.285
X9.913 Y10.251
X9.973 Y10.206
X10.03 Y10.157
X10.059 Y10.13
X10.082 Y10.108
X10.108 Y10.082
X10.13 Y10.059
X10.157 Y10.03
X10.174 Y10.01
X10.206 Y9.973
X10.255 Y9.908
X10.285 Y9.864
X10.316 Y9.815
X10.346 Y9.766
X10.374 Y9.717
X10.402 Y9.659
X10.42 Y9.619
X10.451 Y9.543
X10.475 Y9.472
X10.49 Y9.424
X10.503 Y9.375
X10.514 Y9.326
X10.524 Y9.277
X10.532 Y9.228
X10.538 Y9.179
X10.543 Y9.13
X10.546 Y9.081
X10.548 Y9.032
X10.55 Y8.983
Y8.886
Y3.066
Y3.017
X10.548 Y2.964
X10.546 Y2.919
X10.543 Y2.87
X10.538 Y2.821
X10.532 Y2.772
X10.525 Y2.723
X10.503 Y2.625
X10.49 Y2.577
X10.475 Y2.528
X10.451 Y2.457
X10.42 Y2.381
X10.397 Y2.332
X10.374 Y2.283
X10.346 Y2.234
X10.316 Y2.185
X10.285 Y2.136
X10.255 Y2.092
X10.206 Y2.027
X10.174 Y1.99
X10.157 Y1.97
X10.13 Y1.941
X10.108 Y1.918
X10.082 Y1.892
X10.059 Y1.87
X10.03 Y1.843
X10.01 Y1.826
X9.973 Y1.794
X9.908 Y1.745
X9.864 Y1.715
X9.815 Y1.684
X9.766 Y1.654
X9.717 Y1.626
X9.659 Y1.598
X9.619 Y1.58
X9.543 Y1.549
X9.472 Y1.525
X9.423 Y1.51
X9.375 Y1.497
X9.326 Y1.486
X9.277 Y1.475
X9.228 Y1.468
X9.179 Y1.462
X9.13 Y1.457
X9.081 Y1.454
X9.032 Y1.452
X8.983 Y1.45
X8.886
X3.066
X3.017
X2.964 Y1.452
X2.919 Y1.454
X2.87 Y1.457
X2.821 Y1.462
X2.772 Y1.468
X2.723 Y1.476
X2.674 Y1.486
X2.625 Y1.497
X2.576 Y1.51
X2.528 Y1.525
X2.457 Y1.549
X2.381 Y1.58
X2.332 Y1.603
X2.283 Y1.626
X2.234 Y1.654
X2.185 Y1.684
X2.136 Y1.715
X2.087 Y1.749
X2.027 Y1.794
X1.99 Y1.826
X1.97 Y1.843
X1.941 Y1.87
X1.918 Y1.892
X1.892 Y1.918
X1.87 Y1.941
X1.843 Y1.97
X1.794 Y2.027
X1.745 Y2.092
X1.715 Y2.136
X1.684 Y2.185
X1.654 Y2.234
X1.626 Y2.283
X1.598 Y2.342
X1.58 Y2.381
X1.549 Y2.457
X1.525 Y2.528
X1.51 Y2.577
X1.497 Y2.625
X1.486 Y2.674
X1.476 Y2.723
X1.468 Y2.772
X1.462 Y2.821
X1.457 Y2.87
X1.454 Y2.919
X1.452 Y2.967
X1.45 Y2.979
X1.447 Y2.994 Z-0.903
X1.439 Y3.025 Z-0.911
X1.437 Y3.036 Z-0.913
X1.436 Y3.047 Z-0.914
Y3.053
Y8.934
Y8.983
X1.437 Y9.032
X1.439 Y9.081
X1.442 Y9.13 Z-0.913
X1.447 Y9.179 Z-0.914
X1.454 Y9.228
X1.461 Y9.277
X1.471 Y9.326 Z-0.913
X1.483 Y9.375 Z-0.914
X1.495 Y9.424
X1.501 Y9.443
X1.51 Y9.472
X1.527 Y9.521
X1.545 Y9.57 Z-0.913
X1.549 Y9.583
X1.564 Y9.619 Z-0.914
X1.598 Y9.692
X1.61 Y9.717
X1.637 Y9.766
X1.666 Y9.815
X1.697 Y9.864 Z-0.913
X1.731 Y9.913 Z-0.914
X1.767 Y9.962
X1.794 Y9.995
X1.807 Y10.01
X1.851 Y10.059
X1.897 Y10.108 Z-0.913
X1.949 Y10.157 Z-0.914
X1.99 Y10.193
X2.005 Y10.206
X2.038 Y10.233
X2.087 Y10.269
X2.138 Y10.304 Z-0.913
X2.185 Y10.334 Z-0.914
X2.234 Y10.363
X2.283 Y10.39
X2.332 Y10.413
X2.381 Y10.436
X2.417 Y10.451 Z-0.913
X2.43 Y10.455
X2.479 Y10.473 Z-0.914
X2.528 Y10.49
X2.557 Y10.499
X2.576 Y10.505
X2.625 Y10.518
X2.674 Y10.529 Z-0.913
X2.723 Y10.539 Z-0.914
X2.788 Y10.548
X2.821 Y10.553
X2.87 Y10.558 Z-0.913
X2.919 Y10.561 Z-0.914
X2.968 Y10.563
X3.017 Y10.564
X3.31
X8.934
X8.983
X9.032 Y10.563
X9.081 Y10.561
X9.13 Y10.558 Z-0.913
X9.179 Y10.553 Z-0.914
X9.228 Y10.546
X9.277 Y10.539
X9.326 Y10.529 Z-0.913
X9.375 Y10.517 Z-0.914
X9.423 Y10.505
X9.443 Y10.499 Z-0.913
X9.472 Y10.49 Z-0.914
X9.521 Y10.473
X9.57 Y10.455 Z-0.913
X9.583 Y10.451
X9.619 Y10.436 Z-0.914
X9.668 Y10.413
X9.717 Y10.39
X9.766 Y10.363
X9.815 Y10.334
X9.864 Y10.303 Z-0.913
X9.913 Y10.269 Z-0.914
X9.961 Y10.233
X9.995 Y10.206
X10.01 Y10.193
X10.059 Y10.149
X10.108 Y10.103 Z-0.913
X10.157 Y10.051 Z-0.914
X10.193 Y10.01
X10.206 Y9.995
X10.233 Y9.962
X10.269 Y9.913
X10.304 Y9.862 Z-0.913
X10.334 Y9.815 Z-0.914
X10.363 Y9.766
X10.39 Y9.717
X10.413 Y9.668
X10.436 Y9.619
X10.451 Y9.583 Z-0.913
X10.455 Y9.57
X10.473 Y9.521 Z-0.914
X10.49 Y9.472
X10.499 Y9.443
X10.505 Y9.424
X10.518 Y9.375
X10.529 Y9.326 Z-0.913
X10.539 Y9.277 Z-0.914
X10.548 Y9.213
X10.553 Y9.179
X10.558 Y9.13 Z-0.913
X10.561 Y9.081 Z-0.914
X10.563 Y9.032
X10.564 Y8.983
Y8.739
Y3.066
Y3.017
X10.563 Y2.968
X10.561 Y2.919
X10.558 Y2.87 Z-0.913
X10.553 Y2.821 Z-0.914
X10.546 Y2.772
X10.539 Y2.723
X10.529 Y2.674 Z-0.913
X10.517 Y2.625 Z-0.914
X10.505 Y2.577
X10.499 Y2.557
X10.49 Y2.528
X10.473 Y2.479
X10.455 Y2.43 Z-0.913
X10.451 Y2.417
X10.436 Y2.381 Z-0.914
X10.413 Y2.332
X10.39 Y2.283
X10.363 Y2.234
X10.333 Y2.185
X10.303 Y2.136 Z-0.913
X10.269 Y2.087 Z-0.914
X10.233 Y2.039
X10.206 Y2.005
X10.193 Y1.99
X10.149 Y1.941
X10.103 Y1.892 Z-0.913
X10.051 Y1.843 Z-0.914
X10.01 Y1.807
X9.995 Y1.794
X9.961 Y1.767
X9.913 Y1.731
X9.862 Y1.696 Z-0.913
X9.815 Y1.667 Z-0.914
X9.766 Y1.637
X9.717 Y1.61
X9.668 Y1.587
X9.619 Y1.564
X9.583 Y1.549 Z-0.913
X9.57 Y1.545
X9.521 Y1.527 Z-0.914
X9.472 Y1.51
X9.443 Y1.501
X9.423 Y1.495
X9.375 Y1.482
X9.326 Y1.471 Z-0.913
X9.277 Y1.461 Z-0.914
X9.213 Y1.452
X9.179 Y1.447
X9.13 Y1.442 Z-0.913
X9.081 Y1.439 Z-0.914
X9.032 Y1.437
X8.983 Y1.436
X8.739
X3.066
X3.017
X2.968 Y1.437
X2.919 Y1.439
X2.87 Y1.442 Z-0.913
X2.821 Y1.447 Z-0.914
X2.772 Y1.454
X2.723 Y1.461
X2.674 Y1.471 Z-0.913
X2.625 Y1.483 Z-0.914
X2.576 Y1.495
X2.557 Y1.501 Z-0.913
X2.528 Y1.51 Z-0.914
X2.479 Y1.527
X2.43 Y1.545 Z-0.913
X2.417 Y1.549
X2.381 Y1.564 Z-0.914
X2.332 Y1.587
X2.283 Y1.61
X2.234 Y1.637
X2.185 Y1.666
X2.136 Y1.697 Z-0.913
X2.087 Y1.731 Z-0.914
X2.038 Y1.767
X2.005 Y1.794
X1.99 Y1.807
X1.941 Y1.851
X1.892 Y1.897 Z-0.913
X1.843 Y1.949 Z-0.914
X1.807 Y1.99
X1.794 Y2.005
X1.767 Y2.039
X1.731 Y2.087
X1.696 Y2.138 Z-0.913
X1.666 Y2.185 Z-0.914
X1.637 Y2.234
X1.61 Y2.283
X1.587 Y2.332
X1.564 Y2.381
X1.549 Y2.417 Z-0.913
X1.545 Y2.43
X1.527 Y2.479 Z-0.914
X1.51 Y2.528
X1.501 Y2.557 Z-0.913
X1.495 Y2.577 Z-0.914
X1.483 Y2.625
X1.471 Y2.674 Z-0.913
X1.461 Y2.723 Z-0.914
X1.452 Y2.788
X1.447 Y2.821
X1.442 Y2.87 Z-0.913
X1.439 Y2.919 Z-0.914
X1.437 Y2.968
X1.436 Y3.017
Y3.053
X1.435 Y3.066 Z-0.915
X1.433 Y3.08 Z-0.917
X1.424 Y3.114 Z-0.926
X1.423 Y3.122 Z-0.927
X1.422 Y3.133 Z-0.928
Y3.139
Y8.934
Y8.983
X1.423 Y9.032
X1.425 Y9.081
X1.428 Y9.13 Z-0.927
X1.433 Y9.179 Z-0.928
X1.439 Y9.228
X1.447 Y9.277
X1.452 Y9.302
X1.457 Y9.326
X1.468 Y9.375
X1.48 Y9.424
X1.495 Y9.472
X1.512 Y9.521
X1.529 Y9.57
X1.549 Y9.62
X1.571 Y9.668
X1.598 Y9.724
X1.621 Y9.766
X1.65 Y9.815
X1.68 Y9.864 Z-0.927
X1.696 Y9.887
X1.714 Y9.913 Z-0.928
X1.75 Y9.962
X1.788 Y10.01
X1.832 Y10.059
X1.843 Y10.072
X1.878 Y10.108 Z-0.927
X1.892 Y10.122
X1.928 Y10.157 Z-0.928
X1.941 Y10.168
X1.99 Y10.212
X2.045 Y10.255
X2.087 Y10.286
X2.113 Y10.304 Z-0.927
X2.136 Y10.32
X2.19 Y10.353 Z-0.928
X2.234 Y10.379
X2.276 Y10.402
X2.332 Y10.429
X2.381 Y10.451
X2.43 Y10.471
X2.479 Y10.488
X2.528 Y10.505
X2.576 Y10.52
X2.625 Y10.532
X2.674 Y10.543
X2.698 Y10.548
X2.723 Y10.553
X2.772 Y10.561
X2.821 Y10.567
X2.87 Y10.572 Z-0.927
X2.919 Y10.575 Z-0.928
X2.968 Y10.577
X3.017 Y10.578
X3.457
X8.934
X8.983
X9.032 Y10.577
X9.081 Y10.575
X9.13 Y10.572 Z-0.927
X9.179 Y10.567 Z-0.928
X9.228 Y10.561
X9.277 Y10.553
X9.302 Y10.548
X9.326 Y10.543
X9.375 Y10.532
X9.423 Y10.52
X9.472 Y10.505
X9.49 Y10.499
X9.521 Y10.488
X9.57 Y10.471
X9.62 Y10.451
X9.668 Y10.429
X9.724 Y10.402
X9.766 Y10.379
X9.815 Y10.35
X9.864 Y10.32 Z-0.927
X9.887 Y10.304
X9.913 Y10.286 Z-0.928
X9.961 Y10.25
X10.01 Y10.212
X10.059 Y10.168
X10.108 Y10.123 Z-0.927
X10.123 Y10.108
X10.157 Y10.072 Z-0.928
X10.168 Y10.059
X10.212 Y10.01
X10.255 Y9.955
X10.286 Y9.913
X10.304 Y9.887 Z-0.927
X10.32 Y9.864
X10.353 Y9.81 Z-0.928
X10.379 Y9.766
X10.402 Y9.725
X10.429 Y9.668
X10.451 Y9.619
X10.471 Y9.57
X10.488 Y9.521
X10.499 Y9.49
X10.505 Y9.472
X10.52 Y9.424
X10.532 Y9.375
X10.543 Y9.326
X10.548 Y9.303
X10.553 Y9.277
X10.561 Y9.228
X10.567 Y9.179
X10.572 Y9.13 Z-0.927
X10.575 Y9.081 Z-0.928
X10.577 Y9.032
X10.578 Y8.983
Y8.641
Y3.066
Y3.017
X10.577 Y2.968
X10.575 Y2.919
X10.572 Y2.87 Z-0.927
X10.567 Y2.821 Z-0.928
X10.561 Y2.772
X10.553 Y2.723
X10.548 Y2.698
X10.543 Y2.674
X10.532 Y2.625
X10.52 Y2.577
X10.505 Y2.528
X10.499 Y2.51
X10.488 Y2.479
X10.471 Y2.43
X10.451 Y2.38
X10.429 Y2.332
X10.402 Y2.275
X10.379 Y2.234
X10.35 Y2.185
X10.32 Y2.136 Z-0.927
X10.304 Y2.113
X10.286 Y2.087 Z-0.928
X10.25 Y2.039
X10.212 Y1.99
X10.168 Y1.941
X10.157 Y1.928
X10.123 Y1.892 Z-0.927
X10.108 Y1.877
X10.072 Y1.843 Z-0.928
X10.059 Y1.831
X10.01 Y1.788
X9.955 Y1.745
X9.913 Y1.714
X9.887 Y1.696 Z-0.927
X9.864 Y1.68
X9.81 Y1.647 Z-0.928
X9.766 Y1.621
X9.725 Y1.598
X9.668 Y1.571
X9.619 Y1.549
X9.57 Y1.529
X9.521 Y1.512
X9.49 Y1.501
X9.472 Y1.495
X9.423 Y1.48
X9.375 Y1.468
X9.326 Y1.457
X9.302 Y1.452
X9.277 Y1.447
X9.228 Y1.439
X9.179 Y1.433
X9.13 Y1.428 Z-0.927
X9.081 Y1.425 Z-0.928
X9.032 Y1.423
X8.983 Y1.422
X8.641
X3.066
X3.017
X2.968 Y1.423
X2.919 Y1.425
X2.87 Y1.428 Z-0.927
X2.821 Y1.433 Z-0.928
X2.772 Y1.439
X2.723 Y1.447
X2.697 Y1.452
X2.674 Y1.457
X2.625 Y1.468
X2.576 Y1.48
X2.528 Y1.495
X2.51 Y1.501
X2.479 Y1.512
X2.43 Y1.529
X2.38 Y1.549
X2.332 Y1.571
X2.275 Y1.598
X2.234 Y1.621
X2.185 Y1.65
X2.136 Y1.68 Z-0.927
X2.113 Y1.696
X2.087 Y1.714 Z-0.928
X2.038 Y1.75
X1.99 Y1.788
X1.941 Y1.832
X1.928 Y1.843
X1.892 Y1.877 Z-0.927
X1.877 Y1.892
X1.832 Y1.941 Z-0.928
X1.788 Y1.99
X1.745 Y2.045
X1.714 Y2.087
X1.696 Y2.113 Z-0.927
X1.68 Y2.136
X1.647 Y2.19 Z-0.928
X1.621 Y2.234
X1.598 Y2.276
X1.571 Y2.332
X1.549 Y2.381
X1.529 Y2.43
X1.512 Y2.479
X1.501 Y2.51
X1.495 Y2.528
X1.48 Y2.577
X1.468 Y2.625
X1.457 Y2.674
X1.452 Y2.698
X1.447 Y2.723
X1.439 Y2.772
X1.433 Y2.821
X1.428 Y2.87 Z-0.927
X1.425 Y2.919 Z-0.928
X1.423 Y2.968
X1.422 Y3.017
Y3.139
X1.421 Y3.152 Z-0.929
X1.418 Y3.166 Z-0.932
X1.41 Y3.2 Z-0.94
X1.409 Y3.208 Z-0.941
X1.408 Y3.219 Z-0.942
Y3.224
Y8.934
Y8.983
X1.409 Y9.032
X1.411 Y9.081
X1.414 Y9.13
X1.419 Y9.179
X1.425 Y9.228
X1.432 Y9.277
X1.442 Y9.326
X1.453 Y9.375
X1.466 Y9.424
X1.48 Y9.472
X1.501 Y9.533
X1.514 Y9.57
X1.534 Y9.619
X1.556 Y9.668
X1.579 Y9.717
X1.605 Y9.766
X1.633 Y9.815
X1.664 Y9.864 Z-0.941
X1.696 Y9.913 Z-0.942
X1.732 Y9.962
X1.745 Y9.979
X1.77 Y10.01
X1.794 Y10.038
X1.813 Y10.059
X1.858 Y10.108
X1.892 Y10.142
X1.941 Y10.187
X1.962 Y10.206
X1.99 Y10.23
X2.021 Y10.255
X2.038 Y10.268
X2.088 Y10.304
X2.136 Y10.336 Z-0.941
X2.185 Y10.367 Z-0.942
X2.234 Y10.395
X2.283 Y10.421
X2.346 Y10.451
X2.381 Y10.466
X2.43 Y10.486
X2.479 Y10.503
X2.528 Y10.52
X2.576 Y10.534
X2.625 Y10.547
X2.674 Y10.558
X2.723 Y10.568
X2.772 Y10.575
X2.821 Y10.581
X2.87 Y10.586
X2.919 Y10.589
X2.968 Y10.591
X3.017 Y10.592
X3.457
X8.934
X8.983
X9.032 Y10.591
X9.081 Y10.589
X9.13 Y10.586
X9.179 Y10.581
X9.228 Y10.575
X9.277 Y10.568
X9.326 Y10.558
X9.375 Y10.547
X9.423 Y10.534
X9.472 Y10.52
X9.533 Y10.499
X9.57 Y10.486
X9.619 Y10.466
X9.668 Y10.444
X9.717 Y10.421
X9.766 Y10.395
X9.815 Y10.367
X9.864 Y10.336 Z-0.941
X9.913 Y10.304 Z-0.942
X9.961 Y10.268
X9.979 Y10.255
X10.01 Y10.23
X10.038 Y10.206
X10.059 Y10.187
X10.108 Y10.142
X10.142 Y10.108
X10.187 Y10.059
X10.206 Y10.038
X10.23 Y10.01
X10.255 Y9.979
X10.268 Y9.962
X10.304 Y9.912
X10.336 Y9.864 Z-0.941
X10.367 Y9.815 Z-0.942
X10.395 Y9.766
X10.402 Y9.754
X10.421 Y9.717
X10.451 Y9.654
X10.466 Y9.619
X10.486 Y9.57
X10.504 Y9.521
X10.52 Y9.472
X10.534 Y9.424
X10.548 Y9.367
X10.558 Y9.326
X10.568 Y9.277
X10.575 Y9.228
X10.581 Y9.179
X10.586 Y9.13 Z-0.941
X10.589 Y9.081 Z-0.942
X10.591 Y9.032
X10.592 Y8.983
Y8.641
Y3.066
Y3.017
X10.591 Y2.968
X10.589 Y2.919
X10.586 Y2.87 Z-0.941
X10.581 Y2.821 Z-0.942
X10.575 Y2.772
X10.568 Y2.723
X10.558 Y2.674
X10.547 Y2.625
X10.534 Y2.577
X10.52 Y2.528
X10.504 Y2.479
X10.486 Y2.43
X10.466 Y2.381
X10.444 Y2.332
X10.421 Y2.283
X10.402 Y2.246
X10.395 Y2.234
X10.367 Y2.185
X10.336 Y2.136 Z-0.941
X10.304 Y2.087 Z-0.942
X10.268 Y2.039
X10.255 Y2.021
X10.23 Y1.99
X10.206 Y1.962
X10.187 Y1.941
X10.142 Y1.892
X10.108 Y1.858
X10.059 Y1.813
X10.038 Y1.794
X10.01 Y1.77
X9.979 Y1.745
X9.961 Y1.732
X9.912 Y1.696
X9.864 Y1.664 Z-0.941
X9.815 Y1.633 Z-0.942
X9.766 Y1.605
X9.754 Y1.598
X9.717 Y1.579
X9.654 Y1.549
X9.619 Y1.534
X9.57 Y1.514
X9.521 Y1.496
X9.472 Y1.48
X9.423 Y1.466
X9.367 Y1.452
X9.326 Y1.442
X9.277 Y1.432
X9.228 Y1.425
X9.179 Y1.419
X9.13 Y1.414 Z-0.941
X9.081 Y1.411 Z-0.942
X9.032 Y1.409
X8.983 Y1.408
X8.641
X3.066
X3.017
X2.968 Y1.409
X2.919 Y1.411
X2.87 Y1.414 Z-0.941
X2.821 Y1.419 Z-0.942
X2.772 Y1.425
X2.723 Y1.432
X2.674 Y1.442
X2.625 Y1.453
X2.576 Y1.466
X2.528 Y1.48
X2.467 Y1.501
X2.43 Y1.514
X2.381 Y1.534
X2.332 Y1.556
X2.283 Y1.579
X2.246 Y1.598
X2.234 Y1.605
X2.185 Y1.633
X2.136 Y1.664 Z-0.941
X2.087 Y1.696 Z-0.942
X2.038 Y1.732
X2.021 Y1.745
X1.99 Y1.77
X1.962 Y1.794
X1.941 Y1.813
X1.892 Y1.858
X1.858 Y1.892
X1.813 Y1.941
X1.794 Y1.962
X1.77 Y1.99
X1.745 Y2.021
X1.732 Y2.039
X1.696 Y2.088
X1.664 Y2.136 Z-0.941
X1.633 Y2.185 Z-0.942
X1.605 Y2.234
X1.579 Y2.283
X1.549 Y2.346
X1.534 Y2.381
X1.514 Y2.43
X1.496 Y2.479
X1.48 Y2.528
X1.466 Y2.577
X1.452 Y2.633
X1.442 Y2.674
X1.432 Y2.723
X1.425 Y2.772
X1.419 Y2.821
X1.414 Y2.87
X1.411 Y2.919
X1.409 Y2.968
X1.408 Y3.017
Y3.224
X1.407 Y3.238 Z-0.943
X1.404 Y3.251 Z-0.946
X1.396 Y3.286 Z-0.954
X1.395 Y3.294 Z-0.955
X1.394 Y3.305 Z-0.956
X1.393 Y3.31 Z-0.957
X1.394 Y8.934 Z-0.956
Y8.983
X1.395 Y9.032
X1.397 Y9.081
X1.4 Y9.13
X1.403 Y9.163
X1.404 Y9.179
X1.411 Y9.228
X1.418 Y9.277
X1.428 Y9.326
X1.439 Y9.375
X1.452 Y9.425
X1.465 Y9.472
X1.482 Y9.521
X1.501 Y9.574
X1.519 Y9.619
X1.54 Y9.668
X1.563 Y9.717
X1.589 Y9.766
X1.598 Y9.783
X1.617 Y9.815
X1.647 Y9.864
X1.679 Y9.913
X1.715 Y9.962
X1.752 Y10.01
X1.794 Y10.06
X1.843 Y10.113
X1.892 Y10.162
X1.941 Y10.206
X1.99 Y10.248
X2.038 Y10.285
X2.087 Y10.321
X2.136 Y10.353
X2.185 Y10.383
X2.217 Y10.402
X2.234 Y10.411
X2.283 Y10.437
X2.332 Y10.46
X2.381 Y10.481
X2.43 Y10.501
X2.479 Y10.518
X2.528 Y10.535
X2.576 Y10.549
X2.625 Y10.561
X2.674 Y10.572
X2.723 Y10.582
X2.772 Y10.589
X2.821 Y10.596
X2.837 Y10.597
X2.87 Y10.6
X2.919 Y10.603
X2.968 Y10.605
X3.017 Y10.606
X3.457 Y10.607 Z-0.957
X8.934 Y10.606 Z-0.956
X8.983
X9.032 Y10.605
X9.081 Y10.603
X9.13 Y10.6
X9.163 Y10.597
X9.179 Y10.596
X9.228 Y10.589
X9.277 Y10.582
X9.326 Y10.572
X9.375 Y10.561
X9.425 Y10.548
X9.472 Y10.535
X9.521 Y10.519
X9.574 Y10.499
X9.619 Y10.481
X9.668 Y10.46
X9.717 Y10.437
X9.766 Y10.411
X9.783 Y10.402
X9.815 Y10.383
X9.864 Y10.353
X9.913 Y10.321
X9.961 Y10.285
X10.01 Y10.248
X10.06 Y10.206
X10.113 Y10.157
X10.162 Y10.108
X10.206 Y10.059
X10.248 Y10.01
X10.285 Y9.962
X10.321 Y9.913
X10.353 Y9.864
X10.383 Y9.815
X10.402 Y9.783
X10.411 Y9.766
X10.437 Y9.717
X10.46 Y9.668
X10.481 Y9.619
X10.501 Y9.57
X10.519 Y9.521
X10.535 Y9.472
X10.549 Y9.424
X10.561 Y9.375
X10.572 Y9.326
X10.582 Y9.277
X10.589 Y9.228
X10.596 Y9.179
X10.597 Y9.163
X10.6 Y9.13
X10.603 Y9.081
X10.605 Y9.032
X10.606 Y8.983
X10.607 Y8.641 Z-0.957
Y3.066
X10.606 Y3.017 Z-0.956
X10.605 Y2.968
X10.603 Y2.919
X10.6 Y2.87
X10.597 Y2.837
X10.596 Y2.821
X10.589 Y2.772
X10.582 Y2.723
X10.572 Y2.674
X10.561 Y2.625
X10.548 Y2.575
X10.535 Y2.528
X10.519 Y2.479
X10.499 Y2.426
X10.481 Y2.381
X10.46 Y2.332
X10.437 Y2.283
X10.411 Y2.234
X10.402 Y2.217
X10.383 Y2.185
X10.353 Y2.136
X10.321 Y2.087
X10.285 Y2.039
X10.248 Y1.99
X10.206 Y1.94
X10.157 Y1.887
X10.108 Y1.838
X10.059 Y1.794
X10.01 Y1.752
X9.961 Y1.715
X9.913 Y1.679
X9.864 Y1.647
X9.815 Y1.617
X9.783 Y1.598
X9.766 Y1.589
X9.717 Y1.563
X9.668 Y1.54
X9.619 Y1.519
X9.57 Y1.499
X9.521 Y1.481
X9.472 Y1.465
X9.423 Y1.451
X9.375 Y1.439
X9.326 Y1.428
X9.277 Y1.418
X9.228 Y1.411
X9.179 Y1.404
X9.163 Y1.403
X9.13 Y1.4
X9.081 Y1.397
X9.032 Y1.395
X8.983 Y1.394
X8.641 Y1.393 Z-0.957
X3.066
X3.017 Y1.394 Z-0.956
X2.968 Y1.395
X2.919 Y1.397
X2.87 Y1.4
X2.837 Y1.403
X2.821 Y1.404
X2.772 Y1.411
X2.723 Y1.418
X2.674 Y1.428
X2.625 Y1.439
X2.575 Y1.452
X2.528 Y1.465
X2.479 Y1.481
X2.426 Y1.501
X2.381 Y1.519
X2.332 Y1.54
X2.283 Y1.563
X2.234 Y1.589
X2.217 Y1.598
X2.185 Y1.617
X2.136 Y1.647
X2.087 Y1.679
X2.038 Y1.715
X1.99 Y1.752
X1.94 Y1.794
X1.887 Y1.843
X1.838 Y1.892
X1.794 Y1.941
X1.752 Y1.99
X1.715 Y2.039
X1.679 Y2.087
X1.647 Y2.136
X1.617 Y2.185
X1.598 Y2.217
X1.589 Y2.234
X1.563 Y2.283
X1.54 Y2.332
X1.519 Y2.381
X1.499 Y2.43
X1.481 Y2.479
X1.465 Y2.528
X1.451 Y2.577
X1.439 Y2.625
X1.428 Y2.674
X1.418 Y2.723
X1.411 Y2.772
X1.404 Y2.821
X1.403 Y2.837
X1.4 Y2.87
X1.397 Y2.919
X1.395 Y2.968
X1.394 Y3.017
X1.393 Y3.31 Z-0.957
Y3.324
X1.39 Y3.338 Z-0.96
X1.382 Y3.372 Z-0.968
X1.381 Y3.38 Z-0.969
X1.38 Y3.391 Z-0.97
X1.379 Y3.397 Z-0.971
Y8.934
X1.38 Y8.983 Z-0.97
Y9.032
X1.383 Y9.081
X1.386 Y9.13
X1.39 Y9.179
X1.397 Y9.228
X1.404 Y9.277
X1.413 Y9.326
X1.424 Y9.375
X1.437 Y9.424
X1.452 Y9.476
X1.467 Y9.521
X1.484 Y9.57
X1.503 Y9.619
X1.525 Y9.668
X1.549 Y9.721
X1.573 Y9.766
X1.601 Y9.815
X1.63 Y9.864
X1.662 Y9.913
X1.697 Y9.962
X1.734 Y10.01
X1.745 Y10.024
X1.775 Y10.059
X1.794 Y10.081
X1.819 Y10.108
X1.843 Y10.133
X1.867 Y10.157
X1.892 Y10.181
X1.919 Y10.206
X1.941 Y10.225
X1.976 Y10.255
X1.99 Y10.266
X2.04 Y10.304
X2.087 Y10.338
X2.136 Y10.37
X2.189 Y10.402
X2.234 Y10.427
X2.283 Y10.452
X2.332 Y10.475
X2.388 Y10.499
X2.43 Y10.516
X2.479 Y10.533
X2.528 Y10.549
X2.576 Y10.563
X2.625 Y10.576
X2.674 Y10.587
X2.723 Y10.596
X2.772 Y10.603
X2.821 Y10.61
X2.87 Y10.614
X2.919 Y10.617
X2.968 Y10.62
X3.017
X3.457 Y10.621 Z-0.971
X8.934
X8.983 Y10.62 Z-0.97
X9.032
X9.081 Y10.617
X9.13 Y10.614
X9.179 Y10.61
X9.228 Y10.603
X9.277 Y10.596
X9.326 Y10.587
X9.375 Y10.576
X9.423 Y10.563
X9.476 Y10.548
X9.521 Y10.533
X9.57 Y10.516
X9.619 Y10.497
X9.668 Y10.475
X9.721 Y10.451
X9.766 Y10.427
X9.815 Y10.4
X9.864 Y10.37
X9.913 Y10.338
X9.961 Y10.303
X10.01 Y10.266
X10.024 Y10.255
X10.059 Y10.225
X10.081 Y10.206
X10.108 Y10.181
X10.133 Y10.157
X10.157 Y10.133
X10.181 Y10.108
X10.225 Y10.059
X10.255 Y10.024
X10.266 Y10.01
X10.304 Y9.96
X10.338 Y9.913
X10.37 Y9.864
X10.402 Y9.811
X10.427 Y9.766
X10.452 Y9.717
X10.475 Y9.668
X10.499 Y9.612
X10.516 Y9.57
X10.533 Y9.521
X10.549 Y9.472
X10.563 Y9.424
X10.576 Y9.375
X10.587 Y9.326
X10.596 Y9.277
X10.603 Y9.228
X10.61 Y9.179
X10.614 Y9.13
X10.617 Y9.081
X10.62 Y9.032
Y8.983
X10.621 Y8.641 Z-0.971
Y3.066
X10.62 Y3.017 Z-0.97
Y2.968
X10.617 Y2.919
X10.614 Y2.87
X10.61 Y2.821
X10.603 Y2.772
X10.596 Y2.723
X10.587 Y2.674
X10.576 Y2.625
X10.563 Y2.577
X10.548 Y2.524
X10.534 Y2.479
X10.516 Y2.43
X10.497 Y2.381
X10.475 Y2.332
X10.451 Y2.279
X10.427 Y2.234
X10.399 Y2.185
X10.37 Y2.136
X10.338 Y2.087
X10.303 Y2.039
X10.266 Y1.99
X10.255 Y1.976
X10.225 Y1.941
X10.206 Y1.919
X10.181 Y1.892
X10.157 Y1.867
X10.133 Y1.843
X10.108 Y1.819
X10.081 Y1.794
X10.059 Y1.775
X10.024 Y1.745
X10.01 Y1.734
X9.96 Y1.696
X9.913 Y1.662
X9.864 Y1.63
X9.811 Y1.598
X9.766 Y1.573
X9.717 Y1.547
X9.668 Y1.525
X9.612 Y1.501
X9.57 Y1.484
X9.521 Y1.466
X9.472 Y1.451
X9.423 Y1.437
X9.375 Y1.424
X9.326 Y1.413
X9.277 Y1.404
X9.228 Y1.397
X9.179 Y1.39
X9.13 Y1.386
X9.081 Y1.383
X9.032 Y1.38
X8.983
X8.641 Y1.379 Z-0.971
X3.066
X3.017 Y1.38 Z-0.97
X2.968
X2.919 Y1.383
X2.87 Y1.386
X2.821 Y1.39
X2.772 Y1.397
X2.723 Y1.404
X2.674 Y1.413
X2.625 Y1.424
X2.576 Y1.437
X2.524 Y1.452
X2.479 Y1.467
X2.43 Y1.484
X2.381 Y1.503
X2.332 Y1.525
X2.279 Y1.549
X2.234 Y1.573
X2.185 Y1.601
X2.136 Y1.63
X2.087 Y1.662
X2.038 Y1.697
X1.99 Y1.734
X1.976 Y1.745
X1.941 Y1.775
X1.892 Y1.819
X1.867 Y1.843
X1.843 Y1.867
X1.819 Y1.892
X1.794 Y1.919
X1.775 Y1.941
X1.745 Y1.976
X1.734 Y1.99
X1.696 Y2.04
X1.662 Y2.087
X1.63 Y2.136
X1.598 Y2.189
X1.573 Y2.234
X1.547 Y2.283
X1.525 Y2.332
X1.501 Y2.388
X1.484 Y2.43
X1.467 Y2.479
X1.451 Y2.528
X1.437 Y2.577
X1.424 Y2.625
X1.413 Y2.674
X1.404 Y2.723
X1.397 Y2.772
X1.39 Y2.821
X1.386 Y2.87
X1.383 Y2.919
X1.38 Y2.968
Y3.017
X1.379 Y3.397 Z-0.971
X1.378 Y3.41 Z-0.972
X1.376 Y3.424 Z-0.974
X1.368 Y3.458 Z-0.982
X1.367 Y3.466 Z-0.983
X1.365 Y3.477 Z-0.985
Y3.483
Y8.934
Y8.983
X1.366 Y9.032 Z-0.984
X1.369 Y9.081
X1.372 Y9.13
X1.376 Y9.179
X1.382 Y9.228
X1.389 Y9.277
X1.399 Y9.326
X1.41 Y9.375
X1.422 Y9.424
X1.436 Y9.472
X1.452 Y9.521
X1.469 Y9.57
X1.488 Y9.619
X1.509 Y9.668
X1.532 Y9.717
X1.557 Y9.766
X1.584 Y9.815
X1.614 Y9.864
X1.647 Y9.916
X1.68 Y9.962
X1.696 Y9.984
X1.716 Y10.01
X1.745 Y10.046
X1.756 Y10.059
X1.8 Y10.108
X1.847 Y10.157
X1.898 Y10.206
X1.941 Y10.244
X1.954 Y10.255
X1.99 Y10.284
X2.016 Y10.304
X2.038 Y10.32
X2.087 Y10.355
X2.136 Y10.386
X2.185 Y10.416
X2.234 Y10.443
X2.283 Y10.468
X2.332 Y10.491
X2.381 Y10.512
X2.43 Y10.531
X2.479 Y10.548
X2.528 Y10.564
X2.576 Y10.578
X2.625 Y10.59
X2.674 Y10.601
X2.723 Y10.611
X2.772 Y10.618
X2.821 Y10.624
X2.87 Y10.628
X2.919 Y10.631
X2.968 Y10.634
X3.017 Y10.635 Z-0.985
X3.457
X8.934
X8.983
X9.032 Y10.634 Z-0.984
X9.081 Y10.631
X9.13 Y10.628
X9.179 Y10.624
X9.228 Y10.618
X9.277 Y10.611
X9.326 Y10.601
X9.375 Y10.59
X9.423 Y10.578
X9.472 Y10.564
X9.521 Y10.548
X9.57 Y10.531
X9.619 Y10.512
X9.668 Y10.491
X9.717 Y10.468
X9.766 Y10.443
X9.815 Y10.416
X9.864 Y10.386
X9.916 Y10.353
X9.961 Y10.32
X9.984 Y10.304
X10.01 Y10.284
X10.046 Y10.255
X10.059 Y10.244
X10.108 Y10.2
X10.157 Y10.153
X10.206 Y10.102
X10.244 Y10.059
X10.255 Y10.046
X10.284 Y10.01
X10.304 Y9.984
X10.32 Y9.962
X10.355 Y9.913
X10.386 Y9.864
X10.416 Y9.815
X10.443 Y9.766
X10.468 Y9.717
X10.491 Y9.668
X10.512 Y9.619
X10.531 Y9.57
X10.548 Y9.521
X10.564 Y9.472
X10.578 Y9.424
X10.59 Y9.375
X10.601 Y9.326
X10.611 Y9.277
X10.618 Y9.228
X10.624 Y9.179
X10.628 Y9.13
X10.631 Y9.081
X10.634 Y9.032
X10.635 Y8.983 Z-0.985
Y8.641
Y3.066
Y3.017
X10.634 Y2.968 Z-0.984
X10.631 Y2.919
X10.628 Y2.87
X10.624 Y2.821
X10.618 Y2.772
X10.611 Y2.723
X10.601 Y2.674
X10.59 Y2.625
X10.578 Y2.577
X10.564 Y2.528
X10.548 Y2.478
X10.531 Y2.43
X10.512 Y2.381
X10.491 Y2.332
X10.468 Y2.283
X10.443 Y2.234
X10.416 Y2.185
X10.386 Y2.136
X10.353 Y2.084
X10.32 Y2.039
X10.304 Y2.016
X10.284 Y1.99
X10.255 Y1.954
X10.244 Y1.941
X10.2 Y1.892
X10.153 Y1.843
X10.102 Y1.794
X10.059 Y1.756
X10.046 Y1.745
X10.01 Y1.716
X9.984 Y1.696
X9.961 Y1.68
X9.913 Y1.645
X9.864 Y1.614
X9.815 Y1.584
X9.766 Y1.557
X9.717 Y1.532
X9.668 Y1.509
X9.619 Y1.488
X9.57 Y1.469
X9.521 Y1.452
X9.472 Y1.436
X9.423 Y1.422
X9.375 Y1.41
X9.326 Y1.399
X9.277 Y1.389
X9.228 Y1.382
X9.179 Y1.376
X9.13 Y1.372
X9.081 Y1.369
X9.032 Y1.366
X8.983 Y1.365 Z-0.985
X8.641
X3.066
X3.017
X2.968 Y1.366 Z-0.984
X2.919 Y1.369
X2.87 Y1.372
X2.821 Y1.376
X2.772 Y1.382
X2.723 Y1.389
X2.674 Y1.399
X2.625 Y1.41
X2.576 Y1.422
X2.528 Y1.436
X2.478 Y1.452
X2.43 Y1.469
X2.381 Y1.488
X2.332 Y1.509
X2.283 Y1.532
X2.234 Y1.557
X2.185 Y1.584
X2.136 Y1.614
X2.084 Y1.647
X2.038 Y1.68
X2.016 Y1.696
X1.99 Y1.716
X1.954 Y1.745
X1.941 Y1.756
X1.892 Y1.8
X1.843 Y1.847
X1.794 Y1.898
X1.756 Y1.941
X1.745 Y1.954
X1.716 Y1.99
X1.696 Y2.016
X1.68 Y2.039
X1.645 Y2.087
X1.614 Y2.136
X1.584 Y2.185
X1.557 Y2.234
X1.532 Y2.283
X1.509 Y2.332
X1.488 Y2.381
X1.469 Y2.43
X1.452 Y2.479
X1.436 Y2.528
X1.422 Y2.577
X1.41 Y2.625
X1.399 Y2.674
X1.389 Y2.723
X1.382 Y2.772
X1.376 Y2.821
X1.372 Y2.87
X1.369 Y2.919
X1.366 Y2.968
X1.365 Y3.017 Z-0.985
Y3.483
X1.364 Y3.496 Z-0.986
X1.362 Y3.51 Z-0.988
X1.354 Y3.544 Z-0.996
X1.352 Y3.552 Z-0.998
X1.351 Y3.563 Z-0.999
Y3.568
Y8.934
Y8.983
X1.352 Y9.032
X1.354 Y9.081 Z-0.998
X1.357 Y9.13
X1.362 Y9.179
X1.368 Y9.228
X1.375 Y9.277 Z-0.999
X1.384 Y9.326 Z-0.998
X1.395 Y9.375
X1.407 Y9.424
X1.421 Y9.472
X1.437 Y9.521
X1.454 Y9.57
X1.473 Y9.619
X1.494 Y9.668
X1.516 Y9.717
X1.541 Y9.766
X1.549 Y9.782
X1.568 Y9.815
X1.598 Y9.866
X1.628 Y9.913
X1.647 Y9.941
X1.662 Y9.962
X1.699 Y10.01
X1.738 Y10.059
X1.745 Y10.068
X1.794 Y10.122
X1.827 Y10.157
X1.843 Y10.173
X1.878 Y10.206
X1.932 Y10.255
X1.941 Y10.262
X1.993 Y10.304
X2.038 Y10.338
X2.059 Y10.353
X2.087 Y10.372
X2.136 Y10.403
X2.185 Y10.432
X2.218 Y10.451
X2.234 Y10.459
X2.283 Y10.484
X2.332 Y10.506
X2.381 Y10.527
X2.437 Y10.548
X2.479 Y10.563
X2.528 Y10.579
X2.576 Y10.593
X2.625 Y10.605
X2.674 Y10.616
X2.723 Y10.625 Z-0.999
X2.772 Y10.632 Z-0.998
X2.821 Y10.638
X2.87 Y10.643
X2.931 Y10.646
X2.968 Y10.648 Z-0.999
X3.017 Y10.649
X3.457
X8.934
X8.983
X9.032 Y10.648
X9.081 Y10.646 Z-0.998
X9.13 Y10.643
X9.179 Y10.638
X9.228 Y10.632
X9.277 Y10.625 Z-0.999
X9.326 Y10.616 Z-0.998
X9.375 Y10.605
X9.423 Y10.593
X9.472 Y10.579
X9.521 Y10.563
X9.57 Y10.546
X9.619 Y10.527
X9.668 Y10.506
X9.717 Y10.484
X9.766 Y10.459
X9.782 Y10.451
X9.815 Y10.432
X9.866 Y10.402
X9.913 Y10.372
X9.941 Y10.353
X9.961 Y10.338
X10.01 Y10.301
X10.059 Y10.262
X10.068 Y10.255
X10.108 Y10.219
X10.157 Y10.173
X10.173 Y10.157
X10.206 Y10.122
X10.255 Y10.068
X10.262 Y10.059
X10.304 Y10.007
X10.338 Y9.962
X10.353 Y9.941
X10.372 Y9.913
X10.403 Y9.864
X10.432 Y9.815
X10.451 Y9.782
X10.459 Y9.766
X10.484 Y9.717
X10.506 Y9.668
X10.527 Y9.619
X10.548 Y9.563
X10.563 Y9.521
X10.579 Y9.472
X10.593 Y9.424
X10.605 Y9.375
X10.616 Y9.326
X10.625 Y9.277 Z-0.999
X10.632 Y9.228 Z-0.998
X10.638 Y9.179
X10.643 Y9.13
X10.646 Y9.069
X10.648 Y9.032 Z-0.999
X10.649 Y8.983
Y8.641
Y3.066
Y3.017
X10.648 Y2.968
X10.646 Y2.919 Z-0.998
X10.643 Y2.87
X10.638 Y2.821
X10.632 Y2.772
X10.625 Y2.723 Z-0.999
X10.616 Y2.674 Z-0.998
X10.605 Y2.625
X10.593 Y2.577
X10.579 Y2.528
X10.563 Y2.479
X10.546 Y2.43
X10.527 Y2.381
X10.506 Y2.332
X10.484 Y2.283
X10.459 Y2.234
X10.451 Y2.218
X10.432 Y2.185
X10.402 Y2.134
X10.372 Y2.087
X10.353 Y2.059
X10.338 Y2.039
X10.301 Y1.99
X10.262 Y1.941
X10.255 Y1.932
X10.206 Y1.878
X10.173 Y1.843
X10.157 Y1.827
X10.108 Y1.781
X10.068 Y1.745
X10.059 Y1.738
X10.007 Y1.696
X9.961 Y1.662
X9.941 Y1.647
X9.913 Y1.628
X9.864 Y1.597
X9.815 Y1.568
X9.782 Y1.549
X9.766 Y1.541
X9.717 Y1.516
X9.668 Y1.494
X9.619 Y1.473
X9.564 Y1.452
X9.521 Y1.437
X9.472 Y1.421
X9.423 Y1.407
X9.375 Y1.395
X9.326 Y1.384
X9.277 Y1.375 Z-0.999
X9.228 Y1.368 Z-0.998
X9.179 Y1.362
X9.13 Y1.357
X9.069 Y1.354
X9.032 Y1.352 Z-0.999
X8.983 Y1.351
X8.641
X3.066
X3.017
X2.968 Y1.352
X2.919 Y1.354 Z-0.998
X2.87 Y1.357
X2.821 Y1.362
X2.772 Y1.368
X2.723 Y1.375 Z-0.999
X2.674 Y1.384 Z-0.998
X2.625 Y1.395
X2.576 Y1.407
X2.528 Y1.421
X2.479 Y1.437
X2.43 Y1.454
X2.381 Y1.473
X2.332 Y1.494
X2.283 Y1.516
X2.234 Y1.541
X2.218 Y1.549
X2.185 Y1.568
X2.134 Y1.598
X2.087 Y1.628
X2.059 Y1.647
X2.038 Y1.662
X1.99 Y1.699
X1.941 Y1.738
X1.932 Y1.745
X1.892 Y1.781
X1.843 Y1.827
X1.827 Y1.843
X1.781 Y1.892
X1.745 Y1.932
X1.738 Y1.941
X1.696 Y1.993
X1.662 Y2.039
X1.647 Y2.059
X1.628 Y2.087
X1.597 Y2.136
X1.568 Y2.185
X1.549 Y2.218
X1.541 Y2.234
X1.516 Y2.283
X1.494 Y2.332
X1.473 Y2.381
X1.452 Y2.437
X1.437 Y2.479
X1.421 Y2.528
X1.407 Y2.577
X1.395 Y2.625
X1.384 Y2.674
X1.375 Y2.723 Z-0.999
X1.368 Y2.772 Z-0.998
X1.362 Y2.821
X1.357 Y2.87
X1.354 Y2.931
X1.352 Y2.968 Z-0.999
X1.351 Y3.017
Y3.483
Y3.568
X1.35 Y3.591 Z-1.
X1.349 Y3.613 Z-1.001
Y3.628
Y8.983
Y9.032
X1.354 Y9.13
X1.359 Y9.179
X1.365 Y9.228
X1.372 Y9.277
X1.382 Y9.326
X1.393 Y9.375
X1.404 Y9.424
X1.418 Y9.472
X1.434 Y9.521
X1.452 Y9.572
X1.47 Y9.619
X1.491 Y9.668
X1.513 Y9.717
X1.538 Y9.766
X1.549 Y9.787
X1.564 Y9.815
X1.598 Y9.871
X1.625 Y9.913
X1.647 Y9.946
X1.659 Y9.962
X1.696 Y10.012
X1.734 Y10.059
X1.745 Y10.072
X1.777 Y10.108
X1.794 Y10.126
X1.823 Y10.157
X1.843 Y10.177
X1.874 Y10.206
X1.892 Y10.223
X1.928 Y10.255
X1.941 Y10.266
X1.99 Y10.305
X2.038 Y10.341
X2.054 Y10.353
X2.087 Y10.375
X2.136 Y10.406
X2.185 Y10.436
X2.213 Y10.451
X2.234 Y10.462
X2.283 Y10.487
X2.332 Y10.509
X2.381 Y10.53
X2.43 Y10.549
X2.479 Y10.566
X2.528 Y10.582
X2.583 Y10.597
X2.625 Y10.607
X2.674 Y10.618
X2.723 Y10.628
X2.772 Y10.635
X2.821 Y10.641
X2.875 Y10.646
X2.968 Y10.651
X3.017
X8.983
X9.032
X9.13 Y10.646
X9.179 Y10.641
X9.228 Y10.635
X9.277 Y10.628
X9.326 Y10.618
X9.375 Y10.607
X9.423 Y10.596
X9.472 Y10.582
X9.521 Y10.566
X9.572 Y10.548
X9.619 Y10.53
X9.668 Y10.509
X9.717 Y10.487
X9.766 Y10.462
X9.787 Y10.451
X9.815 Y10.436
X9.871 Y10.402
X9.913 Y10.375
X9.946 Y10.353
X9.961 Y10.342
X10.012 Y10.304
X10.059 Y10.266
X10.072 Y10.255
X10.108 Y10.223
X10.126 Y10.206
X10.157 Y10.177
X10.177 Y10.157
X10.223 Y10.108
X10.255 Y10.072
X10.266 Y10.059
X10.305 Y10.01
X10.341 Y9.962
X10.353 Y9.946
X10.375 Y9.913
X10.406 Y9.864
X10.436 Y9.815
X10.451 Y9.787
X10.462 Y9.766
X10.487 Y9.717
X10.509 Y9.668
X10.53 Y9.619
X10.549 Y9.57
X10.566 Y9.521
X10.582 Y9.472
X10.597 Y9.417
X10.607 Y9.375
X10.618 Y9.326
X10.627 Y9.277
X10.635 Y9.228
X10.641 Y9.179
X10.646 Y9.126
X10.651 Y9.032
Y8.983
Y3.017
Y2.968
X10.646 Y2.87
X10.641 Y2.821
X10.635 Y2.772
X10.627 Y2.723
X10.618 Y2.674
X10.607 Y2.625
X10.596 Y2.577
X10.582 Y2.528
X10.566 Y2.479
X10.548 Y2.428
X10.53 Y2.381
X10.509 Y2.332
X10.487 Y2.283
X10.462 Y2.234
X10.451 Y2.212
X10.436 Y2.185
X10.402 Y2.129
X10.375 Y2.087
X10.353 Y2.054
X10.342 Y2.039
X10.304 Y1.988
X10.266 Y1.941
X10.255 Y1.928
X10.223 Y1.892
X10.206 Y1.874
X10.177 Y1.843
X10.157 Y1.823
X10.108 Y1.777
X10.072 Y1.745
X10.059 Y1.734
X10.01 Y1.695
X9.961 Y1.658
X9.946 Y1.647
X9.913 Y1.625
X9.864 Y1.594
X9.815 Y1.564
X9.788 Y1.549
X9.766 Y1.538
X9.717 Y1.513
X9.668 Y1.491
X9.619 Y1.47
X9.57 Y1.451
X9.521 Y1.434
X9.472 Y1.418
X9.417 Y1.403
X9.375 Y1.393
X9.326 Y1.382
X9.277 Y1.373
X9.228 Y1.365
X9.179 Y1.359
X9.126 Y1.354
X9.032 Y1.349
X8.983
X3.017
X2.968
X2.87 Y1.354
X2.821 Y1.359
X2.772 Y1.365
X2.723 Y1.373
X2.674 Y1.382
X2.625 Y1.393
X2.576 Y1.404
X2.528 Y1.418
X2.479 Y1.434
X2.428 Y1.452
X2.381 Y1.47
X2.332 Y1.491
X2.283 Y1.513
X2.234 Y1.538
X2.213 Y1.549
X2.185 Y1.564
X2.129 Y1.598
X2.087 Y1.625
X2.054 Y1.647
X2.038 Y1.659
X1.988 Y1.696
X1.941 Y1.734
X1.928 Y1.745
X1.892 Y1.777
X1.843 Y1.823
X1.823 Y1.843
X1.794 Y1.874
X1.777 Y1.892
X1.745 Y1.928
X1.734 Y1.941
X1.695 Y1.99
X1.658 Y2.039
X1.647 Y2.054
X1.625 Y2.087
X1.594 Y2.136
X1.564 Y2.185
X1.549 Y2.213
X1.538 Y2.234
X1.513 Y2.283
X1.491 Y2.332
X1.47 Y2.381
X1.451 Y2.43
X1.434 Y2.479
X1.418 Y2.528
X1.403 Y2.583
X1.393 Y2.625
X1.382 Y2.674
X1.372 Y2.723
X1.365 Y2.772
X1.359 Y2.821
X1.354 Y2.875
X1.349 Y2.968
Y3.017
Y3.628
X1.348 Y3.642 Z-1.002
X1.345 Y3.655 Z-1.005
X1.337 Y3.69 Z-1.013
X1.336 Y3.698 Z-1.014
X1.335 Y3.708 Z-1.015
Y3.714
Y8.983
Y9.032
X1.34 Y9.13
X1.345 Y9.179
X1.354 Y9.247
X1.358 Y9.277
X1.367 Y9.326
X1.378 Y9.375
X1.39 Y9.424
X1.404 Y9.472
X1.419 Y9.521
X1.436 Y9.57
X1.455 Y9.619
X1.475 Y9.668
X1.501 Y9.723
X1.522 Y9.766
X1.549 Y9.817
X1.577 Y9.864
X1.608 Y9.913
X1.641 Y9.962
X1.677 Y10.01
X1.696 Y10.035
X1.716 Y10.059
X1.745 Y10.094
X1.794 Y10.147
X1.803 Y10.157
X1.843 Y10.197
X1.892 Y10.242
X1.906 Y10.255
X1.941 Y10.284
X1.965 Y10.304
X1.99 Y10.323
X2.038 Y10.359
X2.087 Y10.392
X2.136 Y10.423
X2.185 Y10.452
X2.234 Y10.478
X2.283 Y10.502
X2.332 Y10.525
X2.388 Y10.548
X2.43 Y10.564
X2.479 Y10.581
X2.53 Y10.597
X2.576 Y10.61
X2.625 Y10.622
X2.674 Y10.633
X2.723 Y10.642
X2.772 Y10.649
X2.821 Y10.655
X2.87 Y10.66
X2.968 Y10.665
X3.017
X8.983
X9.032
X9.13 Y10.66
X9.179 Y10.655
X9.247 Y10.646
X9.277 Y10.642
X9.326 Y10.633
X9.375 Y10.622
X9.423 Y10.61
X9.472 Y10.596
X9.521 Y10.581
X9.57 Y10.564
X9.619 Y10.545
X9.668 Y10.525
X9.723 Y10.499
X9.766 Y10.478
X9.817 Y10.451
X9.864 Y10.423
X9.913 Y10.392
X9.961 Y10.359
X10.01 Y10.323
X10.035 Y10.304
X10.059 Y10.284
X10.094 Y10.255
X10.147 Y10.206
X10.157 Y10.197
X10.197 Y10.157
X10.242 Y10.108
X10.255 Y10.094
X10.284 Y10.059
X10.304 Y10.035
X10.323 Y10.01
X10.359 Y9.962
X10.392 Y9.913
X10.423 Y9.864
X10.452 Y9.815
X10.478 Y9.766
X10.502 Y9.717
X10.525 Y9.668
X10.548 Y9.612
X10.564 Y9.57
X10.581 Y9.521
X10.597 Y9.47
X10.61 Y9.424
X10.622 Y9.375
X10.633 Y9.326
X10.642 Y9.277
X10.649 Y9.228
X10.655 Y9.179
X10.66 Y9.13
X10.665 Y9.032
Y8.983
Y3.017
Y2.968
X10.66 Y2.87
X10.655 Y2.821
X10.646 Y2.753
X10.642 Y2.723
X10.633 Y2.674
X10.622 Y2.625
X10.61 Y2.577
X10.596 Y2.528
X10.581 Y2.479
X10.564 Y2.43
X10.545 Y2.381
X10.525 Y2.332
X10.499 Y2.277
X10.478 Y2.234
X10.451 Y2.183
X10.423 Y2.136
X10.392 Y2.087
X10.359 Y2.039
X10.323 Y1.99
X10.304 Y1.965
X10.284 Y1.941
X10.255 Y1.906
X10.242 Y1.892
X10.197 Y1.843
X10.157 Y1.803
X10.108 Y1.758
X10.094 Y1.745
X10.059 Y1.716
X10.035 Y1.696
X10.01 Y1.677
X9.961 Y1.641
X9.913 Y1.608
X9.864 Y1.577
X9.815 Y1.548
X9.766 Y1.522
X9.717 Y1.498
X9.668 Y1.475
X9.612 Y1.452
X9.57 Y1.436
X9.521 Y1.419
X9.47 Y1.403
X9.423 Y1.39
X9.375 Y1.378
X9.326 Y1.367
X9.277 Y1.358
X9.228 Y1.351
X9.179 Y1.345
X9.13 Y1.34
X9.032 Y1.335
X8.983
X3.017
X2.968
X2.87 Y1.34
X2.821 Y1.345
X2.753 Y1.354
X2.723 Y1.358
X2.674 Y1.367
X2.625 Y1.378
X2.576 Y1.39
X2.528 Y1.404
X2.479 Y1.419
X2.43 Y1.436
X2.381 Y1.455
X2.332 Y1.475
X2.277 Y1.501
X2.234 Y1.522
X2.183 Y1.549
X2.136 Y1.577
X2.087 Y1.608
X2.038 Y1.641
X1.99 Y1.677
X1.965 Y1.696
X1.941 Y1.716
X1.906 Y1.745
X1.853 Y1.794
X1.843 Y1.803
X1.803 Y1.843
X1.758 Y1.892
X1.745 Y1.906
X1.716 Y1.941
X1.696 Y1.965
X1.677 Y1.99
X1.641 Y2.039
X1.608 Y2.087
X1.577 Y2.136
X1.548 Y2.185
X1.522 Y2.234
X1.498 Y2.283
X1.475 Y2.332
X1.452 Y2.388
X1.436 Y2.43
X1.419 Y2.479
X1.403 Y2.53
X1.39 Y2.577
X1.378 Y2.625
X1.367 Y2.674
X1.358 Y2.723
X1.351 Y2.772
X1.345 Y2.821
X1.34 Y2.87
X1.335 Y2.968
Y3.017
Y3.714
X1.334 Y3.728 Z-1.016
X1.331 Y3.741 Z-1.019
X1.323 Y3.775 Z-1.027
X1.322 Y3.784 Z-1.028
X1.321 Y3.794 Z-1.029
X1.32 Y3.8 Z-1.03
Y8.983
X1.321 Y9.032
X1.326 Y9.13 Z-1.029
X1.33 Y9.179
X1.344 Y9.277 Z-1.03
X1.354 Y9.331 Z-1.029
X1.364 Y9.375
X1.375 Y9.424
X1.389 Y9.472
X1.404 Y9.521
X1.421 Y9.57
X1.439 Y9.619
X1.46 Y9.668
X1.482 Y9.717
X1.506 Y9.766
X1.532 Y9.815
X1.549 Y9.845
X1.56 Y9.864
X1.598 Y9.924
X1.624 Y9.962
X1.659 Y10.01
X1.697 Y10.059
X1.745 Y10.115
X1.794 Y10.168
X1.832 Y10.206
X1.892 Y10.261
X1.942 Y10.304
X1.99 Y10.341
X2.038 Y10.376
X2.087 Y10.409
X2.136 Y10.44
X2.155 Y10.451
X2.185 Y10.468
X2.245 Y10.499
X2.283 Y10.518
X2.332 Y10.54
X2.381 Y10.561
X2.43 Y10.579
X2.483 Y10.597
X2.528 Y10.611
X2.576 Y10.625
X2.625 Y10.636
X2.674 Y10.647
X2.723 Y10.656 Z-1.03
X2.821 Y10.67 Z-1.029
X2.87 Y10.674
X2.968 Y10.679 Z-1.03
X3.017 Y10.68
X8.983
X9.032 Y10.679
X9.13 Y10.674 Z-1.029
X9.179 Y10.67
X9.228 Y10.663
X9.277 Y10.656
X9.331 Y10.646
X9.375 Y10.636
X9.423 Y10.625
X9.472 Y10.611
X9.521 Y10.596
X9.57 Y10.579
X9.619 Y10.561
X9.668 Y10.54
X9.717 Y10.518
X9.766 Y10.494
X9.815 Y10.468
X9.845 Y10.451
X9.864 Y10.44
X9.924 Y10.402
X9.961 Y10.376
X10.01 Y10.341
X10.059 Y10.303
X10.115 Y10.255
X10.168 Y10.206
X10.206 Y10.168
X10.261 Y10.108
X10.304 Y10.058
X10.341 Y10.01
X10.376 Y9.962
X10.409 Y9.913
X10.44 Y9.864
X10.451 Y9.846
X10.468 Y9.815
X10.499 Y9.755
X10.518 Y9.717
X10.54 Y9.668
X10.561 Y9.619
X10.579 Y9.57
X10.597 Y9.517
X10.611 Y9.472
X10.625 Y9.424
X10.636 Y9.375
X10.647 Y9.326
X10.656 Y9.277
X10.663 Y9.228
X10.67 Y9.179
X10.674 Y9.13
X10.679 Y9.032 Z-1.03
X10.68 Y8.983
Y3.017
X10.679 Y2.968
X10.674 Y2.87 Z-1.029
X10.67 Y2.821
X10.663 Y2.772
X10.656 Y2.723
X10.646 Y2.669
X10.636 Y2.625
X10.625 Y2.577
X10.611 Y2.528
X10.596 Y2.479
X10.579 Y2.43
X10.561 Y2.381
X10.54 Y2.332
X10.518 Y2.283
X10.494 Y2.234
X10.468 Y2.185
X10.451 Y2.154
X10.44 Y2.136
X10.402 Y2.076
X10.376 Y2.039
X10.341 Y1.99
X10.303 Y1.941
X10.255 Y1.885
X10.206 Y1.832
X10.168 Y1.794
X10.108 Y1.739
X10.058 Y1.696
X10.01 Y1.659
X9.961 Y1.624
X9.913 Y1.591
X9.864 Y1.56
X9.846 Y1.549
X9.815 Y1.532
X9.755 Y1.501
X9.717 Y1.482
X9.668 Y1.46
X9.619 Y1.439
X9.57 Y1.421
X9.517 Y1.403
X9.472 Y1.389
X9.423 Y1.375
X9.375 Y1.364
X9.326 Y1.353
X9.277 Y1.344
X9.228 Y1.337
X9.179 Y1.33
X9.13 Y1.326
X9.032 Y1.321 Z-1.03
X8.983 Y1.32
X3.017
X2.968 Y1.321
X2.87 Y1.326 Z-1.029
X2.821 Y1.33
X2.772 Y1.337
X2.723 Y1.344
X2.669 Y1.354
X2.625 Y1.364
X2.576 Y1.375
X2.528 Y1.389
X2.479 Y1.404
X2.43 Y1.421
X2.381 Y1.439
X2.332 Y1.46
X2.283 Y1.482
X2.234 Y1.506
X2.185 Y1.532
X2.154 Y1.549
X2.136 Y1.56
X2.076 Y1.598
X2.038 Y1.624
X1.99 Y1.659
X1.941 Y1.697
X1.885 Y1.745
X1.832 Y1.794
X1.794 Y1.832
X1.739 Y1.892
X1.696 Y1.942
X1.659 Y1.99
X1.623 Y2.039
X1.591 Y2.087
X1.56 Y2.136
X1.549 Y2.155
X1.532 Y2.185
X1.501 Y2.245
X1.482 Y2.283
X1.46 Y2.332
X1.439 Y2.381
X1.421 Y2.43
X1.403 Y2.483
X1.389 Y2.528
X1.375 Y2.577
X1.364 Y2.625
X1.353 Y2.674
X1.344 Y2.723
X1.337 Y2.772
X1.33 Y2.821
X1.326 Y2.87
X1.321 Y2.968 Z-1.03
X1.32 Y3.017
Y3.8
X1.319 Y3.814 Z-1.031
X1.317 Y3.827 Z-1.033
X1.309 Y3.862 Z-1.041
X1.308 Y3.87 Z-1.042
X1.306 Y3.881 Z-1.044
Y3.886
Y8.983
X1.307 Y9.032
X1.312 Y9.13
X1.316 Y9.179
X1.329 Y9.277
X1.338 Y9.326
X1.354 Y9.395
X1.361 Y9.424
X1.374 Y9.472
X1.389 Y9.521
X1.403 Y9.562
X1.424 Y9.619
X1.452 Y9.685 Z-1.043
X1.466 Y9.717 Z-1.044
X1.49 Y9.766
X1.516 Y9.815 Z-1.043
X1.544 Y9.864 Z-1.044
X1.574 Y9.913 Z-1.043
X1.606 Y9.962
X1.647 Y10.018 Z-1.044
X1.679 Y10.059 Z-1.043
X1.696 Y10.08
X1.72 Y10.108
X1.765 Y10.157 Z-1.044
X1.794 Y10.188 Z-1.043
X1.812 Y10.206
X1.864 Y10.255 Z-1.044
X1.892 Y10.28 Z-1.043
X1.92 Y10.304
X1.941 Y10.321
X1.99 Y10.358 Z-1.044
X2.038 Y10.394 Z-1.043
X2.087 Y10.426
X2.136 Y10.456 Z-1.044
X2.185 Y10.484 Z-1.043
X2.234 Y10.51 Z-1.044
X2.283 Y10.534
X2.315 Y10.548 Z-1.043
X2.381 Y10.576 Z-1.044
X2.438 Y10.597
X2.479 Y10.611
X2.528 Y10.626
X2.576 Y10.639
X2.625 Y10.651
X2.674 Y10.662
X2.723 Y10.671
X2.821 Y10.684
X2.87 Y10.688
X2.968 Y10.693
X3.017 Y10.694
X8.983
X9.032 Y10.693
X9.13 Y10.688
X9.179 Y10.684
X9.277 Y10.671
X9.326 Y10.662
X9.395 Y10.646
X9.423 Y10.639
X9.472 Y10.626
X9.521 Y10.611
X9.57 Y10.594
X9.619 Y10.576
X9.685 Y10.548 Z-1.043
X9.717 Y10.534
X9.766 Y10.51 Z-1.044
X9.815 Y10.484 Z-1.043
X9.864 Y10.456 Z-1.044
X9.913 Y10.426 Z-1.043
X9.961 Y10.394
X10.018 Y10.353 Z-1.044
X10.059 Y10.321 Z-1.043
X10.08 Y10.304
X10.108 Y10.28
X10.157 Y10.236 Z-1.044
X10.189 Y10.206 Z-1.043
X10.206 Y10.189
X10.255 Y10.136 Z-1.044
X10.28 Y10.108 Z-1.043
X10.304 Y10.08
X10.321 Y10.059
X10.358 Y10.01 Z-1.044
X10.394 Y9.962 Z-1.043
X10.426 Y9.913
X10.456 Y9.864 Z-1.044
X10.484 Y9.815 Z-1.043
X10.51 Y9.766 Z-1.044
X10.534 Y9.717 Z-1.043
X10.548 Y9.685
X10.576 Y9.619 Z-1.044
X10.597 Y9.562
X10.611 Y9.521
X10.626 Y9.472
X10.639 Y9.424
X10.651 Y9.375
X10.662 Y9.326
X10.671 Y9.277
X10.684 Y9.179
X10.688 Y9.13
X10.693 Y9.032
X10.694 Y8.983
Y3.017
X10.693 Y2.968
X10.688 Y2.87
X10.684 Y2.821
X10.671 Y2.723
X10.662 Y2.674
X10.646 Y2.605 Z-1.043
X10.639 Y2.577 Z-1.044
X10.626 Y2.528
X10.611 Y2.479
X10.594 Y2.43
X10.576 Y2.381
X10.548 Y2.315 Z-1.043
X10.534 Y2.283
X10.51 Y2.234 Z-1.044
X10.484 Y2.185 Z-1.043
X10.456 Y2.136 Z-1.044
X10.426 Y2.087
X10.394 Y2.039 Z-1.043
X10.353 Y1.982 Z-1.044
X10.321 Y1.941 Z-1.043
X10.304 Y1.92
X10.28 Y1.892
X10.236 Y1.843 Z-1.044
X10.206 Y1.811 Z-1.043
X10.189 Y1.794
X10.136 Y1.745 Z-1.044
X10.108 Y1.72 Z-1.043
X10.08 Y1.696
X10.059 Y1.679
X10.01 Y1.642 Z-1.044
X9.961 Y1.606 Z-1.043
X9.913 Y1.574 Z-1.044
X9.864 Y1.544
X9.815 Y1.516 Z-1.043
X9.766 Y1.49 Z-1.044
X9.717 Y1.466 Z-1.043
X9.685 Y1.452
X9.619 Y1.424 Z-1.044
X9.562 Y1.403
X9.521 Y1.389
X9.472 Y1.374
X9.423 Y1.361
X9.375 Y1.349
X9.326 Y1.338
X9.277 Y1.329
X9.179 Y1.316
X9.13 Y1.312
X9.032 Y1.307
X8.983 Y1.306
X3.017
X2.968 Y1.307
X2.87 Y1.312
X2.821 Y1.316
X2.723 Y1.329
X2.674 Y1.338
X2.604 Y1.354
X2.576 Y1.361
X2.528 Y1.374
X2.479 Y1.389
X2.43 Y1.406
X2.381 Y1.424
X2.315 Y1.452 Z-1.043
X2.283 Y1.466
X2.234 Y1.49 Z-1.044
X2.185 Y1.516 Z-1.043
X2.136 Y1.544 Z-1.044
X2.087 Y1.574 Z-1.043
X2.038 Y1.606
X1.982 Y1.647 Z-1.044
X1.941 Y1.679 Z-1.043
X1.92 Y1.696
X1.892 Y1.72
X1.843 Y1.765 Z-1.044
X1.811 Y1.794 Z-1.043
X1.794 Y1.811
X1.764 Y1.843 Z-1.044
X1.72 Y1.892 Z-1.043
X1.696 Y1.92
X1.679 Y1.941
X1.642 Y1.99 Z-1.044
X1.606 Y2.039 Z-1.043
X1.574 Y2.087
X1.544 Y2.136 Z-1.044
X1.516 Y2.185 Z-1.043
X1.49 Y2.234 Z-1.044
X1.466 Y2.283 Z-1.043
X1.452 Y2.315
X1.424 Y2.381 Z-1.044
X1.403 Y2.438
X1.389 Y2.479
X1.374 Y2.528
X1.361 Y2.577
X1.349 Y2.625
X1.338 Y2.674
X1.329 Y2.723
X1.316 Y2.821
X1.312 Y2.87
X1.307 Y2.968
X1.306 Y3.017
Y3.886
X1.305 Y3.9 Z-1.045
X1.303 Y3.914 Z-1.047
X1.295 Y3.948 Z-1.055
X1.294 Y3.956 Z-1.056
X1.292 Y3.967 Z-1.058
Y3.972
Y8.983
X1.293 Y9.032
X1.297 Y9.13
X1.302 Y9.179
X1.315 Y9.277
X1.324 Y9.326
X1.335 Y9.375
X1.346 Y9.424
X1.354 Y9.454
X1.359 Y9.472
X1.375 Y9.521
X1.391 Y9.57
X1.403 Y9.603
X1.409 Y9.619
X1.429 Y9.668
X1.452 Y9.72
X1.474 Y9.766
X1.501 Y9.816
X1.527 Y9.864
X1.558 Y9.913
X1.589 Y9.962 Z-1.057
X1.598 Y9.975
X1.624 Y10.01 Z-1.058
X1.661 Y10.059
X1.696 Y10.103
X1.745 Y10.157
X1.794 Y10.209 Z-1.057
X1.843 Y10.255 Z-1.058
X1.897 Y10.304
X1.941 Y10.339
X1.99 Y10.376
X2.025 Y10.402 Z-1.057
X2.038 Y10.411
X2.1 Y10.451 Z-1.058
X2.136 Y10.473
X2.185 Y10.5
X2.234 Y10.526
X2.283 Y10.55
X2.332 Y10.571
X2.381 Y10.591
X2.397 Y10.597
X2.43 Y10.609
X2.479 Y10.625
X2.528 Y10.641
X2.546 Y10.646
X2.576 Y10.654
X2.625 Y10.665
X2.674 Y10.676
X2.723 Y10.685
X2.821 Y10.698
X2.87 Y10.703
X2.968 Y10.707
X3.017 Y10.708
X8.983
X9.032 Y10.707
X9.13 Y10.703
X9.179 Y10.698
X9.277 Y10.685
X9.326 Y10.676
X9.375 Y10.665
X9.423 Y10.654
X9.454 Y10.646
X9.472 Y10.641
X9.521 Y10.625
X9.57 Y10.609
X9.603 Y10.597
X9.619 Y10.591
X9.668 Y10.571
X9.72 Y10.548
X9.766 Y10.526
X9.816 Y10.499
X9.864 Y10.473
X9.913 Y10.443
X9.961 Y10.411 Z-1.057
X9.975 Y10.402
X10.01 Y10.376 Z-1.058
X10.059 Y10.339
X10.103 Y10.304
X10.157 Y10.255
X10.209 Y10.206
X10.255 Y10.157
X10.304 Y10.103
X10.339 Y10.059
X10.376 Y10.01
X10.402 Y9.975 Z-1.057
X10.411 Y9.962
X10.451 Y9.9 Z-1.058
X10.473 Y9.864
X10.5 Y9.815
X10.526 Y9.766
X10.55 Y9.717
X10.571 Y9.668
X10.591 Y9.619
X10.597 Y9.604
X10.609 Y9.57
X10.625 Y9.521
X10.641 Y9.472
X10.646 Y9.454
X10.654 Y9.424
X10.665 Y9.375
X10.676 Y9.326
X10.685 Y9.277
X10.698 Y9.179
X10.703 Y9.13
X10.707 Y9.032
X10.708 Y8.983
Y3.017
X10.707 Y2.968
X10.703 Y2.87
X10.698 Y2.821
X10.685 Y2.723
X10.676 Y2.674
X10.665 Y2.625
X10.654 Y2.577
X10.646 Y2.546
X10.641 Y2.528
X10.625 Y2.479
X10.609 Y2.43
X10.597 Y2.396
X10.591 Y2.381
X10.571 Y2.332
X10.548 Y2.28
X10.526 Y2.234
X10.499 Y2.184
X10.473 Y2.136
X10.443 Y2.087
X10.411 Y2.039 Z-1.057
X10.402 Y2.025
X10.376 Y1.99 Z-1.058
X10.339 Y1.941
X10.304 Y1.897
X10.255 Y1.843
X10.206 Y1.791
X10.157 Y1.745
X10.103 Y1.696
X10.059 Y1.661
X10.01 Y1.624
X9.975 Y1.598 Z-1.057
X9.961 Y1.589
X9.9 Y1.549 Z-1.058
X9.864 Y1.527
X9.815 Y1.5
X9.766 Y1.474
X9.717 Y1.45
X9.668 Y1.429
X9.619 Y1.409
X9.604 Y1.403
X9.57 Y1.391
X9.521 Y1.375
X9.472 Y1.359
X9.454 Y1.354
X9.423 Y1.346
X9.375 Y1.335
X9.326 Y1.324
X9.277 Y1.315
X9.179 Y1.302
X9.13 Y1.297
X9.032 Y1.293
X8.983 Y1.292
X3.017
X2.968 Y1.293
X2.87 Y1.297
X2.821 Y1.302
X2.723 Y1.315
X2.674 Y1.324
X2.625 Y1.335
X2.576 Y1.346
X2.546 Y1.354
X2.528 Y1.359
X2.479 Y1.375
X2.43 Y1.391
X2.396 Y1.403
X2.381 Y1.409
X2.332 Y1.429
X2.28 Y1.452
X2.234 Y1.474
X2.184 Y1.501
X2.136 Y1.527
X2.087 Y1.558
X2.038 Y1.589 Z-1.057
X2.025 Y1.598
X1.99 Y1.624 Z-1.058
X1.941 Y1.661
X1.897 Y1.696
X1.843 Y1.745
X1.791 Y1.794
X1.745 Y1.843
X1.696 Y1.897
X1.661 Y1.941
X1.624 Y1.99
X1.598 Y2.025 Z-1.057
X1.589 Y2.039
X1.549 Y2.1 Z-1.058
X1.527 Y2.136
X1.5 Y2.185
X1.474 Y2.234
X1.45 Y2.283
X1.429 Y2.332
X1.409 Y2.381
X1.403 Y2.397
X1.391 Y2.43
X1.375 Y2.479
X1.359 Y2.528
X1.354 Y2.546
X1.346 Y2.577
X1.335 Y2.625
X1.324 Y2.674
X1.315 Y2.723
X1.302 Y2.821
X1.297 Y2.87
X1.293 Y2.968
X1.292 Y3.017
Y3.972
X1.291 Y3.986 Z-1.059
X1.289 Y4. Z-1.061
X1.281 Y4.034 Z-1.069
X1.279 Y4.042 Z-1.071
X1.278 Y4.053 Z-1.072
Y4.058
Y8.983
X1.279 Y9.032
X1.283 Y9.13
X1.288 Y9.179
X1.301 Y9.277
X1.305 Y9.302
X1.309 Y9.326
X1.331 Y9.424
X1.344 Y9.472
X1.375 Y9.57
X1.394 Y9.619
X1.414 Y9.668
X1.435 Y9.717
X1.452 Y9.752
X1.484 Y9.815
X1.501 Y9.846
X1.511 Y9.864
X1.549 Y9.926
X1.572 Y9.962
X1.598 Y10.
X1.647 Y10.064
X1.682 Y10.108
X1.696 Y10.124
X1.745 Y10.178
X1.771 Y10.206
X1.794 Y10.229
X1.843 Y10.274
X1.876 Y10.304
X1.892 Y10.318
X1.941 Y10.357
X2. Y10.402
X2.038 Y10.428
X2.087 Y10.459
X2.136 Y10.489
X2.154 Y10.499
X2.234 Y10.542
X2.248 Y10.548
X2.283 Y10.565
X2.332 Y10.586
X2.381 Y10.606
X2.43 Y10.625
X2.528 Y10.656
X2.576 Y10.669
X2.674 Y10.691
X2.698 Y10.695
X2.723 Y10.699
X2.821 Y10.712
X2.87 Y10.717
X2.968 Y10.721
X3.017 Y10.722
X8.983
X9.032 Y10.721
X9.13 Y10.717
X9.179 Y10.712
X9.277 Y10.699
X9.301 Y10.695
X9.326 Y10.691
X9.423 Y10.669
X9.472 Y10.656
X9.57 Y10.625
X9.619 Y10.606
X9.668 Y10.586
X9.717 Y10.565
X9.752 Y10.548
X9.815 Y10.516
X9.846 Y10.499
X9.864 Y10.489
X9.926 Y10.451
X9.961 Y10.428
X10. Y10.402
X10.064 Y10.353
X10.108 Y10.318
X10.124 Y10.304
X10.178 Y10.255
X10.206 Y10.229
X10.229 Y10.206
X10.274 Y10.157
X10.304 Y10.124
X10.318 Y10.108
X10.356 Y10.059
X10.402 Y10.
X10.428 Y9.962
X10.459 Y9.913
X10.489 Y9.864
X10.499 Y9.846
X10.542 Y9.766
X10.548 Y9.753
X10.565 Y9.717
X10.597 Y9.641
X10.606 Y9.619
X10.625 Y9.57
X10.656 Y9.472
X10.669 Y9.424
X10.691 Y9.326
X10.695 Y9.302
X10.699 Y9.277
X10.712 Y9.179
X10.717 Y9.13
X10.721 Y9.032
X10.722 Y8.983
Y3.017
X10.721 Y2.968
X10.717 Y2.87
X10.712 Y2.821
X10.699 Y2.723
X10.695 Y2.698
X10.691 Y2.674
X10.669 Y2.577
X10.656 Y2.528
X10.625 Y2.43
X10.606 Y2.381
X10.586 Y2.332
X10.565 Y2.283
X10.548 Y2.247
X10.516 Y2.185
X10.499 Y2.154
X10.489 Y2.136
X10.451 Y2.074
X10.428 Y2.039
X10.402 Y2.
X10.353 Y1.936
X10.318 Y1.892
X10.304 Y1.876
X10.255 Y1.822
X10.229 Y1.794
X10.206 Y1.771
X10.157 Y1.726
X10.124 Y1.696
X10.108 Y1.682
X10.059 Y1.644
X10. Y1.598
X9.961 Y1.572
X9.913 Y1.541
X9.864 Y1.511
X9.846 Y1.501
X9.766 Y1.458
X9.753 Y1.452
X9.717 Y1.435
X9.641 Y1.403
X9.619 Y1.394
X9.57 Y1.375
X9.472 Y1.344
X9.423 Y1.331
X9.326 Y1.309
X9.302 Y1.305
X9.277 Y1.301
X9.179 Y1.288
X9.13 Y1.283
X9.032 Y1.279
X8.983 Y1.278
X3.017
X2.968 Y1.279
X2.87 Y1.283
X2.821 Y1.288
X2.723 Y1.301
X2.698 Y1.305
X2.674 Y1.309
X2.576 Y1.331
X2.528 Y1.344
X2.43 Y1.375
X2.381 Y1.394
X2.332 Y1.414
X2.283 Y1.435
X2.247 Y1.452
X2.185 Y1.484
X2.154 Y1.501
X2.136 Y1.511
X2.074 Y1.549
X2.038 Y1.572
X2. Y1.598
X1.936 Y1.647
X1.892 Y1.682
X1.876 Y1.696
X1.822 Y1.745
X1.794 Y1.771
X1.771 Y1.794
X1.726 Y1.843
X1.696 Y1.876
X1.682 Y1.892
X1.643 Y1.941
X1.598 Y2.
X1.572 Y2.039
X1.541 Y2.087
X1.511 Y2.136
X1.501 Y2.154
X1.458 Y2.234
X1.452 Y2.248
X1.435 Y2.283
X1.403 Y2.359
X1.394 Y2.381
X1.375 Y2.43
X1.344 Y2.528
X1.331 Y2.577
X1.309 Y2.674
X1.305 Y2.699
X1.301 Y2.723
X1.288 Y2.821
X1.283 Y2.87
X1.279 Y2.968
X1.278 Y3.017
Y4.058
X1.277 Y4.072 Z-1.073
X1.275 Y4.085 Z-1.075
X1.267 Y4.12 Z-1.083
X1.265 Y4.128 Z-1.085
X1.264 Y4.139 Z-1.086
Y4.144
Y8.983
X1.265 Y9.032
X1.269 Y9.13
X1.273 Y9.179
X1.286 Y9.277
X1.295 Y9.326
X1.317 Y9.424
X1.33 Y9.472
X1.361 Y9.57
X1.378 Y9.619
X1.419 Y9.717
X1.443 Y9.766
X1.468 Y9.815
X1.494 Y9.864
X1.501 Y9.875
X1.524 Y9.913
X1.555 Y9.962
X1.589 Y10.01
X1.647 Y10.087
X1.664 Y10.108
X1.696 Y10.145
X1.752 Y10.206
X1.794 Y10.248
X1.855 Y10.304
X1.892 Y10.336
X1.913 Y10.353
X1.99 Y10.411
X2.038 Y10.445
X2.087 Y10.476
X2.125 Y10.499
X2.136 Y10.506
X2.185 Y10.532
X2.234 Y10.557
X2.283 Y10.581
X2.381 Y10.622
X2.43 Y10.639
X2.528 Y10.67
X2.576 Y10.683
X2.674 Y10.705
X2.723 Y10.714
X2.821 Y10.727
X2.87 Y10.731
X2.968 Y10.735
X3.017 Y10.736
X8.983
X9.032 Y10.735
X9.13 Y10.731
X9.179 Y10.727
X9.277 Y10.714
X9.326 Y10.705
X9.423 Y10.683
X9.472 Y10.67
X9.57 Y10.639
X9.619 Y10.622
X9.717 Y10.581
X9.766 Y10.558
X9.815 Y10.532
X9.864 Y10.506
X9.875 Y10.499
X9.913 Y10.476
X9.961 Y10.445
X10.01 Y10.411
X10.087 Y10.353
X10.108 Y10.336
X10.145 Y10.304
X10.206 Y10.248
X10.248 Y10.206
X10.304 Y10.145
X10.336 Y10.108
X10.353 Y10.087
X10.411 Y10.01
X10.445 Y9.962
X10.476 Y9.913
X10.499 Y9.875
X10.506 Y9.864
X10.532 Y9.815
X10.557 Y9.766
X10.581 Y9.717
X10.622 Y9.619
X10.639 Y9.57
X10.67 Y9.472
X10.683 Y9.424
X10.705 Y9.326
X10.714 Y9.277
X10.727 Y9.179
X10.731 Y9.13
X10.735 Y9.032
X10.736 Y8.983
Y3.017
X10.735 Y2.968
X10.731 Y2.87
X10.727 Y2.821
X10.714 Y2.723
X10.705 Y2.674
X10.683 Y2.577
X10.67 Y2.528
X10.639 Y2.43
X10.622 Y2.381
X10.581 Y2.283
X10.558 Y2.234
X10.532 Y2.185
X10.506 Y2.136
X10.499 Y2.125
X10.476 Y2.087
X10.445 Y2.039
X10.411 Y1.99
X10.353 Y1.913
X10.336 Y1.892
X10.304 Y1.855
X10.248 Y1.794
X10.206 Y1.752
X10.145 Y1.696
X10.108 Y1.664
X10.087 Y1.647
X10.01 Y1.589
X9.961 Y1.555
X9.913 Y1.524
X9.875 Y1.501
X9.864 Y1.494
X9.815 Y1.468
X9.766 Y1.442
X9.717 Y1.419
X9.619 Y1.378
X9.57 Y1.361
X9.472 Y1.33
X9.423 Y1.317
X9.326 Y1.295
X9.277 Y1.286
X9.179 Y1.273
X9.13 Y1.269
X9.032 Y1.265
X8.983 Y1.264
X3.017
X2.968 Y1.265
X2.87 Y1.269
X2.821 Y1.273
X2.723 Y1.286
X2.674 Y1.295
X2.576 Y1.317
X2.528 Y1.33
X2.43 Y1.361
X2.381 Y1.378
X2.283 Y1.419
X2.234 Y1.443
X2.185 Y1.468
X2.136 Y1.494
X2.125 Y1.501
X2.087 Y1.524
X2.038 Y1.555
X1.99 Y1.589
X1.913 Y1.647
X1.892 Y1.664
X1.855 Y1.696
X1.794 Y1.752
X1.752 Y1.794
X1.696 Y1.855
X1.664 Y1.892
X1.647 Y1.913
X1.589 Y1.99
X1.555 Y2.039
X1.524 Y2.087
X1.501 Y2.125
X1.494 Y2.136
X1.468 Y2.185
X1.442 Y2.234
X1.419 Y2.283
X1.378 Y2.381
X1.361 Y2.43
X1.33 Y2.528
X1.317 Y2.577
X1.295 Y2.674
X1.286 Y2.723
X1.273 Y2.821
X1.269 Y2.87
X1.265 Y2.968
X1.264 Y3.017
Y4.144
X1.263 Y4.158 Z-1.087
X1.261 Y4.171 Z-1.089
X1.253 Y4.206 Z-1.097
X1.25 Y4.219 Z-1.1
Y4.23
Y8.983
X1.251 Y9.032
X1.255 Y9.13
X1.256 Y9.144
X1.259 Y9.179
X1.272 Y9.277
X1.281 Y9.326
X1.305 Y9.434
X1.315 Y9.472
X1.346 Y9.57
X1.354 Y9.594
X1.363 Y9.619
X1.404 Y9.717
X1.427 Y9.766
X1.478 Y9.864
X1.501 Y9.902
X1.549 Y9.978
X1.571 Y10.01
X1.608 Y10.059
X1.647 Y10.11
X1.688 Y10.157
X1.745 Y10.219
X1.781 Y10.255
X1.843 Y10.312
X1.892 Y10.354
X1.954 Y10.402
X1.99 Y10.429
X2.022 Y10.451
X2.098 Y10.499
X2.136 Y10.522
X2.234 Y10.573
X2.286 Y10.597
X2.381 Y10.637
X2.406 Y10.646
X2.43 Y10.654
X2.528 Y10.685
X2.566 Y10.695
X2.674 Y10.719
X2.723 Y10.728
X2.821 Y10.741
X2.856 Y10.744
X2.87 Y10.745
X2.968 Y10.749
X3.017 Y10.75
X8.983
X9.032 Y10.749
X9.13 Y10.745
X9.144 Y10.744
X9.179 Y10.741
X9.277 Y10.728
X9.326 Y10.719
X9.434 Y10.695
X9.472 Y10.685
X9.57 Y10.654
X9.594 Y10.646
X9.619 Y10.637
X9.717 Y10.596
X9.766 Y10.573
X9.864 Y10.522
X9.902 Y10.499
X9.978 Y10.451
X10.01 Y10.429
X10.059 Y10.392
X10.11 Y10.353
X10.157 Y10.312
X10.219 Y10.255
X10.255 Y10.219
X10.312 Y10.157
X10.354 Y10.108
X10.402 Y10.047
X10.429 Y10.01
X10.451 Y9.978
X10.499 Y9.902
X10.522 Y9.864
X10.573 Y9.766
X10.597 Y9.714
X10.637 Y9.619
X10.646 Y9.594
X10.654 Y9.57
X10.685 Y9.472
X10.695 Y9.434
X10.719 Y9.326
X10.728 Y9.277
X10.741 Y9.179
X10.744 Y9.145
X10.745 Y9.13
X10.749 Y9.032
X10.75 Y8.983
Y3.017
X10.749 Y2.968
X10.745 Y2.87
X10.744 Y2.855
X10.741 Y2.821
X10.728 Y2.723
X10.719 Y2.674
X10.695 Y2.566
X10.685 Y2.528
X10.654 Y2.43
X10.646 Y2.406
X10.637 Y2.381
X10.596 Y2.283
X10.573 Y2.234
X10.522 Y2.136
X10.499 Y2.098
X10.451 Y2.022
X10.429 Y1.99
X10.392 Y1.941
X10.353 Y1.89
X10.312 Y1.843
X10.255 Y1.781
X10.219 Y1.745
X10.157 Y1.688
X10.108 Y1.646
X10.047 Y1.598
X10.01 Y1.571
X9.978 Y1.549
X9.902 Y1.501
X9.864 Y1.478
X9.766 Y1.427
X9.714 Y1.403
X9.619 Y1.363
X9.594 Y1.354
X9.57 Y1.346
X9.472 Y1.315
X9.434 Y1.305
X9.326 Y1.281
X9.277 Y1.272
X9.179 Y1.259
X9.145 Y1.256
X9.13 Y1.255
X9.032 Y1.251
X8.983 Y1.25
X3.017
X2.968 Y1.251
X2.87 Y1.255
X2.855 Y1.256
X2.821 Y1.259
X2.723 Y1.272
X2.674 Y1.281
X2.566 Y1.305
X2.528 Y1.315
X2.43 Y1.346
X2.406 Y1.354
X2.381 Y1.363
X2.283 Y1.404
X2.234 Y1.427
X2.136 Y1.478
X2.098 Y1.501
X2.022 Y1.549
X1.99 Y1.571
X1.941 Y1.608
X1.89 Y1.647
X1.843 Y1.688
X1.781 Y1.745
X1.745 Y1.781
X1.688 Y1.843
X1.646 Y1.892
X1.598 Y1.954
X1.571 Y1.99
X1.549 Y2.022
X1.501 Y2.098
X1.478 Y2.136
X1.427 Y2.234
X1.403 Y2.286
X1.363 Y2.381
X1.354 Y2.406
X1.346 Y2.43
X1.315 Y2.528
X1.305 Y2.566
X1.281 Y2.674
X1.272 Y2.723
X1.259 Y2.821
X1.256 Y2.856
X1.255 Y2.87
X1.251 Y2.968
X1.25 Y3.017
Y4.23
G0 Z15.
M5
G53 Z0.
M30
