(1001)
(T4  D=1.5 CR=0. - ZMIN=-0.9 - flat end mill)
G90
G0 G53 Z0.

(2D Adaptive (embossing))
T4 M6 (flat end mill D=1.5 1.5 mm Fishtail Upcut Endmill - Acrylic Max Pass Depth 0.8 mm)
S16000 M3
G64
G54
G43 H4
G0 X1.852 Y-0.407
Z15.
Z5.
Z0.2
G1 Z-0.3 F600
X1.854 Y-0.4 Z-0.387
X1.86 Y-0.378 Z-0.471
X1.869 Y-0.342 Z-0.55
X1.881 Y-0.294 Z-0.621
X1.897 Y-0.234 Z-0.683
X1.914 Y-0.165 Z-0.733
X1.934 Y-0.089 Z-0.77
X1.955 Y-0.007 Z-0.792
X1.976 Y0.077 Z-0.8
G3 X2.2 Y1.632 I-7.063 J1.809
G1 Y1.775
X2.213 Y1.924
X2.169 Y2.359
X2.099 Y2.791
X2.07 Y3.228
X2.058 Y3.665
X2.053 Y4.102
X2.051 Y4.54
X2.05 Y6.29
Y8.477
X2.082 Y8.913
X2.154 Y9.12
X2.256 Y9.313
X2.401 Y9.476
X2.576 Y9.608
X2.968 Y9.802
X3.397 Y9.889
X3.832 Y9.925
X4.27 Y9.94
X4.441 Y9.942
X4.517 Y9.952
X4.589 Y9.979
X4.652 Y10.022
X4.759 Y10.086
X4.858 Y10.128
X5.057 Y10.209
X5.094 Y10.22
X5.156 Y10.235
X5.255 Y10.243
X5.454 Y10.249
X5.553 Y10.25
X6.447
X6.546 Y10.249
X6.745 Y10.243
X6.844 Y10.235
X6.906 Y10.22
X6.943 Y10.209
X7.043 Y10.169
X7.184 Y10.119
X7.413 Y10.064
X7.773 Y10.006
X8.209 Y9.973
X8.646 Y9.959
X9.079 Y9.897
X9.274 Y9.797
X9.442 Y9.657
X9.583 Y9.49
X9.791 Y9.105
X9.883 Y8.677
X9.923 Y8.242
X9.939 Y7.805
X9.945 Y7.367
X9.948 Y6.93
X9.95 Y6.055
Y3.43
X9.904 Y2.995
X9.817 Y2.795
X9.693 Y2.614
X9.535 Y2.463
X9.164 Y2.231
X8.74 Y2.126
X8.304 Y2.081
X7.867 Y2.063
X7.556 Y2.057
X7.481 Y2.047
X7.411 Y2.021
X7.348 Y1.978
X7.241 Y1.914
X7.142 Y1.872
X6.943 Y1.791
X6.906 Y1.78
X6.844 Y1.765
X6.745 Y1.757
X6.546 Y1.751
X6.447 Y1.75
X5.553
X5.454 Y1.751
X5.255 Y1.757
X5.156 Y1.765
X5.094 Y1.78
X5.057 Y1.791
X4.957 Y1.831
X4.816 Y1.881
X4.587 Y1.936
X4.227 Y1.994
X3.791 Y2.027
X3.573 Y2.034
X3.468 Y2.068
X3.277 Y2.173
X3.121 Y2.327
X2.877 Y2.69
X2.754 Y3.11
X2.697 Y3.543
X2.671 Y3.98
X2.659 Y4.417
X2.654 Y4.855
X2.652 Y5.292
X2.65 Y6.604
Y7.917
X2.659 Y8.354
X2.73 Y8.561
X2.849 Y8.744
X3.007 Y8.895
X3.377 Y9.129
X3.798 Y9.248
X4.035 Y9.281
X4.153 Y9.319
X4.25 Y9.396
X4.314 Y9.503
X4.323 Y9.525
X4.377 Y9.654
G3 X4.412 Y9.911 I-0.461 J0.194
G2 X4.745 Y10.446 I0.496 J0.063
G1 X5.867 Y10.834
G2 X6.43 Y10.661 I0.163 J-0.473
G3 X7.043 Y10.169 I1.266 J0.949
G1 X7.159 Y10.121
X7.241 Y10.086
X7.348 Y10.022
X7.44 Y9.943
X7.461 Y9.922
X7.485 Y9.892
X7.582 Y9.778
X7.704 Y9.691
X7.838 Y9.622
X8.012 Y9.554
X8.431 Y9.427
X8.626 Y9.327
X8.795 Y9.189
X9.072 Y8.851
X9.219 Y8.438
X9.29 Y8.007
X9.323 Y7.571
X9.338 Y7.133
X9.345 Y6.696
X9.348 Y6.259
X9.35 Y5.384
Y4.071
X9.342 Y3.634
X9.27 Y3.427
X9.149 Y3.245
X8.989 Y3.097
X8.618 Y2.864
X8.197 Y2.748
X7.966 Y2.717
X7.847 Y2.679
X7.749 Y2.601
X7.685 Y2.495
X7.677 Y2.475
X7.623 Y2.346
G3 X7.588 Y2.089 I0.461 J-0.194
G2 X7.255 Y1.554 I-0.496 J-0.063
G1 X6.133 Y1.166
G2 X5.57 Y1.339 I-0.163 J0.473
G3 X4.957 Y1.831 I-1.266 J-0.949
G1 X4.841 Y1.879
X4.759 Y1.914
X4.652 Y1.978
X4.56 Y2.057
X4.539 Y2.078
X4.515 Y2.108
X4.418 Y2.222
X4.296 Y2.309
X3.911 Y2.516
X3.613 Y2.837
X3.435 Y3.237
X3.34 Y3.664
X3.292 Y4.099
X3.27 Y4.535
X3.259 Y4.973
X3.254 Y5.41
X3.252 Y5.848
X3.25 Y7.16
Y7.597
X3.276 Y7.815
X3.358 Y8.017
X3.492 Y8.19
X3.83 Y8.467
X4.065 Y8.593
X4.163 Y8.671
X4.228 Y8.779
X4.25 Y8.902
G3 X3.733 Y9.384 I-0.5 J-0.017
G1 X3.646 Y9.381 Z-0.792
X3.562 Y9.378 Z-0.77
X3.483 Y9.375 Z-0.733
X3.412 Y9.373 Z-0.683
X3.35 Y9.371 Z-0.621
X3.3 Y9.369 Z-0.55
X3.263 Y9.368 Z-0.471
X3.241 Y9.367 Z-0.387
X3.233 Z-0.3
G0 Z5.
X4.863 Y0.88
Z0.2
G1 Z-0.3 F600
X4.862 Y0.888 Z-0.387
X4.86 Y0.91 Z-0.471
X4.855 Y0.947 Z-0.55
X4.849 Y0.996 Z-0.621
X4.842 Y1.058 Z-0.683
X4.833 Y1.129 Z-0.733
X4.823 Y1.207 Z-0.77
X4.813 Y1.29 Z-0.792
X4.802 Y1.377 Z-0.8
G3 X4.515 Y2.108 I-1.571 J-0.194
G1 X4.461 Y2.178
X4.431 Y2.227
X4.406 Y2.276
X4.323 Y2.475
X4.285 Y2.574
X4.272 Y2.622
X4.159 Y3.045
X4.027 Y3.462
X3.946 Y3.891
X3.9 Y4.326
X3.875 Y4.763
X3.862 Y5.2
X3.856 Y5.638
X3.853 Y6.075
X3.851 Y6.95
X3.864 Y7.168
X3.93 Y7.377
X4.15 Y7.755
X4.161 Y7.768
X4.21 Y7.838
X4.24 Y7.917
X4.25 Y8.001
G3 X3.733 Y8.483 I-0.5 J-0.017
G1 X3.646 Y8.48 Z-0.792
X3.562 Y8.477 Z-0.77
X3.483 Y8.475 Z-0.733
X3.412 Y8.472 Z-0.683
X3.35 Y8.47 Z-0.621
X3.3 Y8.468 Z-0.55
X3.263 Y8.467 Z-0.471
X3.241 Y8.466 Z-0.387
X3.233 Z-0.3
G0 Z5.
X4.049 Y1.366
Z0.2
G1 Z-0.3 F600
X4.051 Y1.373 Z-0.387
X4.058 Y1.395 Z-0.471
X4.07 Y1.429 Z-0.55
X4.087 Y1.477 Z-0.621
X4.106 Y1.535 Z-0.683
X4.13 Y1.603 Z-0.733
X4.155 Y1.677 Z-0.77
X4.182 Y1.757 Z-0.792
X4.211 Y1.839 Z-0.8
G3 X4.272 Y2.622 I-1.497 J0.512
G1 X4.262 Y2.674
X4.253 Y2.773
X4.25 Y2.872
Y9.128
X4.253 Y9.227
X4.262 Y9.33
X4.272 Y9.378
X4.285 Y9.426
X4.314 Y9.503
G3 X4.341 Y9.76 I-0.467 J0.178
G2 X4.654 Y10.307 I0.494 J0.08
G1 X6.521 Y11.028
G2 X7.168 Y10.742 I0.18 J-0.466
X7.198 Y10.623 I-0.466 J-0.18
G3 X7.485 Y9.892 I1.571 J0.194
G1 X7.539 Y9.822
X7.569 Y9.773
X7.594 Y9.724
X7.66 Y9.566
X7.725 Y9.431
X7.816 Y9.312
X8.124 Y9.002
X8.395 Y8.658
X8.566 Y8.255
X8.658 Y7.828
X8.706 Y7.393
X8.729 Y6.956
X8.74 Y6.519
X8.745 Y6.082
X8.748 Y5.644
X8.75 Y4.769
X8.749 Y4.332
X8.704 Y4.118
X8.603 Y3.924
X8.31 Y3.599
X7.924 Y3.392
X7.916 Y3.387
X7.827 Y3.309
X7.77 Y3.206
X7.75 Y3.089
G3 X8.267 Y2.607 I0.5 J0.017
G1 X8.354 Y2.61 Z-0.792
X8.438 Y2.613 Z-0.77
X8.517 Y2.616 Z-0.733
X8.588 Y2.618 Z-0.683
X8.65 Y2.62 Z-0.621
X8.7 Y2.622 Z-0.55
X8.737 Y2.624 Z-0.471
X8.759 Z-0.387
X8.767 Y2.625 Z-0.3
G0 Z5.
X7.641 Y10.842
Z0.2
G1 Z-0.3 F600
X7.64 Y10.835 Z-0.387
X7.637 Y10.812 Z-0.471
X7.631 Y10.776 Z-0.55
X7.625 Y10.726 Z-0.621
X7.616 Y10.665 Z-0.683
X7.606 Y10.595 Z-0.733
X7.595 Y10.516 Z-0.77
X7.584 Y10.433 Z-0.792
X7.572 Y10.347 Z-0.8
G3 X7.66 Y9.566 I1.567 J-0.218
G1 X7.677 Y9.525
X7.715 Y9.426
X7.728 Y9.378
X7.738 Y9.326
X7.747 Y9.227
X7.75 Y9.128
X7.758 Y8.978
X7.848 Y8.55
X7.963 Y8.128
X8.045 Y7.698
X8.094 Y7.264
X8.121 Y6.827
X8.136 Y6.39
X8.143 Y5.952
X8.147 Y5.515
X8.148 Y5.078
X8.141 Y4.859
X8.087 Y4.647
X7.879 Y4.262
X7.84 Y4.219
X7.791 Y4.149
X7.76 Y4.069
X7.75 Y3.985
G3 X8.267 Y3.503 I0.5 J0.017
X8.636 Y3.685 I-0.017 J0.5
X8.743 Y4.083 I-0.387 J0.317
G1 X7.787 Y9.916
Y9.953
X7.801 Y9.986
X7.826 Y10.013
X7.859 Y10.029
X7.895 Y10.032
X7.93 Y10.022
X7.959 Y10.
X7.978 Y9.969
X7.985 Y9.933
X7.982 Y9.906
X7.971 Y9.881
G3 X7.75 Y9.128 I1.36 J-0.809
G1 Y2.872
X7.747 Y2.773
X7.738 Y2.67
X7.728 Y2.622
X7.715 Y2.574
X7.685 Y2.495
G3 X7.672 Y2.213 I0.473 J-0.161
G1 X7.701 Y2.152 Z-0.795
X7.73 Y2.092 Z-0.781
X7.757 Y2.035 Z-0.759
X7.812 Y1.985 Z-0.718
X7.862 Y1.94 Z-0.666
X7.904 Y1.903 Z-0.603
X7.944 Y1.884 Z-0.534
X7.973 Y1.871 Z-0.46
X7.991 Y1.863 Z-0.381
X7.997 Y1.86 Z-0.3
G0 Z5.
X1.852 Y-0.407
Z0.1
G1 Z-0.4 F600
X1.854 Y-0.4 Z-0.487
X1.86 Y-0.378 Z-0.571
X1.869 Y-0.342 Z-0.65
X1.881 Y-0.294 Z-0.721
X1.897 Y-0.234 Z-0.783
X1.914 Y-0.165 Z-0.833
X1.934 Y-0.089 Z-0.87
X1.955 Y-0.007 Z-0.892
X1.976 Y0.077 Z-0.9
G3 X2.2 Y1.632 I-7.063 J1.809
G1 Y1.775
X2.213 Y1.924
X2.169 Y2.359
X2.099 Y2.791
X2.07 Y3.228
X2.058 Y3.665
X2.053 Y4.102
X2.051 Y4.54
X2.05 Y6.29
Y8.477
X2.082 Y8.913
X2.154 Y9.12
X2.256 Y9.313
X2.401 Y9.476
X2.576 Y9.608
X2.968 Y9.802
X3.397 Y9.889
X3.832 Y9.925
X4.27 Y9.94
X4.441 Y9.942
X4.517 Y9.952
X4.589 Y9.979
X4.652 Y10.022
X4.759 Y10.086
X4.858 Y10.128
X5.057 Y10.209
X5.094 Y10.22
X5.156 Y10.235
X5.255 Y10.243
X5.454 Y10.249
X5.553 Y10.25
X6.447
X6.546 Y10.249
X6.745 Y10.243
X6.844 Y10.235
X6.906 Y10.22
X6.943 Y10.209
X7.043 Y10.169
X7.184 Y10.119
X7.413 Y10.064
X7.773 Y10.006
X8.209 Y9.973
X8.646 Y9.959
X9.079 Y9.897
X9.274 Y9.797
X9.442 Y9.657
X9.583 Y9.49
X9.791 Y9.105
X9.883 Y8.677
X9.923 Y8.242
X9.939 Y7.805
X9.945 Y7.367
X9.948 Y6.93
X9.95 Y6.055
Y3.43
X9.904 Y2.995
X9.817 Y2.795
X9.693 Y2.614
X9.535 Y2.463
X9.164 Y2.231
X8.74 Y2.126
X8.304 Y2.081
X7.867 Y2.063
X7.556 Y2.057
X7.481 Y2.047
X7.411 Y2.021
X7.348 Y1.978
X7.241 Y1.914
X7.142 Y1.872
X6.943 Y1.791
X6.906 Y1.78
X6.844 Y1.765
X6.745 Y1.757
X6.546 Y1.751
X6.447 Y1.75
X5.553
X5.454 Y1.751
X5.255 Y1.757
X5.156 Y1.765
X5.094 Y1.78
X5.057 Y1.791
X4.957 Y1.831
X4.816 Y1.881
X4.587 Y1.936
X4.227 Y1.994
X3.791 Y2.027
X3.573 Y2.034
X3.468 Y2.068
X3.277 Y2.173
X3.121 Y2.327
X2.877 Y2.69
X2.754 Y3.11
X2.697 Y3.543
X2.671 Y3.98
X2.659 Y4.417
X2.654 Y4.855
X2.652 Y5.292
X2.65 Y6.604
Y7.917
X2.659 Y8.354
X2.73 Y8.561
X2.849 Y8.744
X3.007 Y8.895
X3.377 Y9.129
X3.798 Y9.248
X4.035 Y9.281
X4.153 Y9.319
X4.25 Y9.396
X4.314 Y9.503
X4.323 Y9.525
X4.377 Y9.654
G3 X4.412 Y9.911 I-0.461 J0.194
G2 X4.745 Y10.446 I0.496 J0.063
G1 X5.867 Y10.834
G2 X6.43 Y10.661 I0.163 J-0.473
G3 X7.043 Y10.169 I1.266 J0.949
G1 X7.159 Y10.121
X7.241 Y10.086
X7.348 Y10.022
X7.44 Y9.943
X7.461 Y9.922
X7.485 Y9.892
X7.582 Y9.778
X7.704 Y9.691
X7.838 Y9.622
X8.012 Y9.554
X8.431 Y9.427
X8.626 Y9.327
X8.795 Y9.189
X9.072 Y8.851
X9.219 Y8.438
X9.29 Y8.007
X9.323 Y7.571
X9.338 Y7.133
X9.345 Y6.696
X9.348 Y6.259
X9.35 Y5.384
Y4.071
X9.342 Y3.634
X9.27 Y3.427
X9.149 Y3.245
X8.989 Y3.097
X8.618 Y2.864
X8.197 Y2.748
X7.966 Y2.717
X7.847 Y2.679
X7.749 Y2.601
X7.685 Y2.495
X7.677 Y2.475
X7.623 Y2.346
G3 X7.588 Y2.089 I0.461 J-0.194
G2 X7.255 Y1.554 I-0.496 J-0.063
G1 X6.133 Y1.166
G2 X5.57 Y1.339 I-0.163 J0.473
G3 X4.957 Y1.831 I-1.266 J-0.949
G1 X4.841 Y1.879
X4.759 Y1.914
X4.652 Y1.978
X4.56 Y2.057
X4.539 Y2.078
X4.515 Y2.108
X4.418 Y2.222
X4.296 Y2.309
X3.911 Y2.516
X3.613 Y2.837
X3.435 Y3.237
X3.34 Y3.664
X3.292 Y4.099
X3.27 Y4.535
X3.259 Y4.973
X3.254 Y5.41
X3.252 Y5.848
X3.25 Y7.16
Y7.597
X3.276 Y7.815
X3.358 Y8.017
X3.492 Y8.19
X3.83 Y8.467
X4.065 Y8.593
X4.163 Y8.671
X4.228 Y8.779
X4.25 Y8.902
G3 X3.733 Y9.384 I-0.5 J-0.017
G1 X3.646 Y9.381 Z-0.892
X3.562 Y9.378 Z-0.87
X3.483 Y9.375 Z-0.833
X3.412 Y9.373 Z-0.783
X3.35 Y9.371 Z-0.721
X3.3 Y9.369 Z-0.65
X3.263 Y9.368 Z-0.571
X3.241 Y9.367 Z-0.487
X3.233 Z-0.4
G0 Z5.
X4.863 Y0.88
Z0.1
G1 Z-0.4 F600
X4.862 Y0.888 Z-0.487
X4.86 Y0.91 Z-0.571
X4.855 Y0.947 Z-0.65
X4.849 Y0.996 Z-0.721
X4.842 Y1.058 Z-0.783
X4.833 Y1.129 Z-0.833
X4.823 Y1.207 Z-0.87
X4.813 Y1.29 Z-0.892
X4.802 Y1.377 Z-0.9
G3 X4.515 Y2.108 I-1.571 J-0.194
G1 X4.461 Y2.178
X4.431 Y2.227
X4.406 Y2.276
X4.323 Y2.475
X4.285 Y2.574
X4.272 Y2.622
X4.159 Y3.045
X4.027 Y3.462
X3.946 Y3.891
X3.9 Y4.326
X3.875 Y4.763
X3.862 Y5.2
X3.856 Y5.638
X3.853 Y6.075
X3.851 Y6.95
X3.864 Y7.168
X3.93 Y7.377
X4.15 Y7.755
X4.161 Y7.768
X4.21 Y7.838
X4.24 Y7.917
X4.25 Y8.001
G3 X3.733 Y8.483 I-0.5 J-0.017
G1 X3.646 Y8.48 Z-0.892
X3.562 Y8.477 Z-0.87
X3.483 Y8.475 Z-0.833
X3.412 Y8.472 Z-0.783
X3.35 Y8.47 Z-0.721
X3.3 Y8.468 Z-0.65
X3.263 Y8.467 Z-0.571
X3.241 Y8.466 Z-0.487
X3.233 Z-0.4
G0 Z5.
X4.049 Y1.366
Z0.1
G1 Z-0.4 F600
X4.051 Y1.373 Z-0.487
X4.058 Y1.395 Z-0.571
X4.07 Y1.429 Z-0.65
X4.087 Y1.477 Z-0.721
X4.106 Y1.535 Z-0.783
X4.13 Y1.603 Z-0.833
X4.155 Y1.677 Z-0.87
X4.182 Y1.757 Z-0.892
X4.211 Y1.839 Z-0.9
G3 X4.272 Y2.622 I-1.497 J0.512
G1 X4.262 Y2.674
X4.253 Y2.773
X4.25 Y2.872
Y9.128
X4.253 Y9.227
X4.262 Y9.33
X4.272 Y9.378
X4.285 Y9.426
X4.314 Y9.503
G3 X4.341 Y9.76 I-0.467 J0.178
G2 X4.654 Y10.307 I0.494 J0.08
G1 X6.521 Y11.028
G2 X7.168 Y10.742 I0.18 J-0.466
X7.198 Y10.623 I-0.466 J-0.18
G3 X7.485 Y9.892 I1.571 J0.194
G1 X7.539 Y9.822
X7.569 Y9.773
X7.594 Y9.724
X7.66 Y9.566
X7.725 Y9.431
X7.816 Y9.312
X8.124 Y9.002
X8.395 Y8.658
X8.566 Y8.255
X8.658 Y7.828
X8.706 Y7.393
X8.729 Y6.956
X8.74 Y6.519
X8.745 Y6.082
X8.748 Y5.644
X8.75 Y4.769
X8.749 Y4.332
X8.704 Y4.118
X8.603 Y3.924
X8.31 Y3.599
X7.924 Y3.392
X7.916 Y3.387
X7.827 Y3.309
X7.77 Y3.206
X7.75 Y3.089
G3 X8.267 Y2.607 I0.5 J0.017
G1 X8.354 Y2.61 Z-0.892
X8.438 Y2.613 Z-0.87
X8.517 Y2.616 Z-0.833
X8.588 Y2.618 Z-0.783
X8.65 Y2.62 Z-0.721
X8.7 Y2.622 Z-0.65
X8.737 Y2.624 Z-0.571
X8.759 Z-0.487
X8.767 Y2.625 Z-0.4
G0 Z5.
X7.641 Y10.842
Z0.1
G1 Z-0.4 F600
X7.64 Y10.835 Z-0.487
X7.637 Y10.812 Z-0.571
X7.631 Y10.776 Z-0.65
X7.625 Y10.726 Z-0.721
X7.616 Y10.665 Z-0.783
X7.606 Y10.595 Z-0.833
X7.595 Y10.516 Z-0.87
X7.584 Y10.433 Z-0.892
X7.572 Y10.347 Z-0.9
G3 X7.66 Y9.566 I1.567 J-0.218
G1 X7.677 Y9.525
X7.715 Y9.426
X7.728 Y9.378
X7.738 Y9.326
X7.747 Y9.227
X7.75 Y9.128
X7.758 Y8.978
X7.848 Y8.55
X7.963 Y8.128
X8.045 Y7.698
X8.094 Y7.264
X8.121 Y6.827
X8.136 Y6.39
X8.143 Y5.952
X8.147 Y5.515
X8.148 Y5.078
X8.141 Y4.859
X8.087 Y4.647
X7.879 Y4.262
X7.84 Y4.219
X7.791 Y4.149
X7.76 Y4.069
X7.75 Y3.985
G3 X8.267 Y3.503 I0.5 J0.017
X8.636 Y3.685 I-0.017 J0.5
X8.743 Y4.083 I-0.387 J0.317
G1 X7.787 Y9.916
Y9.953
X7.801 Y9.986
X7.826 Y10.013
X7.859 Y10.029
X7.895 Y10.032
X7.93 Y10.022
X7.959 Y10.
X7.978 Y9.969
X7.985 Y9.933
X7.982 Y9.906
X7.971 Y9.881
G3 X7.75 Y9.128 I1.36 J-0.809
G1 Y2.872
X7.747 Y2.773
X7.738 Y2.67
X7.728 Y2.622
X7.715 Y2.574
X7.685 Y2.495
G3 X7.709 Y2.113 I0.473 J-0.161
X7.997 Y1.86 I0.449 J0.221
G1 X8.079 Y1.832 Z-0.892
X8.158 Y1.805 Z-0.87
X8.233 Y1.779 Z-0.833
X8.301 Y1.756 Z-0.783
X8.359 Y1.736 Z-0.721
X8.406 Y1.72 Z-0.65
X8.441 Y1.708 Z-0.571
X8.463 Y1.701 Z-0.487
X8.47 Y1.699 Z-0.4
G0 Z15.
M5
G53 Z0.
M30
