(1001)
(T4  D=1.5 CR=0. - ZMIN=-0.9 - flat end mill)
G90
G0 G53 Z0.

(2D Adaptive (embossing))
T4 M6 (flat end mill D=1.5 1.5 mm Fishtail Upcut Endmill - Acrylic Max Pass Depth 0.8 mm)
S16000 M3
G64
G54
G43 H4
G0 X0.632 Y11.813
Z15.
Z5.
Z0.2
G1 Z-0.3 F600
X0.636 Y11.807 Z-0.387
X0.647 Y11.787 Z-0.471
X0.666 Y11.756 Z-0.55
X0.691 Y11.713 Z-0.621
X0.723 Y11.66 Z-0.683
X0.759 Y11.598 Z-0.733
X0.799 Y11.53 Z-0.77
X0.842 Y11.458 Z-0.792
X0.887 Y11.383 Z-0.8
G3 X1.828 Y10.126 I6.274 J3.715
G1 X1.934 Y10.019
X2.079 Y9.983
X2.228 Y9.965
X2.665 Y9.949
X5.29 Y9.95
X8.352
X8.789 Y9.937
X9.002 Y9.887
X9.205 Y9.803
X9.386 Y9.681
X9.537 Y9.523
X9.769 Y9.152
X9.874 Y8.728
X9.919 Y8.293
X9.937 Y7.855
X9.945 Y7.418
X9.948 Y6.981
X9.95 Y6.106
Y3.481
X9.912 Y3.045
X9.833 Y2.841
X9.721 Y2.654
X9.569 Y2.496
X9.21 Y2.246
X8.787 Y2.133
X8.353 Y2.084
X7.916 Y2.064
X7.478 Y2.056
X7.041 Y2.052
X6.166 Y2.05
X3.541
X3.105 Y2.079
X2.897 Y2.148
X2.701 Y2.245
X2.536 Y2.388
X2.401 Y2.56
X2.202 Y2.95
X2.113 Y3.378
X2.076 Y3.814
X2.061 Y4.251
X2.054 Y4.688
X2.052 Y5.126
X2.05 Y6.438
Y8.407
X2.055 Y8.516
X2.076 Y8.623
X2.178 Y8.817
X2.34 Y8.964
X2.719 Y9.181
X3.146 Y9.279
X3.157 Y9.28
X3.235 Y9.297
X3.308 Y9.331
X3.371 Y9.381
X3.468 Y9.478
X3.518 Y9.525
X3.567 Y9.567
X3.667 Y9.631
X3.766 Y9.676
X3.88 Y9.724
X3.964 Y9.755
X4.064 Y9.788
X4.163 Y9.804
X4.213 Y9.807
X4.262
X4.362 Y9.795
X4.461 Y9.772
X4.659 Y9.692
X4.759 Y9.65
X4.786 Y9.636
X4.922 Y9.573
X5.084 Y9.519
X5.312 Y9.464
X5.67 Y9.407
X6.106 Y9.373
X6.544 Y9.359
X6.735 Y9.357
X6.824 Y9.367
X6.908 Y9.4
X6.981 Y9.454
G3 X6.972 Y10.161 I-0.358 J0.349
X6.706 Y10.296 I-0.349 J-0.358
G1 X5.117 Y10.563
G3 X4.541 Y10.153 I-0.083 J-0.493
X4.786 Y9.636 I0.493 J-0.083
G1 X4.808 Y9.624
X4.858 Y9.594
X4.944 Y9.525
X5.057 Y9.418
X5.206 Y9.268
X5.318 Y9.168
X5.443 Y9.086
X5.578 Y9.019
X5.731 Y8.961
X5.938 Y8.902
X6.164 Y8.855
X6.188 Y8.853
X6.293 Y8.856
X6.393 Y8.89
X6.478 Y8.953
G3 X6.453 Y9.659 I-0.366 J0.341
X6.365 Y9.725 I-0.341 J-0.366
G1 X5.825 Y10.041
G3 X5.141 Y9.862 I-0.252 J-0.432
X5.206 Y9.268 I0.432 J-0.252
G1 X5.752 Y8.723
X5.78 Y8.695
X5.815 Y8.66
X5.926 Y8.56
X5.996 Y8.547
X6.067 Y8.561
X6.126 Y8.601
X6.167 Y8.653
X6.197 Y8.712
X6.215 Y8.776
G3 X6.029 Y9.049 I-0.23 J0.044
X5.756 Y8.863 I-0.044 J-0.23
X5.815 Y8.66 I0.23 J-0.044
G1 X5.901 Y8.575
X5.913 Y8.565
X5.926 Y8.557
X5.938 Y8.55
X5.95 Y8.545
X5.975 Y8.539
X6. Y8.537
X6.025 Y8.539
X6.05 Y8.545
X6.062 Y8.55
X6.074 Y8.557
X6.087 Y8.565
X6.099 Y8.575
X6.943 Y9.418
X7.056 Y9.525
X7.142 Y9.594
X7.192 Y9.624
X7.241 Y9.65
X7.341 Y9.692
X7.539 Y9.772
X7.638 Y9.795
X7.738 Y9.807
X7.787
X7.837 Y9.804
X7.936 Y9.788
X8.036 Y9.755
X8.12 Y9.724
X8.234 Y9.676
X8.333 Y9.631
X8.433 Y9.567
X8.482 Y9.525
X8.532 Y9.478
X9.478 Y8.532
X9.525 Y8.482
X9.567 Y8.433
X9.631 Y8.333
X9.676 Y8.234
X9.724 Y8.12
X9.755 Y8.036
X9.788 Y7.936
X9.804 Y7.837
X9.807 Y7.787
Y7.738
X9.795 Y7.638
X9.772 Y7.539
X9.692 Y7.341
X9.65 Y7.241
X9.636 Y7.214
X9.573 Y7.078
X9.52 Y6.918
X9.464 Y6.691
X9.407 Y6.337
X9.373 Y5.901
X9.359 Y5.463
X9.357 Y5.265
X9.367 Y5.176
X9.4 Y5.092
X9.454 Y5.019
G3 X10.161 Y5.028 I0.349 J0.358
X10.296 Y5.294 I-0.358 J0.349
G1 X10.563 Y6.883
G3 X10.153 Y7.459 I-0.493 J0.083
X9.636 Y7.214 I-0.083 J-0.493
G1 X9.624 Y7.192
X9.594 Y7.142
X9.525 Y7.056
X9.418 Y6.943
X9.268 Y6.794
X9.168 Y6.682
X9.086 Y6.557
X9.019 Y6.422
X8.961 Y6.269
X8.902 Y6.062
X8.855 Y5.836
X8.853 Y5.812
X8.856 Y5.707
X8.89 Y5.607
X8.953 Y5.522
G3 X9.659 Y5.547 I0.341 J0.366
X9.725 Y5.636 I-0.366 J0.341
G1 X10.041 Y6.175
G3 X9.862 Y6.859 I-0.432 J0.253
X9.268 Y6.794 I-0.253 J-0.432
G1 X8.723 Y6.248
X8.695 Y6.22
X8.66 Y6.185
X8.56 Y6.074
X8.547 Y6.004
X8.561 Y5.933
X8.601 Y5.874
X8.653 Y5.833
X8.712 Y5.803
X8.776 Y5.785
G3 X9.049 Y5.971 I0.044 J0.23
X8.863 Y6.244 I-0.23 J0.044
X8.66 Y6.185 I-0.044 J-0.23
G1 X8.575 Y6.099
X8.565 Y6.087
X8.557 Y6.074
X8.55 Y6.062
X8.545 Y6.05
X8.539 Y6.025
X8.537 Y6.
X8.539 Y5.975
X8.545 Y5.95
X8.55 Y5.938
X8.557 Y5.926
X8.565 Y5.913
X8.575 Y5.901
X9.418 Y5.057
X9.525 Y4.944
X9.594 Y4.858
X9.624 Y4.808
X9.65 Y4.759
X9.692 Y4.659
X9.772 Y4.461
X9.795 Y4.362
X9.807 Y4.262
Y4.213
X9.804 Y4.163
X9.788 Y4.064
X9.755 Y3.964
X9.724 Y3.88
X9.676 Y3.766
X9.631 Y3.667
X9.567 Y3.567
X9.544 Y3.54
X9.525 Y3.518
X9.478 Y3.468
X8.532 Y2.522
X8.482 Y2.475
X8.433 Y2.433
X8.333 Y2.369
X8.234 Y2.324
X8.12 Y2.276
X8.036 Y2.245
X7.936 Y2.212
X7.837 Y2.196
X7.787 Y2.193
X7.738
X7.638 Y2.205
X7.539 Y2.228
X7.341 Y2.308
X7.241 Y2.35
X7.214 Y2.364
X7.078 Y2.427
X6.918 Y2.48
X6.691 Y2.536
X6.337 Y2.593
X5.901 Y2.627
X5.463 Y2.641
X5.265 Y2.643
X5.176 Y2.633
X5.092 Y2.6
X5.019 Y2.546
G3 X5.028 Y1.839 I0.358 J-0.349
X5.294 Y1.704 I0.349 J0.358
G1 X6.883 Y1.437
G3 X7.459 Y1.847 I0.083 J0.493
X7.214 Y2.364 I-0.493 J0.083
G1 X7.192 Y2.376
X7.142 Y2.406
X7.056 Y2.475
X6.943 Y2.582
X6.794 Y2.732
X6.682 Y2.832
X6.557 Y2.914
X6.422 Y2.981
X6.269 Y3.039
X6.062 Y3.098
X5.836 Y3.145
X5.812 Y3.147
X5.707 Y3.144
X5.607 Y3.11
X5.522 Y3.047
G3 X5.547 Y2.341 I0.366 J-0.341
X5.636 Y2.275 I0.341 J0.366
G1 X6.175 Y1.959
G3 X6.859 Y2.138 I0.253 J0.432
X6.794 Y2.732 I-0.432 J0.253
G1 X6.248 Y3.277
X6.22 Y3.305
X6.185 Y3.34
X6.074 Y3.44
X6.004 Y3.453
X5.933 Y3.439
X5.874 Y3.399
X5.833 Y3.347
X5.803 Y3.288
X5.785 Y3.224
G3 X5.971 Y2.951 I0.23 J-0.044
X6.244 Y3.137 I0.044 J0.23
X6.185 Y3.34 I-0.23 J0.044
G1 X6.099 Y3.425
X6.087 Y3.435
X6.074 Y3.443
X6.062 Y3.45
X6.05 Y3.455
X6.025 Y3.461
X6. Y3.463
X5.975 Y3.461
X5.95 Y3.455
X5.938 Y3.45
X5.926 Y3.443
X5.913 Y3.435
X5.901 Y3.425
X5.057 Y2.582
X4.944 Y2.475
X4.858 Y2.406
X4.808 Y2.376
X4.759 Y2.35
X4.659 Y2.308
X4.461 Y2.228
X4.362 Y2.205
X4.262 Y2.193
X4.213
X4.163 Y2.196
X4.064 Y2.212
X3.964 Y2.245
X3.88 Y2.276
X3.766 Y2.324
X3.667 Y2.369
X3.567 Y2.433
X3.518 Y2.475
X3.468 Y2.522
X2.522 Y3.468
X2.475 Y3.518
X2.433 Y3.567
X2.369 Y3.667
X2.324 Y3.766
X2.276 Y3.88
X2.245 Y3.964
X2.212 Y4.064
X2.196 Y4.163
X2.193 Y4.213
Y4.262
X2.205 Y4.362
X2.228 Y4.461
X2.308 Y4.659
X2.35 Y4.759
X2.364 Y4.786
X2.427 Y4.922
X2.48 Y5.083
X2.536 Y5.309
X2.593 Y5.663
X2.627 Y6.099
X2.641 Y6.537
X2.643 Y6.735
X2.633 Y6.824
X2.6 Y6.908
X2.546 Y6.981
G3 X1.839 Y6.972 I-0.349 J-0.358
X1.704 Y6.706 I0.358 J-0.349
G1 X1.437 Y5.117
G3 X1.847 Y4.541 I0.493 J-0.083
X2.364 Y4.786 I0.083 J0.493
G1 X2.376 Y4.808
X2.406 Y4.858
X2.475 Y4.944
X2.582 Y5.057
X2.732 Y5.206
X2.832 Y5.318
X2.914 Y5.443
X2.981 Y5.578
X3.039 Y5.731
X3.098 Y5.937
X3.145 Y6.164
X3.147 Y6.188
X3.144 Y6.293
X3.11 Y6.393
X3.047 Y6.478
G3 X2.341 Y6.453 I-0.341 J-0.366
X2.275 Y6.364 I0.366 J-0.341
G1 X1.959 Y5.825
G3 X2.138 Y5.141 I0.432 J-0.253
X2.732 Y5.206 I0.253 J0.432
G1 X3.277 Y5.752
X3.305 Y5.78
X3.34 Y5.815
X3.44 Y5.926
X3.453 Y5.996
X3.439 Y6.067
X3.399 Y6.126
X3.347 Y6.167
X3.288 Y6.197
X3.224 Y6.215
G3 X2.951 Y6.029 I-0.044 J-0.23
X3.137 Y5.756 I0.23 J-0.044
X3.34 Y5.815 I0.044 J0.23
G1 X3.425 Y5.901
X3.435 Y5.913
X3.443 Y5.926
X3.45 Y5.938
X3.455 Y5.95
X3.461 Y5.975
X3.463 Y6.
X3.461 Y6.025
X3.455 Y6.05
X3.45 Y6.062
X3.443 Y6.074
X3.435 Y6.087
X3.425 Y6.099
X2.582 Y6.943
X2.475 Y7.056
X2.406 Y7.142
X2.376 Y7.192
X2.35 Y7.241
X2.308 Y7.341
X2.228 Y7.539
X2.205 Y7.638
X2.193 Y7.738
Y7.787
X2.196 Y7.837
X2.212 Y7.936
X2.245 Y8.036
X2.276 Y8.12
X2.324 Y8.234
X2.369 Y8.333
X2.433 Y8.433
X2.475 Y8.482
X2.522 Y8.532
X3.371 Y9.381
G3 X3.497 Y9.633 I-0.366 J0.341
G1 X3.501 Y9.678 Z-0.798
X3.505 Y9.722 Z-0.792
X3.492 Y9.791 Z-0.774
X3.478 Y9.856 Z-0.745
X3.466 Y9.916 Z-0.708
X3.435 Y9.963 Z-0.661
X3.407 Y10.003 Z-0.607
X3.384 Y10.037 Z-0.546
X3.367 Y10.062 Z-0.48
X3.355 Y10.08 Z-0.41
X3.349 Y10.086 Z-0.355
X3.346 Y10.088 Z-0.3
G0 Z5.
X0.632 Y11.813
Z0.1
G1 Z-0.4 F600
X0.636 Y11.807 Z-0.487
X0.647 Y11.787 Z-0.571
X0.666 Y11.756 Z-0.65
X0.691 Y11.713 Z-0.721
X0.723 Y11.66 Z-0.783
X0.759 Y11.598 Z-0.833
X0.799 Y11.53 Z-0.87
X0.842 Y11.458 Z-0.892
X0.887 Y11.383 Z-0.9
G3 X1.828 Y10.126 I6.274 J3.715
G1 X1.934 Y10.019
X2.079 Y9.983
X2.228 Y9.965
X2.665 Y9.949
X5.29 Y9.95
X8.352
X8.789 Y9.937
X9.002 Y9.887
X9.205 Y9.803
X9.386 Y9.681
X9.537 Y9.523
X9.769 Y9.152
X9.874 Y8.728
X9.919 Y8.293
X9.937 Y7.855
X9.945 Y7.418
X9.948 Y6.981
X9.95 Y6.106
Y3.481
X9.912 Y3.045
X9.833 Y2.841
X9.721 Y2.654
X9.569 Y2.496
X9.21 Y2.246
X8.787 Y2.133
X8.353 Y2.084
X7.916 Y2.064
X7.478 Y2.056
X7.041 Y2.052
X6.166 Y2.05
X3.541
X3.105 Y2.079
X2.897 Y2.148
X2.701 Y2.245
X2.536 Y2.388
X2.401 Y2.56
X2.202 Y2.95
X2.113 Y3.378
X2.076 Y3.814
X2.061 Y4.251
X2.054 Y4.688
X2.052 Y5.126
X2.05 Y6.438
Y8.407
X2.055 Y8.516
X2.076 Y8.623
X2.178 Y8.817
X2.34 Y8.964
X2.719 Y9.181
X3.146 Y9.279
X3.157 Y9.28
X3.235 Y9.297
X3.308 Y9.331
X3.371 Y9.381
X3.468 Y9.478
X3.518 Y9.525
X3.567 Y9.567
X3.667 Y9.631
X3.766 Y9.676
X3.88 Y9.724
X3.964 Y9.755
X4.064 Y9.788
X4.163 Y9.804
X4.213 Y9.807
X4.262
X4.362 Y9.795
X4.461 Y9.772
X4.659 Y9.692
X4.759 Y9.65
X4.786 Y9.636
X4.922 Y9.573
X5.084 Y9.519
X5.312 Y9.464
X5.67 Y9.407
X6.106 Y9.373
X6.544 Y9.359
X6.735 Y9.357
X6.824 Y9.367
X6.908 Y9.4
X6.981 Y9.454
G3 X6.972 Y10.161 I-0.358 J0.349
X6.706 Y10.296 I-0.349 J-0.358
G1 X5.117 Y10.563
G3 X4.541 Y10.153 I-0.083 J-0.493
X4.786 Y9.636 I0.493 J-0.083
G1 X4.808 Y9.624
X4.858 Y9.594
X4.944 Y9.525
X5.057 Y9.418
X5.206 Y9.268
X5.318 Y9.168
X5.443 Y9.086
X5.578 Y9.019
X5.731 Y8.961
X5.938 Y8.902
X6.164 Y8.855
X6.188 Y8.853
X6.293 Y8.856
X6.393 Y8.89
X6.478 Y8.953
G3 X6.453 Y9.659 I-0.366 J0.341
X6.365 Y9.725 I-0.341 J-0.366
G1 X5.825 Y10.041
G3 X5.141 Y9.862 I-0.252 J-0.432
X5.206 Y9.268 I0.432 J-0.252
G1 X5.752 Y8.723
X5.78 Y8.695
X5.815 Y8.66
X5.926 Y8.56
X5.996 Y8.547
X6.067 Y8.561
X6.126 Y8.601
X6.167 Y8.653
X6.197 Y8.712
X6.215 Y8.776
G3 X6.029 Y9.049 I-0.23 J0.044
X5.756 Y8.863 I-0.044 J-0.23
X5.815 Y8.66 I0.23 J-0.044
G1 X5.901 Y8.575
X5.913 Y8.565
X5.926 Y8.557
X5.938 Y8.55
X5.95 Y8.545
X5.975 Y8.539
X6. Y8.537
X6.025 Y8.539
X6.05 Y8.545
X6.062 Y8.55
X6.074 Y8.557
X6.087 Y8.565
X6.099 Y8.575
X6.943 Y9.418
X7.056 Y9.525
X7.142 Y9.594
X7.192 Y9.624
X7.241 Y9.65
X7.341 Y9.692
X7.539 Y9.772
X7.638 Y9.795
X7.738 Y9.807
X7.787
X7.837 Y9.804
X7.936 Y9.788
X8.036 Y9.755
X8.12 Y9.724
X8.234 Y9.676
X8.333 Y9.631
X8.433 Y9.567
X8.482 Y9.525
X8.532 Y9.478
X9.478 Y8.532
X9.525 Y8.482
X9.567 Y8.433
X9.631 Y8.333
X9.676 Y8.234
X9.724 Y8.12
X9.755 Y8.036
X9.788 Y7.936
X9.804 Y7.837
X9.807 Y7.787
Y7.738
X9.795 Y7.638
X9.772 Y7.539
X9.692 Y7.341
X9.65 Y7.241
X9.636 Y7.214
X9.573 Y7.078
X9.52 Y6.918
X9.464 Y6.691
X9.407 Y6.337
X9.373 Y5.901
X9.359 Y5.463
X9.357 Y5.265
X9.367 Y5.176
X9.4 Y5.092
X9.454 Y5.019
G3 X10.161 Y5.028 I0.349 J0.358
X10.296 Y5.294 I-0.358 J0.349
G1 X10.563 Y6.883
G3 X10.153 Y7.459 I-0.493 J0.083
X9.636 Y7.214 I-0.083 J-0.493
G1 X9.624 Y7.192
X9.594 Y7.142
X9.525 Y7.056
X9.418 Y6.943
X9.268 Y6.794
X9.168 Y6.682
X9.086 Y6.557
X9.019 Y6.422
X8.961 Y6.269
X8.902 Y6.062
X8.855 Y5.836
X8.853 Y5.812
X8.856 Y5.707
X8.89 Y5.607
X8.953 Y5.522
G3 X9.659 Y5.547 I0.341 J0.366
X9.725 Y5.636 I-0.366 J0.341
G1 X10.041 Y6.175
G3 X9.862 Y6.859 I-0.432 J0.253
X9.268 Y6.794 I-0.253 J-0.432
G1 X8.723 Y6.248
X8.695 Y6.22
X8.66 Y6.185
X8.56 Y6.074
X8.547 Y6.004
X8.561 Y5.933
X8.601 Y5.874
X8.653 Y5.833
X8.712 Y5.803
X8.776 Y5.785
G3 X9.049 Y5.971 I0.044 J0.23
X8.863 Y6.244 I-0.23 J0.044
X8.66 Y6.185 I-0.044 J-0.23
G1 X8.575 Y6.099
X8.565 Y6.087
X8.557 Y6.074
X8.55 Y6.062
X8.545 Y6.05
X8.539 Y6.025
X8.537 Y6.
X8.539 Y5.975
X8.545 Y5.95
X8.55 Y5.938
X8.557 Y5.926
X8.565 Y5.913
X8.575 Y5.901
X9.418 Y5.057
X9.525 Y4.944
X9.594 Y4.858
X9.624 Y4.808
X9.65 Y4.759
X9.692 Y4.659
X9.772 Y4.461
X9.795 Y4.362
X9.807 Y4.262
Y4.213
X9.804 Y4.163
X9.788 Y4.064
X9.755 Y3.964
X9.724 Y3.88
X9.676 Y3.766
X9.631 Y3.667
X9.567 Y3.567
X9.544 Y3.54
X9.525 Y3.518
X9.478 Y3.468
X8.532 Y2.522
X8.482 Y2.475
X8.433 Y2.433
X8.333 Y2.369
X8.234 Y2.324
X8.12 Y2.276
X8.036 Y2.245
X7.936 Y2.212
X7.837 Y2.196
X7.787 Y2.193
X7.738
X7.638 Y2.205
X7.539 Y2.228
X7.341 Y2.308
X7.241 Y2.35
X7.214 Y2.364
X7.078 Y2.427
X6.918 Y2.48
X6.691 Y2.536
X6.337 Y2.593
X5.901 Y2.627
X5.463 Y2.641
X5.265 Y2.643
X5.176 Y2.633
X5.092 Y2.6
X5.019 Y2.546
G3 X5.028 Y1.839 I0.358 J-0.349
X5.294 Y1.704 I0.349 J0.358
G1 X6.883 Y1.437
G3 X7.459 Y1.847 I0.083 J0.493
X7.214 Y2.364 I-0.493 J0.083
G1 X7.192 Y2.376
X7.142 Y2.406
X7.056 Y2.475
X6.943 Y2.582
X6.794 Y2.732
X6.682 Y2.832
X6.557 Y2.914
X6.422 Y2.981
X6.269 Y3.039
X6.062 Y3.098
X5.836 Y3.145
X5.812 Y3.147
X5.707 Y3.144
X5.607 Y3.11
X5.522 Y3.047
G3 X5.547 Y2.341 I0.366 J-0.341
X5.636 Y2.275 I0.341 J0.366
G1 X6.175 Y1.959
G3 X6.859 Y2.138 I0.253 J0.432
X6.794 Y2.732 I-0.432 J0.253
G1 X6.248 Y3.277
X6.22 Y3.305
X6.185 Y3.34
X6.074 Y3.44
X6.004 Y3.453
X5.933 Y3.439
X5.874 Y3.399
X5.833 Y3.347
X5.803 Y3.288
X5.785 Y3.224
G3 X5.971 Y2.951 I0.23 J-0.044
X6.244 Y3.137 I0.044 J0.23
X6.185 Y3.34 I-0.23 J0.044
G1 X6.099 Y3.425
X6.087 Y3.435
X6.074 Y3.443
X6.062 Y3.45
X6.05 Y3.455
X6.025 Y3.461
X6. Y3.463
X5.975 Y3.461
X5.95 Y3.455
X5.938 Y3.45
X5.926 Y3.443
X5.913 Y3.435
X5.901 Y3.425
X5.057 Y2.582
X4.944 Y2.475
X4.858 Y2.406
X4.808 Y2.376
X4.759 Y2.35
X4.659 Y2.308
X4.461 Y2.228
X4.362 Y2.205
X4.262 Y2.193
X4.213
X4.163 Y2.196
X4.064 Y2.212
X3.964 Y2.245
X3.88 Y2.276
X3.766 Y2.324
X3.667 Y2.369
X3.567 Y2.433
X3.518 Y2.475
X3.468 Y2.522
X2.522 Y3.468
X2.475 Y3.518
X2.433 Y3.567
X2.369 Y3.667
X2.324 Y3.766
X2.276 Y3.88
X2.245 Y3.964
X2.212 Y4.064
X2.196 Y4.163
X2.193 Y4.213
Y4.262
X2.205 Y4.362
X2.228 Y4.461
X2.308 Y4.659
X2.35 Y4.759
X2.364 Y4.786
X2.427 Y4.922
X2.48 Y5.083
X2.536 Y5.309
X2.593 Y5.663
X2.627 Y6.099
X2.641 Y6.537
X2.643 Y6.735
X2.633 Y6.824
X2.6 Y6.908
X2.546 Y6.981
G3 X1.839 Y6.972 I-0.349 J-0.358
X1.704 Y6.706 I0.358 J-0.349
G1 X1.437 Y5.117
G3 X1.847 Y4.541 I0.493 J-0.083
X2.364 Y4.786 I0.083 J0.493
G1 X2.376 Y4.808
X2.406 Y4.858
X2.475 Y4.944
X2.582 Y5.057
X2.732 Y5.206
X2.832 Y5.318
X2.914 Y5.443
X2.981 Y5.578
X3.039 Y5.731
X3.098 Y5.937
X3.145 Y6.164
X3.147 Y6.188
X3.144 Y6.293
X3.11 Y6.393
X3.047 Y6.478
G3 X2.341 Y6.453 I-0.341 J-0.366
X2.275 Y6.364 I0.366 J-0.341
G1 X1.959 Y5.825
G3 X2.138 Y5.141 I0.432 J-0.253
X2.732 Y5.206 I0.253 J0.432
G1 X3.277 Y5.752
X3.305 Y5.78
X3.34 Y5.815
X3.44 Y5.926
X3.453 Y5.996
X3.439 Y6.067
X3.399 Y6.126
X3.347 Y6.167
X3.288 Y6.197
X3.224 Y6.215
G3 X2.951 Y6.029 I-0.044 J-0.23
X3.137 Y5.756 I0.23 J-0.044
X3.34 Y5.815 I0.044 J0.23
G1 X3.425 Y5.901
X3.435 Y5.913
X3.443 Y5.926
X3.45 Y5.938
X3.455 Y5.95
X3.461 Y5.975
X3.463 Y6.
X3.461 Y6.025
X3.455 Y6.05
X3.45 Y6.062
X3.443 Y6.074
X3.435 Y6.087
X3.425 Y6.099
X2.582 Y6.943
X2.475 Y7.056
X2.406 Y7.142
X2.376 Y7.192
X2.35 Y7.241
X2.308 Y7.341
X2.228 Y7.539
X2.205 Y7.638
X2.193 Y7.738
Y7.787
X2.196 Y7.837
X2.212 Y7.936
X2.245 Y8.036
X2.276 Y8.12
X2.324 Y8.234
X2.369 Y8.333
X2.433 Y8.433
X2.475 Y8.482
X2.522 Y8.532
X3.371 Y9.381
G3 X3.346 Y10.088 I-0.366 J0.341
G1 X3.283 Y10.147 Z-0.892
X3.221 Y10.205 Z-0.87
X3.163 Y10.259 Z-0.833
X3.111 Y10.307 Z-0.783
X3.066 Y10.349 Z-0.721
X3.03 Y10.383 Z-0.65
X3.003 Y10.409 Z-0.571
X2.986 Y10.424 Z-0.487
X2.981 Y10.429 Z-0.4
G0 Z15.
M5
G53 Z0.
M30
