(1001)
(T4  D=1.5 CR=0. - ZMIN=-0.2 - flat end mill)
G90
G0 G53 Z0.

(Scallop (embossing chamfer))
T4 M6 (flat end mill D=1.5 1.5 mm Fishtail Upcut Endmill - Acrylic Max Pass Depth 0.8 mm)
S16000 M3
G64
G54
G43 H4
G0 X5.771 Y8.417
Z15.
Z2.
G1 Z0.148 F800
X5.776 Y8.412 Z0.103
X5.791 Y8.398 Z0.061
X5.814 Y8.376 Z0.028
X5.844 Y8.349 Z0.007
X5.877 Y8.318 Z-0.002
X5.907 Y8.29
X5.91 Y8.288
X5.928 Y8.276
X5.952 Y8.265
X5.967 Y8.261
X5.985 Y8.258
X5.988 Y8.257
X6.
X6.012
X6.024 Y8.259
X6.036 Y8.262
X6.048 Y8.265
X6.073 Y8.277
X6.082 Y8.282
X6.092 Y8.289
X6.099 Y8.296
X6.123 Y8.317
X6.128 Y8.323
X6.135 Y8.332 Z-0.003
X6.143 Y8.343 Z-0.006
X6.158 Y8.369 Z-0.013
X6.163 Y8.375 Z-0.015
X6.169 Y8.384 Z-0.016
X6.173 Y8.388
X7.09 Y9.304
X7.15 Y9.364 Z-0.015
X7.191 Y9.402
X7.199 Y9.41
X7.252 Y9.451
X7.297 Y9.484
X7.323 Y9.5
X7.346 Y9.513
X7.395 Y9.538
X7.419 Y9.549
X7.444 Y9.559
X7.493 Y9.578 Z-0.016
X7.542 Y9.593 Z-0.015
X7.562 Y9.598
X7.591 Y9.604
X7.64 Y9.612
X7.689 Y9.618
X7.738 Y9.622
X7.787
X7.811 Y9.621
X7.836 Y9.62 Z-0.016
X7.884 Y9.614 Z-0.015
X7.933 Y9.606
X7.982 Y9.595
X8.031 Y9.582
X8.08 Y9.564 Z-0.016
X8.117 Y9.549 Z-0.015
X8.129 Y9.543
X8.178 Y9.519
X8.213 Y9.5
X8.227 Y9.491
X8.276 Y9.457
X8.325 Y9.419
X8.345 Y9.402
X8.374 Y9.375
X8.397 Y9.353 Z-0.016
X8.642 Y9.108
X9.327 Y8.423
X9.353 Y8.397
X9.375 Y8.374 Z-0.015
X9.402 Y8.345
X9.419 Y8.325
X9.457 Y8.276
X9.491 Y8.227
X9.5 Y8.213
X9.519 Y8.178
X9.543 Y8.129
X9.549 Y8.117
X9.564 Y8.08 Z-0.016
X9.582 Y8.031 Z-0.015
X9.596 Y7.982
X9.606 Y7.933
X9.614 Y7.884
X9.62 Y7.836 Z-0.016
X9.621 Y7.811 Z-0.015
X9.622 Y7.787
Y7.738
X9.618 Y7.689
X9.612 Y7.64
X9.604 Y7.591
X9.598 Y7.562
X9.593 Y7.542
X9.578 Y7.493 Z-0.016
X9.559 Y7.444 Z-0.015
X9.549 Y7.419
X9.538 Y7.395
X9.512 Y7.346
X9.5 Y7.323
X9.484 Y7.297
X9.448 Y7.248
X9.41 Y7.199
X9.402 Y7.191
X9.364 Y7.15
X9.304 Y7.09 Z-0.016
X8.337 Y6.122
X8.325 Y6.11
X8.293 Y6.073
X8.279 Y6.046
X8.276 Y6.036
X8.274 Y6.024
X8.271 Y6.
X8.274 Y5.976
X8.276 Y5.964
X8.28 Y5.952
X8.293 Y5.927
X8.325 Y5.89
X8.337 Y5.878
X9.304 Y4.91
X9.364 Y4.85 Z-0.015
X9.402 Y4.809
X9.41 Y4.801
X9.451 Y4.748
X9.484 Y4.703
X9.5 Y4.677
X9.512 Y4.654
X9.538 Y4.605
X9.549 Y4.581
X9.559 Y4.556
X9.578 Y4.507 Z-0.016
X9.593 Y4.458 Z-0.015
X9.598 Y4.438
X9.604 Y4.409
X9.612 Y4.36
X9.618 Y4.311
X9.622 Y4.262
Y4.213
X9.621 Y4.189
X9.62 Y4.164 Z-0.016
X9.614 Y4.116 Z-0.015
X9.606 Y4.067
X9.595 Y4.018
X9.582 Y3.969
X9.564 Y3.92 Z-0.016
X9.549 Y3.883 Z-0.015
X9.543 Y3.871
X9.519 Y3.822
X9.5 Y3.787
X9.491 Y3.773
X9.457 Y3.724
X9.419 Y3.675
X9.402 Y3.655
X9.375 Y3.626
X9.353 Y3.603 Z-0.016
X9.108 Y3.358
X8.423 Y2.673
X8.397 Y2.647
X8.374 Y2.625 Z-0.015
X8.345 Y2.598
X8.325 Y2.581
X8.276 Y2.543
X8.227 Y2.509
X8.213 Y2.5
X8.178 Y2.481
X8.129 Y2.457
X8.117 Y2.451
X8.08 Y2.436 Z-0.016
X8.031 Y2.418 Z-0.015
X7.982 Y2.405
X7.933 Y2.394
X7.884 Y2.386
X7.836 Y2.38 Z-0.016
X7.811 Y2.379 Z-0.015
X7.787 Y2.378
X7.738
X7.689 Y2.382
X7.64 Y2.388
X7.591 Y2.396
X7.562 Y2.402
X7.542 Y2.407
X7.493 Y2.422 Z-0.016
X7.444 Y2.441 Z-0.015
X7.419 Y2.451
X7.395 Y2.462
X7.346 Y2.488
X7.323 Y2.5
X7.297 Y2.516
X7.248 Y2.552
X7.199 Y2.59
X7.191 Y2.598
X7.15 Y2.636
X7.09 Y2.696 Z-0.016
X6.122 Y3.663
X6.11 Y3.675
X6.073 Y3.707
X6.048 Y3.72
X6.036 Y3.724
X6.024 Y3.726
X6. Y3.729
X5.976 Y3.726
X5.964 Y3.724
X5.954 Y3.721
X5.927 Y3.707
X5.89 Y3.675
X5.878 Y3.663
X4.91 Y2.696
X4.85 Y2.636 Z-0.015
X4.809 Y2.598
X4.801 Y2.59
X4.748 Y2.549
X4.703 Y2.516
X4.677 Y2.5
X4.654 Y2.488
X4.605 Y2.462
X4.581 Y2.451
X4.556 Y2.441
X4.507 Y2.422 Z-0.016
X4.458 Y2.407 Z-0.015
X4.438 Y2.402
X4.409 Y2.396
X4.36 Y2.388
X4.311 Y2.382
X4.262 Y2.378
X4.213
X4.189 Y2.379
X4.165 Y2.38 Z-0.016
X4.116 Y2.386 Z-0.015
X4.067 Y2.394
X4.018 Y2.404
X3.969 Y2.418
X3.92 Y2.436 Z-0.016
X3.883 Y2.451 Z-0.015
X3.871 Y2.457
X3.822 Y2.481
X3.787 Y2.5
X3.773 Y2.509
X3.724 Y2.543
X3.675 Y2.581
X3.655 Y2.598
X3.626 Y2.625
X3.603 Y2.647 Z-0.016
X3.332 Y2.918
X2.673 Y3.577
X2.647 Y3.603
X2.625 Y3.626 Z-0.015
X2.598 Y3.655
X2.581 Y3.675
X2.543 Y3.724
X2.509 Y3.773
X2.5 Y3.787
X2.481 Y3.822
X2.457 Y3.871
X2.451 Y3.883
X2.436 Y3.92 Z-0.016
X2.418 Y3.969 Z-0.015
X2.405 Y4.018
X2.394 Y4.067
X2.386 Y4.116
X2.38 Y4.164 Z-0.016
X2.379 Y4.189 Z-0.015
X2.378 Y4.213
Y4.262
X2.382 Y4.311
X2.388 Y4.36
X2.396 Y4.409
X2.402 Y4.438
X2.407 Y4.458
X2.422 Y4.507 Z-0.016
X2.441 Y4.556 Z-0.015
X2.451 Y4.581
X2.462 Y4.605
X2.487 Y4.654
X2.5 Y4.677
X2.516 Y4.703
X2.552 Y4.752
X2.59 Y4.801
X2.598 Y4.809
X2.636 Y4.85
X2.696 Y4.91 Z-0.016
X3.663 Y5.878
X3.675 Y5.89
X3.707 Y5.927
X3.72 Y5.952
X3.724 Y5.964
X3.726 Y5.976
X3.729 Y6.
X3.726 Y6.024
X3.724 Y6.036
X3.721 Y6.046
X3.707 Y6.073
X3.675 Y6.11
X3.626 Y6.159
X2.696 Y7.09
X2.636 Y7.15 Z-0.015
X2.598 Y7.191
X2.59 Y7.199
X2.549 Y7.252
X2.516 Y7.297
X2.5 Y7.323
X2.488 Y7.346
X2.462 Y7.395
X2.451 Y7.419
X2.441 Y7.444
X2.422 Y7.493 Z-0.016
X2.407 Y7.542 Z-0.015
X2.402 Y7.562
X2.396 Y7.591
X2.388 Y7.64
X2.382 Y7.689
X2.378 Y7.738
Y7.787
X2.379 Y7.811
X2.38 Y7.836 Z-0.016
X2.386 Y7.884 Z-0.015
X2.394 Y7.933
X2.405 Y7.982
X2.418 Y8.031
X2.436 Y8.08 Z-0.016
X2.451 Y8.117 Z-0.015
X2.457 Y8.129
X2.481 Y8.178
X2.5 Y8.213
X2.509 Y8.227
X2.543 Y8.276
X2.581 Y8.325
X2.598 Y8.345
X2.625 Y8.374
X2.647 Y8.397 Z-0.016
X2.967 Y8.717
X3.577 Y9.327
X3.603 Y9.353
X3.626 Y9.375 Z-0.015
X3.655 Y9.402
X3.675 Y9.419
X3.724 Y9.457
X3.773 Y9.491
X3.787 Y9.5
X3.822 Y9.519
X3.871 Y9.543
X3.883 Y9.549
X3.92 Y9.564 Z-0.016
X3.969 Y9.582 Z-0.015
X4.018 Y9.595
X4.067 Y9.606
X4.116 Y9.614
X4.165 Y9.62 Z-0.016
X4.189 Y9.621 Z-0.015
X4.213 Y9.622
X4.262
X4.311 Y9.618
X4.36 Y9.612
X4.409 Y9.604
X4.438 Y9.598
X4.458 Y9.593
X4.507 Y9.578 Z-0.016
X4.556 Y9.559 Z-0.015
X4.581 Y9.549
X4.605 Y9.538
X4.654 Y9.512
X4.677 Y9.5
X4.703 Y9.484
X4.752 Y9.448
X4.801 Y9.41
X4.809 Y9.402
X4.85 Y9.364
X4.91 Y9.304 Z-0.016
X5.878 Y8.337
X5.89 Y8.325
X5.927 Y8.293
X5.954 Y8.279
X5.964 Y8.276
X5.976 Y8.274
X6. Y8.271
X6.024 Y8.274
X6.036 Y8.276
X6.048 Y8.28
X6.073 Y8.293
X6.11 Y8.325
X6.173 Y8.388
X6.182 Y8.398 Z-0.017
X6.19 Y8.41 Z-0.019
X6.209 Y8.439 Z-0.027
X6.213 Y8.446 Z-0.029
X6.22 Y8.455 Z-0.03
X6.224 Y8.459
X7.07 Y9.304
X7.119 Y9.353
X7.15 Y9.383 Z-0.029
X7.17 Y9.402
X7.199 Y9.428
X7.228 Y9.451
X7.248 Y9.466
X7.297 Y9.5
X7.346 Y9.529
X7.384 Y9.549
X7.395 Y9.554
X7.444 Y9.575
X7.493 Y9.593 Z-0.03
X7.508 Y9.598 Z-0.029
X7.542 Y9.607
X7.591 Y9.618
X7.64 Y9.627
X7.689 Y9.632
X7.738 Y9.636
X7.787
X7.811 Y9.635
X7.836 Y9.634 Z-0.03
X7.884 Y9.629 Z-0.029
X7.933 Y9.621
X7.982 Y9.61
X8.031 Y9.597
X8.08 Y9.579 Z-0.03
X8.129 Y9.559 Z-0.029
X8.15 Y9.549
X8.178 Y9.535
X8.227 Y9.508 Z-0.03
X8.24 Y9.5 Z-0.029
X8.276 Y9.474
X8.325 Y9.437
X8.366 Y9.402
X8.374 Y9.394
X8.423 Y9.347 Z-0.03
X9.151 Y8.619
X9.353 Y8.417
X9.394 Y8.374 Z-0.029
X9.402 Y8.366
X9.437 Y8.325
X9.475 Y8.276
X9.5 Y8.24
X9.508 Y8.227 Z-0.03
X9.535 Y8.178 Z-0.029
X9.549 Y8.15
X9.559 Y8.129
X9.579 Y8.08 Z-0.03
X9.597 Y8.031 Z-0.029
X9.61 Y7.982
X9.621 Y7.933
X9.629 Y7.884
X9.634 Y7.836 Z-0.03
X9.636 Y7.811 Z-0.029
Y7.787
Y7.738
X9.632 Y7.689
X9.627 Y7.64
X9.618 Y7.591
X9.607 Y7.542
X9.598 Y7.508
X9.593 Y7.493 Z-0.03
X9.575 Y7.444 Z-0.029
X9.554 Y7.395
X9.549 Y7.384
X9.529 Y7.346
X9.5 Y7.296
X9.466 Y7.248
X9.451 Y7.228
X9.428 Y7.199
X9.402 Y7.17
X9.383 Y7.15
X9.304 Y7.07 Z-0.03
X8.357 Y6.122
X8.325 Y6.089 Z-0.031
X8.311 Y6.073
X8.296 Y6.049
X8.291 Y6.036 Z-0.03
X8.288 Y6.024 Z-0.031
X8.285 Y6. Z-0.03
X8.288 Y5.976 Z-0.031
X8.291 Y5.964 Z-0.03
X8.296 Y5.951 Z-0.031
X8.311 Y5.927
X8.325 Y5.911
X8.357 Y5.878 Z-0.03
X9.304 Y4.93
X9.353 Y4.881
X9.383 Y4.85 Z-0.029
X9.402 Y4.83
X9.428 Y4.801
X9.451 Y4.772
X9.466 Y4.752
X9.5 Y4.703
X9.529 Y4.654
X9.549 Y4.616
X9.554 Y4.605
X9.575 Y4.556
X9.593 Y4.507 Z-0.03
X9.598 Y4.492 Z-0.029
X9.607 Y4.458
X9.618 Y4.409
X9.627 Y4.36
X9.632 Y4.311
X9.636 Y4.262
Y4.213
Y4.189
X9.634 Y4.164 Z-0.03
X9.629 Y4.116 Z-0.029
X9.621 Y4.067
X9.61 Y4.018
X9.597 Y3.969
X9.579 Y3.92 Z-0.03
X9.559 Y3.871 Z-0.029
X9.549 Y3.85
X9.535 Y3.822
X9.508 Y3.773 Z-0.03
X9.5 Y3.76 Z-0.029
X9.474 Y3.724
X9.437 Y3.675
X9.402 Y3.634
X9.394 Y3.626
X9.347 Y3.577 Z-0.03
X8.662 Y2.892
X8.417 Y2.647
X8.374 Y2.606 Z-0.029
X8.366 Y2.598
X8.325 Y2.563
X8.276 Y2.526
X8.24 Y2.5
X8.227 Y2.492 Z-0.03
X8.178 Y2.465 Z-0.029
X8.15 Y2.451
X8.129 Y2.441
X8.08 Y2.421 Z-0.03
X8.031 Y2.403 Z-0.029
X7.982 Y2.39
X7.933 Y2.379
X7.884 Y2.371
X7.836 Y2.366 Z-0.03
X7.811 Y2.364 Z-0.029
X7.787
X7.738
X7.689 Y2.368
X7.64 Y2.373
X7.591 Y2.382
X7.542 Y2.393
X7.508 Y2.402
X7.493 Y2.407 Z-0.03
X7.444 Y2.425 Z-0.029
X7.395 Y2.446
X7.384 Y2.451
X7.346 Y2.471
X7.296 Y2.5
X7.248 Y2.534
X7.228 Y2.549
X7.199 Y2.572
X7.17 Y2.598
X7.15 Y2.617
X7.07 Y2.696 Z-0.03
X6.122 Y3.643
X6.089 Y3.675 Z-0.031
X6.073 Y3.689
X6.049 Y3.704
X6.036 Y3.709 Z-0.03
X6.024 Y3.712
X6. Y3.715
X5.976 Y3.712 Z-0.031
X5.964 Y3.709 Z-0.03
X5.951 Y3.704 Z-0.031
X5.927 Y3.689
X5.911 Y3.675
X5.878 Y3.643 Z-0.03
X4.93 Y2.696
X4.881 Y2.647
X4.85 Y2.617 Z-0.029
X4.83 Y2.598
X4.801 Y2.572
X4.772 Y2.549
X4.752 Y2.534
X4.703 Y2.5
X4.654 Y2.471
X4.616 Y2.451
X4.605 Y2.446
X4.556 Y2.425
X4.507 Y2.407 Z-0.03
X4.492 Y2.402 Z-0.029
X4.458 Y2.393
X4.409 Y2.382
X4.36 Y2.373
X4.311 Y2.368
X4.262 Y2.364
X4.213
X4.189
X4.165 Y2.366 Z-0.03
X4.116 Y2.371 Z-0.029
X4.067 Y2.379
X4.018 Y2.39
X3.969 Y2.403
X3.92 Y2.421 Z-0.03
X3.871 Y2.441 Z-0.029
X3.85 Y2.451
X3.822 Y2.465
X3.773 Y2.492 Z-0.03
X3.76 Y2.5 Z-0.029
X3.724 Y2.525
X3.675 Y2.563
X3.634 Y2.598
X3.626 Y2.606
X3.577 Y2.653 Z-0.03
X2.745 Y3.485
X2.647 Y3.583
X2.606 Y3.626 Z-0.029
X2.598 Y3.634
X2.563 Y3.675
X2.526 Y3.724
X2.5 Y3.76
X2.492 Y3.773 Z-0.03
X2.465 Y3.822 Z-0.029
X2.451 Y3.85
X2.441 Y3.871
X2.421 Y3.92 Z-0.03
X2.402 Y3.972 Z-0.029
X2.39 Y4.018
X2.379 Y4.067
X2.371 Y4.116
X2.366 Y4.164 Z-0.03
X2.365 Y4.189 Z-0.029
X2.364 Y4.213
Y4.262
X2.368 Y4.311
X2.373 Y4.36
X2.382 Y4.409
X2.393 Y4.458
X2.402 Y4.492
X2.407 Y4.507 Z-0.03
X2.425 Y4.556 Z-0.029
X2.446 Y4.605
X2.451 Y4.616
X2.471 Y4.654
X2.5 Y4.704
X2.534 Y4.752
X2.549 Y4.772
X2.572 Y4.801
X2.598 Y4.83
X2.617 Y4.85
X2.696 Y4.931 Z-0.03
X3.643 Y5.878
X3.675 Y5.911 Z-0.031
X3.689 Y5.927
X3.704 Y5.951
X3.709 Y5.964 Z-0.03
X3.712 Y5.976
X3.715 Y6.
X3.712 Y6.024
X3.709 Y6.036
X3.704 Y6.049 Z-0.031
X3.689 Y6.073
X3.675 Y6.089
X3.643 Y6.122 Z-0.03
X2.696 Y7.07
X2.617 Y7.15 Z-0.029
X2.598 Y7.17
X2.572 Y7.199
X2.549 Y7.228
X2.534 Y7.248
X2.5 Y7.297
X2.471 Y7.346
X2.451 Y7.384
X2.446 Y7.395
X2.425 Y7.444
X2.407 Y7.493 Z-0.03
X2.402 Y7.508 Z-0.029
X2.393 Y7.542
X2.382 Y7.591
X2.373 Y7.64
X2.368 Y7.689
X2.364 Y7.738
Y7.787
X2.365 Y7.811
X2.366 Y7.836 Z-0.03
X2.371 Y7.884 Z-0.029
X2.379 Y7.933
X2.39 Y7.982
X2.403 Y8.031
X2.421 Y8.08 Z-0.03
X2.441 Y8.129 Z-0.029
X2.451 Y8.15
X2.465 Y8.178
X2.492 Y8.227 Z-0.03
X2.5 Y8.24 Z-0.029
X2.526 Y8.276
X2.563 Y8.325
X2.598 Y8.366
X2.606 Y8.374
X2.653 Y8.423 Z-0.03
X3.485 Y9.255
X3.583 Y9.353
X3.626 Y9.394 Z-0.029
X3.634 Y9.402
X3.675 Y9.437
X3.724 Y9.474
X3.76 Y9.5
X3.773 Y9.508 Z-0.03
X3.822 Y9.535 Z-0.029
X3.85 Y9.549
X3.871 Y9.559
X3.92 Y9.579 Z-0.03
X3.972 Y9.598 Z-0.029
X4.018 Y9.61
X4.067 Y9.621
X4.116 Y9.629
X4.165 Y9.634 Z-0.03
X4.189 Y9.635 Z-0.029
X4.213 Y9.636
X4.262
X4.311 Y9.632
X4.36 Y9.627
X4.409 Y9.618
X4.458 Y9.607
X4.492 Y9.598
X4.507 Y9.593 Z-0.03
X4.556 Y9.575 Z-0.029
X4.605 Y9.554
X4.616 Y9.549
X4.654 Y9.529
X4.704 Y9.5
X4.752 Y9.466
X4.772 Y9.451
X4.801 Y9.428
X4.83 Y9.402
X4.85 Y9.383
X4.931 Y9.304 Z-0.03
X5.878 Y8.357
X5.911 Y8.325 Z-0.031
X5.927 Y8.311
X5.951 Y8.296
X5.964 Y8.291 Z-0.03
X5.976 Y8.288
X6. Y8.285
X6.024 Y8.288
X6.036 Y8.291
X6.049 Y8.296 Z-0.031
X6.073 Y8.311
X6.089 Y8.325
X6.122 Y8.357 Z-0.03
X6.224 Y8.459
X6.233 Y8.469 Z-0.031
X6.241 Y8.48 Z-0.033
X6.259 Y8.509 Z-0.042
X6.263 Y8.516 Z-0.043
X6.27 Y8.524 Z-0.044
X6.274 Y8.528
X7.052 Y9.307
X7.101 Y9.355
X7.15 Y9.403 Z-0.043
X7.199 Y9.446
X7.248 Y9.483
X7.271 Y9.5
X7.297 Y9.517
X7.346 Y9.545
X7.354 Y9.549
X7.395 Y9.569
X7.444 Y9.59
X7.464 Y9.598
X7.493 Y9.608 Z-0.044
X7.542 Y9.622 Z-0.043
X7.591 Y9.633
X7.64 Y9.641
X7.689 Y9.647
X7.738 Y9.65
X7.787
X7.811
X7.836 Y9.649 Z-0.044
X7.854 Y9.647
X7.884 Y9.643 Z-0.043
X7.933 Y9.635
X7.982 Y9.624
X8.031 Y9.611
X8.08 Y9.595 Z-0.044
X8.129 Y9.574 Z-0.043
X8.183 Y9.549
X8.227 Y9.524
X8.265 Y9.5
X8.276 Y9.492
X8.33 Y9.451
X8.374 Y9.414
X8.387 Y9.402
X8.437 Y9.353 Z-0.044
X9.269 Y8.521
X9.367 Y8.423
X9.402 Y8.387 Z-0.043
X9.414 Y8.374
X9.455 Y8.325
X9.492 Y8.276
X9.5 Y8.265
X9.524 Y8.227 Z-0.044
X9.551 Y8.178 Z-0.043
X9.574 Y8.129
X9.595 Y8.08 Z-0.044
X9.611 Y8.031 Z-0.043
X9.624 Y7.982
X9.635 Y7.933
X9.643 Y7.884
X9.647 Y7.854 Z-0.044
X9.649 Y7.836
X9.65 Y7.811 Z-0.043
Y7.787
Y7.738
X9.647 Y7.688
X9.641 Y7.64
X9.633 Y7.591
X9.622 Y7.542
X9.608 Y7.493 Z-0.044
X9.598 Y7.464 Z-0.043
X9.59 Y7.444 Z-0.044
X9.569 Y7.395 Z-0.043
X9.549 Y7.354
X9.545 Y7.346
X9.517 Y7.297
X9.5 Y7.271
X9.483 Y7.248
X9.446 Y7.199
X9.402 Y7.149
X9.353 Y7.099 Z-0.044
X9.255 Y7.
X8.374 Y6.119
X8.33 Y6.073 Z-0.045
X8.325 Y6.068
X8.317 Y6.056
X8.308 Y6.04
X8.302 Y6.024
X8.301 Y6.012
X8.299 Y6. Z-0.044
X8.301 Y5.988 Z-0.045
X8.302 Y5.976
X8.308 Y5.96
X8.317 Y5.944
X8.325 Y5.932
X8.33 Y5.927
X8.377 Y5.878 Z-0.044
X9.307 Y4.948
X9.355 Y4.899
X9.403 Y4.85 Z-0.043
X9.446 Y4.801
X9.483 Y4.752
X9.5 Y4.729
X9.517 Y4.703
X9.545 Y4.654
X9.549 Y4.646
X9.569 Y4.605
X9.59 Y4.556
X9.598 Y4.536
X9.608 Y4.507 Z-0.044
X9.622 Y4.458 Z-0.043
X9.633 Y4.409
X9.641 Y4.36
X9.647 Y4.311
X9.65 Y4.262
Y4.213
Y4.189
X9.649 Y4.164 Z-0.044
X9.647 Y4.146
X9.643 Y4.116 Z-0.043
X9.635 Y4.067
X9.624 Y4.018
X9.611 Y3.969
X9.595 Y3.92 Z-0.044
X9.574 Y3.871 Z-0.043
X9.549 Y3.817
X9.524 Y3.773
X9.5 Y3.735
X9.492 Y3.724
X9.451 Y3.67
X9.414 Y3.626
X9.402 Y3.613
X9.353 Y3.563 Z-0.044
X8.521 Y2.731
X8.423 Y2.633
X8.387 Y2.598 Z-0.043
X8.374 Y2.586
X8.33 Y2.549
X8.276 Y2.508
X8.265 Y2.5
X8.227 Y2.476
X8.183 Y2.451
X8.129 Y2.426
X8.08 Y2.405 Z-0.044
X8.031 Y2.389 Z-0.043
X7.982 Y2.376
X7.933 Y2.365
X7.884 Y2.357
X7.854 Y2.353 Z-0.044
X7.836 Y2.351
X7.811 Y2.35 Z-0.043
X7.787
X7.738
X7.687 Y2.353
X7.64 Y2.359
X7.591 Y2.367
X7.542 Y2.378
X7.493 Y2.392 Z-0.044
X7.464 Y2.402 Z-0.043
X7.444 Y2.41
X7.395 Y2.431
X7.354 Y2.451
X7.346 Y2.455
X7.297 Y2.483
X7.271 Y2.5
X7.248 Y2.517
X7.199 Y2.554
X7.149 Y2.598
X7.099 Y2.647 Z-0.044
X7. Y2.745
X6.119 Y3.626
X6.073 Y3.67 Z-0.045
X6.068 Y3.675
X6.056 Y3.683
X6.04 Y3.692
X6.024 Y3.698
X6.012 Y3.699
X6. Y3.7 Z-0.044
X5.988 Y3.699 Z-0.045
X5.976 Y3.698
X5.96 Y3.692
X5.944 Y3.683
X5.932 Y3.675
X5.927 Y3.67
X5.878 Y3.623 Z-0.044
X4.948 Y2.693
X4.899 Y2.645
X4.85 Y2.597 Z-0.043
X4.801 Y2.554
X4.752 Y2.517
X4.729 Y2.5
X4.703 Y2.483
X4.654 Y2.455
X4.646 Y2.451
X4.605 Y2.431
X4.556 Y2.41 Z-0.044
X4.536 Y2.402 Z-0.043
X4.507 Y2.392 Z-0.044
X4.458 Y2.378 Z-0.043
X4.409 Y2.367
X4.36 Y2.359
X4.311 Y2.353
X4.262 Y2.35
X4.213
X4.189
X4.165 Y2.351 Z-0.044
X4.146 Y2.353
X4.116 Y2.357 Z-0.043
X4.067 Y2.365
X4.018 Y2.376
X3.969 Y2.389
X3.92 Y2.405 Z-0.044
X3.871 Y2.426 Z-0.043
X3.817 Y2.451
X3.773 Y2.476 Z-0.044
X3.735 Y2.5 Z-0.043
X3.724 Y2.508
X3.67 Y2.549
X3.626 Y2.586
X3.613 Y2.598
X3.563 Y2.647 Z-0.044
X2.696 Y3.514
X2.633 Y3.577
X2.598 Y3.613 Z-0.043
X2.586 Y3.626
X2.549 Y3.67
X2.508 Y3.724
X2.5 Y3.735
X2.476 Y3.773
X2.451 Y3.817
X2.426 Y3.871
X2.405 Y3.92 Z-0.044
X2.389 Y3.969 Z-0.043
X2.376 Y4.018
X2.365 Y4.067
X2.357 Y4.116
X2.353 Y4.146 Z-0.044
X2.351 Y4.164
X2.35 Y4.189 Z-0.043
Y4.213
Y4.262
X2.353 Y4.313
X2.359 Y4.36
X2.367 Y4.409
X2.378 Y4.458
X2.392 Y4.507 Z-0.044
X2.402 Y4.536 Z-0.043
X2.41 Y4.556
X2.431 Y4.605
X2.451 Y4.646
X2.455 Y4.654
X2.483 Y4.703
X2.5 Y4.729
X2.517 Y4.752
X2.554 Y4.801
X2.598 Y4.851
X2.647 Y4.901 Z-0.044
X2.745 Y5.
X3.626 Y5.881
X3.67 Y5.927 Z-0.045
X3.675 Y5.932
X3.683 Y5.944
X3.692 Y5.96
X3.698 Y5.976
X3.699 Y5.988
X3.7 Y6. Z-0.044
X3.699 Y6.012 Z-0.045
X3.698 Y6.024
X3.692 Y6.04
X3.683 Y6.056
X3.675 Y6.068
X3.67 Y6.073
X3.623 Y6.122 Z-0.044
X2.693 Y7.052
X2.645 Y7.101
X2.597 Y7.15 Z-0.043
X2.554 Y7.199
X2.517 Y7.248
X2.5 Y7.271
X2.483 Y7.297
X2.455 Y7.346
X2.451 Y7.354
X2.431 Y7.395
X2.41 Y7.444 Z-0.044
X2.402 Y7.464 Z-0.043
X2.392 Y7.493 Z-0.044
X2.378 Y7.542 Z-0.043
X2.367 Y7.591
X2.359 Y7.64
X2.353 Y7.689
X2.35 Y7.738
Y7.787
Y7.811
X2.351 Y7.836 Z-0.044
X2.353 Y7.854
X2.357 Y7.884 Z-0.043
X2.365 Y7.933
X2.376 Y7.982
X2.389 Y8.031
X2.405 Y8.08 Z-0.044
X2.426 Y8.129 Z-0.043
X2.451 Y8.183
X2.476 Y8.227
X2.5 Y8.265
X2.508 Y8.276
X2.549 Y8.33
X2.586 Y8.374
X2.598 Y8.387
X2.647 Y8.437 Z-0.044
X3.528 Y9.318
X3.577 Y9.367
X3.613 Y9.402 Z-0.043
X3.626 Y9.414
X3.675 Y9.455
X3.724 Y9.492
X3.735 Y9.5
X3.773 Y9.524
X3.817 Y9.549
X3.871 Y9.574
X3.92 Y9.595 Z-0.044
X3.969 Y9.611 Z-0.043
X4.018 Y9.624
X4.067 Y9.635
X4.116 Y9.643
X4.146 Y9.647 Z-0.044
X4.165 Y9.649
X4.189 Y9.65 Z-0.043
X4.213
X4.262
X4.312 Y9.647
X4.36 Y9.641
X4.409 Y9.633
X4.458 Y9.622
X4.507 Y9.608 Z-0.044
X4.536 Y9.598 Z-0.043
X4.556 Y9.59 Z-0.044
X4.605 Y9.569 Z-0.043
X4.646 Y9.549
X4.654 Y9.545
X4.703 Y9.517
X4.729 Y9.5
X4.752 Y9.483
X4.801 Y9.446
X4.851 Y9.402
X4.901 Y9.353 Z-0.044
X5. Y9.255
X5.881 Y8.374
X5.927 Y8.33 Z-0.045
X5.932 Y8.325
X5.944 Y8.317
X5.96 Y8.308
X5.976 Y8.302
X5.988 Y8.301
X6. Y8.3 Z-0.044
X6.012 Y8.301 Z-0.045
X6.024 Y8.302
X6.04 Y8.308
X6.056 Y8.317
X6.068 Y8.325
X6.073 Y8.33
X6.122 Y8.377 Z-0.044
X6.274 Y8.528
X6.283 Y8.539 Z-0.045
X6.291 Y8.55 Z-0.048
X6.309 Y8.58 Z-0.056
X6.314 Y8.587 Z-0.057
X6.321 Y8.595 Z-0.058
X6.325 Y8.599
X7.052 Y9.327
X7.101 Y9.375
X7.129 Y9.402 Z-0.057
X7.15 Y9.422
X7.183 Y9.451
X7.199 Y9.464
X7.248 Y9.501
X7.297 Y9.533
X7.324 Y9.549
X7.346 Y9.561
X7.395 Y9.584
X7.444 Y9.605 Z-0.058
X7.493 Y9.623
X7.542 Y9.636 Z-0.057
X7.591 Y9.647
X7.64 Y9.655
X7.689 Y9.661
X7.738 Y9.665
X7.787
X7.811 Y9.664
X7.836 Y9.663 Z-0.058
X7.884 Y9.657 Z-0.057
X7.933 Y9.649
X7.948 Y9.647
X7.982 Y9.639
X8.031 Y9.626
X8.08 Y9.61 Z-0.058
X8.129 Y9.589 Z-0.057
X8.178 Y9.567
X8.212 Y9.549
X8.227 Y9.54
X8.276 Y9.509
X8.289 Y9.5
X8.325 Y9.473
X8.352 Y9.451
X8.374 Y9.432
X8.407 Y9.402
X8.472 Y9.338 Z-0.058
X9.353 Y8.457
X9.402 Y8.407 Z-0.057
X9.432 Y8.374
X9.451 Y8.352
X9.473 Y8.325
X9.5 Y8.289
X9.509 Y8.276
X9.54 Y8.227 Z-0.058
X9.549 Y8.212 Z-0.057
X9.567 Y8.178
X9.589 Y8.129
X9.61 Y8.08 Z-0.058
X9.626 Y8.031 Z-0.057
X9.639 Y7.982
X9.647 Y7.948
X9.649 Y7.933
X9.657 Y7.884 Z-0.058
X9.663 Y7.836
X9.664 Y7.811 Z-0.057
X9.665 Y7.787
Y7.738
X9.661 Y7.689
X9.655 Y7.64
X9.647 Y7.588
X9.636 Y7.542
X9.623 Y7.493 Z-0.058
X9.605 Y7.444
X9.584 Y7.395 Z-0.057
X9.561 Y7.346
X9.549 Y7.324
X9.533 Y7.297
X9.5 Y7.247
X9.464 Y7.199
X9.451 Y7.183
X9.422 Y7.15
X9.402 Y7.129
X9.327 Y7.052 Z-0.058
X8.397 Y6.122
X8.374 Y6.099 Z-0.059
X8.349 Y6.073
X8.335 Y6.058
X8.328 Y6.047 Z-0.06
X8.325 Y6.042
X8.317 Y6.024 Z-0.059
X8.315 Y6.012
X8.314 Y6.
X8.315 Y5.988
X8.317 Y5.976
X8.325 Y5.957
X8.334 Y5.944
X8.349 Y5.927
X8.374 Y5.901
X8.544 Y5.731 Z-0.058
X9.327 Y4.948
X9.375 Y4.899
X9.402 Y4.871 Z-0.057
X9.422 Y4.85
X9.451 Y4.817
X9.464 Y4.801
X9.501 Y4.752
X9.533 Y4.703
X9.549 Y4.676
X9.561 Y4.654
X9.584 Y4.605
X9.605 Y4.556 Z-0.058
X9.623 Y4.507
X9.636 Y4.458 Z-0.057
X9.647 Y4.409
X9.655 Y4.36
X9.661 Y4.311
X9.665 Y4.262
Y4.213
X9.664 Y4.189
X9.663 Y4.164 Z-0.058
X9.657 Y4.116
X9.649 Y4.067 Z-0.057
X9.647 Y4.052
X9.639 Y4.018
X9.626 Y3.969
X9.61 Y3.92 Z-0.058
X9.589 Y3.871 Z-0.057
X9.567 Y3.822
X9.549 Y3.788
X9.54 Y3.773
X9.509 Y3.724
X9.5 Y3.711
X9.473 Y3.675
X9.451 Y3.648
X9.432 Y3.626
X9.402 Y3.593
X9.338 Y3.528 Z-0.058
X8.457 Y2.647
X8.407 Y2.598 Z-0.057
X8.374 Y2.568
X8.352 Y2.549
X8.325 Y2.527
X8.289 Y2.5
X8.276 Y2.491
X8.227 Y2.46
X8.212 Y2.451
X8.178 Y2.433
X8.129 Y2.411
X8.08 Y2.39 Z-0.058
X8.031 Y2.374 Z-0.057
X7.982 Y2.361
X7.948 Y2.353
X7.933 Y2.351
X7.884 Y2.343 Z-0.058
X7.836 Y2.337
X7.811 Y2.336 Z-0.057
X7.787 Y2.335
X7.738
X7.689 Y2.339
X7.64 Y2.345
X7.588 Y2.353
X7.542 Y2.364
X7.493 Y2.377 Z-0.058
X7.444 Y2.395
X7.395 Y2.416 Z-0.057
X7.346 Y2.439
X7.324 Y2.451
X7.297 Y2.467
X7.247 Y2.5
X7.199 Y2.536
X7.183 Y2.549
X7.15 Y2.578
X7.129 Y2.598
X7.079 Y2.647 Z-0.058
X6.98 Y2.745
X6.122 Y3.603
X6.099 Y3.626 Z-0.059
X6.073 Y3.651
X6.056 Y3.666
X6.043 Y3.675
X6.024 Y3.683
X6.012 Y3.685
X6. Y3.686
X5.988 Y3.685
X5.976 Y3.683
X5.958 Y3.675 Z-0.06
X5.953 Y3.672
X5.942 Y3.665 Z-0.059
X5.927 Y3.651
X5.901 Y3.626
X5.829 Y3.554 Z-0.058
X4.948 Y2.673
X4.871 Y2.598 Z-0.057
X4.85 Y2.578
X4.817 Y2.549
X4.801 Y2.536
X4.752 Y2.499
X4.703 Y2.467
X4.676 Y2.451
X4.654 Y2.439
X4.605 Y2.416
X4.556 Y2.395 Z-0.058
X4.507 Y2.377
X4.458 Y2.364 Z-0.057
X4.409 Y2.353
X4.36 Y2.345
X4.311 Y2.339
X4.262 Y2.335
X4.213
X4.189 Y2.336
X4.165 Y2.337 Z-0.058
X4.116 Y2.343
X4.067 Y2.351 Z-0.057
X4.052 Y2.353
X4.018 Y2.361
X3.969 Y2.374
X3.92 Y2.39 Z-0.058
X3.871 Y2.411 Z-0.057
X3.822 Y2.433
X3.788 Y2.451
X3.773 Y2.46 Z-0.058
X3.724 Y2.491 Z-0.057
X3.711 Y2.5
X3.675 Y2.527
X3.648 Y2.549
X3.626 Y2.568
X3.593 Y2.598
X3.528 Y2.662 Z-0.058
X2.647 Y3.543
X2.598 Y3.593 Z-0.057
X2.568 Y3.626
X2.549 Y3.648
X2.527 Y3.675
X2.5 Y3.711
X2.491 Y3.724
X2.46 Y3.773
X2.451 Y3.788
X2.433 Y3.822
X2.411 Y3.871
X2.39 Y3.92 Z-0.058
X2.374 Y3.969 Z-0.057
X2.361 Y4.018
X2.353 Y4.052
X2.351 Y4.067
X2.343 Y4.116
X2.337 Y4.164 Z-0.058
X2.336 Y4.189 Z-0.057
X2.335 Y4.213
Y4.262
X2.339 Y4.311
X2.345 Y4.36
X2.353 Y4.413
X2.364 Y4.458
X2.377 Y4.507 Z-0.058
X2.395 Y4.556
X2.416 Y4.605 Z-0.057
X2.439 Y4.654
X2.451 Y4.676
X2.467 Y4.703
X2.5 Y4.753
X2.536 Y4.801
X2.549 Y4.817
X2.578 Y4.85
X2.598 Y4.871
X2.673 Y4.948 Z-0.058
X3.603 Y5.878
X3.626 Y5.901 Z-0.059
X3.651 Y5.927
X3.666 Y5.944
X3.675 Y5.957
X3.683 Y5.976
X3.685 Y5.988
X3.686 Y6.
X3.685 Y6.012
X3.683 Y6.024
X3.675 Y6.042 Z-0.06
X3.672 Y6.047
X3.665 Y6.058 Z-0.059
X3.651 Y6.073
X3.626 Y6.099
X3.528 Y6.197 Z-0.058
X2.673 Y7.052
X2.598 Y7.129 Z-0.057
X2.578 Y7.15
X2.549 Y7.183
X2.536 Y7.199
X2.499 Y7.248
X2.467 Y7.297
X2.451 Y7.324
X2.439 Y7.346
X2.416 Y7.395
X2.395 Y7.444 Z-0.058
X2.377 Y7.493
X2.364 Y7.542 Z-0.057
X2.353 Y7.591
X2.345 Y7.64
X2.339 Y7.689
X2.335 Y7.738
Y7.787
X2.336 Y7.811
X2.337 Y7.836 Z-0.058
X2.343 Y7.884 Z-0.057
X2.351 Y7.933
X2.353 Y7.948
X2.361 Y7.982
X2.374 Y8.031
X2.39 Y8.08 Z-0.058
X2.411 Y8.129 Z-0.057
X2.433 Y8.178
X2.451 Y8.212
X2.46 Y8.227
X2.491 Y8.276
X2.5 Y8.289
X2.527 Y8.325
X2.549 Y8.352
X2.568 Y8.374
X2.598 Y8.407
X2.662 Y8.472 Z-0.058
X3.543 Y9.353
X3.593 Y9.402 Z-0.057
X3.626 Y9.432
X3.648 Y9.451
X3.675 Y9.473
X3.711 Y9.5
X3.724 Y9.509
X3.773 Y9.54 Z-0.058
X3.788 Y9.549 Z-0.057
X3.822 Y9.567
X3.871 Y9.589
X3.92 Y9.61 Z-0.058
X3.969 Y9.626 Z-0.057
X4.018 Y9.639
X4.052 Y9.647
X4.067 Y9.649
X4.116 Y9.657
X4.165 Y9.663 Z-0.058
X4.189 Y9.664 Z-0.057
X4.213 Y9.665
X4.262
X4.311 Y9.661
X4.36 Y9.655
X4.413 Y9.647
X4.458 Y9.636
X4.507 Y9.623 Z-0.058
X4.556 Y9.605
X4.605 Y9.584 Z-0.057
X4.654 Y9.561
X4.676 Y9.549
X4.703 Y9.533
X4.753 Y9.5
X4.801 Y9.464
X4.817 Y9.451
X4.85 Y9.422
X4.871 Y9.402
X4.948 Y9.327 Z-0.058
X5.878 Y8.397
X5.901 Y8.374 Z-0.059
X5.927 Y8.349
X5.942 Y8.335
X5.953 Y8.328 Z-0.06
X5.958 Y8.325
X5.976 Y8.317 Z-0.059
X5.988 Y8.315
X6. Y8.314
X6.012 Y8.315
X6.024 Y8.317
X6.043 Y8.325
X6.056 Y8.334
X6.073 Y8.349
X6.099 Y8.374
X6.269 Y8.544 Z-0.058
X6.325 Y8.599
X6.334 Y8.61 Z-0.059
X6.341 Y8.621 Z-0.062
X6.36 Y8.65 Z-0.07
X6.364 Y8.657 Z-0.071
X6.371 Y8.665 Z-0.072
X6.375 Y8.669 Z-0.073
X7.009 Y9.304 Z-0.072
X7.059 Y9.353
X7.109 Y9.402
X7.15 Y9.441 Z-0.071
X7.162 Y9.451
X7.199 Y9.482
X7.223 Y9.5
X7.248 Y9.518
X7.297 Y9.549
X7.346 Y9.577
X7.39 Y9.598 Z-0.072
X7.444 Y9.62
X7.493 Y9.637
X7.526 Y9.647 Z-0.071
X7.542 Y9.651
X7.591 Y9.662
X7.64 Y9.669
X7.689 Y9.675
X7.738 Y9.679 Z-0.072
X7.787 Z-0.071
X7.811 Y9.678
X7.836 Y9.677 Z-0.072
X7.884 Y9.671
X7.933 Y9.664 Z-0.071
X7.982 Y9.653
X8.01 Y9.647
X8.031 Y9.641 Z-0.072
X8.08 Y9.625
X8.129 Y9.605
X8.145 Y9.598 Z-0.071
X8.178 Y9.582
X8.227 Y9.556 Z-0.072
X8.24 Y9.549
X8.276 Y9.526 Z-0.071
X8.313 Y9.5
X8.325 Y9.491
X8.374 Y9.451
X8.427 Y9.402 Z-0.072
X8.477 Y9.353
X9.358 Y8.472
X9.406 Y8.423
X9.451 Y8.374 Z-0.071
X9.491 Y8.325
X9.5 Y8.313
X9.526 Y8.276
X9.549 Y8.24 Z-0.072
X9.556 Y8.227
X9.582 Y8.178 Z-0.071
X9.598 Y8.145
X9.605 Y8.129 Z-0.072
X9.625 Y8.08
X9.641 Y8.031 Z-0.071
X9.647 Y8.009
X9.653 Y7.982
X9.664 Y7.933
X9.671 Y7.884 Z-0.072
X9.677 Y7.836
X9.678 Y7.811 Z-0.071
X9.679 Y7.787
Y7.738 Z-0.072
X9.675 Y7.689 Z-0.071
X9.669 Y7.64
X9.662 Y7.591
X9.651 Y7.542
X9.647 Y7.526
X9.637 Y7.493 Z-0.072
X9.62 Y7.444
X9.598 Y7.39
X9.576 Y7.346 Z-0.071
X9.549 Y7.296
X9.518 Y7.248
X9.5 Y7.223
X9.482 Y7.199
X9.451 Y7.162
X9.441 Y7.15
X9.395 Y7.101 Z-0.072
X9.347 Y7.052
X9.102 Y6.808
X8.417 Y6.122
X8.369 Y6.073 Z-0.073
X8.342 Y6.042 Z-0.074
X8.336 Y6.033
X8.332 Y6.024
X8.329 Y6.012 Z-0.073
X8.328 Y6.
X8.329 Y5.988
X8.332 Y5.976 Z-0.074
X8.336 Y5.966
X8.342 Y5.957
X8.369 Y5.927 Z-0.073
X8.423 Y5.872
X9.304 Y4.991 Z-0.072
X9.353 Y4.941
X9.402 Y4.891
X9.441 Y4.85 Z-0.071
X9.451 Y4.838
X9.482 Y4.801
X9.5 Y4.777
X9.518 Y4.752
X9.549 Y4.703
X9.576 Y4.654
X9.598 Y4.61 Z-0.072
X9.62 Y4.556
X9.637 Y4.507
X9.647 Y4.474 Z-0.071
X9.651 Y4.458
X9.662 Y4.409
X9.669 Y4.36
X9.675 Y4.311
X9.679 Y4.262 Z-0.072
Y4.213 Z-0.071
X9.678 Y4.189
X9.677 Y4.164 Z-0.072
X9.671 Y4.116
X9.664 Y4.067 Z-0.071
X9.653 Y4.018
X9.647 Y3.991
X9.641 Y3.969
X9.625 Y3.92 Z-0.072
X9.605 Y3.871
X9.598 Y3.855 Z-0.071
X9.582 Y3.822
X9.556 Y3.773
X9.549 Y3.76 Z-0.072
X9.526 Y3.724 Z-0.071
X9.5 Y3.687
X9.491 Y3.675
X9.451 Y3.626
X9.402 Y3.573 Z-0.072
X9.353 Y3.523
X8.472 Y2.642
X8.423 Y2.594
X8.374 Y2.549 Z-0.071
X8.325 Y2.509
X8.313 Y2.5
X8.276 Y2.474
X8.24 Y2.451 Z-0.072
X8.227 Y2.444 Z-0.071
X8.178 Y2.418
X8.145 Y2.402
X8.129 Y2.395 Z-0.072
X8.08 Y2.375
X8.031 Y2.359 Z-0.071
X8.009 Y2.353
X7.982 Y2.347
X7.933 Y2.336
X7.884 Y2.329 Z-0.072
X7.836 Y2.323
X7.811 Y2.322 Z-0.071
X7.787 Y2.321
X7.738 Z-0.072
X7.689 Y2.325 Z-0.071
X7.64 Y2.331
X7.591 Y2.338
X7.542 Y2.349
X7.526 Y2.353
X7.493 Y2.363 Z-0.072
X7.444 Y2.38
X7.39 Y2.402
X7.346 Y2.424 Z-0.071
X7.296 Y2.451
X7.248 Y2.482
X7.223 Y2.5
X7.199 Y2.518
X7.162 Y2.549
X7.15 Y2.559
X7.101 Y2.605 Z-0.072
X7.052 Y2.653
X6.808 Y2.898
X6.122 Y3.583 Z-0.073
X6.073 Y3.631
X6.043 Y3.658 Z-0.074
X6.034 Y3.664
X6.024 Y3.668
X6.012 Y3.671 Z-0.073
X6. Y3.672
X5.988 Y3.671
X5.976 Y3.668 Z-0.074
X5.967 Y3.664
X5.958 Y3.658
X5.927 Y3.631 Z-0.073
X5.872 Y3.577
X4.99 Y2.696 Z-0.072
X4.941 Y2.647
X4.892 Y2.598
X4.85 Y2.559 Z-0.071
X4.838 Y2.549
X4.801 Y2.518
X4.777 Y2.5
X4.752 Y2.482
X4.703 Y2.451
X4.654 Y2.424
X4.605 Y2.4 Z-0.072
X4.556 Y2.38
X4.507 Y2.363
X4.474 Y2.353 Z-0.071
X4.458 Y2.349
X4.409 Y2.338
X4.36 Y2.331
X4.311 Y2.325
X4.262 Y2.321 Z-0.072
X4.213 Z-0.071
X4.189 Y2.322
X4.165 Y2.323 Z-0.072
X4.116 Y2.329
X4.067 Y2.336 Z-0.071
X4.018 Y2.347
X3.991 Y2.353
X3.969 Y2.359
X3.92 Y2.375 Z-0.072
X3.871 Y2.395
X3.855 Y2.402 Z-0.071
X3.822 Y2.418
X3.773 Y2.444 Z-0.072
X3.76 Y2.451
X3.724 Y2.474 Z-0.071
X3.687 Y2.5
X3.675 Y2.509
X3.626 Y2.549
X3.573 Y2.598 Z-0.072
X3.523 Y2.647
X2.642 Y3.528
X2.594 Y3.577
X2.549 Y3.626 Z-0.071
X2.509 Y3.675
X2.5 Y3.687
X2.474 Y3.724
X2.451 Y3.76 Z-0.072
X2.444 Y3.773 Z-0.071
X2.418 Y3.822
X2.402 Y3.855
X2.395 Y3.871 Z-0.072
X2.375 Y3.92
X2.359 Y3.969
X2.353 Y3.99 Z-0.071
X2.347 Y4.018
X2.336 Y4.067
X2.329 Y4.116 Z-0.072
X2.323 Y4.164
X2.322 Y4.189 Z-0.071
X2.321 Y4.213
Y4.262 Z-0.072
X2.325 Y4.311 Z-0.071
X2.331 Y4.36
X2.338 Y4.409
X2.349 Y4.458
X2.353 Y4.474
X2.363 Y4.507 Z-0.072
X2.38 Y4.556
X2.402 Y4.61
X2.423 Y4.654 Z-0.071
X2.451 Y4.704
X2.482 Y4.752
X2.5 Y4.777
X2.518 Y4.801
X2.549 Y4.838
X2.559 Y4.85
X2.605 Y4.899 Z-0.072
X2.653 Y4.948
X3.332 Y5.627 Z-0.073
X3.583 Y5.878
X3.631 Y5.927
X3.658 Y5.957 Z-0.074
X3.664 Y5.966
X3.668 Y5.976
X3.671 Y5.988 Z-0.073
X3.672 Y6.
X3.671 Y6.012
X3.668 Y6.024 Z-0.074
X3.664 Y6.033
X3.658 Y6.042
X3.631 Y6.073 Z-0.073
X3.577 Y6.128
X2.696 Y7.009 Z-0.072
X2.647 Y7.059
X2.598 Y7.108
X2.559 Y7.15 Z-0.071
X2.549 Y7.162
X2.518 Y7.199
X2.5 Y7.223
X2.482 Y7.248
X2.451 Y7.297
X2.424 Y7.346
X2.4 Y7.395 Z-0.072
X2.38 Y7.444
X2.363 Y7.493
X2.353 Y7.526 Z-0.071
X2.349 Y7.542
X2.338 Y7.591
X2.331 Y7.64
X2.325 Y7.689
X2.321 Y7.738 Z-0.072
Y7.787 Z-0.071
X2.322 Y7.811
X2.323 Y7.836 Z-0.072
X2.329 Y7.884
X2.336 Y7.933 Z-0.071
X2.347 Y7.982
X2.353 Y8.01
X2.359 Y8.031 Z-0.072
X2.375 Y8.08
X2.395 Y8.129
X2.402 Y8.145 Z-0.071
X2.418 Y8.178
X2.444 Y8.227 Z-0.072
X2.451 Y8.24
X2.474 Y8.276 Z-0.071
X2.5 Y8.313
X2.509 Y8.325
X2.549 Y8.374
X2.598 Y8.427 Z-0.072
X2.647 Y8.477
X3.528 Y9.358
X3.577 Y9.406
X3.626 Y9.451 Z-0.071
X3.675 Y9.491
X3.687 Y9.5
X3.724 Y9.526
X3.76 Y9.549 Z-0.072
X3.773 Y9.556
X3.822 Y9.582 Z-0.071
X3.855 Y9.598
X3.871 Y9.605 Z-0.072
X3.92 Y9.625
X3.969 Y9.641
X3.99 Y9.647 Z-0.071
X4.018 Y9.653
X4.067 Y9.664
X4.116 Y9.671 Z-0.072
X4.165 Y9.677
X4.189 Y9.678 Z-0.071
X4.213 Y9.679
X4.262 Z-0.072
X4.311 Y9.675 Z-0.071
X4.36 Y9.669
X4.409 Y9.662
X4.458 Y9.651
X4.474 Y9.647
X4.507 Y9.637 Z-0.072
X4.556 Y9.62
X4.61 Y9.598
X4.654 Y9.576 Z-0.071
X4.704 Y9.549
X4.752 Y9.518
X4.777 Y9.5
X4.801 Y9.482
X4.838 Y9.451
X4.85 Y9.441
X4.899 Y9.395 Z-0.072
X4.948 Y9.347
X5.192 Y9.102
X5.878 Y8.417 Z-0.073
X5.927 Y8.369
X5.958 Y8.342 Z-0.074
X5.967 Y8.336
X5.976 Y8.332
X5.988 Y8.329 Z-0.073
X6. Y8.328
X6.012 Y8.329
X6.024 Y8.332 Z-0.074
X6.034 Y8.336
X6.043 Y8.342
X6.073 Y8.369 Z-0.073
X6.128 Y8.423
X6.375 Y8.669
X6.384 Y8.68 Z-0.074
X6.392 Y8.691 Z-0.076
X6.41 Y8.721 Z-0.084
X6.415 Y8.728 Z-0.085
X6.422 Y8.736 Z-0.087
X6.426 Y8.74
X7.039 Y9.353 Z-0.086
X7.101 Y9.414
X7.14 Y9.451 Z-0.085
X7.15 Y9.46
X7.199 Y9.5
X7.248 Y9.535
X7.269 Y9.549
X7.297 Y9.566
X7.346 Y9.592
X7.357 Y9.598
X7.395 Y9.615 Z-0.086
X7.444 Y9.635
X7.476 Y9.647
X7.493 Y9.652
X7.542 Y9.665 Z-0.085
X7.591 Y9.676
X7.64 Y9.684
X7.689 Y9.689
X7.738 Y9.693 Z-0.086
X7.787 Z-0.085
X7.811 Y9.692 Z-0.086
X7.836 Y9.691
X7.884 Y9.686
X7.933 Y9.678 Z-0.085
X7.982 Y9.668
X8.031 Y9.655 Z-0.086
X8.059 Y9.647
X8.08 Y9.64
X8.129 Y9.62
X8.179 Y9.598 Z-0.085
X8.227 Y9.573
X8.276 Y9.543 Z-0.086
X8.325 Y9.508 Z-0.085
X8.336 Y9.5
X8.374 Y9.469
X8.395 Y9.451
X8.423 Y9.426 Z-0.086
X8.472 Y9.378
X8.766 Y9.084
X9.353 Y8.497
X9.402 Y8.447
X9.426 Y8.423
X9.451 Y8.395 Z-0.085
X9.469 Y8.374
X9.5 Y8.336
X9.508 Y8.325
X9.543 Y8.276 Z-0.086
X9.573 Y8.227
X9.598 Y8.178 Z-0.085
X9.62 Y8.129 Z-0.086
X9.64 Y8.08
X9.647 Y8.059 Z-0.085
X9.655 Y8.031 Z-0.086
X9.668 Y7.982 Z-0.085
X9.678 Y7.933 Z-0.086
X9.686 Y7.884
X9.691 Y7.836
X9.692 Y7.811
X9.693 Y7.787 Z-0.085
Y7.738 Z-0.086
X9.689 Y7.689 Z-0.085
X9.684 Y7.64
X9.676 Y7.591
X9.665 Y7.542 Z-0.086
X9.652 Y7.493
X9.647 Y7.476
X9.635 Y7.444
X9.615 Y7.395
X9.598 Y7.357 Z-0.085
X9.592 Y7.346
X9.566 Y7.297
X9.549 Y7.269
X9.535 Y7.248
X9.5 Y7.199
X9.46 Y7.15
X9.451 Y7.14
X9.415 Y7.101 Z-0.086
X9.353 Y7.039
X9.01 Y6.696 Z-0.087
X8.423 Y6.108
X8.389 Y6.073
X8.374 Y6.058 Z-0.088
X8.355 Y6.036
X8.351 Y6.03
X8.348 Y6.024
X8.344 Y6.012
X8.342 Y6. Z-0.087
X8.344 Y5.988 Z-0.088
X8.348 Y5.976
X8.351 Y5.97
X8.355 Y5.964
X8.374 Y5.942
X8.389 Y5.927 Z-0.087
X8.437 Y5.878
X9.353 Y4.961 Z-0.086
X9.414 Y4.899
X9.451 Y4.86 Z-0.085
X9.46 Y4.85
X9.5 Y4.801
X9.535 Y4.752
X9.549 Y4.731
X9.566 Y4.703
X9.592 Y4.654
X9.598 Y4.643
X9.615 Y4.605 Z-0.086
X9.635 Y4.556
X9.647 Y4.524
X9.652 Y4.507
X9.665 Y4.458
X9.676 Y4.409 Z-0.085
X9.684 Y4.36
X9.689 Y4.311
X9.693 Y4.262 Z-0.086
Y4.213 Z-0.085
X9.692 Y4.189 Z-0.086
X9.691 Y4.164
X9.686 Y4.116
X9.678 Y4.067 Z-0.085
X9.668 Y4.018
X9.655 Y3.969 Z-0.086
X9.647 Y3.941 Z-0.085
X9.64 Y3.92 Z-0.086
X9.62 Y3.871
X9.598 Y3.821 Z-0.085
X9.572 Y3.773
X9.549 Y3.733 Z-0.086
X9.543 Y3.724
X9.508 Y3.675 Z-0.085
X9.5 Y3.664
X9.469 Y3.626
X9.451 Y3.605
X9.426 Y3.577 Z-0.086
X9.378 Y3.528
X9.084 Y3.234
X8.497 Y2.647
X8.447 Y2.598
X8.423 Y2.574
X8.395 Y2.549 Z-0.085
X8.374 Y2.531
X8.336 Y2.5
X8.325 Y2.492
X8.276 Y2.457 Z-0.086
X8.267 Y2.451
X8.227 Y2.428 Z-0.085
X8.178 Y2.402
X8.129 Y2.38 Z-0.086
X8.08 Y2.36
X8.059 Y2.353 Z-0.085
X8.031 Y2.345 Z-0.086
X7.982 Y2.332 Z-0.085
X7.933 Y2.322
X7.884 Y2.314 Z-0.086
X7.836 Y2.309
X7.811 Y2.308
X7.787 Y2.307 Z-0.085
X7.738 Z-0.086
X7.689 Y2.311 Z-0.085
X7.64 Y2.316
X7.591 Y2.324
X7.542 Y2.335 Z-0.086
X7.493 Y2.348
X7.476 Y2.353
X7.444 Y2.365
X7.395 Y2.385
X7.357 Y2.402 Z-0.085
X7.346 Y2.408
X7.297 Y2.434
X7.269 Y2.451
X7.248 Y2.465
X7.199 Y2.5
X7.15 Y2.54
X7.14 Y2.549
X7.101 Y2.586 Z-0.086
X7.039 Y2.647
X6.108 Y3.577 Z-0.087
X6.073 Y3.611
X6.058 Y3.626 Z-0.088
X6.036 Y3.645
X6.03 Y3.649
X6.024 Y3.652
X6.012 Y3.656
X6. Y3.658 Z-0.087
X5.988 Y3.656 Z-0.088
X5.976 Y3.652
X5.97 Y3.649
X5.964 Y3.645
X5.942 Y3.626
X5.927 Y3.611 Z-0.087
X5.878 Y3.563
X4.997 Y2.682
X4.948 Y2.634 Z-0.086
X4.899 Y2.585
X4.86 Y2.549 Z-0.085
X4.85 Y2.54
X4.8 Y2.5
X4.752 Y2.465
X4.731 Y2.451
X4.703 Y2.434
X4.654 Y2.408
X4.643 Y2.402
X4.605 Y2.385 Z-0.086
X4.556 Y2.365
X4.524 Y2.353
X4.507 Y2.348
X4.458 Y2.335
X4.409 Y2.324 Z-0.085
X4.36 Y2.316
X4.311 Y2.311
X4.262 Y2.307 Z-0.086
X4.213 Z-0.085
X4.189 Y2.308 Z-0.086
X4.165 Y2.309
X4.116 Y2.314
X4.067 Y2.322
X4.018 Y2.332 Z-0.085
X3.969 Y2.345 Z-0.086
X3.941 Y2.353 Z-0.085
X3.92 Y2.36 Z-0.086
X3.871 Y2.38
X3.821 Y2.402 Z-0.085
X3.773 Y2.427 Z-0.086
X3.724 Y2.457
X3.675 Y2.492 Z-0.085
X3.664 Y2.5
X3.626 Y2.531
X3.605 Y2.549
X3.577 Y2.574 Z-0.086
X3.553 Y2.598
X3.454 Y2.696
X2.647 Y3.503
X2.598 Y3.553
X2.574 Y3.577
X2.549 Y3.605 Z-0.085
X2.531 Y3.626
X2.5 Y3.664
X2.492 Y3.675
X2.457 Y3.724 Z-0.086
X2.427 Y3.773 Z-0.085
X2.402 Y3.822
X2.38 Y3.871 Z-0.086
X2.36 Y3.92
X2.353 Y3.941
X2.345 Y3.969
X2.332 Y4.018 Z-0.085
X2.322 Y4.067
X2.314 Y4.116 Z-0.086
X2.309 Y4.164
X2.308 Y4.189
X2.307 Y4.213 Z-0.085
Y4.262 Z-0.086
X2.311 Y4.311 Z-0.085
X2.316 Y4.36
X2.324 Y4.409
X2.335 Y4.458
X2.348 Y4.507 Z-0.086
X2.353 Y4.524
X2.365 Y4.556
X2.385 Y4.605
X2.402 Y4.643 Z-0.085
X2.408 Y4.654
X2.434 Y4.703
X2.451 Y4.731
X2.465 Y4.752
X2.5 Y4.801
X2.54 Y4.85
X2.549 Y4.86
X2.585 Y4.899 Z-0.086
X2.647 Y4.961
X3.577 Y5.892 Z-0.087
X3.611 Y5.927
X3.626 Y5.942 Z-0.088
X3.645 Y5.964
X3.649 Y5.97
X3.652 Y5.976
X3.656 Y5.988
X3.658 Y6. Z-0.087
X3.656 Y6.012 Z-0.088
X3.652 Y6.024
X3.649 Y6.03
X3.645 Y6.036
X3.626 Y6.058
X3.611 Y6.073 Z-0.087
X3.563 Y6.122
X2.682 Y7.003
X2.598 Y7.088 Z-0.086
X2.586 Y7.101
X2.549 Y7.14 Z-0.085
X2.54 Y7.15
X2.5 Y7.199
X2.465 Y7.248
X2.451 Y7.269
X2.434 Y7.297
X2.408 Y7.346
X2.402 Y7.357
X2.385 Y7.395 Z-0.086
X2.365 Y7.444
X2.353 Y7.476
X2.348 Y7.493
X2.335 Y7.542 Z-0.085
X2.324 Y7.591
X2.316 Y7.64
X2.311 Y7.689
X2.307 Y7.738 Z-0.086
Y7.787 Z-0.085
X2.308 Y7.811 Z-0.086
X2.309 Y7.836
X2.314 Y7.884
X2.322 Y7.933 Z-0.085
X2.332 Y7.982
X2.345 Y8.031 Z-0.086
X2.353 Y8.059
X2.36 Y8.08
X2.38 Y8.129
X2.402 Y8.179 Z-0.085
X2.427 Y8.227 Z-0.086
X2.457 Y8.276
X2.492 Y8.325 Z-0.085
X2.5 Y8.336
X2.531 Y8.374
X2.549 Y8.395
X2.574 Y8.423 Z-0.086
X2.598 Y8.447
X2.696 Y8.546
X3.503 Y9.353
X3.553 Y9.402
X3.577 Y9.426
X3.605 Y9.451 Z-0.085
X3.626 Y9.469
X3.664 Y9.5
X3.675 Y9.508
X3.724 Y9.543 Z-0.086
X3.773 Y9.573
X3.822 Y9.598 Z-0.085
X3.871 Y9.62 Z-0.086
X3.92 Y9.64
X3.941 Y9.647
X3.969 Y9.655
X4.018 Y9.668 Z-0.085
X4.067 Y9.678
X4.116 Y9.686 Z-0.086
X4.165 Y9.691
X4.189 Y9.692
X4.213 Y9.693 Z-0.085
X4.262 Z-0.086
X4.311 Y9.689 Z-0.085
X4.36 Y9.684
X4.409 Y9.676
X4.458 Y9.665
X4.507 Y9.652 Z-0.086
X4.524 Y9.647
X4.556 Y9.635
X4.605 Y9.615
X4.643 Y9.598 Z-0.085
X4.654 Y9.592
X4.703 Y9.566
X4.731 Y9.549
X4.752 Y9.535
X4.801 Y9.5
X4.85 Y9.46
X4.86 Y9.451
X4.899 Y9.415 Z-0.086
X4.961 Y9.353
X5.892 Y8.423 Z-0.087
X5.927 Y8.389
X5.942 Y8.374 Z-0.088
X5.964 Y8.355
X5.97 Y8.351
X5.976 Y8.348
X5.988 Y8.344
X6. Y8.342 Z-0.087
X6.012 Y8.344 Z-0.088
X6.024 Y8.348
X6.03 Y8.351
X6.036 Y8.355
X6.058 Y8.374
X6.073 Y8.389 Z-0.087
X6.122 Y8.437
X6.426 Y8.74
X6.435 Y8.751 Z-0.088
X6.443 Y8.762 Z-0.09
X6.461 Y8.792 Z-0.098
X6.466 Y8.799 Z-0.1
X6.473 Y8.807 Z-0.101
X6.476 Y8.811
X7.019 Y9.353
X7.068 Y9.402 Z-0.1
X7.101 Y9.434
X7.119 Y9.451 Z-0.099
X7.15 Y9.478
X7.177 Y9.5
X7.199 Y9.517
X7.248 Y9.552
X7.297 Y9.582
X7.326 Y9.598
X7.346 Y9.608
X7.395 Y9.63 Z-0.1
X7.444 Y9.65
X7.493 Y9.667
X7.542 Y9.68
X7.591 Y9.69 Z-0.099
X7.622 Y9.695
X7.64 Y9.698
X7.689 Y9.703
X7.738 Y9.707 Z-0.1
X7.787 Z-0.099
X7.811 Y9.706 Z-0.1
X7.836 Y9.705
X7.884 Y9.7
X7.915 Y9.695
X7.933 Y9.693
X7.982 Y9.682
X8.031 Y9.67
X8.08 Y9.654
X8.101 Y9.647
X8.129 Y9.635
X8.178 Y9.614 Z-0.099
X8.21 Y9.598
X8.227 Y9.589 Z-0.1
X8.276 Y9.559
X8.292 Y9.549 Z-0.099
X8.325 Y9.526
X8.359 Y9.5
X8.374 Y9.488
X8.416 Y9.451
X8.472 Y9.398 Z-0.1
X8.664 Y9.206 Z-0.101
X9.353 Y8.517
X9.402 Y8.468 Z-0.1
X9.451 Y8.416 Z-0.099
X9.488 Y8.374
X9.5 Y8.359
X9.526 Y8.325
X9.549 Y8.293
X9.56 Y8.276 Z-0.1
X9.589 Y8.227
X9.598 Y8.21 Z-0.099
X9.614 Y8.178
X9.635 Y8.129 Z-0.1
X9.647 Y8.101
X9.654 Y8.08
X9.67 Y8.031
X9.682 Y7.982
X9.693 Y7.933
X9.696 Y7.915
X9.7 Y7.884
X9.705 Y7.836
X9.706 Y7.811
X9.707 Y7.787 Z-0.099
Y7.738 Z-0.1
X9.703 Y7.689
X9.698 Y7.64 Z-0.099
X9.696 Y7.622
X9.69 Y7.591
X9.68 Y7.542 Z-0.1
X9.667 Y7.493
X9.65 Y7.444
X9.63 Y7.395
X9.608 Y7.346 Z-0.099
X9.598 Y7.326
X9.582 Y7.297
X9.549 Y7.243
X9.517 Y7.199
X9.5 Y7.177
X9.478 Y7.15
X9.451 Y7.119
X9.434 Y7.101 Z-0.1
X9.386 Y7.052
X9.255 Y6.92 Z-0.101
X8.457 Y6.122
X8.408 Y6.073
X8.381 Y6.045 Z-0.102
X8.365 Y6.027
X8.361 Y6.019
X8.358 Y6.012
X8.357 Y6.006
X8.356 Y6. Z-0.101
X8.357 Y5.994 Z-0.102
X8.359 Y5.985
X8.362 Y5.979
X8.365 Y5.974
X8.385 Y5.951
X8.423 Y5.912 Z-0.101
X8.604 Y5.731
X9.353 Y4.981
X9.402 Y4.932 Z-0.1
X9.434 Y4.899
X9.451 Y4.881 Z-0.099
X9.478 Y4.85
X9.5 Y4.823
X9.517 Y4.801
X9.552 Y4.752
X9.582 Y4.703
X9.598 Y4.674
X9.608 Y4.654
X9.63 Y4.605 Z-0.1
X9.65 Y4.556
X9.667 Y4.507
X9.68 Y4.458
X9.69 Y4.409 Z-0.099
X9.696 Y4.378
X9.698 Y4.36
X9.703 Y4.311 Z-0.1
X9.707 Y4.262
Y4.213 Z-0.099
X9.706 Y4.189 Z-0.1
X9.705 Y4.164
X9.7 Y4.116
X9.696 Y4.085
X9.693 Y4.067
X9.682 Y4.018
X9.67 Y3.969
X9.654 Y3.92
X9.647 Y3.899
X9.635 Y3.871
X9.614 Y3.822 Z-0.099
X9.598 Y3.79
X9.589 Y3.773
X9.56 Y3.724 Z-0.1
X9.549 Y3.707 Z-0.099
X9.526 Y3.675
X9.5 Y3.641
X9.488 Y3.626
X9.445 Y3.577
X9.398 Y3.528 Z-0.1
X9.206 Y3.336 Z-0.101
X8.517 Y2.647
X8.468 Y2.598 Z-0.1
X8.423 Y2.555 Z-0.099
X8.374 Y2.512
X8.359 Y2.5
X8.325 Y2.474
X8.293 Y2.451
X8.276 Y2.44 Z-0.1
X8.227 Y2.411 Z-0.099
X8.21 Y2.402
X8.178 Y2.386
X8.129 Y2.365 Z-0.1
X8.101 Y2.353
X8.08 Y2.346
X8.031 Y2.33
X7.982 Y2.318
X7.933 Y2.307
X7.915 Y2.304
X7.884 Y2.3
X7.836 Y2.295
X7.811 Y2.294
X7.787 Y2.293 Z-0.099
X7.738 Z-0.1
X7.689 Y2.297
X7.64 Y2.302 Z-0.099
X7.622 Y2.304
X7.591 Y2.31
X7.542 Y2.32 Z-0.1
X7.493 Y2.333
X7.444 Y2.35
X7.395 Y2.37
X7.346 Y2.392 Z-0.099
X7.326 Y2.402
X7.297 Y2.418
X7.243 Y2.451
X7.199 Y2.483
X7.177 Y2.5
X7.15 Y2.522
X7.119 Y2.549
X7.101 Y2.566 Z-0.1
X7.052 Y2.614
X6.954 Y2.711 Z-0.101
X6.122 Y3.543
X6.06 Y3.605
X6.043 Y3.621 Z-0.102
X6.026 Y3.635
X6.021 Y3.638
X6.015 Y3.641
X6.012 Y3.642
X6.006 Y3.643
X6. Y3.644 Z-0.101
X5.994 Y3.643 Z-0.102
X5.985 Y3.641
X5.979 Y3.638
X5.973 Y3.635
X5.952 Y3.616
X5.912 Y3.577 Z-0.101
X5.08 Y2.745
X4.948 Y2.614 Z-0.1
X4.899 Y2.566
X4.881 Y2.549 Z-0.099
X4.85 Y2.522
X4.823 Y2.5
X4.801 Y2.483
X4.757 Y2.451
X4.703 Y2.418
X4.674 Y2.402
X4.654 Y2.392
X4.605 Y2.37 Z-0.1
X4.556 Y2.35
X4.507 Y2.333
X4.458 Y2.32
X4.409 Y2.31 Z-0.099
X4.378 Y2.304
X4.36 Y2.302
X4.311 Y2.297 Z-0.1
X4.262 Y2.293
X4.213 Z-0.099
X4.189 Y2.294 Z-0.1
X4.165 Y2.295
X4.116 Y2.3
X4.085 Y2.304
X4.067 Y2.307
X4.018 Y2.318
X3.969 Y2.33
X3.92 Y2.346
X3.899 Y2.353
X3.871 Y2.365
X3.822 Y2.386 Z-0.099
X3.79 Y2.402
X3.773 Y2.411 Z-0.1
X3.724 Y2.44
X3.707 Y2.451 Z-0.099
X3.675 Y2.474
X3.641 Y2.5
X3.626 Y2.512
X3.584 Y2.549
X3.528 Y2.602 Z-0.1
X3.381 Y2.749 Z-0.101
X2.647 Y3.483 Z-0.1
X2.598 Y3.532
X2.549 Y3.584 Z-0.099
X2.512 Y3.626
X2.5 Y3.641
X2.474 Y3.675
X2.451 Y3.708
X2.441 Y3.724 Z-0.1
X2.411 Y3.773
X2.402 Y3.79 Z-0.099
X2.386 Y3.822
X2.365 Y3.871 Z-0.1
X2.353 Y3.899
X2.346 Y3.92
X2.33 Y3.969
X2.318 Y4.018
X2.307 Y4.067
X2.305 Y4.085
X2.3 Y4.116
X2.295 Y4.164
X2.294 Y4.189
X2.293 Y4.213 Z-0.099
Y4.262 Z-0.1
X2.297 Y4.311 Z-0.099
X2.302 Y4.36
X2.305 Y4.378
X2.31 Y4.409
X2.32 Y4.458 Z-0.1
X2.333 Y4.507
X2.35 Y4.556
X2.37 Y4.605
X2.392 Y4.654 Z-0.099
X2.402 Y4.674
X2.418 Y4.703
X2.451 Y4.757
X2.483 Y4.801
X2.5 Y4.823
X2.522 Y4.85
X2.549 Y4.881
X2.566 Y4.899 Z-0.1
X2.614 Y4.948
X2.711 Y5.046 Z-0.101
X3.577 Y5.912
X3.612 Y5.948 Z-0.102
X3.626 Y5.963
X3.636 Y5.976
X3.64 Y5.982
X3.642 Y5.988
X3.643 Y5.994
X3.644 Y6. Z-0.101
X3.643 Y6.006 Z-0.102
X3.641 Y6.015
X3.639 Y6.019
X3.635 Y6.027
X3.616 Y6.048
X3.591 Y6.073 Z-0.101
X3.528 Y6.137
X2.647 Y7.019
X2.598 Y7.068 Z-0.1
X2.566 Y7.101
X2.549 Y7.119 Z-0.099
X2.522 Y7.15
X2.5 Y7.177
X2.483 Y7.199
X2.451 Y7.243
X2.418 Y7.297
X2.402 Y7.326
X2.392 Y7.346
X2.37 Y7.395 Z-0.1
X2.35 Y7.444
X2.333 Y7.493
X2.32 Y7.542
X2.31 Y7.591 Z-0.099
X2.305 Y7.622
X2.302 Y7.64
X2.297 Y7.689
X2.293 Y7.738 Z-0.1
Y7.787 Z-0.099
X2.294 Y7.811 Z-0.1
X2.295 Y7.836
X2.3 Y7.884
X2.305 Y7.915
X2.307 Y7.933
X2.318 Y7.982
X2.33 Y8.031
X2.346 Y8.08
X2.353 Y8.101
X2.365 Y8.129
X2.386 Y8.178 Z-0.099
X2.402 Y8.21
X2.411 Y8.227 Z-0.1
X2.44 Y8.276
X2.451 Y8.293 Z-0.099
X2.474 Y8.325
X2.5 Y8.359
X2.512 Y8.374
X2.549 Y8.416
X2.602 Y8.472 Z-0.1
X2.749 Y8.619 Z-0.101
X3.483 Y9.353
X3.532 Y9.402 Z-0.1
X3.584 Y9.451 Z-0.099
X3.626 Y9.488
X3.641 Y9.5
X3.675 Y9.526
X3.707 Y9.549
X3.724 Y9.56 Z-0.1
X3.773 Y9.589
X3.79 Y9.598 Z-0.099
X3.822 Y9.614
X3.871 Y9.635 Z-0.1
X3.899 Y9.647
X3.92 Y9.654
X3.969 Y9.67
X4.018 Y9.682
X4.067 Y9.693
X4.085 Y9.695
X4.116 Y9.7
X4.165 Y9.705
X4.189 Y9.706
X4.213 Y9.707 Z-0.099
X4.262 Z-0.1
X4.311 Y9.703 Z-0.099
X4.36 Y9.698
X4.378 Y9.695
X4.409 Y9.69
X4.458 Y9.68 Z-0.1
X4.507 Y9.667
X4.556 Y9.65
X4.605 Y9.63
X4.654 Y9.608 Z-0.099
X4.674 Y9.598
X4.703 Y9.582
X4.757 Y9.549
X4.801 Y9.517
X4.823 Y9.5
X4.85 Y9.478
X4.881 Y9.451
X4.899 Y9.434 Z-0.1
X4.948 Y9.386
X5.046 Y9.289 Z-0.101
X5.878 Y8.457
X5.941 Y8.394
X5.958 Y8.379 Z-0.102
X5.973 Y8.365
X5.981 Y8.361
X5.988 Y8.358
X5.994 Y8.357
X6. Y8.356 Z-0.101
X6.006 Y8.357 Z-0.102
X6.012 Y8.358
X6.018 Y8.36
X6.024 Y8.364
X6.037 Y8.374
X6.054 Y8.389 Z-0.101
X6.088 Y8.423
X6.476 Y8.811
X6.519 Y8.854
X7.067 Y9.402
X7.101 Y9.436
X7.117 Y9.451
X7.15 Y9.48
X7.174 Y9.5
X7.199 Y9.519
X7.241 Y9.549
X7.248 Y9.553
X7.297 Y9.583
X7.323 Y9.598 Z-0.1
X7.346 Y9.609 Z-0.101
X7.395 Y9.632
X7.444 Y9.651
X7.493 Y9.668
X7.542 Y9.681
X7.591 Y9.692
X7.611 Y9.695
X7.64 Y9.7
X7.689 Y9.705
X7.738 Y9.708
X7.787 Y9.709
X7.811 Y9.707
X7.836 Y9.706
X7.884 Y9.701
X7.933 Y9.694
X7.982 Y9.684
X8.031 Y9.671
X8.08 Y9.656
X8.104 Y9.647
X8.129 Y9.636
X8.178 Y9.615
X8.213 Y9.598
X8.227 Y9.59
X8.276 Y9.561
X8.295 Y9.549
X8.325 Y9.527
X8.361 Y9.5
X8.374 Y9.49
X8.423 Y9.447
X8.472 Y9.399
X9.402 Y8.469
X9.451 Y8.418
X9.49 Y8.374
X9.5 Y8.361
X9.527 Y8.325
X9.549 Y8.294 Z-0.1
X9.561 Y8.276 Z-0.101
X9.59 Y8.227
X9.598 Y8.213
X9.615 Y8.178
X9.636 Y8.129
X9.647 Y8.104
X9.656 Y8.08
X9.671 Y8.031
X9.684 Y7.982
X9.694 Y7.933
X9.701 Y7.884
X9.706 Y7.836
X9.708 Y7.811
X9.709 Y7.787
X9.708 Y7.738
X9.705 Y7.689
X9.7 Y7.64
X9.696 Y7.611
X9.692 Y7.591
X9.681 Y7.542
X9.668 Y7.493
X9.651 Y7.444
X9.632 Y7.395
X9.61 Y7.346
X9.598 Y7.323 Z-0.1
X9.583 Y7.297 Z-0.101
X9.553 Y7.248
X9.549 Y7.241
X9.519 Y7.199
X9.5 Y7.174
X9.48 Y7.15
X9.451 Y7.117
X9.436 Y7.101
X9.388 Y7.052
X8.458 Y6.122
X8.409 Y6.073 Z-0.102
X8.391 Y6.054 Z-0.103
X8.384 Y6.045 Z-0.104
X8.376 Y6.032 Z-0.107
X8.371 Y6.021 Z-0.11
X8.369 Y6.015 Z-0.111
X8.367 Y6.006 Z-0.112
Y5.994
X8.368 Y5.988 Z-0.111
X8.37 Y5.982 Z-0.11
X8.372 Y5.976 Z-0.109
X8.379 Y5.963 Z-0.106
X8.386 Y5.953 Z-0.104
X8.39 Y5.947 Z-0.103
X8.396 Y5.94 Z-0.102
X8.409 Y5.927
X8.521 Y5.815 Z-0.101
X9.402 Y4.933
X9.436 Y4.899
X9.451 Y4.883
X9.48 Y4.85
X9.5 Y4.826
X9.519 Y4.801
X9.549 Y4.759
X9.553 Y4.752
X9.583 Y4.703
X9.598 Y4.677 Z-0.1
X9.61 Y4.654 Z-0.101
X9.632 Y4.605
X9.651 Y4.556
X9.668 Y4.507
X9.681 Y4.458
X9.692 Y4.409
X9.696 Y4.389
X9.7 Y4.36
X9.705 Y4.311
X9.708 Y4.262
X9.709 Y4.213
X9.708 Y4.189
X9.706 Y4.164
X9.701 Y4.116
X9.694 Y4.067
X9.684 Y4.018
X9.671 Y3.969
X9.656 Y3.92
X9.647 Y3.896
X9.636 Y3.871
X9.615 Y3.822
X9.598 Y3.787
X9.59 Y3.773
X9.561 Y3.724
X9.549 Y3.706
X9.527 Y3.675
X9.5 Y3.639
X9.49 Y3.626
X9.447 Y3.577
X9.399 Y3.528
X8.469 Y2.598
X8.418 Y2.549
X8.374 Y2.51
X8.361 Y2.5
X8.325 Y2.473
X8.294 Y2.451
X8.276 Y2.439
X8.227 Y2.41
X8.213 Y2.402
X8.178 Y2.385
X8.129 Y2.364
X8.104 Y2.353
X8.08 Y2.344
X8.031 Y2.329
X7.982 Y2.316
X7.933 Y2.306
X7.884 Y2.299
X7.836 Y2.294
X7.811 Y2.292
X7.787 Y2.291
X7.738 Y2.292
X7.689 Y2.295
X7.64 Y2.3
X7.611 Y2.304
X7.591 Y2.308
X7.542 Y2.319
X7.493 Y2.332
X7.444 Y2.349
X7.395 Y2.368
X7.346 Y2.39
X7.323 Y2.402 Z-0.1
X7.297 Y2.417 Z-0.101
X7.248 Y2.447
X7.241 Y2.451
X7.199 Y2.481
X7.174 Y2.5
X7.15 Y2.52
X7.117 Y2.549
X7.101 Y2.564
X7.052 Y2.612
X6.122 Y3.542
X6.073 Y3.591 Z-0.102
X6.06 Y3.604
X6.049 Y3.612 Z-0.103
X6.042 Y3.618 Z-0.105
X6.03 Y3.625 Z-0.107
X6.021 Y3.629 Z-0.11
X6.015 Y3.631 Z-0.111
X6.012 Y3.632
X6.006 Y3.633 Z-0.112
X5.994
X5.985 Y3.631 Z-0.111
X5.979 Y3.629 Z-0.11
X5.968 Y3.624 Z-0.107
X5.955 Y3.616 Z-0.104
X5.948 Y3.611 Z-0.103
X5.941 Y3.604 Z-0.102
X5.927 Y3.591
X5.863 Y3.528 Z-0.101
X4.933 Y2.598
X4.899 Y2.564
X4.883 Y2.549
X4.85 Y2.52
X4.826 Y2.5
X4.801 Y2.481
X4.759 Y2.451
X4.752 Y2.447
X4.703 Y2.417
X4.677 Y2.402 Z-0.1
X4.654 Y2.39 Z-0.101
X4.605 Y2.368
X4.556 Y2.349
X4.507 Y2.332
X4.458 Y2.319
X4.409 Y2.308
X4.389 Y2.304
X4.36 Y2.3
X4.311 Y2.295
X4.262 Y2.292
X4.213 Y2.291
X4.189 Y2.292
X4.165 Y2.294
X4.116 Y2.299
X4.067 Y2.306
X4.018 Y2.316
X3.969 Y2.329
X3.92 Y2.344
X3.896 Y2.353
X3.871 Y2.364
X3.822 Y2.385
X3.787 Y2.402
X3.773 Y2.41
X3.724 Y2.439
X3.706 Y2.451 Z-0.1
X3.675 Y2.473 Z-0.101
X3.639 Y2.5
X3.626 Y2.51
X3.577 Y2.553
X3.528 Y2.601
X2.601 Y3.528
X2.549 Y3.582
X2.51 Y3.626
X2.5 Y3.639
X2.473 Y3.675
X2.451 Y3.705
X2.439 Y3.724
X2.41 Y3.773
X2.402 Y3.787
X2.385 Y3.822
X2.364 Y3.871
X2.353 Y3.896
X2.344 Y3.92
X2.329 Y3.969
X2.316 Y4.018
X2.306 Y4.067
X2.299 Y4.116
X2.294 Y4.164
X2.293 Y4.189
X2.291 Y4.213
X2.292 Y4.262
X2.295 Y4.311
X2.3 Y4.36
X2.305 Y4.389
X2.308 Y4.409
X2.319 Y4.458
X2.332 Y4.507
X2.349 Y4.556
X2.368 Y4.605
X2.391 Y4.654
X2.402 Y4.677 Z-0.1
X2.417 Y4.703 Z-0.101
X2.447 Y4.752
X2.451 Y4.759
X2.481 Y4.801
X2.5 Y4.826
X2.52 Y4.85
X2.549 Y4.883
X2.564 Y4.899
X2.612 Y4.948
X3.542 Y5.878
X3.591 Y5.927 Z-0.102
X3.604 Y5.941
X3.61 Y5.948 Z-0.103
X3.617 Y5.957 Z-0.104
X3.624 Y5.968 Z-0.107
X3.629 Y5.979 Z-0.11
X3.631 Y5.985 Z-0.111
X3.633 Y5.994 Z-0.112
Y6.006
X3.631 Y6.015 Z-0.111
X3.629 Y6.021 Z-0.11
X3.624 Y6.032 Z-0.107
X3.617 Y6.043 Z-0.104
X3.611 Y6.052 Z-0.103
X3.604 Y6.059 Z-0.102
X3.591 Y6.073
X3.528 Y6.137 Z-0.101
X2.598 Y7.067
X2.564 Y7.101
X2.549 Y7.117
X2.52 Y7.15
X2.5 Y7.174
X2.481 Y7.199
X2.451 Y7.241
X2.447 Y7.248
X2.417 Y7.297
X2.402 Y7.323 Z-0.1
X2.391 Y7.346 Z-0.101
X2.368 Y7.395
X2.349 Y7.444
X2.332 Y7.493
X2.319 Y7.542
X2.308 Y7.591
X2.305 Y7.611
X2.3 Y7.64
X2.295 Y7.689
X2.292 Y7.738
X2.291 Y7.787
X2.293 Y7.811
X2.294 Y7.836
X2.299 Y7.884
X2.306 Y7.933
X2.316 Y7.982
X2.329 Y8.031
X2.344 Y8.08
X2.353 Y8.104
X2.364 Y8.129
X2.385 Y8.178
X2.402 Y8.213
X2.41 Y8.227
X2.439 Y8.276
X2.451 Y8.294 Z-0.1
X2.473 Y8.325 Z-0.101
X2.5 Y8.362
X2.51 Y8.374
X2.553 Y8.423
X2.601 Y8.472
X3.531 Y9.402
X3.582 Y9.451
X3.626 Y9.49
X3.638 Y9.5
X3.675 Y9.527
X3.706 Y9.549 Z-0.1
X3.724 Y9.561 Z-0.101
X3.773 Y9.59
X3.787 Y9.598
X3.822 Y9.615
X3.871 Y9.636
X3.896 Y9.647
X3.92 Y9.656
X3.969 Y9.671
X4.018 Y9.684
X4.067 Y9.694
X4.116 Y9.701
X4.165 Y9.706
X4.189 Y9.707
X4.213 Y9.709
X4.262 Y9.708
X4.311 Y9.705
X4.36 Y9.7
X4.389 Y9.695
X4.409 Y9.692
X4.458 Y9.681
X4.507 Y9.668
X4.556 Y9.651
X4.605 Y9.632
X4.654 Y9.609
X4.677 Y9.598 Z-0.1
X4.703 Y9.583 Z-0.101
X4.752 Y9.553
X4.759 Y9.549
X4.801 Y9.519
X4.826 Y9.5
X4.85 Y9.48
X4.883 Y9.451
X4.899 Y9.436
X4.948 Y9.388
X5.878 Y8.458
X5.927 Y8.409 Z-0.102
X5.941 Y8.396
X5.948 Y8.389 Z-0.103
X5.957 Y8.383 Z-0.104
X5.968 Y8.376 Z-0.107
X5.979 Y8.371 Z-0.11
X5.985 Y8.369 Z-0.111
X5.994 Y8.367 Z-0.112
X6.006
X6.015 Y8.369 Z-0.111
X6.021 Y8.371 Z-0.11
X6.032 Y8.376 Z-0.107
X6.043 Y8.383 Z-0.104
X6.053 Y8.391 Z-0.103
X6.06 Y8.397 Z-0.102
X6.073 Y8.409
X6.171 Y8.507 Z-0.101
X6.519 Y8.854
X6.527 Y8.864 Z-0.102
X6.535 Y8.875 Z-0.105
X6.553 Y8.905 Z-0.113
X6.558 Y8.911 Z-0.114
X6.565 Y8.92 Z-0.115
X6.568 Y8.924
X7.052 Y9.408
X7.101 Y9.455
X7.152 Y9.5
X7.199 Y9.537
X7.216 Y9.549
X7.248 Y9.57
X7.297 Y9.6
X7.346 Y9.625
X7.395 Y9.647
X7.444 Y9.667
X7.493 Y9.683
X7.542 Y9.695
X7.591 Y9.706
X7.64 Y9.714
X7.689 Y9.719
X7.738 Y9.722
X7.787 Y9.723
X7.836 Y9.72
X7.884 Y9.716
X7.933 Y9.708
X7.982 Y9.698
X8.031 Y9.686
X8.08 Y9.671
X8.129 Y9.652
X8.178 Y9.631
X8.227 Y9.606
X8.242 Y9.598
X8.276 Y9.577
X8.32 Y9.549
X8.374 Y9.508
X8.384 Y9.5
X8.423 Y9.466
X8.439 Y9.451
X8.489 Y9.402
X9.419 Y8.472
X9.451 Y8.439
X9.466 Y8.423
X9.5 Y8.384
X9.508 Y8.374
X9.549 Y8.32
X9.577 Y8.276
X9.598 Y8.242
X9.606 Y8.227
X9.631 Y8.178
X9.652 Y8.129
X9.671 Y8.08
X9.686 Y8.031
X9.698 Y7.982
X9.708 Y7.933
X9.716 Y7.884
X9.72 Y7.836
X9.723 Y7.787
X9.722 Y7.738
X9.719 Y7.689
X9.714 Y7.64
X9.706 Y7.591
X9.696 Y7.542
X9.683 Y7.493
X9.667 Y7.444
X9.647 Y7.394
X9.625 Y7.346
X9.598 Y7.293
X9.57 Y7.248
X9.549 Y7.216
X9.537 Y7.199
X9.498 Y7.15
X9.455 Y7.101
X9.402 Y7.047
X8.472 Y6.117
X8.413 Y6.057 Z-0.116
X8.404 Y6.047 Z-0.117
X8.397 Y6.038 Z-0.118
X8.392 Y6.03 Z-0.12
X8.385 Y6.018 Z-0.123
X8.383 Y6.012 Z-0.125
X8.381 Y6.006 Z-0.126
Y6.
Y5.994
X8.383 Y5.988 Z-0.125
X8.387 Y5.979 Z-0.122
X8.393 Y5.967 Z-0.119
X8.399 Y5.959 Z-0.117
X8.404 Y5.953
X8.413 Y5.943 Z-0.116
X8.478 Y5.878 Z-0.115
X9.408 Y4.948
X9.455 Y4.899
X9.5 Y4.848
X9.537 Y4.801
X9.549 Y4.784
X9.57 Y4.752
X9.6 Y4.703
X9.625 Y4.654
X9.647 Y4.605
X9.667 Y4.556
X9.683 Y4.507
X9.696 Y4.458
X9.706 Y4.409
X9.714 Y4.36
X9.719 Y4.311
X9.722 Y4.262
X9.723 Y4.213
X9.72 Y4.164
X9.716 Y4.116
X9.708 Y4.067
X9.698 Y4.018
X9.686 Y3.969
X9.671 Y3.92
X9.652 Y3.871
X9.631 Y3.822
X9.606 Y3.773
X9.598 Y3.758
X9.577 Y3.724
X9.549 Y3.68
X9.508 Y3.626
X9.5 Y3.616
X9.466 Y3.577
X9.451 Y3.561
X9.402 Y3.511
X8.472 Y2.581
X8.439 Y2.549
X8.423 Y2.534
X8.384 Y2.5
X8.374 Y2.492
X8.32 Y2.451
X8.276 Y2.423
X8.242 Y2.402
X8.227 Y2.394
X8.178 Y2.369
X8.129 Y2.348
X8.08 Y2.329
X8.031 Y2.314
X7.982 Y2.302
X7.933 Y2.292
X7.884 Y2.284
X7.836 Y2.28
X7.787 Y2.277
X7.738 Y2.278
X7.689 Y2.281
X7.64 Y2.286
X7.591 Y2.294
X7.542 Y2.304
X7.493 Y2.317
X7.444 Y2.333
X7.394 Y2.353
X7.346 Y2.375
X7.293 Y2.402
X7.248 Y2.43
X7.216 Y2.451
X7.199 Y2.463
X7.15 Y2.502
X7.101 Y2.545
X7.047 Y2.598
X6.117 Y3.528
X6.057 Y3.587 Z-0.116
X6.047 Y3.596 Z-0.117
X6.039 Y3.603 Z-0.118
X6.03 Y3.608 Z-0.12
X6.018 Y3.615 Z-0.123
X6.012 Y3.617 Z-0.125
X6.006 Y3.619 Z-0.126
X6.
X5.994
X5.988 Y3.617 Z-0.125
X5.979 Y3.613 Z-0.122
X5.967 Y3.607 Z-0.119
X5.959 Y3.601 Z-0.117
X5.953 Y3.596
X5.943 Y3.587 Z-0.116
X5.878 Y3.522 Z-0.115
X4.948 Y2.592
X4.899 Y2.545
X4.848 Y2.5
X4.801 Y2.463
X4.784 Y2.451
X4.752 Y2.43
X4.703 Y2.4
X4.654 Y2.375
X4.605 Y2.353
X4.556 Y2.333
X4.507 Y2.317
X4.458 Y2.304
X4.409 Y2.294
X4.36 Y2.286
X4.311 Y2.281
X4.262 Y2.278
X4.213 Y2.277
X4.165 Y2.28
X4.116 Y2.284
X4.067 Y2.292
X4.018 Y2.302
X3.969 Y2.314
X3.92 Y2.329
X3.871 Y2.348
X3.822 Y2.369
X3.773 Y2.394
X3.758 Y2.402
X3.724 Y2.423
X3.68 Y2.451
X3.626 Y2.492
X3.616 Y2.5
X3.577 Y2.534
X3.561 Y2.549
X3.511 Y2.598
X2.581 Y3.528
X2.549 Y3.561
X2.534 Y3.577
X2.5 Y3.616
X2.492 Y3.626
X2.451 Y3.68
X2.423 Y3.724
X2.402 Y3.758
X2.394 Y3.773
X2.369 Y3.822
X2.348 Y3.871
X2.329 Y3.92
X2.314 Y3.969
X2.302 Y4.018
X2.292 Y4.067
X2.284 Y4.116
X2.28 Y4.164
X2.277 Y4.213
X2.278 Y4.262
X2.281 Y4.311
X2.286 Y4.36
X2.294 Y4.409
X2.305 Y4.458
X2.317 Y4.507
X2.333 Y4.556
X2.353 Y4.606
X2.375 Y4.654
X2.402 Y4.707
X2.43 Y4.752
X2.451 Y4.784
X2.463 Y4.801
X2.501 Y4.85
X2.545 Y4.899
X2.598 Y4.953
X3.528 Y5.883
X3.587 Y5.943 Z-0.116
X3.596 Y5.953 Z-0.117
X3.603 Y5.961 Z-0.118
X3.608 Y5.97 Z-0.12
X3.615 Y5.982 Z-0.123
X3.617 Y5.988 Z-0.125
X3.619 Y5.994 Z-0.126
Y6.
Y6.006
X3.617 Y6.012 Z-0.125
X3.613 Y6.021 Z-0.122
X3.607 Y6.033 Z-0.119
X3.601 Y6.041 Z-0.117
X3.596 Y6.047
X3.587 Y6.057 Z-0.116
X3.522 Y6.122 Z-0.115
X2.592 Y7.052
X2.545 Y7.101
X2.5 Y7.152
X2.463 Y7.199
X2.451 Y7.216
X2.43 Y7.248
X2.4 Y7.297
X2.375 Y7.346
X2.353 Y7.395
X2.333 Y7.444
X2.317 Y7.493
X2.305 Y7.542
X2.294 Y7.591
X2.286 Y7.64
X2.281 Y7.689
X2.278 Y7.738
X2.277 Y7.787
X2.28 Y7.836
X2.284 Y7.884
X2.292 Y7.933
X2.302 Y7.982
X2.314 Y8.031
X2.329 Y8.08
X2.348 Y8.129
X2.369 Y8.178
X2.394 Y8.227
X2.402 Y8.242
X2.423 Y8.276
X2.451 Y8.32
X2.492 Y8.374
X2.5 Y8.384
X2.534 Y8.423
X2.549 Y8.439
X2.598 Y8.489
X3.528 Y9.419
X3.561 Y9.451
X3.577 Y9.466
X3.616 Y9.5
X3.626 Y9.508
X3.68 Y9.549
X3.724 Y9.577
X3.758 Y9.598
X3.773 Y9.606
X3.822 Y9.631
X3.871 Y9.652
X3.92 Y9.671
X3.969 Y9.686
X4.018 Y9.698
X4.067 Y9.708
X4.116 Y9.716
X4.165 Y9.72
X4.213 Y9.723
X4.262 Y9.722
X4.311 Y9.719
X4.36 Y9.714
X4.409 Y9.706
X4.458 Y9.695
X4.507 Y9.683
X4.556 Y9.667
X4.606 Y9.647
X4.654 Y9.625
X4.707 Y9.598
X4.752 Y9.57
X4.784 Y9.549
X4.801 Y9.537
X4.85 Y9.499
X4.904 Y9.451
X4.953 Y9.402
X5.883 Y8.472
X5.943 Y8.413 Z-0.116
X5.953 Y8.404 Z-0.117
X5.962 Y8.397 Z-0.118
X5.97 Y8.392 Z-0.12
X5.982 Y8.385 Z-0.123
X5.988 Y8.383 Z-0.125
X5.994 Y8.381 Z-0.126
X6.
X6.006
X6.012 Y8.383 Z-0.125
X6.021 Y8.387 Z-0.122
X6.033 Y8.393 Z-0.119
X6.041 Y8.399 Z-0.117
X6.047 Y8.404
X6.057 Y8.413 Z-0.116
X6.122 Y8.478 Z-0.115
X6.568 Y8.924
X6.577 Y8.934 Z-0.116
X6.585 Y8.945 Z-0.119
X6.604 Y8.975 Z-0.127
X6.609 Y8.982 Z-0.128
X6.616 Y8.991 Z-0.129
X6.619 Y8.995 Z-0.13
X7.052 Y9.427 Z-0.129
X7.076 Y9.451
X7.101 Y9.475
X7.13 Y9.5
X7.15 Y9.517
X7.191 Y9.549
X7.199 Y9.555
X7.248 Y9.587
X7.266 Y9.598
X7.297 Y9.616
X7.346 Y9.641
X7.358 Y9.647
X7.395 Y9.662
X7.444 Y9.682
X7.493 Y9.697
X7.542 Y9.71
X7.591 Y9.721
X7.64 Y9.729 Z-0.13
X7.689 Y9.733 Z-0.129
X7.738 Y9.737
X7.787
X7.836 Y9.734
X7.884 Y9.73
X7.933 Y9.723
X7.982 Y9.713
X8.031 Y9.701
X8.049 Y9.695
X8.08 Y9.686
X8.129 Y9.667
X8.178 Y9.646
X8.227 Y9.622
X8.276 Y9.594
X8.325 Y9.562
X8.344 Y9.549
X8.374 Y9.526
X8.406 Y9.5
X8.423 Y9.485
X8.46 Y9.451
X8.558 Y9.353 Z-0.13
X9.402 Y8.509
X9.451 Y8.46 Z-0.129
X9.485 Y8.423
X9.5 Y8.406
X9.526 Y8.374
X9.549 Y8.344
X9.562 Y8.325
X9.598 Y8.27
X9.622 Y8.227
X9.647 Y8.178
X9.667 Y8.129
X9.686 Y8.08
X9.696 Y8.049
X9.701 Y8.031
X9.713 Y7.982
X9.723 Y7.933
X9.73 Y7.884
X9.734 Y7.836
X9.737 Y7.787 Z-0.13
Y7.738 Z-0.129
X9.733 Y7.689
X9.728 Y7.64 Z-0.13
X9.721 Y7.591 Z-0.129
X9.71 Y7.542
X9.697 Y7.493
X9.682 Y7.444
X9.662 Y7.395
X9.647 Y7.358
X9.641 Y7.346
X9.616 Y7.297
X9.587 Y7.248
X9.555 Y7.199
X9.549 Y7.191
X9.517 Y7.15
X9.5 Y7.13
X9.475 Y7.101
X9.451 Y7.076
X9.402 Y7.027
X8.449 Y6.073 Z-0.13
X8.423 Y6.047
X8.414 Y6.037 Z-0.131
X8.408 Y6.029 Z-0.132
X8.402 Y6.02 Z-0.135
X8.397 Y6.009 Z-0.138
X8.396 Y6.005 Z-0.14
X8.395 Y6.002
Y5.997
X8.397 Y5.992 Z-0.139
X8.402 Y5.982 Z-0.135
X8.406 Y5.973 Z-0.133
X8.411 Y5.967 Z-0.131
X8.417 Y5.959 Z-0.13
X8.423 Y5.953
X8.472 Y5.903
X9.427 Y4.948 Z-0.129
X9.451 Y4.924
X9.475 Y4.899
X9.5 Y4.87
X9.517 Y4.85
X9.549 Y4.809
X9.555 Y4.801
X9.587 Y4.752
X9.616 Y4.703
X9.641 Y4.654
X9.647 Y4.642
X9.662 Y4.605
X9.682 Y4.556
X9.697 Y4.507
X9.71 Y4.458
X9.721 Y4.409
X9.728 Y4.36 Z-0.13
X9.733 Y4.311 Z-0.129
X9.737 Y4.262
Y4.213 Z-0.13
X9.734 Y4.164 Z-0.129
X9.73 Y4.116
X9.723 Y4.067
X9.713 Y4.018
X9.701 Y3.969
X9.696 Y3.951
X9.686 Y3.92
X9.667 Y3.871
X9.646 Y3.822
X9.622 Y3.773
X9.594 Y3.724
X9.562 Y3.675
X9.549 Y3.656
X9.526 Y3.626
X9.5 Y3.594
X9.485 Y3.577
X9.451 Y3.54
X9.39 Y3.479 Z-0.13
X8.509 Y2.598
X8.46 Y2.549 Z-0.129
X8.423 Y2.515
X8.406 Y2.5
X8.374 Y2.474
X8.344 Y2.451
X8.325 Y2.438
X8.27 Y2.402
X8.227 Y2.378
X8.178 Y2.353
X8.129 Y2.333
X8.08 Y2.314
X8.049 Y2.304
X8.031 Y2.299
X7.982 Y2.287
X7.933 Y2.277
X7.884 Y2.27
X7.836 Y2.266
X7.787 Y2.263 Z-0.13
X7.738 Z-0.129
X7.689 Y2.267
X7.64 Y2.272 Z-0.13
X7.591 Y2.279 Z-0.129
X7.542 Y2.29
X7.493 Y2.303
X7.444 Y2.318
X7.395 Y2.338
X7.358 Y2.353
X7.346 Y2.359
X7.297 Y2.384
X7.248 Y2.413
X7.199 Y2.445
X7.191 Y2.451
X7.15 Y2.483
X7.13 Y2.5
X7.101 Y2.525
X7.076 Y2.549
X7.027 Y2.598 Z-0.13
X6.073 Y3.551
X6.047 Y3.577
X6.037 Y3.586 Z-0.131
X6.029 Y3.592 Z-0.132
X6.02 Y3.598 Z-0.135
X6.009 Y3.603 Z-0.138
X6.005 Y3.604 Z-0.14
X6.002 Y3.605
X5.997
X5.992 Y3.603 Z-0.139
X5.982 Y3.598 Z-0.135
X5.973 Y3.594 Z-0.133
X5.967 Y3.589 Z-0.131
X5.963 Y3.586
X5.953 Y3.577 Z-0.13
X5.903 Y3.528
X4.948 Y2.573 Z-0.129
X4.924 Y2.549
X4.899 Y2.525
X4.87 Y2.5
X4.85 Y2.483
X4.809 Y2.451
X4.801 Y2.445
X4.752 Y2.413
X4.703 Y2.384
X4.654 Y2.359
X4.642 Y2.353
X4.605 Y2.338
X4.556 Y2.318
X4.507 Y2.303
X4.458 Y2.29
X4.409 Y2.279
X4.36 Y2.272 Z-0.13
X4.311 Y2.267 Z-0.129
X4.262 Y2.263
X4.213 Z-0.13
X4.165 Y2.266 Z-0.129
X4.116 Y2.27
X4.067 Y2.277
X4.018 Y2.287
X3.969 Y2.299
X3.951 Y2.304
X3.92 Y2.314
X3.871 Y2.333
X3.822 Y2.354
X3.773 Y2.378
X3.724 Y2.406
X3.675 Y2.438
X3.656 Y2.451
X3.626 Y2.474
X3.594 Y2.5
X3.577 Y2.515
X3.54 Y2.549
X3.442 Y2.647 Z-0.13
X2.561 Y3.528 Z-0.129
X2.549 Y3.54
X2.515 Y3.577
X2.5 Y3.594
X2.474 Y3.626
X2.451 Y3.656
X2.438 Y3.675
X2.402 Y3.73
X2.378 Y3.773
X2.353 Y3.822
X2.333 Y3.871
X2.314 Y3.92
X2.305 Y3.951
X2.299 Y3.969
X2.287 Y4.018
X2.277 Y4.067
X2.27 Y4.116
X2.266 Y4.164
X2.263 Y4.213
Y4.262
X2.267 Y4.311
X2.271 Y4.36 Z-0.13
X2.279 Y4.409 Z-0.129
X2.29 Y4.458
X2.303 Y4.507
X2.318 Y4.556
X2.338 Y4.605
X2.353 Y4.642
X2.359 Y4.654
X2.384 Y4.703
X2.402 Y4.734
X2.413 Y4.752
X2.445 Y4.801
X2.451 Y4.809
X2.483 Y4.85
X2.5 Y4.87
X2.525 Y4.899
X2.549 Y4.924
X2.598 Y4.973 Z-0.13
X3.551 Y5.927
X3.577 Y5.953
X3.586 Y5.963 Z-0.131
X3.592 Y5.971 Z-0.132
X3.598 Y5.98 Z-0.135
X3.603 Y5.991 Z-0.138
X3.604 Y5.995 Z-0.14
X3.605 Y5.998
Y6.003
X3.603 Y6.008 Z-0.139
X3.598 Y6.018 Z-0.135
X3.594 Y6.027 Z-0.133
X3.589 Y6.033 Z-0.131
X3.583 Y6.041 Z-0.13
X3.577 Y6.047
X3.551 Y6.073
X2.573 Y7.052 Z-0.129
X2.549 Y7.076
X2.525 Y7.101
X2.5 Y7.13
X2.483 Y7.15
X2.451 Y7.191
X2.445 Y7.199
X2.413 Y7.248
X2.384 Y7.297
X2.359 Y7.346
X2.353 Y7.358
X2.338 Y7.395
X2.318 Y7.444
X2.303 Y7.493
X2.29 Y7.542
X2.279 Y7.591
X2.271 Y7.64 Z-0.13
X2.267 Y7.689 Z-0.129
X2.263 Y7.738
Y7.787
X2.266 Y7.836
X2.27 Y7.884
X2.277 Y7.933
X2.287 Y7.982
X2.299 Y8.031
X2.305 Y8.049
X2.314 Y8.08
X2.333 Y8.129
X2.354 Y8.178
X2.378 Y8.227
X2.406 Y8.276
X2.438 Y8.325
X2.451 Y8.344
X2.474 Y8.374
X2.5 Y8.406
X2.515 Y8.423
X2.549 Y8.46
X2.61 Y8.521 Z-0.13
X3.491 Y9.402
X3.54 Y9.451 Z-0.129
X3.577 Y9.485
X3.594 Y9.5
X3.626 Y9.526
X3.656 Y9.549
X3.675 Y9.562
X3.73 Y9.598
X3.773 Y9.622
X3.822 Y9.647
X3.871 Y9.667
X3.92 Y9.686
X3.951 Y9.695
X3.969 Y9.701
X4.018 Y9.713
X4.067 Y9.723
X4.116 Y9.73
X4.165 Y9.734
X4.213 Y9.737
X4.262
X4.311 Y9.733
X4.36 Y9.729 Z-0.13
X4.409 Y9.721 Z-0.129
X4.458 Y9.71
X4.507 Y9.697
X4.556 Y9.682
X4.605 Y9.662
X4.642 Y9.647
X4.654 Y9.641
X4.703 Y9.616
X4.752 Y9.587
X4.801 Y9.555
X4.809 Y9.549
X4.85 Y9.517
X4.87 Y9.5
X4.899 Y9.475
X4.924 Y9.451
X4.973 Y9.402 Z-0.13
X5.927 Y8.449
X5.953 Y8.423
X5.963 Y8.414 Z-0.131
X5.971 Y8.408 Z-0.132
X5.98 Y8.402 Z-0.135
X5.989 Y8.398 Z-0.137
X5.995 Y8.396 Z-0.14
X5.998 Y8.395
X6.003
X6.008 Y8.397 Z-0.139
X6.018 Y8.402 Z-0.135
X6.027 Y8.406 Z-0.133
X6.035 Y8.413 Z-0.131
X6.041 Y8.417 Z-0.13
X6.047 Y8.423
X6.097 Y8.472
X6.619 Y8.995
X6.628 Y9.005
X6.636 Y9.016 Z-0.133
X6.654 Y9.045 Z-0.141
X6.658 Y9.052 Z-0.142
X6.665 Y9.06 Z-0.144
X6.669 Y9.064
X7.056 Y9.451
X7.101 Y9.494 Z-0.143
X7.15 Y9.535
X7.167 Y9.549
X7.199 Y9.572
X7.248 Y9.604
X7.297 Y9.632
X7.325 Y9.647
X7.346 Y9.657
X7.395 Y9.678 Z-0.144
X7.444 Y9.697 Z-0.143
X7.493 Y9.712
X7.542 Y9.725 Z-0.144
X7.591 Y9.735
X7.64 Y9.743
X7.655 Y9.744
X7.689 Y9.747
X7.738 Y9.751
X7.787
X7.836 Y9.748
X7.884 Y9.744
X7.933 Y9.737
X7.982 Y9.727
X8.031 Y9.715 Z-0.143
X8.08 Y9.701
X8.095 Y9.695
X8.129 Y9.682 Z-0.144
X8.178 Y9.662 Z-0.143
X8.211 Y9.647
X8.227 Y9.639
X8.276 Y9.61
X8.297 Y9.598
X8.325 Y9.58
X8.368 Y9.549
X8.374 Y9.544
X8.427 Y9.5
X8.472 Y9.459
X8.578 Y9.353 Z-0.144
X9.41 Y8.521
X9.459 Y8.472 Z-0.143
X9.5 Y8.427
X9.544 Y8.374
X9.549 Y8.368
X9.58 Y8.325
X9.598 Y8.297
X9.61 Y8.276
X9.639 Y8.227
X9.647 Y8.211
X9.662 Y8.178
X9.683 Y8.129 Z-0.144
X9.696 Y8.095 Z-0.143
X9.701 Y8.08
X9.715 Y8.031
X9.727 Y7.982 Z-0.144
X9.737 Y7.933
X9.744 Y7.881
X9.748 Y7.836
X9.751 Y7.787
Y7.738
X9.747 Y7.689
X9.744 Y7.655
X9.743 Y7.64
X9.735 Y7.591
X9.725 Y7.542
X9.712 Y7.493 Z-0.143
X9.696 Y7.44
X9.678 Y7.395 Z-0.144
X9.657 Y7.346 Z-0.143
X9.647 Y7.325
X9.632 Y7.297
X9.604 Y7.248
X9.598 Y7.238
X9.572 Y7.199
X9.549 Y7.167
X9.535 Y7.15
X9.494 Y7.101
X9.447 Y7.052 Z-0.144
X8.469 Y6.073
X8.432 Y6.036
X8.426 Y6.03 Z-0.145
X8.421 Y6.022 Z-0.146
X8.416 Y6.014 Z-0.149
X8.411 Y6.004 Z-0.152
X8.41 Y6. Z-0.153
X8.414 Y5.991 Z-0.15
X8.418 Y5.982 Z-0.147
X8.423 Y5.975 Z-0.145
X8.427 Y5.97
X8.432 Y5.964 Z-0.144
X8.472 Y5.923
X9.451 Y4.944
X9.494 Y4.899 Z-0.143
X9.535 Y4.85
X9.549 Y4.833
X9.572 Y4.801
X9.598 Y4.762
X9.604 Y4.752
X9.632 Y4.703
X9.647 Y4.675
X9.657 Y4.654
X9.678 Y4.605 Z-0.144
X9.697 Y4.556 Z-0.143
X9.712 Y4.507
X9.725 Y4.458 Z-0.144
X9.735 Y4.409
X9.743 Y4.36
X9.744 Y4.345
X9.747 Y4.311
X9.751 Y4.262
Y4.213
X9.748 Y4.164
X9.744 Y4.116
X9.737 Y4.067
X9.727 Y4.018
X9.715 Y3.969 Z-0.143
X9.701 Y3.92
X9.696 Y3.905
X9.682 Y3.871 Z-0.144
X9.662 Y3.822 Z-0.143
X9.647 Y3.789
X9.639 Y3.773
X9.61 Y3.724
X9.598 Y3.703
X9.58 Y3.675
X9.549 Y3.632
X9.544 Y3.626
X9.5 Y3.573
X9.459 Y3.528
X9.353 Y3.422 Z-0.144
X8.521 Y2.59
X8.472 Y2.541 Z-0.143
X8.423 Y2.496
X8.374 Y2.456
X8.368 Y2.451
X8.325 Y2.42
X8.297 Y2.402
X8.276 Y2.39
X8.227 Y2.361
X8.211 Y2.353
X8.178 Y2.338
X8.129 Y2.318 Z-0.144
X8.095 Y2.304 Z-0.143
X8.08 Y2.299
X8.031 Y2.285
X7.982 Y2.273 Z-0.144
X7.933 Y2.263
X7.881 Y2.256
X7.836 Y2.252
X7.787 Y2.249
X7.738
X7.689 Y2.253
X7.655 Y2.256
X7.64 Y2.257
X7.591 Y2.265
X7.542 Y2.275
X7.493 Y2.288 Z-0.143
X7.44 Y2.304
X7.395 Y2.322 Z-0.144
X7.346 Y2.343 Z-0.143
X7.325 Y2.353
X7.297 Y2.368
X7.248 Y2.396
X7.238 Y2.402
X7.199 Y2.428
X7.167 Y2.451
X7.15 Y2.465
X7.101 Y2.506
X7.052 Y2.553 Z-0.144
X6.057 Y3.548
X6.036 Y3.568
X6.03 Y3.573 Z-0.145
X6.022 Y3.579 Z-0.146
X6.014 Y3.584 Z-0.149
X6.004 Y3.589 Z-0.152
X6. Y3.59 Z-0.154
X5.991 Y3.586 Z-0.15
X5.982 Y3.582 Z-0.147
X5.975 Y3.577 Z-0.145
X5.97 Y3.574
X5.964 Y3.568 Z-0.144
X5.923 Y3.528
X4.944 Y2.549
X4.899 Y2.506 Z-0.143
X4.85 Y2.465
X4.833 Y2.451
X4.801 Y2.428
X4.762 Y2.402
X4.752 Y2.396
X4.703 Y2.368
X4.675 Y2.353
X4.654 Y2.343
X4.605 Y2.322 Z-0.144
X4.556 Y2.303 Z-0.143
X4.507 Y2.288
X4.458 Y2.275 Z-0.144
X4.409 Y2.265
X4.36 Y2.257
X4.345 Y2.256
X4.311 Y2.253
X4.262 Y2.249
X4.213
X4.165 Y2.252
X4.116 Y2.256
X4.067 Y2.263
X4.018 Y2.273
X3.969 Y2.285 Z-0.143
X3.92 Y2.299
X3.905 Y2.304
X3.871 Y2.317 Z-0.144
X3.822 Y2.338 Z-0.143
X3.789 Y2.353
X3.773 Y2.361
X3.724 Y2.39
X3.703 Y2.402
X3.675 Y2.42
X3.632 Y2.451
X3.626 Y2.456
X3.573 Y2.5
X3.528 Y2.541
X3.422 Y2.647 Z-0.144
X2.59 Y3.479
X2.541 Y3.528 Z-0.143
X2.5 Y3.573
X2.456 Y3.626
X2.451 Y3.632
X2.42 Y3.675
X2.402 Y3.703
X2.39 Y3.724
X2.361 Y3.773
X2.353 Y3.789
X2.338 Y3.822
X2.318 Y3.871 Z-0.144
X2.305 Y3.905 Z-0.143
X2.299 Y3.92
X2.285 Y3.969
X2.273 Y4.018 Z-0.144
X2.263 Y4.067
X2.256 Y4.119
X2.252 Y4.164
X2.249 Y4.213
Y4.262
X2.253 Y4.311
X2.256 Y4.345
X2.257 Y4.36
X2.265 Y4.409
X2.275 Y4.458
X2.288 Y4.507 Z-0.143
X2.305 Y4.56
X2.322 Y4.605 Z-0.144
X2.343 Y4.654 Z-0.143
X2.353 Y4.675
X2.368 Y4.703
X2.396 Y4.752
X2.428 Y4.801
X2.451 Y4.833
X2.465 Y4.85
X2.506 Y4.899
X2.553 Y4.948 Z-0.144
X3.548 Y5.943
X3.568 Y5.964
X3.573 Y5.97 Z-0.145
X3.579 Y5.978 Z-0.146
X3.584 Y5.986 Z-0.149
X3.589 Y5.996 Z-0.152
X3.59 Y6. Z-0.154
X3.586 Y6.009 Z-0.15
X3.582 Y6.018 Z-0.147
X3.577 Y6.025 Z-0.145
X3.574 Y6.03
X3.568 Y6.036 Z-0.144
X3.528 Y6.077
X2.549 Y7.056
X2.506 Y7.101 Z-0.143
X2.465 Y7.15
X2.451 Y7.167
X2.428 Y7.199
X2.402 Y7.238
X2.396 Y7.248
X2.368 Y7.297
X2.353 Y7.325
X2.343 Y7.346
X2.322 Y7.395 Z-0.144
X2.303 Y7.444 Z-0.143
X2.288 Y7.493
X2.275 Y7.542 Z-0.144
X2.265 Y7.591
X2.257 Y7.64
X2.256 Y7.655
X2.253 Y7.689
X2.249 Y7.738
Y7.787
X2.252 Y7.836
X2.256 Y7.884
X2.263 Y7.933
X2.273 Y7.982
X2.285 Y8.031 Z-0.143
X2.299 Y8.08
X2.305 Y8.095
X2.318 Y8.129 Z-0.144
X2.338 Y8.178 Z-0.143
X2.353 Y8.211
X2.361 Y8.227
X2.389 Y8.276
X2.402 Y8.297
X2.42 Y8.325
X2.451 Y8.368
X2.456 Y8.374
X2.5 Y8.427
X2.541 Y8.472
X2.647 Y8.578 Z-0.144
X3.479 Y9.41
X3.528 Y9.459 Z-0.143
X3.577 Y9.504
X3.626 Y9.544
X3.632 Y9.549
X3.675 Y9.58
X3.703 Y9.598
X3.724 Y9.611
X3.773 Y9.639
X3.789 Y9.647
X3.822 Y9.662
X3.871 Y9.682 Z-0.144
X3.905 Y9.695 Z-0.143
X3.92 Y9.701
X3.969 Y9.715
X4.018 Y9.727 Z-0.144
X4.067 Y9.737
X4.119 Y9.744
X4.165 Y9.748
X4.213 Y9.751
X4.262
X4.311 Y9.747
X4.345 Y9.744
X4.36 Y9.743
X4.409 Y9.735
X4.458 Y9.725
X4.507 Y9.712 Z-0.143
X4.56 Y9.695
X4.605 Y9.678 Z-0.144
X4.654 Y9.657 Z-0.143
X4.675 Y9.647
X4.703 Y9.632
X4.752 Y9.604
X4.762 Y9.598
X4.801 Y9.572
X4.833 Y9.549
X4.85 Y9.535
X4.899 Y9.494
X4.948 Y9.447 Z-0.144
X5.943 Y8.452
X5.964 Y8.432
X5.97 Y8.426 Z-0.145
X5.978 Y8.421 Z-0.146
X5.986 Y8.416 Z-0.149
X5.996 Y8.411 Z-0.152
X6. Y8.41 Z-0.153
X6.009 Y8.414 Z-0.15
X6.018 Y8.418 Z-0.147
X6.025 Y8.423 Z-0.145
X6.03 Y8.427
X6.036 Y8.432 Z-0.144
X6.077 Y8.472
X6.669 Y9.064
X6.678 Y9.075 Z-0.145
X6.686 Y9.086 Z-0.147
X6.705 Y9.116 Z-0.155
X6.709 Y9.123 Z-0.156
X6.716 Y9.131 Z-0.158
X6.72 Y9.135
X7.052 Y9.467
X7.087 Y9.5
X7.101 Y9.513
X7.15 Y9.553
X7.199 Y9.589
X7.212 Y9.598 Z-0.157
X7.248 Y9.62 Z-0.158
X7.297 Y9.649
X7.346 Y9.672
X7.401 Y9.695
X7.444 Y9.712
X7.493 Y9.727
X7.542 Y9.739
X7.565 Y9.744
X7.591 Y9.75
X7.64 Y9.757
X7.689 Y9.762
X7.738 Y9.765
X7.787
X7.836 Y9.762
X7.884 Y9.758
X7.933 Y9.752
X7.97 Y9.744
X7.982 Y9.742
X8.031 Y9.73
X8.08 Y9.716
X8.135 Y9.695
X8.178 Y9.677
X8.227 Y9.655
X8.242 Y9.647 Z-0.157
X8.276 Y9.627 Z-0.158
X8.325 Y9.597 Z-0.157
X8.374 Y9.562 Z-0.158
X8.391 Y9.549
X8.423 Y9.522
X8.449 Y9.5 Z-0.157
X8.472 Y9.478 Z-0.158
X8.549 Y9.402
X9.451 Y8.5
X9.478 Y8.472
X9.5 Y8.449 Z-0.157
X9.522 Y8.423 Z-0.158
X9.549 Y8.391
X9.562 Y8.374
X9.598 Y8.324 Z-0.157
X9.627 Y8.276 Z-0.158
X9.647 Y8.242 Z-0.157
X9.655 Y8.227 Z-0.158
X9.677 Y8.178
X9.698 Y8.129
X9.716 Y8.08
X9.73 Y8.031
X9.742 Y7.982
X9.744 Y7.97
X9.752 Y7.933
X9.758 Y7.884
X9.762 Y7.836
X9.765 Y7.787
Y7.738
X9.762 Y7.689
X9.757 Y7.64
X9.75 Y7.591
X9.744 Y7.566
X9.739 Y7.542
X9.727 Y7.493
X9.712 Y7.444
X9.693 Y7.395
X9.672 Y7.346
X9.647 Y7.294 Z-0.157
X9.62 Y7.248 Z-0.158
X9.598 Y7.212 Z-0.157
X9.589 Y7.199 Z-0.158
X9.553 Y7.15
X9.513 Y7.101
X9.5 Y7.087 Z-0.157
X9.467 Y7.052 Z-0.158
X8.472 Y6.057
X8.44 Y6.024
X8.435 Y6.018 Z-0.159
X8.431 Y6.011 Z-0.161
X8.427 Y6.004 Z-0.164
X8.426 Y6. Z-0.165
X8.43 Y5.991 Z-0.162
X8.434 Y5.984 Z-0.16
X8.437 Y5.98 Z-0.159
X8.44 Y5.976 Z-0.158
X8.472 Y5.943
X9.467 Y4.948
X9.5 Y4.913 Z-0.157
X9.513 Y4.899 Z-0.158
X9.553 Y4.85
X9.589 Y4.801
X9.598 Y4.788 Z-0.157
X9.62 Y4.752 Z-0.158
X9.649 Y4.703
X9.672 Y4.654
X9.696 Y4.599
X9.712 Y4.556
X9.727 Y4.507
X9.739 Y4.458
X9.744 Y4.434
X9.75 Y4.409
X9.757 Y4.36
X9.762 Y4.311
X9.765 Y4.262
Y4.213
X9.762 Y4.164
X9.758 Y4.116
X9.752 Y4.067
X9.744 Y4.03
X9.742 Y4.018
X9.73 Y3.969
X9.716 Y3.92
X9.696 Y3.865
X9.677 Y3.822
X9.655 Y3.773
X9.647 Y3.758 Z-0.157
X9.627 Y3.724 Z-0.158
X9.597 Y3.675 Z-0.157
X9.562 Y3.626 Z-0.158
X9.549 Y3.609
X9.522 Y3.577
X9.5 Y3.551 Z-0.157
X9.478 Y3.528
X9.402 Y3.451 Z-0.158
X8.5 Y2.549
X8.472 Y2.522 Z-0.157
X8.449 Y2.5
X8.423 Y2.478 Z-0.158
X8.391 Y2.451
X8.374 Y2.438
X8.323 Y2.402 Z-0.157
X8.276 Y2.373 Z-0.158
X8.242 Y2.353 Z-0.157
X8.227 Y2.345 Z-0.158
X8.178 Y2.323
X8.129 Y2.302
X8.08 Y2.284
X8.031 Y2.27
X7.982 Y2.258
X7.97 Y2.256
X7.933 Y2.248
X7.884 Y2.242
X7.836 Y2.238
X7.787 Y2.235
X7.738
X7.689 Y2.238
X7.64 Y2.243
X7.591 Y2.25
X7.566 Y2.256
X7.542 Y2.261
X7.493 Y2.273
X7.444 Y2.288
X7.395 Y2.307
X7.346 Y2.328
X7.294 Y2.353 Z-0.157
X7.248 Y2.38 Z-0.158
X7.212 Y2.402 Z-0.157
X7.199 Y2.411 Z-0.158
X7.15 Y2.447
X7.101 Y2.487
X7.087 Y2.5 Z-0.157
X7.052 Y2.533 Z-0.158
X6.057 Y3.528
X6.024 Y3.56
X6.018 Y3.565 Z-0.159
X6.011 Y3.569 Z-0.161
X6.004 Y3.573 Z-0.164
X6. Y3.574 Z-0.165
X5.993 Y3.571 Z-0.163
X5.986 Y3.568 Z-0.16
X5.98 Y3.563 Z-0.159
X5.976 Y3.56 Z-0.158
X5.943 Y3.528
X4.948 Y2.533
X4.913 Y2.5 Z-0.157
X4.899 Y2.487 Z-0.158
X4.85 Y2.447
X4.801 Y2.411
X4.788 Y2.402 Z-0.157
X4.752 Y2.38 Z-0.158
X4.703 Y2.352
X4.654 Y2.328
X4.599 Y2.304
X4.556 Y2.288
X4.507 Y2.273
X4.458 Y2.261
X4.434 Y2.256
X4.409 Y2.25
X4.36 Y2.243
X4.311 Y2.238
X4.262 Y2.235
X4.213
X4.165 Y2.238
X4.116 Y2.242
X4.067 Y2.248
X4.03 Y2.256
X4.018 Y2.258
X3.969 Y2.27
X3.92 Y2.284
X3.865 Y2.304
X3.822 Y2.323
X3.773 Y2.345
X3.758 Y2.353 Z-0.157
X3.724 Y2.373 Z-0.158
X3.675 Y2.403 Z-0.157
X3.626 Y2.438 Z-0.158
X3.609 Y2.451
X3.577 Y2.478
X3.551 Y2.5 Z-0.157
X3.528 Y2.522
X3.451 Y2.598 Z-0.158
X2.549 Y3.5
X2.522 Y3.528 Z-0.157
X2.5 Y3.551
X2.478 Y3.577 Z-0.158
X2.451 Y3.609
X2.438 Y3.626
X2.402 Y3.676 Z-0.157
X2.373 Y3.724 Z-0.158
X2.353 Y3.758 Z-0.157
X2.345 Y3.773 Z-0.158
X2.323 Y3.822
X2.302 Y3.871
X2.284 Y3.92
X2.27 Y3.969
X2.258 Y4.018
X2.256 Y4.03
X2.248 Y4.067
X2.242 Y4.116
X2.238 Y4.164
X2.235 Y4.213
Y4.262
X2.238 Y4.311
X2.243 Y4.36
X2.25 Y4.409
X2.256 Y4.435
X2.261 Y4.458
X2.273 Y4.507
X2.288 Y4.556
X2.307 Y4.605
X2.328 Y4.654
X2.351 Y4.703
X2.38 Y4.752
X2.402 Y4.788 Z-0.157
X2.411 Y4.801 Z-0.158
X2.447 Y4.85
X2.487 Y4.899
X2.5 Y4.913
X2.533 Y4.948
X3.528 Y5.943
X3.56 Y5.976
X3.565 Y5.982 Z-0.159
X3.569 Y5.989 Z-0.161
X3.573 Y5.996 Z-0.164
X3.574 Y6. Z-0.165
X3.571 Y6.007 Z-0.163
X3.568 Y6.014 Z-0.16
X3.563 Y6.02 Z-0.159
X3.559 Y6.024 Z-0.158
X3.528 Y6.057
X2.533 Y7.052
X2.5 Y7.087 Z-0.157
X2.487 Y7.101 Z-0.158
X2.451 Y7.144
X2.447 Y7.15
X2.411 Y7.199
X2.402 Y7.212 Z-0.157
X2.38 Y7.248 Z-0.158
X2.352 Y7.297 Z-0.157
X2.328 Y7.346 Z-0.158
X2.305 Y7.401
X2.288 Y7.444
X2.273 Y7.493
X2.261 Y7.542
X2.256 Y7.566
X2.25 Y7.591
X2.243 Y7.64
X2.238 Y7.689
X2.235 Y7.738
Y7.787
X2.238 Y7.836
X2.242 Y7.884
X2.248 Y7.933
X2.256 Y7.97
X2.258 Y7.982
X2.27 Y8.031
X2.284 Y8.08
X2.305 Y8.135
X2.323 Y8.178
X2.345 Y8.227
X2.353 Y8.242
X2.373 Y8.276
X2.403 Y8.325 Z-0.157
X2.438 Y8.374 Z-0.158
X2.451 Y8.391
X2.478 Y8.423
X2.5 Y8.449 Z-0.157
X2.522 Y8.472 Z-0.158
X2.598 Y8.549
X3.5 Y9.451
X3.528 Y9.478
X3.551 Y9.5 Z-0.157
X3.577 Y9.522 Z-0.158
X3.609 Y9.549
X3.626 Y9.562
X3.676 Y9.598 Z-0.157
X3.724 Y9.627 Z-0.158
X3.758 Y9.647
X3.773 Y9.655
X3.822 Y9.677
X3.871 Y9.698
X3.92 Y9.716
X3.969 Y9.73
X4.018 Y9.742
X4.03 Y9.744
X4.067 Y9.752
X4.116 Y9.758
X4.165 Y9.762
X4.213 Y9.765
X4.262
X4.311 Y9.762
X4.36 Y9.757
X4.409 Y9.75
X4.434 Y9.744
X4.458 Y9.739
X4.507 Y9.727
X4.556 Y9.712
X4.605 Y9.693
X4.654 Y9.672
X4.706 Y9.647 Z-0.157
X4.752 Y9.62 Z-0.158
X4.788 Y9.598 Z-0.157
X4.801 Y9.589 Z-0.158
X4.85 Y9.553
X4.856 Y9.549
X4.899 Y9.513
X4.913 Y9.5 Z-0.157
X4.948 Y9.467 Z-0.158
X5.943 Y8.472
X5.976 Y8.441
X5.982 Y8.435 Z-0.159
X5.989 Y8.431 Z-0.161
X5.996 Y8.427 Z-0.164
X6. Y8.426 Z-0.165
X6.009 Y8.43 Z-0.162
X6.016 Y8.434 Z-0.16
X6.02 Y8.437 Z-0.159
X6.024 Y8.44 Z-0.158
X6.057 Y8.472
X6.72 Y9.135
X6.729 Y9.146 Z-0.159
X6.737 Y9.157 Z-0.161
X6.755 Y9.187 Z-0.169
X6.76 Y9.193 Z-0.171
X6.767 Y9.202 Z-0.172
X6.771 Y9.206
X7.052 Y9.487
X7.066 Y9.5
X7.101 Y9.531
X7.122 Y9.549
X7.15 Y9.572
X7.186 Y9.598
X7.199 Y9.606
X7.248 Y9.637
X7.265 Y9.647
X7.297 Y9.665
X7.346 Y9.688
X7.395 Y9.708
X7.444 Y9.727
X7.493 Y9.742
X7.542 Y9.754
X7.591 Y9.764
X7.64 Y9.771
X7.689 Y9.776
X7.738 Y9.779
X7.787
X7.836 Y9.777
X7.884 Y9.773
X7.933 Y9.766
X7.982 Y9.756
X8.031 Y9.744
X8.08 Y9.731
X8.129 Y9.713
X8.178 Y9.693
X8.227 Y9.67
X8.271 Y9.647
X8.325 Y9.613
X8.349 Y9.598
X8.374 Y9.58
X8.414 Y9.549
X8.472 Y9.498
X8.521 Y9.45
X9.451 Y8.52
X9.5 Y8.47
X9.549 Y8.414
X9.58 Y8.374
X9.598 Y8.349
X9.613 Y8.325
X9.647 Y8.271
X9.67 Y8.227
X9.696 Y8.172
X9.713 Y8.129
X9.731 Y8.08
X9.744 Y8.031
X9.756 Y7.982
X9.766 Y7.933
X9.773 Y7.884
X9.777 Y7.836
X9.779 Y7.787
Y7.738
X9.776 Y7.689
X9.771 Y7.64
X9.764 Y7.591
X9.754 Y7.542
X9.742 Y7.493
X9.727 Y7.444
X9.708 Y7.395
X9.688 Y7.346
X9.665 Y7.297
X9.647 Y7.265
X9.637 Y7.248
X9.606 Y7.199
X9.598 Y7.186
X9.572 Y7.15
X9.549 Y7.122
X9.531 Y7.101
X9.5 Y7.066
X9.487 Y7.052
X8.46 Y6.024
X8.452 Y6.017
X8.449 Y6.012 Z-0.173
X8.445 Y6.006 Z-0.175
X8.442 Y6. Z-0.177
X8.445 Y5.994 Z-0.175
X8.449 Y5.988 Z-0.173
X8.452 Y5.983 Z-0.172
X8.472 Y5.963
X9.487 Y4.948
X9.5 Y4.934
X9.531 Y4.899
X9.549 Y4.878
X9.572 Y4.85
X9.598 Y4.814
X9.606 Y4.801
X9.637 Y4.752
X9.647 Y4.735
X9.665 Y4.703
X9.688 Y4.654
X9.708 Y4.605
X9.727 Y4.556
X9.742 Y4.507
X9.754 Y4.458
X9.764 Y4.409
X9.771 Y4.36
X9.776 Y4.311
X9.779 Y4.262
Y4.213
X9.777 Y4.164
X9.773 Y4.116
X9.766 Y4.067
X9.756 Y4.018
X9.744 Y3.969
X9.731 Y3.92
X9.713 Y3.871
X9.693 Y3.822
X9.67 Y3.773
X9.647 Y3.729
X9.613 Y3.675
X9.598 Y3.651
X9.58 Y3.626
X9.549 Y3.586
X9.498 Y3.528
X9.45 Y3.479
X8.52 Y2.549
X8.47 Y2.5
X8.414 Y2.451
X8.374 Y2.42
X8.349 Y2.402
X8.325 Y2.387
X8.271 Y2.353
X8.227 Y2.33
X8.172 Y2.304
X8.129 Y2.287
X8.08 Y2.269
X8.031 Y2.256
X7.982 Y2.244
X7.933 Y2.234
X7.884 Y2.227
X7.836 Y2.223
X7.787 Y2.221
X7.738
X7.689 Y2.224
X7.64 Y2.229
X7.591 Y2.236
X7.542 Y2.246
X7.493 Y2.258
X7.444 Y2.273
X7.395 Y2.292
X7.346 Y2.312
X7.297 Y2.335
X7.265 Y2.353
X7.248 Y2.363
X7.199 Y2.394
X7.186 Y2.402
X7.15 Y2.428
X7.122 Y2.451
X7.101 Y2.469
X7.066 Y2.5
X7.052 Y2.513
X6.024 Y3.54
X6.017 Y3.548
X6.012 Y3.551 Z-0.173
X6.006 Y3.555 Z-0.175
X6. Y3.558 Z-0.177
X5.994 Y3.555 Z-0.175
X5.988 Y3.551 Z-0.173
X5.983 Y3.548 Z-0.172
X5.976 Y3.54
X4.948 Y2.513
X4.934 Y2.5
X4.899 Y2.469
X4.878 Y2.451
X4.85 Y2.428
X4.814 Y2.402
X4.801 Y2.394
X4.752 Y2.363
X4.735 Y2.353
X4.703 Y2.335
X4.654 Y2.312
X4.605 Y2.292
X4.556 Y2.273
X4.507 Y2.258
X4.458 Y2.246
X4.409 Y2.236
X4.36 Y2.229
X4.311 Y2.224
X4.262 Y2.221
X4.213
X4.165 Y2.223
X4.116 Y2.227
X4.067 Y2.234
X4.018 Y2.244
X3.969 Y2.256
X3.92 Y2.269
X3.871 Y2.287
X3.822 Y2.307
X3.773 Y2.33
X3.729 Y2.353
X3.675 Y2.387
X3.651 Y2.402
X3.626 Y2.42
X3.586 Y2.451
X3.528 Y2.502
X3.479 Y2.55
X2.549 Y3.48
X2.5 Y3.53
X2.451 Y3.586
X2.42 Y3.626
X2.402 Y3.651
X2.387 Y3.675
X2.353 Y3.729
X2.33 Y3.773
X2.305 Y3.828
X2.287 Y3.871
X2.269 Y3.92
X2.256 Y3.969
X2.244 Y4.018
X2.234 Y4.067
X2.227 Y4.116
X2.223 Y4.164
X2.221 Y4.213
Y4.262
X2.224 Y4.311
X2.229 Y4.36
X2.236 Y4.409
X2.246 Y4.458
X2.258 Y4.507
X2.273 Y4.556
X2.292 Y4.605
X2.312 Y4.654
X2.335 Y4.703
X2.353 Y4.735
X2.363 Y4.752
X2.394 Y4.801
X2.402 Y4.814
X2.428 Y4.85
X2.451 Y4.878
X2.469 Y4.899
X2.5 Y4.934
X2.513 Y4.948
X3.54 Y5.976
X3.548 Y5.983
X3.551 Y5.988 Z-0.173
X3.555 Y5.994 Z-0.175
X3.558 Y6. Z-0.177
X3.555 Y6.006 Z-0.175
X3.551 Y6.012 Z-0.173
X3.548 Y6.017 Z-0.172
X3.54 Y6.024
X2.513 Y7.052
X2.5 Y7.066
X2.469 Y7.101
X2.451 Y7.122
X2.428 Y7.15
X2.402 Y7.186
X2.394 Y7.199
X2.363 Y7.248
X2.353 Y7.265
X2.335 Y7.297
X2.312 Y7.346
X2.292 Y7.395
X2.273 Y7.444
X2.258 Y7.493
X2.246 Y7.542
X2.236 Y7.591
X2.229 Y7.64
X2.224 Y7.689
X2.221 Y7.738
Y7.787
X2.223 Y7.836
X2.227 Y7.884
X2.234 Y7.933
X2.244 Y7.982
X2.256 Y8.031
X2.269 Y8.08
X2.287 Y8.129
X2.307 Y8.178
X2.33 Y8.227
X2.353 Y8.271
X2.387 Y8.325
X2.402 Y8.349
X2.42 Y8.374
X2.451 Y8.414
X2.502 Y8.472
X2.55 Y8.521
X3.48 Y9.451
X3.53 Y9.5
X3.586 Y9.549
X3.626 Y9.58
X3.651 Y9.598
X3.675 Y9.613
X3.729 Y9.647
X3.773 Y9.67
X3.828 Y9.695
X3.871 Y9.713
X3.92 Y9.731
X3.969 Y9.744
X4.018 Y9.756
X4.067 Y9.766
X4.116 Y9.773
X4.165 Y9.777
X4.213 Y9.779
X4.262
X4.311 Y9.776
X4.36 Y9.771
X4.409 Y9.764
X4.458 Y9.754
X4.507 Y9.742
X4.556 Y9.727
X4.605 Y9.708
X4.654 Y9.688
X4.703 Y9.665
X4.735 Y9.647
X4.752 Y9.637
X4.801 Y9.606
X4.814 Y9.598
X4.85 Y9.572
X4.878 Y9.549
X4.899 Y9.531
X4.934 Y9.5
X4.948 Y9.487
X5.976 Y8.46
X5.983 Y8.452
X5.988 Y8.449 Z-0.173
X5.994 Y8.445 Z-0.175
X6. Y8.442 Z-0.177
X6.006 Y8.445 Z-0.175
X6.012 Y8.449 Z-0.173
X6.017 Y8.452 Z-0.172
X6.037 Y8.472
X6.771 Y9.206
X6.78 Y9.216 Z-0.173
X6.788 Y9.227 Z-0.175
X6.806 Y9.258 Z-0.183
X6.811 Y9.264 Z-0.185
X6.818 Y9.273 Z-0.186
X6.822 Y9.277
X7.045 Y9.5
X7.052 Y9.507
X7.101 Y9.55
X7.15 Y9.59
X7.161 Y9.598
X7.199 Y9.623
X7.248 Y9.653
X7.297 Y9.681
X7.328 Y9.695
X7.346 Y9.703
X7.395 Y9.724
X7.444 Y9.742
X7.452 Y9.744
X7.493 Y9.756
X7.542 Y9.768
X7.591 Y9.778
X7.64 Y9.786
X7.689 Y9.79
X7.738 Y9.793
X7.792
X7.836 Y9.791
X7.884 Y9.787
X7.933 Y9.78
X7.982 Y9.771
X8.031 Y9.759
X8.083 Y9.744
X8.129 Y9.728
X8.178 Y9.708
X8.207 Y9.695
X8.227 Y9.686
X8.276 Y9.66
X8.325 Y9.63
X8.374 Y9.598
X8.423 Y9.559
X8.472 Y9.517
X8.491 Y9.5
X8.57 Y9.421
X9.47 Y8.521
X9.5 Y8.491
X9.517 Y8.472
X9.56 Y8.423
X9.598 Y8.374
X9.63 Y8.325
X9.66 Y8.276
X9.686 Y8.227
X9.696 Y8.207
X9.708 Y8.178
X9.728 Y8.129
X9.745 Y8.08
X9.759 Y8.031
X9.771 Y7.982
X9.78 Y7.933
X9.787 Y7.884
X9.791 Y7.836
X9.794 Y7.787
X9.793 Y7.738
X9.79 Y7.689
X9.786 Y7.64
X9.778 Y7.591
X9.768 Y7.542
X9.756 Y7.493
X9.744 Y7.452
X9.742 Y7.444
X9.724 Y7.395
X9.703 Y7.346
X9.696 Y7.328
X9.681 Y7.297
X9.653 Y7.248
X9.623 Y7.199
X9.598 Y7.161
X9.59 Y7.15
X9.549 Y7.1
X9.507 Y7.052
X9.451 Y6.996
X8.472 Y6.017
X8.462 Y6.006 Z-0.187
X8.459 Y6.001 Z-0.188
Y6. Z-0.189
X8.461 Y5.995 Z-0.187
X8.462 Y5.994 Z-0.186
X8.48 Y5.976
X9.459 Y4.997
X9.507 Y4.948
X9.55 Y4.899
X9.59 Y4.85
X9.598 Y4.839
X9.623 Y4.801
X9.653 Y4.752
X9.681 Y4.703
X9.696 Y4.672
X9.703 Y4.654
X9.724 Y4.605
X9.742 Y4.556
X9.744 Y4.548
X9.756 Y4.507
X9.768 Y4.458
X9.778 Y4.409
X9.786 Y4.36
X9.79 Y4.311
X9.793 Y4.262
X9.794 Y4.213
X9.791 Y4.164
X9.787 Y4.116
X9.78 Y4.067
X9.771 Y4.018
X9.759 Y3.969
X9.744 Y3.917
X9.728 Y3.871
X9.708 Y3.822
X9.696 Y3.793
X9.686 Y3.773
X9.66 Y3.724
X9.63 Y3.675
X9.598 Y3.626
X9.559 Y3.577
X9.517 Y3.528
X9.5 Y3.509
X9.451 Y3.46
X8.521 Y2.53
X8.491 Y2.5
X8.472 Y2.483
X8.423 Y2.441
X8.374 Y2.402
X8.325 Y2.37
X8.276 Y2.34
X8.227 Y2.314
X8.207 Y2.304
X8.178 Y2.292
X8.129 Y2.272
X8.08 Y2.255
X8.031 Y2.241
X7.982 Y2.229
X7.933 Y2.22
X7.884 Y2.213
X7.836 Y2.209
X7.787 Y2.206
X7.738 Y2.207
X7.689 Y2.21
X7.64 Y2.214
X7.591 Y2.222
X7.542 Y2.232
X7.493 Y2.244
X7.452 Y2.256
X7.444 Y2.258
X7.395 Y2.276
X7.346 Y2.297
X7.328 Y2.304
X7.297 Y2.319
X7.248 Y2.347
X7.199 Y2.377
X7.161 Y2.402
X7.15 Y2.41
X7.1 Y2.451
X7.052 Y2.493
X6.996 Y2.549
X6.017 Y3.528
X6.006 Y3.538
X6.003 Y3.54 Z-0.187
X6. Y3.541 Z-0.189
X5.996 Y3.539 Z-0.187
X5.994 Y3.538
X5.983 Y3.528 Z-0.186
X4.997 Y2.541
X4.948 Y2.493
X4.899 Y2.45
X4.85 Y2.41
X4.839 Y2.402
X4.801 Y2.377
X4.752 Y2.347
X4.703 Y2.319
X4.672 Y2.304
X4.654 Y2.297
X4.605 Y2.276
X4.556 Y2.258
X4.548 Y2.256
X4.507 Y2.244
X4.458 Y2.232
X4.409 Y2.222
X4.36 Y2.214
X4.311 Y2.21
X4.262 Y2.207
X4.213 Y2.206
X4.165 Y2.209
X4.116 Y2.213
X4.067 Y2.22
X4.018 Y2.229
X3.969 Y2.241
X3.917 Y2.256
X3.871 Y2.272
X3.822 Y2.292
X3.793 Y2.304
X3.773 Y2.314
X3.724 Y2.34
X3.675 Y2.37
X3.626 Y2.402
X3.577 Y2.441
X3.528 Y2.483
X3.509 Y2.5
X3.411 Y2.598
X2.53 Y3.479
X2.5 Y3.509
X2.483 Y3.528
X2.441 Y3.577
X2.402 Y3.626
X2.37 Y3.675
X2.34 Y3.724
X2.314 Y3.773
X2.305 Y3.793
X2.292 Y3.822
X2.272 Y3.871
X2.255 Y3.92
X2.241 Y3.969
X2.229 Y4.018
X2.22 Y4.067
X2.213 Y4.116
X2.209 Y4.164
X2.206 Y4.213
X2.207 Y4.262
X2.21 Y4.311
X2.214 Y4.36
X2.222 Y4.409
X2.232 Y4.458
X2.244 Y4.507
X2.256 Y4.548
X2.258 Y4.556
X2.276 Y4.605
X2.297 Y4.654
X2.305 Y4.672
X2.319 Y4.703
X2.347 Y4.752
X2.377 Y4.801
X2.402 Y4.839
X2.41 Y4.85
X2.451 Y4.9
X2.493 Y4.948
X2.549 Y5.004
X3.528 Y5.983
X3.538 Y5.994
X3.54 Y5.997 Z-0.187
X3.541 Y6. Z-0.189
X3.539 Y6.004 Z-0.187
X3.538 Y6.006
X3.528 Y6.017 Z-0.186
X2.541 Y7.003
X2.493 Y7.052
X2.45 Y7.101
X2.41 Y7.15
X2.402 Y7.161
X2.377 Y7.199
X2.347 Y7.248
X2.319 Y7.297
X2.305 Y7.328
X2.297 Y7.346
X2.276 Y7.395
X2.258 Y7.444
X2.256 Y7.452
X2.244 Y7.493
X2.232 Y7.542
X2.222 Y7.591
X2.214 Y7.64
X2.21 Y7.689
X2.207 Y7.743
Y7.792
X2.209 Y7.836
X2.213 Y7.884
X2.22 Y7.933
X2.229 Y7.982
X2.241 Y8.031
X2.256 Y8.083
X2.272 Y8.129
X2.292 Y8.178
X2.305 Y8.207
X2.314 Y8.227
X2.34 Y8.276
X2.37 Y8.325
X2.402 Y8.374
X2.441 Y8.423
X2.483 Y8.472
X2.5 Y8.491
X2.549 Y8.54
X3.479 Y9.47
X3.509 Y9.5
X3.528 Y9.517
X3.577 Y9.56
X3.626 Y9.598
X3.675 Y9.63
X3.724 Y9.66
X3.773 Y9.686
X3.793 Y9.695
X3.822 Y9.708
X3.871 Y9.728
X3.92 Y9.745
X3.969 Y9.759
X4.018 Y9.771
X4.067 Y9.78
X4.116 Y9.787
X4.165 Y9.791
X4.213 Y9.794
X4.262 Y9.793
X4.311 Y9.79
X4.36 Y9.786
X4.409 Y9.778
X4.458 Y9.768
X4.507 Y9.756
X4.548 Y9.744
X4.556 Y9.742
X4.605 Y9.724
X4.654 Y9.703
X4.672 Y9.695
X4.703 Y9.681
X4.752 Y9.653
X4.801 Y9.623
X4.839 Y9.598
X4.85 Y9.59
X4.9 Y9.549
X4.948 Y9.507
X5.004 Y9.451
X5.983 Y8.472
X5.994 Y8.462 Z-0.187
X5.999 Y8.459 Z-0.188
X6. Z-0.189
X6.005 Y8.461 Z-0.187
X6.006 Y8.462 Z-0.186
X6.024 Y8.48
X6.822 Y9.277
X6.831 Y9.287 Z-0.187
X6.839 Y9.298 Z-0.189
X6.857 Y9.328 Z-0.197
X6.865 Y9.34 Z-0.2
X6.869 Y9.344
X6.873 Y9.348
X7.025 Y9.5
X7.052 Y9.526
X7.101 Y9.568
X7.138 Y9.598
X7.15 Y9.607
X7.199 Y9.64
X7.248 Y9.67
X7.297 Y9.696
X7.346 Y9.719
X7.395 Y9.739
X7.409 Y9.744
X7.444 Y9.757
X7.493 Y9.771
X7.542 Y9.782
X7.595 Y9.793
X7.64 Y9.8
X7.689 Y9.804
X7.738 Y9.807
X7.787
X7.836 Y9.805
X7.884 Y9.801
X7.933 Y9.795
X7.982 Y9.785
X8.031 Y9.773
X8.08 Y9.76
X8.129 Y9.743
X8.178 Y9.723
X8.227 Y9.702
X8.24 Y9.695
X8.276 Y9.676
X8.325 Y9.647
X8.374 Y9.615
X8.398 Y9.598
X8.423 Y9.578
X8.472 Y9.536
X8.511 Y9.5
X9.5 Y8.511
X9.536 Y8.472
X9.578 Y8.423
X9.598 Y8.398
X9.615 Y8.374
X9.647 Y8.325
X9.676 Y8.276
X9.696 Y8.24
X9.702 Y8.227
X9.723 Y8.178
X9.744 Y8.126
X9.76 Y8.08
X9.773 Y8.031
X9.785 Y7.982
X9.795 Y7.933
X9.801 Y7.884
X9.805 Y7.836
X9.808 Y7.787
X9.807 Y7.738
X9.804 Y7.689
X9.8 Y7.64
X9.793 Y7.591
X9.782 Y7.542
X9.771 Y7.493
X9.757 Y7.444
X9.744 Y7.409
X9.739 Y7.395
X9.719 Y7.346
X9.696 Y7.295
X9.67 Y7.248
X9.64 Y7.199
X9.607 Y7.15
X9.598 Y7.138
X9.568 Y7.101
X9.526 Y7.052
X9.5 Y7.025
X8.475 Y6.
X9.5 Y4.975
X9.526 Y4.948
X9.568 Y4.899
X9.598 Y4.862
X9.607 Y4.85
X9.64 Y4.801
X9.67 Y4.752
X9.696 Y4.703
X9.719 Y4.654
X9.739 Y4.605
X9.744 Y4.591
X9.757 Y4.556
X9.771 Y4.507
X9.782 Y4.458
X9.793 Y4.405
X9.8 Y4.36
X9.804 Y4.311
X9.807 Y4.262
X9.808 Y4.213
X9.805 Y4.164
X9.801 Y4.116
X9.795 Y4.067
X9.785 Y4.018
X9.773 Y3.969
X9.76 Y3.92
X9.743 Y3.871
X9.723 Y3.822
X9.702 Y3.773
X9.696 Y3.76
X9.676 Y3.724
X9.647 Y3.675
X9.615 Y3.626
X9.598 Y3.602
X9.578 Y3.577
X9.536 Y3.528
X9.5 Y3.489
X8.511 Y2.5
X8.472 Y2.464
X8.423 Y2.422
X8.398 Y2.402
X8.374 Y2.385
X8.325 Y2.353
X8.276 Y2.324
X8.24 Y2.304
X8.227 Y2.298
X8.178 Y2.277
X8.126 Y2.256
X8.08 Y2.24
X8.031 Y2.227
X7.982 Y2.215
X7.933 Y2.205
X7.884 Y2.199
X7.836 Y2.195
X7.787 Y2.192
X7.738 Y2.193
X7.689 Y2.196
X7.64 Y2.2
X7.591 Y2.207
X7.542 Y2.218
X7.493 Y2.229
X7.444 Y2.243
X7.409 Y2.256
X7.395 Y2.261
X7.346 Y2.281
X7.295 Y2.304
X7.248 Y2.33
X7.199 Y2.36
X7.15 Y2.393
X7.138 Y2.402
X7.101 Y2.432
X7.052 Y2.474
X7.025 Y2.5
X6. Y3.525
X4.975 Y2.5
X4.948 Y2.474
X4.899 Y2.432
X4.862 Y2.402
X4.85 Y2.393
X4.801 Y2.36
X4.752 Y2.33
X4.703 Y2.304
X4.654 Y2.281
X4.605 Y2.261
X4.591 Y2.256
X4.556 Y2.243
X4.507 Y2.229
X4.458 Y2.218
X4.405 Y2.207
X4.36 Y2.2
X4.311 Y2.196
X4.262 Y2.193
X4.213 Y2.192
X4.165 Y2.195
X4.116 Y2.199
X4.067 Y2.205
X4.018 Y2.215
X3.969 Y2.227
X3.92 Y2.24
X3.871 Y2.257
X3.822 Y2.277
X3.773 Y2.298
X3.76 Y2.304
X3.724 Y2.324
X3.675 Y2.353
X3.626 Y2.385
X3.602 Y2.402
X3.577 Y2.422
X3.528 Y2.464
X3.489 Y2.5
X2.5 Y3.489
X2.464 Y3.528
X2.422 Y3.577
X2.402 Y3.602
X2.385 Y3.626
X2.353 Y3.675
X2.324 Y3.724
X2.305 Y3.76
X2.298 Y3.773
X2.277 Y3.822
X2.256 Y3.874
X2.24 Y3.92
X2.227 Y3.969
X2.215 Y4.018
X2.205 Y4.067
X2.199 Y4.116
X2.195 Y4.164
X2.193 Y4.213
Y4.262
X2.196 Y4.311
X2.2 Y4.36
X2.207 Y4.409
X2.218 Y4.458
X2.229 Y4.507
X2.243 Y4.556
X2.256 Y4.591
X2.261 Y4.605
X2.281 Y4.654
X2.305 Y4.705
X2.33 Y4.752
X2.36 Y4.801
X2.393 Y4.85
X2.402 Y4.862
X2.432 Y4.899
X2.474 Y4.948
X2.5 Y4.975
X3.525 Y6.
X2.5 Y7.025
X2.474 Y7.052
X2.432 Y7.101
X2.402 Y7.138
X2.393 Y7.15
X2.36 Y7.199
X2.33 Y7.248
X2.304 Y7.297
X2.281 Y7.346
X2.261 Y7.395
X2.256 Y7.409
X2.243 Y7.444
X2.229 Y7.493
X2.218 Y7.542
X2.207 Y7.595
X2.2 Y7.64
X2.196 Y7.689
X2.193 Y7.738
Y7.787
X2.195 Y7.836
X2.199 Y7.884
X2.205 Y7.933
X2.215 Y7.982
X2.227 Y8.031
X2.24 Y8.08
X2.257 Y8.129
X2.277 Y8.178
X2.298 Y8.227
X2.305 Y8.24
X2.324 Y8.276
X2.353 Y8.325
X2.385 Y8.374
X2.402 Y8.398
X2.422 Y8.423
X2.464 Y8.472
X2.5 Y8.511
X3.489 Y9.5
X3.528 Y9.536
X3.577 Y9.578
X3.602 Y9.598
X3.626 Y9.615
X3.675 Y9.647
X3.724 Y9.676
X3.76 Y9.695
X3.773 Y9.702
X3.822 Y9.723
X3.874 Y9.744
X3.92 Y9.76
X3.969 Y9.773
X4.018 Y9.785
X4.067 Y9.795
X4.116 Y9.801
X4.165 Y9.805
X4.213 Y9.808
X4.262 Y9.807
X4.311 Y9.804
X4.36 Y9.8
X4.409 Y9.793
X4.458 Y9.782
X4.507 Y9.771
X4.556 Y9.757
X4.591 Y9.744
X4.605 Y9.739
X4.654 Y9.719
X4.705 Y9.695
X4.752 Y9.67
X4.801 Y9.64
X4.85 Y9.607
X4.862 Y9.598
X4.899 Y9.568
X4.948 Y9.526
X4.975 Y9.5
X6. Y8.475
X6.873 Y9.348
G0 Z5.
X5.772 Y3.585
Z2.
G1 Z0.148 F800
X5.777 Y3.589 Z0.103
X5.792 Y3.603 Z0.062
X5.815 Y3.625 Z0.029
X5.845 Y3.652 Z0.007
X5.878 Y3.683 Z-0.002
X5.905 Y3.708
X5.91 Y3.712
X5.928 Y3.724
X5.952 Y3.735
X5.967 Y3.739
X5.985 Y3.742
X5.988 Y3.743
X6.
X6.012
X6.024 Y3.741
X6.036 Y3.738
X6.048 Y3.735
X6.073 Y3.723
X6.082 Y3.718
X6.092 Y3.711
X6.119 Y3.686
X6.122 Y3.683
X6.155 Y3.652 Z0.007
X6.185 Y3.625 Z0.029
X6.208 Y3.603 Z0.062
X6.223 Y3.589 Z0.103
X6.228 Y3.585 Z0.148
G0 Z5.
X8.415 Y5.772
Z2.
G1 Z0.148 F800
X8.411 Y5.777 Z0.103
X8.397 Y5.792 Z0.062
X8.375 Y5.815 Z0.029
X8.348 Y5.845 Z0.007
X8.317 Y5.878 Z-0.002
X8.296 Y5.901
X8.288 Y5.91
X8.282 Y5.918
X8.276 Y5.928
X8.265 Y5.952
X8.261 Y5.967
X8.258 Y5.985
X8.257 Y5.988
Y6.
Y6.012
X8.259 Y6.024
X8.262 Y6.036
X8.265 Y6.048
X8.277 Y6.073
X8.288 Y6.09
X8.296 Y6.1
X8.318 Y6.123
X8.349 Y6.156 Z0.007
X8.376 Y6.186 Z0.028
X8.398 Y6.209 Z0.061
X8.412 Y6.224 Z0.103
X8.417 Y6.229 Z0.148
G0 Z5.
X3.584 Y6.228
Z2.
G1 Z0.148 F800
X3.589 Y6.223 Z0.103
X3.603 Y6.208 Z0.062
X3.624 Y6.185 Z0.028
X3.652 Y6.156 Z0.007
X3.683 Y6.123 Z-0.002
X3.71 Y6.093
X3.712 Y6.09
X3.724 Y6.072
X3.735 Y6.048
X3.739 Y6.033
X3.742 Y6.015
X3.743 Y6.012
Y6.
Y5.988
X3.741 Y5.976
X3.738 Y5.964
X3.735 Y5.952
X3.723 Y5.927
X3.718 Y5.918
X3.711 Y5.908
X3.704 Y5.901
X3.681 Y5.876
X3.649 Y5.843 Z0.006
X3.62 Y5.813 Z0.027
X3.597 Y5.79 Z0.06
X3.583 Y5.775 Z0.102
X3.578 Y5.77 Z0.148
G0 Z15.
M5
G53 Z0.
M30
